/* XPM */
static char *attack_1_xpm[] = {
/* columns rows colors chars-per-pixel */
"35 60 20 1 ",
"  c #000001",
". c #0B0500",
"X c #05050B",
"o c #190B05",
"O c #361205",
"+ c #202036",
"@ c #45200B",
"# c #6D2E19",
"$ c #3D365D",
"% c #205565",
"& c #454545",
"* c #C23D19",
"= c #B14D2E",
"- c #F76D27",
"; c #EE7E36",
": c #F79F45",
"> c #207597",
", c #3DC2E5",
"< c #F7F7F7",
"1 c #000000",
/* pixels */
"1111%%11111111111111111111111111111",
"1111>>%1111111111111111111111111111",
"1111>,>%111111111111111111111111111",
"1111%>>>%11111111111111111111111111",
"1111%>>>%%1111111111111111111111111",
"11111>>>>%1111111111111111111111111",
"11111>>>%%1111111111111111111111111",
"11111>>>>%1111111111111111111111111",
"11111%>>>%1111111111111111111111111",
"11111%,>>%%111111111111111111111111",
"11111%>>>%%111111111111111111111111",
"111111>>>>%111111111111111111111111",
"111111>>>%%111111111111111111111111",
"111111>>>>%11111111@####@1111111111",
"111111%,>>%111111@#*----*@111111111",
"111111%>>>%11111OO*------*@@1111111",
"111111%>>>%111111OO@#**-@O**@111111",
"1111111>>>>%11111OOOOOOO=:@O1111111",
"1111111>,>>%11@@OO###O#=:=O11111111",
"1111111%>>>%111O@-#O#=;#++111111111",
"1111111%>>>%1111O###@;;< o111111111",
"1111111%,>>%. XX o-:@=;;:;111111111",
"11111111>>>%=#X+$Xo@=@;;=@111111111",
"11111111>>>>%=@o$$+@=+o#@1111111111",
"11111111>,>%%=@#o+$+#@ 111111111111",
"11111111>>>>%=@#@X$$##+ 11111111111",
"1111111#%,>>%@o##@+$+=#+11111111111",
"1111111@%>>>%ooo@#o+$@#$ 1111111111",
"111111o=@>>>%oooo#@X$X@$+####o 1111",
"11111 o++%>>>Xoo.o#o+$#++====@o@o@1",
"11111 X++++%> oooo#oX$#+@====o#:$@ ",
"111111 X$+o$%1 ooo#o++#Xo@@##oo#@@o",
"111111 XXX++X1 ooo#o+++Xoooooo.o.o1",
"1111111  XXXX1   .@o+XX   ooo  1111",
"11111111  X+X1       X+ 11  o. 1111",
"111111111  ++1       ++111111  1111",
"11111111111$=1o@@ooXX+ 111111111111",
"11111111111+1X@##==+$+ 111111111111",
"11111111111X1X#####+$oo###111111111",
"11111111111 $@####o$$o#==##11111111",
"111111111111 @#==#o++@====##1111111",
"111111111111 #=====@.###====#111111",
"111111111111 #====#ooo@###==#111111",
"111111111111o#====@   .o@##==#11111",
"11111111111 o#====@1111   oo@ 11111",
"11111111111 @#===@111111X++++ 11111",
"11111111111.###=#@11111 ++$$$X11111",
"11111111++ @####@111111 ++$$+111111",
"1111111+$+o####@1111111 ++$$+111111",
"11111+X+++ @##@11111111 ++$$+111111",
"1111++XX+++ o@111111111 ++$$+111111",
"111+++XXXXXX 1111111111 X$$$+111111",
"11+++XXXXX 111111111111 +$$+1111111",
"1++++XXX  1111111111111 ++$+1111111",
"1 X$++  111111111111111 +$$$++11111",
"1XX$$$+1111111111111111X+$$$$++1111",
" XX$$$$+&11111111111111X++$$$$$++11",
" XX$+++X 11111111111111X++$$$$$+ 11",
"1 X+X$$$X11111111111111 XXXXX++X 11",
"11 XXXXX 11111111111111111111111111"
};
