/* XPM */
static const char *h1_pose_1[] = {
/* columns rows colors chars-per-pixel */
"33 60 25 1 ",
"  c #000001",
". c #000000",
"X c #0B0500",
"o c #05050B",
"O c #190B05",
"+ c #361205",
"@ c #202036",
"# c #45200B",
"$ c #6D2E19",
"% c #3D365D",
"& c #205565",
"* c #3B6978",
"= c #C23D19",
"- c #B14D2E",
"; c #F76D27",
": c #EE7E36",
"> c #F79F45",
", c #207597",
"< c #6C8F9A",
"1 c #4586F7",
"2 c #3DC2E5",
"3 c #95DEF1",
"4 c #9EE0F2",
"5 c #F7F7F7",
"6 c #FFFFFF", 
/* pixels */
"               &                 ",
"              ,2                 ",
"              2,                 ",
"             &2&                 ",
"             ,21                 ",
"             2,                  ",
"            &2&                  ",
"            ,2                   ",
"            3,                   ",
"        6  *4<                   ",
"           ,2                    ",
"           2, 6                  ",
"          &2&    ##              ",
"          ,2   ##==##            ",
"     6    2, ##=;;;;;###         ",
"         &2&#=;;;;;=++==#        ",
"       6 ,2  ++====+$===         ",
"         2,  ++++++->>O+         ",
"        &2&  ====#:$$-$          ",
"        22 +=;=+#-:5.#           ",
"        2,o.$=OO#$::>:           ",
"       &2&@%@O.$#+-:>-           ",
"   6   2,#@%%@$#-##-:$           ",
"     $&2,#o%%%#--:@O@#           ",
"  .O$-,2-oo%%%o-##$O@%.          ",
"6O#O--,2$O.@%%o--X$O%%.          ",
".@%@#&2&#OOo%%o$$O$@%%o          ",
".o%%oo,o.OOo@%@$O$$@%%##         ",
" .@@o%%  OOo@@@o#-O%%@$#         ",
" .oo@@o  .oo@@@.$$o%%@$-.OX#.    ",
"  .oo@o  .Oo@@@O$O@@@O$#O$$X-$   ",
"  ...o.  .O.@@@O#o@@oO#OOX$#$#   ",
"   .@o   ...@@@oo@@ooOOXXXXO.X.  ",
"   @@    ....ooooo@o.OOO.XX.OO.  ",
"   %%    ......%%o. .O.OOX.OO.   ",
"  o%o    ...o.o@%o.  .XOOOO.X    ",
"  o@     XO#@%%o@%@.  ......     ",
"        .O$@@%%@%%@.             ",
"        O$$$@%%@@%@-$$           ",
"        #----$%XX$$---$$         ",
"       .$-----OO##$$$--$$        ",
"       O$----O.OXOO$$$$--$       ",
"      .O$---$...XOOXO#$$--$      ",
"      .O----#    ..OOOO#$-$$     ",
"      .#---$        ..XO#-#$     ",
"      O$---$          ..Ooo@     ",
"    .o#$--#           .o@@%@     ",
"   .ooO$$$$           .o@@%@     ",
"   .oooo#O            .o@@%@     ",
"   oooooo.            .o@@%@     ",
"  .oooooo             .o@@%@     ",
"  .ooooo               .o@%@     ",
" ..oooo.               .o@%@     ",
" oooo..                .o@%@     ",
" o@@@o                 .o@%%@@   ",
".o%%%@                 .o@%%%%@  ",
".%%%%%.                .o@%%%%%@@",
".@@@@@.                .oo@@%%%%@",
".o@%%@.                .........o",
".ooo@..                          "
};
