/* XPM */
static char *run_3_xpm[] = {
/* columns rows colors chars-per-pixel */
"35 59 19 1 ",
"  c #000000",
". c #000001",
"X c #0B0500",
"o c #05050B",
"O c #190B05",
"+ c #361205",
"@ c #202036",
"# c #45200B",
"$ c #6D2E19",
"% c #3D365D",
"& c #C23D19",
"* c #B14D2E",
"= c #F76D27",
"- c #EE7E36",
"; c #F79F45",
": c #86E5F7",
"> c #B1F7F7",
", c #616161",
"< c #FFFFFF",
/* pixels */
"                           ::      ",
"                           >,:     ",
"                          >,>      ",
"                         :<>       ",
"                        :<<        ",
"                        ><:        ",
"                       >,:         ",
"                      :<>          ",
"                     :<<           ",
"                     <<:##         ",
"                    ><:===$#       ",
"                   ><>====$###     ",
"                  :<<&&=&#+&&#     ",
"                 <<<+++++$;$$+     ",
"                 ><:$$+#**;$+      ",
"             ##.>,>&$$$-;@$@       ",
"            ##$:,>&*$O#--,.        ",
"           #$**,,%@O*$O*-;;#       ",
"         ##***>,:%%@#$##*-*#       ",
"        #$***>,>#@%@$*;O#$O        ",
"       .#***:,>O#o%%#$$$o@         ",
"      o@O$*#,,OOO.%%@*@$@%$        ",
"     .@%%+#>,:OOO.@%@*+$@%X        ",
"     .@@@oo,:XOOO.@%@$#$@%@$       ",
"     .o@@o,% .OOO.@%@o*#%%$$       ",
"      oo@@%. .OOOOo@@+*@%@$# $$$   ",
"      .o.oo  .OOOOo@@#+o@@##++$#$. ",
"       .oo.  ..OO#@@O#@@oo+$@%+#$#X",
"      o,o    ....+O@@o@o..OOX@OO$OO",
"     .,%     .....ooooo  .X.X.+###$",
"    .%%o     .......o@    ..XXXOXOX",
"    o%@     .X##$$#ooo     ..OOO.  ",
"            .O$$**$oo.      ..O.   ",
"            ..#$***+.              ",
"            ..+$****$              ",
"            ..O$$****$             ",
"            ..X+$*****$            ",
"             X.X#$*****$           ",
"             .++X#$****$           ",
"             .#$+X#$***$$          ",
"             X#$*$O#$***$          ",
"             O#$**+.#$**#          ",
"             .$$*$X X#***$         ",
"         @@@.#$$$#  .O$$##         ",
"        @%%%o$**$. .o..o..         ",
"       @%%%%%o$$o  o@@%%@          ",
"     @@%%%@@%@oO  .o@@%%@          ",
"    @@%%%@@@@o.   ..o@@%@          ",
" @@@%%%@@@@o.     .oo@@@@          ",
"o%%%%%@@@o.       .o@@@@           ",
"o%%%%@@o.         .o@@%@           ",
" @@%%%@           .o@@%@           ",
" o@%%%@           .@@%%@           ",
"  @%%@@           .@%%%@@          ",
"  o%%@@           .@@%%%%@         ",
"   @%%@           .@@%%%%%@@       ",
"   .%@@           .@@@%%%%@@       ",
"    ..            .o@@@@%%@o       ",
"                   ..oooooo.       "
};
