/* XPM */
static const char * bg1_run2_xpm[] = {
"45 72 12 1",
" 	c None",
".	c #787878",
"+	c #909090",
"@	c #B0B0B0",
"#	c #C0C0C0",
"$	c #D0D0D0",
"%	c #A0A0A0",
"&	c #404040",
"*	c #D8D8D8",
"=	c #E8E8E8",
"-	c #606060",
";	c #181818",
"                                             ",
"                                             ",
"                                             ",
"                                             ",
"                        .++..                ",
"                      .+@@@#@+.              ",
"                     +@+#$$$#@+.             ",
"                    .+%@+%@@$#@+             ",
"                    .&%.+%@%+@@%.            ",
"                   .&%%@#$#@+%%%+            ",
"                   %@%%$*#%++%+            ",
"                  .%%%@$===$@%+%+            ",
"                  .%%%@$*$@%%%+            ",
"                  .@+%@#$*$#%++@%+           ",
"                   .%#+#@@@@+.%@%+           ",
"                   .++.$#$#.+@+@%+           ",
"                   .%+-$@.@@#@%%.          ",
"                   .%+%*$$%%#%@@%+.          ",
"                   .%+%#*#+@#+@%%%.          ",
"                   .@%%@*#%@#+@@%+.          ",
"                   +$#%##@%@%+@%%..          ",
"                   +$#@+++%.&+@%+..          ",
"                   +$$###@@.&+%%+.           ",
"                #+.%$*$$%.+.%+.-           ",
"     +%@##@%@@@$$=@.=*+..+%+.+           ",
"    .@$$#$@@@#$=$$@$%%*$--+%+...           ",
"    .%$@$$-$$#$@@##.--&....+           ",
"    .+#@@+#+%$@%%@#@%=#&&&&-...%           ",
"     .@+#%.%%-&&&@%@+%#@.&&&-...&+.          ",
"         .-.---..+++%+&;;&--.++.---          ",
"               ----.-.;;;;-&.++.---.         ",
"                      ;;;&-.++++..-.         ",
"                      ;;--.+%%%+-.-.         ",
"                     .--+@@#$@%+.--.         ",
"                     .-&$%-.+$+.-.-.         ",
"                      .%$%%%+$@----.         ",
"                       @#$#@##@+---          ",
"                      +#+$$$$+$%&--          ",
"                      +%#+%@-#=#---          ",
"                     .%+$$#%==*$.+-          ",
"                     .%+@$==*$@.-          ",
"                     .%@%#*$+--          ",
"                     .@#%@$#...          ",
"                     +@@%##$*$$@-..          ",
"                     +@@.-%$$$$#+@.          ",
"                     %%%.$+#$$$$.&           ",
"                     %%%@$%@##@#%            ",
"                     +--+#+%@--.%            ",
"                     +&-.%..%+-.%            ",
"                     ..#@%..+#$$%            ",
"                    .-%$#+  .$=*@            ",
"                    ...#+.   .@.%.           ",
"                    +%+.     +@$*$+          ",
"                    %%%@+    +@$#          ",
"                    %%%@.    .%$$$#          ",
"                    %+%@&.    .##          ",
"                   .%+%+-     .%$$#          ",
"                   +%++&       +#$@          ",
"                   +++.-       .@*@          ",
"                   +%.&         +$#          ",
"                   %+--         .@*+         ",
"                   %+&          .%*%         ",
"                  .@.&           +.        ",
"                  %#+&           +@*@        ",
"             +%++%=*%-           @$#$#.      ",
"            .#$=$=@%.-     +@#$#=%#%.      ",
"              -.+-+++--     -%@%%+-.-        ",
"                                             ",
"                                             ",
"                                             ",
"                                             ",
"                                             "};
