/* XPM */
static char * bg1_death3_xpm[] = {
"69 33 13 1",
" 	c #000000",
".	c #787878",
"+	c #A0A0A0",
"@	c #909090",
"#	c #C0C0C0",
"$	c #F8F8F8",
"%	c #E8E8E8",
"&	c #D0D0D0",
"*	c #B0B0B0",
"=	c #D8D8D8",
"-	c #606060",
";	c #404040",
">	c #181818",
"                                                                     ",
"                                                                     ",
"                                                                     ",
"                                                                     ",
"                                                                     ",
"                                                                     ",
"                                                        .+@@         ",
"                                                       .#$%%&#@.     ",
"                                                   .@@@+$%$$#@*#@    ",
"                                                @@+###&=&==%%#@%#@   ",
"                                              @+*#===%====&#%%%&#*.  ",
"                                             @+*=%%%%%%%&#**##=%&+@  ",
"                                           ++##=%%$$%%&**&&#**+*&+@  ",
"                                        .+*#*&%%$$$%=&***#%=*+++#+@  ",
"    *&                             .+#*#&###&=%#=&%=&&#@*#*#&+++@@.. ",
"    &=.                    @+**#&&&&#&&&=&&#&%==#-.&+*++#=###+@@...  ",
"    +#.              .*#&%%%$$$$%&**%+##&&&+-=%&&*@&+@+#&#*+@@@----  ",
"    @*.        @*#&=-@@+%%%$%%%%&+&.+=*&###@*&+****#+@.##*..-.-;;;   ",
"    *&@    +*#%$%$%+*#++#==%%%==@+@..+&++*##+.@@..+++*@**.--;->>>-   ",
"    *=####%%$%%%%=%@&=&.#=&&====@*@@*+####*#&+*@@+@@++@+..++@>;;     ",
"    *=%=%=&&==%=%%%@*=.#&#*####&.+#+***#=#&@#@@----@....-++..        ",
"    +*+@.--.@#&==&@.-;..---@+*###.##=#@+#**+@.++--...>>>>;;-         ",
"    @+---     .;---    ----;@.@@++---...+**--->;;;-;;>>>>;           ",
"    .;-                     @*-;;;--..;;-.   -.-;;;>>>;              ",
"                                                                     ",
"                                                                     ",
"                                                                     ",
"                                                                     ",
"                                                                     ",
"                                                                     ",
"                                                                     ",
"                                                                     ",
"                                                                     "};
