/* XPM */
static const char *enemy1_xpm[] = {
/* columns rows colors chars-per-pixel */
"394 72 239 2 ",
"   c #030403",
".  c #030A03",
"X  c #070A09",
"o  c #0A0D0A",
"O  c #080907",
"+  c #021501",
"@  c #031B02",
"#  c #0D110E",
"$  c #0B1E0C",
"%  c #10120F",
"&  c #0E1310",
"*  c #06111B",
"=  c #121512",
"-  c #151B16",
";  c #171D18",
":  c #191E1A",
">  c #181C17",
",  c #070E14",
"<  c #052303",
"1  c #062B04",
"2  c #082C05",
"3  c #0A2D0A",
"4  c #082507",
"5  c #063304",
"6  c #093406",
"7  c #063B03",
"8  c #0A3C05",
"9  c #0B3409",
"0  c #0C3C09",
"q  c #073508",
"w  c #172119",
"e  c #1C221D",
"r  c #1C291E",
"t  c #162017",
"y  c #173814",
"u  c #20251F",
"i  c #091825",
"p  c #1E2520",
"a  c #1E2B21",
"s  c #162B2E",
"d  c #212622",
"f  c #232B24",
"g  c #282C27",
"h  c #272C28",
"j  c #292D29",
"k  c #233325",
"l  c #263529",
"z  c #2B342C",
"x  c #273929",
"c  c #2B3A2D",
"v  c #253826",
"b  c #30352F",
"n  c #2E3630",
"m  c #2E3C31",
"M  c #313632",
"N  c #333B34",
"B  c #373C38",
"V  c #393D3A",
"C  c #383C36",
"Z  c #0B4305",
"A  c #0E4209",
"S  c #0B4806",
"D  c #11440B",
"F  c #134C0C",
"G  c #104107",
"H  c #0D5507",
"J  c #14530C",
"K  c #145C0B",
"L  c #145909",
"P  c #195A10",
"I  c #14630A",
"U  c #19640E",
"Y  c #176809",
"T  c #1C770C",
"R  c #1D6A13",
"E  c #1E7513",
"W  c #227415",
"Q  c #247C15",
"!  c #267B18",
"~  c #297C19",
"^  c #267917",
"/  c #207A0F",
"(  c #2E4132",
")  c #324134",
"_  c #3C443D",
"`  c #39433B",
"'  c #235E17",
"]  c #11334E",
"[  c #3E4641",
"{  c #3F4941",
"}  c #174876",
"|  c #18446A",
" . c #424642",
".. c #424B44",
"X. c #494E4A",
"o. c #464C48",
"O. c #4D524E",
"+. c #47514D",
"@. c #4F5450",
"#. c #4E5A52",
"$. c #515551",
"%. c #535955",
"&. c #585D5A",
"*. c #50534F",
"=. c #5D625D",
"-. c #57615A",
";. c #5E6561",
":. c #636B65",
">. c #666D68",
",. c #667269",
"<. c #6A746C",
"1. c #6C796E",
"2. c #667167",
"3. c #6E7B71",
"4. c #6E7471",
"5. c #747A75",
"6. c #757A76",
"7. c #61635F",
"8. c #268215",
"9. c #298415",
"0. c #298319",
"q. c #298A15",
"w. c #2D9C15",
"e. c #2C9716",
"r. c #309D16",
"t. c #339D1B",
"y. c #34961D",
"u. c #278D11",
"i. c #2EA314",
"p. c #2FA914",
"a. c #32A416",
"s. c #33AC16",
"d. c #34A41A",
"f. c #3AA41E",
"g. c #35AC1A",
"h. c #39AC1C",
"j. c #38AB17",
"k. c #35B316",
"l. c #36BA16",
"z. c #39BC16",
"x. c #36B319",
"c. c #39B41B",
"v. c #37B919",
"b. c #3ABC1A",
"n. c #38B617",
"m. c #2DA80E",
"M. c #399B23",
"N. c #358A23",
"B. c #3BA423",
"V. c #3CAB22",
"C. c #39A525",
"Z. c #3EB323",
"A. c #3EBA22",
"S. c #1E810F",
"D. c #42BA1E",
"F. c #42A829",
"G. c #42B425",
"H. c #43BB25",
"J. c #43B529",
"K. c #45BB29",
"L. c #49BB2C",
"P. c #49B734",
"I. c #52B733",
"U. c #4BAB32",
"Y. c #419E2A",
"T. c #3CC316",
"R. c #3DC31A",
"E. c #3DC917",
"W. c #3FD116",
"Q. c #3FC122",
"!. c #41C51C",
"~. c #44CB1C",
"^. c #4ACE1E",
"/. c #41CA16",
"(. c #45D11C",
"). c #4BD21E",
"_. c #49D81C",
"`. c #52D91F",
"'. c #43C423",
"]. c #46CA22",
"[. c #4ACD22",
"{. c #4BC52C",
"}. c #4DCB2C",
"|. c #47C329",
" X c #51CD2D",
".X c #52CD27",
"XX c #4DD322",
"oX c #4DD527",
"OX c #54D422",
"+X c #59D625",
"@X c #53DB24",
"#X c #5CDA26",
"$X c #53D42C",
"%X c #54DB2B",
"&X c #5CDC2A",
"*X c #4DC832",
"=X c #52CB32",
"-X c #51C835",
";X c #56D633",
":X c #4FD132",
">X c #64DD2A",
",X c #6ADE2C",
"<X c #61DC27",
"1X c #57E429",
"2X c #5CE436",
"3X c #66E12C",
"4X c #6CE22E",
"5X c #71E32F",
"6X c #6DE330",
"7X c #63EC36",
"8X c #74E533",
"9X c #79E635",
"0X c #7BE936",
"qX c #7DEA39",
"wX c #79E836",
"eX c #67F237",
"rX c #7B827D",
"tX c #83EC3C",
"yX c #88EE3F",
"uX c #89EF41",
"iX c #87EE40",
"pX c #8BF142",
"aX c #19528A",
"sX c #1C5A99",
"dX c #164D83",
"fX c #1D63AA",
"gX c #2165AF",
"hX c #1D5CA1",
"jX c #2472C1",
"kX c #7F8581",
"lX c #838A85",
"zX c #898F8B",
"xX c #848B87",
"cX c #8B928D",
"vX c #87908A",
"bX c #8D9490",
"nX c #929A96",
"mX c #9EA7A2",
"MX c #000001",
/* pixels */
"MXMXMXMXMXMXMXMXMXMXMXMXMXMXMXMXMXMXMXMXMXMXMXMXMXMXMXMXMXMXMXMXMXMXMXMXMXMXMXMXMXMXMXMXMXMXMXMXMXMXMXMXMXMXMXMXMXMXMXMXMXMXMXMXMXMXMXMXMXMXMXMXMXMXMXMXMXMXMXMXMXMXMXMXMXMXMXMXMXMXMXMXMXMXMXMXMXMXMXMXMXMXMXMXMXMXMXMXMXMXMXMXMXMXMXMXMXMXMXMXMXMXMXMXMXMXMXMXMXMXMXMXMXMXMXMXMXMXMXMXMXMXMXMXMXMXMXMXMXMXMXMXMXMXMXMXMXMXMXMXMXMXMXMXMXMXMXMXMXMXMXMXMXMXMXMXMXMXMXMXMXMXMXMXMXMXMXMXMXMXMXMXMXMXMXMXMXMXMXMXMXMXMXMXMXMXMXMXMXMXMXMXMXMXMXMXMXMXMXMXMXMXMXMXMXMXMXMXMXMXMXMXMXMXMXMXMXMXMXMXMXMXMXMXMXMXMXMXMXMXMXMXMXMXMXMXMXMXMXMXMXMXMXMXMXMXMXMXMXMXMXMXMXMXMXMXMXMXMXMXMXMXMXMXMXMXMXMXMXMXMXMXMXMXMXMXMXMXMXMXMXMXMXMXMXMXMXMXMXMXMXMXMXMXMXMXMXMXMXMXMXMXMXMXMXMXMXMXMXMXMXMXMXMXMXMXMXMXMXMXMXMXMXMXMXMXMXMXMXMXMX:.3.4.<.>.;.&.;.&.&.&.;.;.&.&.=.=.:.:.:.:.:.:.;.;.:.:.>.4.M MXMXMXMXMXMXMXMXMXMXMXMXMX",
"MXMXMXMXMXMXMXMXMXMXMXMXMXMXMXMXMXMXMXMXMXMXMXMXMXMXMXMXMXMXMXMXMXMXMXMXMXMXMXMXMXMXMXMXMXMXMXMXMXMXMXMXMXMXMXMXMXMXMXMXMXMXMXMXMXMXMXMXMXMXMXMXMXMXMXMXMXMXMXMXMXMXMXMXMXMXMXMXMXMXMXMXMXMXMXMXMXMXMXMXMXMXMXMXMXMXMXMXMXMXMXMXMXMXMXMXMXMXMXMXMXMXMXMXMXMXMXMXMXMXMXMXMXMXMXMXMXMXMXMXMXMXMXMXMXMXMXMXMXMXMXMXMXMXMXMXMXMXMXMXMXMXMXMXMXMXMXMXMXMXMXMXMXMXMXMXMXMXMXMXMXMXMXMXMXMXMXMXMXMXMXMXMXMXMXMXMXMXMXMXMXMXMXMXMXMXMXMXMXMXMXMXMXMXMXMXMXMXMXMXMXMXMXMXMXMXMXMXMXMXMXMXMXMXMXMXMXMXMXMXMXMXMXMXMXMXMXMXMXMXMXMXMXMXMXMXMXMXMXMXMXMXMXMXMXMXMXMXMXMXMXMXMXMXMXMXMXMXMXMXMXMXMXMXMXMXMXMXMXMXMXMXMXMXMXMXMXMXMXMXMXMXMXMXMXMXMXMXMXMXMXMXMXMXMXMXMXMXMXMXMXMXMXMXMXMXMXMXMXMXMXMXMXMXMXMXMXMXMXMXMXMXMXMXMXMXMXMXMXMX:.mXnXkXkXzXxXxXkX6.kXkXkX6.lXrXrXlXrX6.rX6.6.kX6.6.kX6.kXlX6.M MXMXMXMXMXMXMXMXMXMXMXMX",
"MXMXMXMXMXMXMXMXMXMXMXMXMXMXMXMXMXMXMXMXMXMXMXMXMXMXMXMXMXMXMXMXMXMXMXMXMXMXMXMXMXMXMXMXMXMXMXMXMXMXMXMXMXMXMXMXMXMXMXMXMXMXMXMXMXMXMXMXMXMXMXMXMXMXMXMXMXMXMXMXMXMXMXMXMXMXMXMXMXMXMXMXMXMXMXMXMXMXMXMXMXMXMXMXMXMXMXMXMXMXMXMXMXMXMXMXMXMXMXMXMXMXMXMXMXMXMXMXMXMXMXMXMXMXMXMXMXMXMXMXMXMXMXMXMXMXMXMXMXMXMXMXMXMXMXMXMXMXMXMXMXMXMXMXMXMXMXMXMXMXMXMXMXMXMXMXMXMXMXMXMXMXMXMXMXMXMXMXMXMXMXMXMXMXMXMXMXMXMXMXMXMXMXMXMXMXMXMXMXMXMXMXMXMXMXMXMXMXMXMXMXMXMXMXMXMXMXMXMXMXMXMXMXMXMXMXMXMXMXMXMXMXMXMXMXMXMXMXMXMXMXMXMXMXMXMXMXMXMXMXMXMXMXMXMXMXMXMXMXMXMXMXMXMXMXMXMXMXMXMXMXMXMXMXMXMXMXMXMXMXMXMXMXMXMXMXMXMXMXMXMXMXMXMXMXMXMXMXMXMXMXMXMXMXMXMXMXMXMXMXMXMXMXMXMXMXMXMXMXMXMXMXMXMXMXMXMXMXMXMXMXMXMXMXMXMXMXMXMX4.nXxX@.o.[ o.o.o.o.[ o.o.{  .o... . .[  . .[ [  .[ [  .[ [ o.;.<.B MXMXMXMXMXMXMXMXMXMXMX",
"MXMXMXMXMXMXMXMXMXMXMXMXMXMXMXMXMXMXMXMXMXMXMXMXMXMXMXMXMXMXMXMXMXMXMXMXMXMXMXMXMXMXMXMXMXMXMXMXMXMXMXMXMXMXMXMXMXMXMXMXMXMXMXMXMXMXMXMXMXMXMXMXMXMXMXMXMXMXMXMXMXMXMXMXMXMXMXMXMXMXMXMXMXMXMXMXMXMXMXMXMXMXMXMXMXMXMXMXMXMXMXMXMXMXMXMXMXMXMXMXMXMXMXMXMXMXMXMXMXMXMXMXMXMXMXMXMXMXMXMXMXMXMXMXMXMXMXMXMXMXMXMXMXMXMXMXMXMXMXMXMXMXMXMXMXMXMXMXMXMXMXMXMXMXMXMXMXMXMXMXMXMXMXMXMXMXMXMXMXMXMXMXMXMXMXMXMXMXMXMXMXMXMXMXMXMXMXMXMXMXMXMXMXMXMXMXMXMXMXMXMXMXMXMXMXMXMXMXMXMXMXMXMXMXMXMXMXMXMXMXMXMXMXMXMXMXMXMXMXMXMXMXMXMXMXMXMXMXMXMXMXMXMXMXMXMXMXMXMXMXMXMXMXMXMXMXMXMXMXMXMXMXMXMXMXMXMXMXMXMXMXMXMXMXMXMXMXMXMXMXMXMXMXMXMXMXMXMXMXMXMXMXMXMXMXMXMXMXMXMXMXMXMXMXMXMXMXMXMXMXMXMXMXMXMXMXMXMXMXMXMXMXMXMXMXMXMXMX>.mXkX[ z n n n n h n z z z n n M M M j j M z j z M z n n h j M V -.>.[ MXMXMXMXMXMXMXMXMXMX",
"MXMXMXMXMXMXMXMXMXMXMXV B B C M M C M M C M M M C B M M C M C C B B M B B C M C C C M M B B B C C C B M C B B B B C B B B B B B V C V b MXMXMXMXMXMXMXMXMXMXMXMXMXMXMXMXMXMXMXMXMXMXMXMXMXMXMXMXMXMXMXMXMXMXMXMXMXMXMXMXMXMXMXMXMXMXMXMXMXMXMXMXMXMXMXMXMXMXMXMXMXMXMXMXMXMXMXMXMXMXMXMXMXMXMXMXMXMXMXMXMXMXMXMXMXMXMXMXMXMXMXMXMXMXMXMXMXMXMXMXMXMXMXMXMXMXMXMXMXMXMXMXMXMXMXMXMXMXMXMXMXMXMXMXMXMXMXMXMXMXMXMXMXMXMXMXMXMXMXMXMXMXMXMXMXMXMXMXMXMXMXMXMXMXMXMXMXMXMXMXMXMXMXMXMXMXMXMXMXMXMXMXMXMXMXMXMXMXMXMXMXMXMXMXMXMXMXMXMXMXMXMXMXMXMXMXMXMXMXMXMXMXMXMXMXMXMXMXMXMXMXMXMXMXMXMXMXMXMXMXMXMXMXMXMXMXMXMXMXMXMXMXMXMXMXMXMXMXMXMXMXMXMXMXMXMXMXMXMXMXMXMXMXMXMXMXMXMXMXMXMXMXMXMXMXMXMXMXMXMXMXMXMXMXMXMXMXMXMX4.mXzXB h n n n M N M M B z n M M M b M b b M b b n M n M M M j j z B +.;.` MXMXMXMXMXMXMXMXMX",
"MXMXMXMXMXMXMXMXMXMX*.>.>.<.4.>.<.>.<.>.>.>.>.>.>.>.>.<.>.>.>.4.>.4.>.>.>.<.>.4.<.<.>.>.>.>.>.<.>.>.>.>.>.>.,.,.>.>.>.>.>.<.4.>.>.<.4.xX$.MXMXMXMXMXMXMXMXMXMXMXMXMXMXMXMXMXMXMXMXMXMXMXMXMXMXMXMXMXMXMXMXMXMXMXMXMXMXMXMXMXMXMXMXMXMXMXMXMXMXMXMXMXMXMXMXMXMXMXMXMXMXMXMXMXMXMXMXMXMXMXMXMXMXMXMXMXMXMXMXMXMXMXMXMXMXMXMXMXMXMXMXMXMXMXMXMXMXMXMXMXMXMXMXMXMXMXMXMXMXMXMXMXMXMXMXMXMXMXMXMXMXMXMXMXMXMXMXMXMXMXMXMXMXMXMXMXMXMXMXMXMXMXMXMXMXMXMXMXMXMXMXMXMXMXMXMXMXMXMXMXMXMXMXMXMXMXMXMXMXMXMXMXMXMXMXMXMXMXMXMXMXMXMXMXMXMXMXMXMXMXMXMXMXMXMXMXMXMXMXMXMXMXMXMXMXMXMXMXMXMXMXMXMXMXMXMXMXMXMXMXMXMXMXMXMXMXMXMXMXMXMXMXMXMXMXMXMXMXMXMXMXMXMXMXMXMXMXMXMXMXMXMXMXMXMXMXMXMXMXMXMXMXMXMXMXMXMXMXMXMXMXMXMXMXMXMX<.mXnXn f h j > = o o o o o o o o o o o o O X o o o # o o o o # , j z z n [ ;.M MXMXMXMXMXMXMXMX",
"MXMXMXMXMXMXMXMXMXC _ M M M M M C M M M C C V C B C M M V C C M B M C M B C B B C C N C M C B M V B N N B N N B B B B C B C C B z z z V o. .MXMXMXd h d h h d d h h h h g h j h h d d j g g f d j j h h j j h j j h h g j j j j h h j h j h d j h h h h j h h j j j h h h j h h h j h h j j j h j g d h j h j j h j j j h h j j h g h h g h j g h h h j g g j j j j j g j j j h h j h g j j j h h h d j j j h g h j j j g g f j g j g g j j g j j j j j j j j j j j j j j j j g h h h h g h h h j j j j j j j j j j j h g j j g j h h j h h h h h h j h h j j j j j j j h g g h h j h g h h f h h h d d j h h h j j g h j j j j g j j j j j g g g j g g j j h d j j j h g j j j j h j j j j h g j j d h g MXMXMXMX:.mXcXM a h h g   :  .X.o. ...X. .o. . . . . .X. .o. . .X.X.X.X.$.V - s z h h [ %.z MXMXMXMXMXMXMX",
"MXMXMXMXMXMXMXMXb V b g g j j j j z j j M j j b j z g b M j z j j j j j z M M j j b b M j b b b M z b b M b M z b b b M z j b z g g z f z N b N  .X.X.o.X.X.X.X.X.X.X.X.X.*.X.O.$.O.X.X.X.X.O.O.X.O.X.X.X.X.X.X.*.X.X.O.X.X.X.O.X.@.@.@.$.O.O.@.$.@.*.*.X.$.$.@.$.*.O.X.X.@.$.X.O.$.@.*.$.$.*.O.$.*.$.$.O.@.X.O.O.O.O.O.O.O.@.@.O.$.*.$.@.X.O.O.O.@.@.$.$.$.@.O.@.@.*.O.$.$.O.$.$.%.$.$.@.@.$.@.@.@.$.@.@.$.@.O.@.@.@.@.@.$.$.$.$.*.$.$.*.%.*.%.$.$.%.$.$.$.%.%.$.@.O.O.$.$.*.*.@.$.@.@.@.O.@.@.%.@.$.O.$.$.$.O.$.*.@.$.O.O.*.O.O.@.@.O.@.@.#.+.@.@.@.@.@.@.%.@.$.O.@.$.O.O.O.O.@.*.O.@.O.O.O.@.O.O.@.@.O.@.O.O.$.*.$.O.@.O.@.$.$.$.$.O.O.@.*.*.*.*.*.O.*.@.O.O.X.$.*.X.X.$.*.O.@.@.X.@.X.X.@.X.X.O.@.X.X...j MX>.mXkX[ p h h l d   o.:.7.7.=.=.:.&.=.=.7.7.7.&.7.7.7.&.7.=.7.&.&.;.&.h a f h h z [ @.l MXMXMXMXMXMX",
"MXMXMXMXMXMXMXj N b j j g g g z j j j b b j j b j z z z j b j j z b j b M M C b z b b b b b b z M b z N M M M b b N z N b M z z N z u u u u u u j M z j z j j z j j M z b z b n z n z z z z z z z n j n j j z z z M z z z j z z n n z n z j z z z z z z z z b b z z z z z z n z n n n m n z n z z z z z z z z z z z z z z z z M z z z z z z z z n z m m n n z l z z z z c c z l b z c n z z z n z n z m z n z c z z z n n n z z c z c b b z b b m z m z m n n n z z z m m n N z z c n z n m m n z z z z n n n m z z z n z z z n n n z z n z n z z z z n n n z z z z z m z l z z z z z z z z z z z z z z z z z z z z l z b z z z m z z z z c z z z z z z z z z l z z z h z z j z h z z h h z h z h h h h h p h kXmXzX[ f h h h h p   o.B M N B B B N B B M M M B M b M B N n M n n n z d f f h h h h B #.N MXMXMXMXMX",
"MXMXMXMXMXMXM M g g d g g g g g d g j j g j h h z g g g j j g g j z g j j j j j z j z b j b b b z b z M b M j b b z z b z z j n j : j j b j g g j j z j z z z j z M b b b M M z M M M M N b b b n N n n M z n z M M M N B M M M M n n M M N N M M M N N M N N b M N M B M N M M M M M M n n n M b b N N M M M M N N N N b c z M m m N N n N n N M N N n n M N n M M n M N N N N N N N B N m N n N n M N n N N N N N n m N N m N N N N N N B N N N N N N n N N m N N n N N N B N B N N N n ( N N m N m m n n N m M N N N n n n n n m n N N N N ) N m N N n M M m N N N M N m N M M M b M N N m N M N N N M N n m M N N C N M N B C ) C N C C N C M N M N N N N C B C N C N n N N N M n n M n N M N N B B V [ rXmXbXV h f h a a a e   [ h d h h f f g f f g f d d h d d d h d d f d p p p p p p f a p p n @.n MXMXMXMX",
"MXMXMXMXMXV M g g f f f g f g h g g g g d d g h g f g g j j g g g j g j j j j j j z g z j z b b b M b M j M b b b z z z z j b d : &.lXlXlXkXlXlXlXlXlXlXlXlXlXlXlXlXlXlXlXlXlXlXxXzXxXxXzXxXlXvXzXzXxXcXzXzXvXxXxXzXvXcXcXxXzXxXcXcXcXzXzXcXcXcXzXzXcXcXcXcXcXcXcXcXvXcXcXcXbXcXbXzXcXcXcXzXzXcXcXvXvXcXcXcXcXcXbXbXcXvXcXvXcXcXbXbXbXbXzXcXzXcXbXcXbXcXbXbXcXcXcXzXcXzXcXvXcXcXcXcXcXbXcXcXcXbXcXzXxXcXcXvXcXbXcXbXcXcXcXcXvXcXbXcXcXcXcXcXcXbXbXbXnXcXcXcXbXbXbXzXzXzXcXcXcXbXbXbXbXbXcXbXbXnXbXbXbXbXbXcXbXcXcXcXcXcXbXbXbXbXcXcXcXcXbXnXbXbXcXcXcXbXcXcXbXbXcXcXcXcXbXbXbXcXvXvXzXvXcXcXcXcXvXcXvXcXcXcXcXxXzXvXcXcXcXvXvXzXcXcXvXcXvXvXvXvXcXzXcXcXcXxXcXcXbXcXcXcXxXcXvXcXcXxXzXcXcXcXcXcXcXzXkXzXzXxXvXkXn h d f a h h p e   ` h p h z j z h z j z j z z j j n h h j h h h h h h f p d d a p p p h ..n MXMXMX",
"MXMXMXMXb V g g d d f g g f g f d g g g g g g g f g f f z g g g f f g g g j j j j j g z j g j b z z z j b j j j z j j j j j d > ..*..... . . .[  ._ _ _ _ _ .._ [ [  . ...[  .{ .. . . . .[ _ _ [ [ { { [ [ { { ..............o.{ ..{ ..{ { ..[ _ [  ..................... .............o.[ .... .........o....... ...o.{ { ....{ ..{ ..........{ ..{ o.{ { { { [ { { ....{ _ { { { ..{ { { { { .._ { { { { { ..{ ......{ ............o...{ ..{ ..........{ { { ..{ { ..{ { ..{ ..o.....+.{ { { ....o...{ { { { ..[ [ { ........{ { { { { { { { { { { { { { { { { { {  .{ { { { .._ ....{ ..{ _ { _ { _ { { _ { _  ........._ ..{ { _ { { ..[ { _ _ _ { { _ { { { { { { _ { [ { [ [ [ { { { { { [ [ [ [ [ V [ N p f f f h f a p e   { h d p - - = = = = = = = = > i - = = % = % = % % - p f d p p p p p : z o.h X MX",
"MXMXMXMXb d u : : : e e e : e p : : d d d : : d u e e e u e u e u d d d : d d d d d d d d d d d d d d d g d u d p d e e d : d B ` z b z b z z z z z l z z l z c z z c n c z m z z z z m z z c z z z z n m z z z n n n m m m z m c z z c c l l c z l l z c l c c ( n n c c c c c m n c c m z N m c c z z ( c c c N c c z l c c l z n c c c c c c z c c z c c c c l z x c c l x l c l n c c c c m c c c x c x c x c c c x m n c x x c m m c l m x m c x c c c c x l c x c x l x x ( c ( c ( c c x m n c c m m x c c c c x x x x c c x c c c x l x n c c x x c c c c z c x l c c l l l l z c z l l l x x v x x l x k l l x z l l l c c l x l x l c c v l l x l c x l z c l c l l l l l x l l z c l l l l l l k l h f k f f h a p a ;   _ f p >     X o X X X O X O o o O O O o X X X X     # : d e p p p p : p n M O MX",
"MXMXMX_ V V V V V V C C B B B B V V V V V V V V C C B C V V B B C C _ V V V V V C C C C V V V V V V V V V V V V M B M C B B N b j z m m b m N N N z z c N c N N ) m N N N m m m m m ) N N m N N m m N ) m m m N ( ) m m ( m m N ) N m ( N N N N N N ( N ) ) N ) ) ( m m ) ( N ) ) ) ( ( ) ( ) ) ) ) ) ) ) ) ) ( ) ) m c m ( ) ( ( ( ( ) ) ( ) c ( ( ( ( ) ( ( ) ( m m ) ( ( ( ( ( ( ( ( ( ( ( ( c ) ( m ( ( c ( c m ( ( ( ( ( ( ( ( ( ( ( ( ( ( m m m ( m ( ( ( ( c ( ( ( c m c ( ( ( ( ( ( ( ( ( ( ( ( ( ( ( ( ( ( ) ( ( ( ( ( ( ( ( ( ( ( x ( ( ( ( c m ( m ( ( ( ( c ( ( m c ) c m c ( c ( c ( c m m m m m c ( ( m m c ( m m ( c c m c m c m c c c m c c m ( m c n c x m m x m m c m c m c n c c n m n z z k h k a f a p p p -   _ f p >     = : = - - - - > > > > > > > > > - -       X > d p p e p p p p p . , ",
"MXg >.4.4.4.>.4.4.6.4.6.4.6.6.6.6.6.4.6.6.6.6.6.6.4.6.6.6.6.5.5.6.6.6.6.6.6.6.6.6.6.6.6.6.6.6.6.6.6.6.6.6.6.6.6.6.4.5.5.>._ j g z z b j c z z z z l z z c z z l m z m n m z c z l m m N m m z c z c m c c l c z c z c l c n c z z z l k c c z c z c m z z c z c c m c c c x z c c l n z c c m m m c c ) c c c l x x v l l v l c c x c c c x c x c c c c x c x c x c c c c c m ( m c c x c c c m x c c c c c x l x x x z c x x ( c x c x c c c l c x c x c x x c c x x x x v c c x c ( x x c c c x c ( c x x m x n c x c x x x c c x x x x x x x c x l l x x x x n x x c c x c l l v k l x x x l l l x x l c x k x c x l l l x l x l x x k l l l x l x l k x v x c x l c n c n c l l n c l l l l l k a l z n l l h a f a p s p p ;   [ f p :     e f e e e d p e e p : p e d : : > : X   ,     > p e e e p p d =   X ",
"MX .b g j b b b b M j M M b M j M M M M M M M M M M M M M b b C N M B M M B B M M M B M M C C B M b M B M M M M M M M b z f f z k b e o o o o o o o o o # o o o o o o o o o o o o o o o o # o # o # o X o o o o o o o o o o o o o o o o o o o o o o o o o o # o o o # o o X o # o o o o o o o o o # o # o o o o o o X o o o o o o o # o o o o o # o o # o o # o o o # o # # # o o X X o o o o o # o o # o o o o # # # X # o X # o # X # o o # X # o o o o o # # # # # o # # o o o o o X o , # X X # o # o o o o o X X o # # X # X # X X # , o o o o o o X # # o o o o o o o , X o o X X # X o o o o o o o o , o o o o o o o o o X X # X X X o o o X o o # X # o # X o o # X # o o o o o , X o X X X X , , a l z a a p f a p p p -   V f d :     e f d p p f d p p : d p e d p e e p X   : #   O > p p p f d d o X MX",
"b b d u d d g d d g f d g g g d g f g d f g f f f g f f f f g f k g g g g g g g f g f g g j g j j d g g g g g g f g z f f f k z z r       .         . .   . .     .     . . . . .   .       . . . . . . .   . . .   . . . . . . . .   .   . .     . . . . . . . . . + . + . . . . . . . . .   X . . . . . . . . + . . . . . . . . . . . . . . . . . . . .   .   .   . . . . . . + . . . . . . . . . . . . . . . . . . . . . . . + . . + . . + . . . . . . . . . . . . . . . . . . . . . . . . . . + . . . . . . + . + . . + . . . . .   . . . . . . . . . . . . . . . . . . . . . . . . . . . . . . + . . + . . . . . . . . . . . + . . . + . . . . . . . . . . . . . + . . .   . . . . . . . X     .   . O r k a f a a a a p w -   B f p :     p f p p d e p e d p p p p p p e p d X   = : =   X = > - - - X . O X ",
"g f d f g d f g f g f f g j j d g g f g f j g g f g j j g j j j j j j j j j j z j j j z z j z z z z j z z z l j h l z f f j z b t O   . . + + + + + + + + + + + + . + + + + + + + + + + + + + + + + + + + + + + + + + + + + + + + + + + + . + + + + + + + + + + + + + + + + + + + + + + + + + + + + + + + + + + + + @ + @ + @ + + + + @ + + + + + + + + + + + + + + + + + + + @ + @ @ @ + @ + @ + + + + @ @ + + + + + + + + + + + + @ + + + + @ + + @ @ @ + + @ + + + + + + + + + + + + + + @ @ @ @ @ @ @ @ @ + + @ + + + + + + + + + + + + + + @ + + @ + + @ + @ @ + @ + + + + + + + + + + + + + + + + + @ + + @ + @ @ + @ @ + + + @ + + + + + + + + + @ + @ + @ + + + + + + + + + + + + + + + + + + . . . # r x a p a f p p e -   B a p :   X p f p p d e p d d f p p p p e p p d X   = = j X     O           O o ",
"u u d d d d d d f d d u u d d d p d d u u f f f f f f f f u f u u u u g g u f d u g f f f f g d f h g g j g g d p f d d f f j : . . + + + + + + + + + + + + + + + + + + + + + + + @ + @ + + + + + + + + + @ + + @ @ + + + @ + + + + + + @ + + + + @ @ @ + + @ @ + @ + + + @ + @ @ < @ @ + + @ @ @ < < @ @ @ < @ < < @ @ @ @ @ @ + @ + @ @ @ + + @ + @ @ @ + + + + @ @ @ @ @ @ @ @ < @ @ < @ @ @ < @ @ @ @ @ @ < @ @ @ @ @ @ < + < @ @ @ @ @ < @ @ @ @ + < + @ @ @ @ + < + @ + @ < < @ @ @ @ @ @ @ @ < < 4 @ < @ @ @ @ @ < + < < @ @ @ + < < < @ < + < @ + < < + @ @ + @ @ @ @ @ @ @ @ < @ @ + @ @ < @ + + @ < @ @ @ + < < + < + @ + @ + + + < @ < @ @ + @ @ < + @ < < @ < + + @ + @ + + + + , + + + + + . . . O f l a a a w ; w -   ` f f :     h h d d d d d d p p p d p e p p p d O   - & h o                 O X ",
"o o o # o % o o o o o X o o o o X o o o o o o o o o o o # o o o # % o % o % o # % o o o % o o o o o o o o o X X o o o o o o % . . . + + 1 0 G Z D D 0 Z G D D G G Z D 0 Z G D 5 < < @ < @ < < 2 Z D F D S D D D F F F F D D F F D D D 9 1 < @ @ @ < < < S F F F J J P J J J J F F F J F F J D 1 < < < < < @ < 6 A F J F F S F F F F J F F F J F F F 8 1 < < < @ < < < 0 S J F J F J J J J J P P J J J J J F Z < < < < < < < 1 Z F J F F F S F F F F F F S F F F D F Z < < < < < < < 1 A F J J F J F J J F F F J J J J F F F 8 < < < < < < < 1 A D F H F J K J J J J J J F F J F F J 5 < < < < < < < 1 8 F L J J J J J J J J J J J J J F D Z 5 < < < < < < < 5 S S F F F F F F F F D D D D G A A 0 0 < + + + + . # k k a a a p e >   ) f f :     h h p p e f d j f f f d p p p p e d O   > - h %       O     O o o   ",
"                                                                                                                  . . . . O . . . + + ' B.F.J.J.G.G.G.G.V.F.F.G.G.J.G.G.Z.G.F.B.H 4 < < < < 5 0.J.Z.G.Z.G.J.G.G.H.Z.J.Z.Z.V.Z.J.Z.Z.Z.C.K 1 < @ < < 5 N.I.G.K.J.K.K.H.L.K.|.K.H.A.H.H.H.Z.Z.Z.0.5 < 1 < < 4 J B.J.J.K.J.Z.Z.K.K.Z.Z.c.Z.Z.H.G.Z.Z.V.C.R < < < < < 1 K J.K.K.K.K.H.H.J.J.Z.Z.Z.A.Z.Z.Z.Z.J.J.C.P 1 4 < < 1 1 ~ |.K.K.J.H.A.G.H.K.G.K.J.J.J.Z.L.Z.Z.G.V.P 2 < < 1 1 5 ~ J.Z.J.|.H.A.H.K.H.K.J.J.J.J.J.Z.J.Z.J.V.A 1 < < 1 1 7 N.J.H.K.K.K.H.H.K.K.A.Z.H.Z.Z.Z.Z.Z.Z.Z.y.H 1 < < < 4 5 N.K.H.H.H.H.K.L.L.L.L.Z.Z.Z.Z.A.A.Z.Z.C.y.8 < 1 < 1 1 F B.G.H.G.J.K.L.Z.J.Z.Z.V.F.c.C.Z.C.C.C.M.N.q @ @ + .   r k r p s w e =   ) f f :   . h z p p p p : = & o o o p d e p e d X . - - h %   & : z n   = M g : ",
"                  .         O O . . . .   O O   O X O O . .   O     .     .   . . . O O . O . .   O O . .       # # # # % =   . + + P F.d.h.d.d.a.h.j.h.j.g.d.h.g.h.g.d.x.a.f.s.H.Z < < < < U '.g.i.g.g.x.h.g.d.g.g.h.g.C.i.B.g.i.C.w.d.C.7 < 1 1 1 Q oXc.c.c.x.c.c.c.g.j.h.h.c.x.k.h.c.g.d.e.C.R 1 < < 4 8 Y.b.h.h.h.h.Z.g.h.g.s.k.c.x.x.j.Z.g.d.d.i.Z.K < 1 < < Z J.b.h.x.c.h.g.V.g.Z.h.g.V.g.h.g.g.h.h.d.d.B.S 4 1 1 < K :Xx.x.c.c.c.g.c.c.k.x.x.b.c.c.g.h.g.g.g.i.C.H 1 2 1 1 I L.g.x.Z.x.h.s.x.c.x.g.j.h.g.g.g.g.g.d.i.x.C.7 4 1 4 < Q |.c.c.x.h.c.c.c.c.h.g.x.g.Z.x.g.Z.g.g.d.g.M.6 2 1 2 < Q [.g.g.c.x.x.h.x.c.g.Z.x.Z.V.g.g.Z.d.i.r.V.! 5 < 1 < 9 y.D.d.g.g.x.k.g.g.d.g.g.s.j.c.x.C.p.g.t.e.i.N.< + + +   a k r p p e w =   ` f f >   X a h p e p p = . o X o O : f : p e f X   - - h =   o = e z   = j = = ",
"          O O O O O O o o O o o X o # # # # # # # % % % o o O O O o O # O # o o O o o o o O o X O # O O O . O   % = - = - t O . + 4 0.g.0.d.r.w.t.d.a.t.r.t.w.r.d.d.d.d.d.w.w.e.:XP < 1 1 < N.!.r.d.d.d.d.a.d.d.d.d.d.d.w.r.r.r.w.M.e.e.L.H < 1 2 1 U./.w.h.g.d.g.d.g.g.g.a.d.d.h.d.h.r.d.i.N.d.y.3 2 1 2 F L.j.d.d.a.d.h.j.g.d.d.g.d.d.d.d.d.t.t.e.u.Z.q.< < 1 4 F {.j.d.d.a.d.d.d.i.d.d.i.d.d.g.g.a.g.t.e.w.H.K $ 5 3 < 9.%Xw.j.j.d.c.s.g.h.a.g.i.g.g.Z.g.C.i.w.t.e.Z.Y 2 4 1 4 0.'.t.p.g.a.d.g.d.g.d.d.d.g.g.d.d.i.i.d.e.e.:XL < 2 3 4 t.R.d.g.g.d.h.g.d.g.i.g.V.g.g.g.g.d.d.w.e.t.A.7 2 2 2 1 G.!.t.a.g.g.g.C.g.d.g.g.d.g.g.g.d.C.w.e.t.w.C.8 1 1 2 S H.j.d.d.i.d.d.a.d.d.d.d.d.d.d.e.i.i.e.e.u.e.U.1 @ + +   a k a e a e w -   [ f f :     f h p p p p = X : > > o p g e d u d O   > > j %   X # ; j   - j . o ",
"o o o   . o o o # # # # % % % = = = = = = - = - > = = = = = = = # # % # % % $ % % % % % = # % % # # # # # # + . = t t > t r O + @ < N.p.0.d.g.d.g.d.g.d.g.h.d.d.a.d.g.d.g.d.d.e.}.R < 1 1 < M.D.d.h.a.g.c.d.g.h.g.d.d.d.g.d.d.d.r.d.d.w.K.H @ 1 2 1 I.!.r.h.h.d.c.g.c.g.g.h.k.h.c.g.c.a.d.i.C.p.e.4 1 4 1 P {.a.g.j.d.g.Z.c.h.h.g.g.g.g.g.g.g.d.d.d.u.A.d.< 1 5 4 S  Xd.d.g.x.g.g.g.d.d.g.p.Z.s.g.g.d.d.d.w.e.|.E $ 5 4 4 e.oXw.h.h.h.c.x.x.x.j.g.h.k.h.h.g.h.g.g.a.e.A.W 2 3 5 6 y.!.t.x.g.g.g.c.g.x.x.g.g.g.h.h.g.C.g.d.d.e.oXI 1 5 4 < M.'.f.h.g.h.c.g.h.h.g.h.x.g.h.p.V.d.i.C.w.w.*XZ 4 9 2 1 -Xz.B.g.g.h.g.x.h.g.x.s.g.x.s.V.d.g.d.t.e.i.C.S 2 1 2 G H.a.V.a.g.g.g.g.g.g.g.c.g.s.g.g.p.C.w.w.e.u.P.1 @ @ +   k x a e r r w &   V a f :     f h p p p p - X p : : # d h : d : d o   > : j ,   X # ; j   - j X o ",
"_ o.X.= O = % = = = = = > = > > : > : - : : : : : : : = = = o o O o O X O O O O O X o O O O O O O . O . O . .   ; e e e e a o @ @ 1 N.s.e.d.g.k.x.g.g.g.x.c.a.Z.g.g.i.h.g.i.d.e.}.E 4 2 1 < M.D.d.c.a.x.x.g.g.g.x.x.h.x.b.x.d.g.i.d.d.e.|.H 4 2 3 1 U.!.i.x.g.x.s.x.c.c.h.c.g.x.Z.s.x.g.p.a.C.p.y.5 6 4 4 L |.s.g.g.x.Z.k.g.g.k.g.x.k.b.c.x.i.g.g.d.e.Q.t.< 2 2 2 L }.g.h.x.c.x.x.c.x.g.x.x.Z.p.g.g.a.a.C.p.w.'.E 4 q 3 4 e.:Xw.k.x.s.x.v.x.x.v.x.v.x.x.k.k.g.k.g.d.d.Z.E 1 9 5 q M.Q.V.k.s.s.k.x.x.x.v.A.g.g.x.Z.g.Z.g.g.i.u.;XI 1 6 2 4 t.].g.k.Z.x.x.k.Z.p.x.x.x.x.s.Z.x.x.p.x.w.i.|.S q 5 5 1 *Xz.f.x.c.g.x.b.x.x.x.s.x.s.v.v.x.x.V.p.w.i.C.S 5 5 1 G H.m.h.i.g.g.k.x.x.x.g.Z.p.s.p.x.g.C.i.w.e.e.P.5 @ < +   k x a r e e w =   ` a f e     f h e d p d > O p : e # d h e e e d O   > : b #   X # ; h   = h O o ",
"j j _ = O - % = - - - ; > : : : e d e : : d : : p e : : e :                                                   O w e e r w k O @ @ 2 M.h.i.g.x.x.j.x.c.c.x.x.s.x.x.j.h.c.s.g.p.u.*XE < 1 5 1 M.].i.g.g.x.k.x.g.x.v.g.x.g.s.x.x.g.i.d.w.w.*XH < 5 5 5 I.~.p.v.x.v.x.x.v.v.x.x.b.b.x.v.v.x.g.k.t.k.M.5 5 9 5 P |.s.x.k.x.b.k.x.x.x.c.x.x.A.x.c.g.g.a.a.w.'.t.< 5 9 3 L oXk.x.v.k.x.x.x.k.A.x.x.k.s.x.x.x.s.g.p.w.'.E 3 7 q 4 y.].i.c.c.x.x.k.k.x.l.x.A.x.v.v.x.x.Z.h.g.i.A.E 5 5 9 q M.!.C.p.k.x.v.A.v.x.v.A.v.x.p.x.x.Z.x.g.g.i.2XI 2 6 2 4 d.].h.x.x.x.k.k.Z.x.x.b.x.v.s.v.v.x.g.Z.i.C.Q.S 3 6 6 1  XT.g.v.b.k.x.x.x.b.g.v.A.A.v.k.x.k.x.d.g.t.Z.F 3 1 1 F H.s.h.g.s.g.k.x.x.x.x.v.p.x.x.x.g.g.p.i.w.i.P.5 < @ @   k x a a w w w =   _ f f e     f h e d e d : O : p : & d d : p d d O   - > z #   X o > d   = h . o ",
"d g C % X : = = > - > t : : d : : e : e d : : : d e : d : d         .   .           . .     .               . . r e e e t k o @ < 4 M.b.g.g.g.x.n.x.x.c.Z.c.x.k.v.b.g.x.k.k.g.m.:XE < 5 5 1 M.].s.p.k.k.x.x.v.v.k.k.x.k.s.c.v.g.x.d.i.w.*XH < 5 5 5 I.!.s.x.x.v.v.v.b.b.k.c.b.v.v.Z.x.c.g.k.V.k.t.9 5 2 9 P }.s.g.x.v.v.v.x.x.v.c.v.b.x.x.c.x.c.j.s.e.'.d.< 2 5 3 L $Xj.x.v.x.b.b.b.x.b.l.v.v.v.v.v.x.x.V.p.d.!.Q 4 5 9 3 y.oXa.x.v.R.k.x.l.l.v.T.v.v.v.v.b.x.v.k.g.i.'.W 5 9 6 q M.E.d.k.x.v.v.v.v.v.v.v.T.A.l.x.v.x.x.g.p.i.2XY 5 9 9 < d.].h.x.A.v.b.x.R.b.v.b.x.A.b.v.v.x.Z.d.s.x.|.H 5 5 9 5 -XT.g.v.A.k.b.b.b.b.x.v.v.v.v.v.A.v.x.C.g.g.A.H 3 q 3 F L.x.c.k.x.v.z.v.x.v.v.v.v.v.v.g.x.p.g.d.w.d.P.5 < @ +   k x a a e r t -   _ f f :   O d h e d d e e O p e : & d g p d d d X   - > j #   o & > d   = f O o ",
"d d C = X > - - > e : e > = > : j d d : > : : d : : e : p j : : e d d d d d d d d d d d d d d d d d d : : = #   r u u e r k o @ < 4 Y.z.g.k.x.v.b.c.x.c.b.l.b.n.v.v.x.v.k.g.p.i.;XE 1 5 6 1 N.].k.p.A.x.x.v.x.A.x.v.A.v.x.x.x.x.x.x.i.i.*XL < 5 5 5 I.~.s.v.x.v.b.l.x.R.z.b.b.c.b.l.x.c.Z.p.V.k.d.6 5 2 9 P }.s.c.x.v.l.b.v.b.b.b.v.v.b.v.b.v.c.k.a.w.].d.1 6 5 2 I :Xn.v.b.R.b.R.l.b.v.b.R.v.b.R.l.A.x.Z.k.d.].Q 4 8 0 3 w.oXs.v.v.R.l.b.v.R.R.v.T.R.Q.b.b.A.v.k.g.s.|./ 5 5 0 q t.].s.l.v.x.v.v.v.v.v.v.T.R.v.l.v.x.x.g.x.i.%XY 2 9 9 < C.].x.x.R.v.b.Q.v.l.R.R.b.R.R.v.v.k.k.x.x.g.}.S 8 0 9 5 =XT.g.k.v.k.R.v.v.x.b.v.l.l.A.v.x.v.x.g.g.p.A.F 3 3 q G {.n.h.v.v.v.b.b.v.v.R.v.v.v.v.v.x.x.x.d.i.p.K.5 < < @   v x a r a e t -   _ p f e     f h e : d d d   : : p # p j p e d d o   - : n %   o # : g   = g . o ",
"d f M % O : > > > e : = > M  .X.o. . . . .B : = d d : : : C  . . .X.X...o.X.X.X.X.O.X.O.X.X.X.X.X. . .V V f ; O u u u u u y o @ < 1 Y.D.c.x.x.b.b.v.c.b.b.!.b.v.R.b.b.l.x.x.x.i.2XE 4 3 8 5 M.[.g.k.v.v.v.b.x.R.R.v.Q.b.x.v.x.v.x.x.d.p.:XH < 9 5 5 I.^.p.b.b.x.b.v.x.v.D.z.v.b.b.v.x.x.b.s.V.l.B.8 5 2 9 P }.s.b.v.v.R.R.R.R.b.T.Q.v.l.b.R.b.c.x.g.a.].d.1 5 5 6 I $Xc.v.R.R.b.Q.R.R.b.R.R.R.b.b.b.c.x.A.x.g.].T 4 8 0 3 t.@Xx.v.v.T.v.Q.T.Q.R.Q.T.Q.R.E.Q.v.b.k.s.p.[./ 9 5 8 0 t.Q.Z.l.v.v.v.T.l.T.T.b.v.Q.T.v.v.A.x.x.x.p.2XY 5 7 5 < g.].x.v.v.R.R.Q.E.v.Q.Q.T.R.T.v.A.l.l.b.s.g.}.S 0 8 0 8 =XT.x.l.T.b.b.l.R.v.Q.E.b.v.R.Q.l.v.v.x.g.g.Z.H 9 5 9 J ].n.c.v.v.A.T.b.b.R.T.v.R.T.v.v.v.v.s.g.d.s.P.7 < < @ . x x a r a w w -   _ f d :   . h h p p d d p   e e e # e h p d p d O   > : z %   X o : j   = g . o ",
"d g M % X : = > > - o g X.V j g j h j g j  .*.j % : d : : d g d h h h g h h j h j g j f f g g g d h d g u r :   e r r u r v % @ < 5 Y.z.k.b.b.b.b.R.R.b.R.!.v.b.v.b.R.b.x.k.x.p.;XW 5 6 9 5 y.XXk.v.x.E.z.b.R.R.R.b.T.b.b.b.b.b.x.g.s.p.:XK < q 9 5 I.(.x.T.b.R.!.R.R.v.z.b.~.!.R.k.l.b.x.k.V.l.V.0 8 9 9 P  Xk.A.v.R.Q.b.Q.!.E.R.b.T.b.c.x.b.b.c.c.s.[.d.1 9 8 6 I %Xv.b.T.R.R.l.~.R.~.].~.R.R.R.b.R.b.x.b.p.oXQ 4 5 0 q M.oXk.R.v.T.Q.v.T.R.E.v.T.E.E.R.R.R.v.c.c.s.}./ 8 9 8 0 M.~.Z.l.v.R.R.Q.T.Q.Q.R.R.R.R.T.v.v.A.Z.p.p.%XT 3 0 0 q C.].v.l.v.R.R.Q.].v.~.Q.v.R.T.R.Q.v.l.c.g.h.}.H 6 0 8 Z =XR.c.l.b.b.v.b.R.v.R.R.R.T.v.R.v.v.x.s.Z.x.A.H 8 9 5 J {.z.D.v.v.T.v.b.R.R.v.R.R.v.v.v.v.x.s.g.d.x.*X7 < < @ . v x a r w w w =   ` a f :   O f f e : d d e . e : e o : j e d d h O   > > j =   o & > j   = g O o ",
"d d N % O : - : = O M o.j d g d : : d e p : j &.V % : : : : : : : : ; : ; ; : : : : e ; : : : : : : : : > e >   e r e u u v o @ 1 5 Y.!.x.b.v.!.!.R.E.R.R.R.R.R.R.l.R.R.k.x.Z.m.2XE 1 9 8 5 y.OXv.b.b.b.v.b.!.T.R.R.R.E.!.R.R.b.x.x.x.k.:XI 5 q 8 7 I.~.k.T.v.R.~.T.E.R.b.R.R.R.Q.k.R.b.v.k.V.l.h.0 8 9 6 U  Xn.b.b.b.R.b.R.R.~./.R.R.R.!.!.x.b.v.v.s.oXf.1 8 8 9 I %Xb.l.R.!.R.T.b.~.].].~.~.~.R.R.R.l.A.v.g. XS.4 7 0 3 d.oXp.R.T.T.R.Q.W.~.~.Q.E.~.Q.v.T.R.v.b.A.s.[.Q 8 0 8 A t.E.Z.T.T.Q.E.~.Q.T.W.'.E.~.].T.v.v.R.x.x.i.1XT 5 8 0 5 d.].v.R.b.R.R.R.].T.E.E.E.Q.E.R.R.b.l.x.x.x.}.H 5 0 Z 8  X/.x.b.b.v.Q.R.R.R.R.T.E.R.R.T.R.v.v.s.x.x.K.L 0 9 5 J {.T.D.v.R.T.v.].T.T.T.E.Q.T.Q.Q.v.x.v.s.g.v.P.q < < @   l x k a w a w =   ` f f :     f f p : e d e O u : : # p h e p e h X   - > j ,   o o > h   = d . o ",
"d d N % O : > = # b  .d u e e e d d d : : > : d  .o.= : : : : : : ; - : : : ; > : - : : > : : : : : : : > e >   u u e u u v % @ < 9 Y.z.k.c.b.v.!.R.R.!.R.E.].'.R.R.R.v.R.b.v.m.2XW 1 8 7 5 t.oXx.b.b.b.!.!.).~.R.].E.].!.R.!.R.k.A.x.x.;XH 1 q 8 7 I.).n.b.l.R.].R.~.!.~.R.E.!.~.R.R.R.b.l.V.l.V.8 8 9 8 P  Xz.b.v.b.!.~.R.E.].~.].!.!.R.R.b.b.b.x.k.].j.1 8 8 6 I %XR.R.Q.E.R.R.~.XX~.(.~.).^.!.].R.l.x.b.k.oX8.3 7 0 5 B.@Xk.T.R.Q.R.oXoX].(.W.].].E.'.E.'.R.v.c.s.oX/ 8 0 8 7 C.~.A.T.v.v.E.~.~.E.].~.~.E.~.W.Q.R.v.v.v.s.2XT 5 8 8 5 C.oXv.R.R.R.R.E.(.T.].].].].E.~.R.Q.v.v.c.c.OXH 7 0 8 Z $X~.n.R.T.v.E.E.R.E.].E.Q.R.'.v.Q.T.v.v.x.x.Q.H 6 8 8 K }.T.D.R.v.T.E.Q.R.R.Q.R.E.R.E.Q.v.v.x.x.g.v.*X7 1 < @ . l x r p r p w -   ` f f :   X p f e p : d e . e : e # p h e p e d O   > > n %   X & ; h   = d   o ",
"d d M %   : = o u C u : d d p : - - - > : : : ; :  .V = : : ; ; : ; - > > - > - > - - - - : - ; > > ; ; - : ;   p p e e r k # @ 2 6 F.D.k.n.b.T.~.^.^.^.^.).OX~.^.[.~.z.!.z.b.m.2X! 5 0 8 7 t.OXv.R.b.!.^.^._.).OXOX).+X^.~.^.!.b.b.b.l.%XK 2 6 8 7 I._.z.!.R.!.).^.^.).@X[.^..X).XX!.!.b.l.c.z.F.8 8 6 0 U  X!.D.b.!.!.).^.OXXX^.OX^.^.^.^.!.z.T.v.x.oXh.1 7 8 0 I %X!.T.R.~.~.~.XXoX).).^.@X).).)./.R.b.b.v.oX8.3 8 0 9 t.1Xn.E.R.~.).`.`.`.1X`.&X+XOXOX^.^.!.b.v.k.OX8.7 8 8 0 f.~.H.T.E.!.~.~.).).OXoX^.).^.).^.!.z.z.c.k.2XT 5 8 0 5 B.oXv.T.R.E.].(.`.^.XXOX).^.).).].~.R.b.v.b.$XH 8 Z 0 Z  X~.b.T.T.!.~.^.].~.[.OX[.^.^.[.!.!.b.z.x.l.|.L 0 8 6 J [.z.b.T.R.R.].).^.^.).XX~.'.[.^.b.z.v.c.j.n.-X7 4 1 4   k x a w a w w $   V f f :     f h e e p p e   e e e % e h p d e d O   > > n =   o # ; h   = f . o ",
"g p b % O e o = b d : e d > , X X , X X # > e : : d  .: % : ; : : ; > - > > - > - > - - ; ; ; ; > > - - > : ; X r p e : r k # @ 2 6 F./.n.z.!.!.OX+X<X+X+X>X>X+X<X<X+X.X!.n.z.k.2XW 5 5 0 7 M.@Xb.!.R.~.OX#X<X3X4X>X<X3X,X<X#X^.R.R.b.b.;XI 2 8 7 Z I.`.z.!.T.^.#X&X>X>X>X<X<X>X>XOXOX~.b.z.Z.T.D.G Z 0 0 U  X/.!.z.!.).`.+X>X<X<X4X#X>XOX#X.XD.!.b.b.@XG.1 8 7 6 Y %X^.T.!./.).+X>X#X3X3X<X4X<X3X#XOX^.R.R.b.oXS.9 Z 0 8 j.1XT.!.E.~.XX#X3X4X3X>X8X4X3X4X+X@X~.b.b.l.oX9.7 0 Z G f._.A.T.R.~.`.>X#X>X3X3X1X<X#X<X).OX!.E.b.l.7XT q Z Z 5 h.oXb.E.R.~.).#X3X3X>X3X3X#X>X<X+X[.!.Q.R.'.oXL Z Z Z S  X(.!.T.T.^.OXOX#X<X&X<X&X#XOX3XOX~.b.l.c.R.'.L 0 7 0 L .Xz.!.E.!.R.oX@X@X#X#X3X#X+X#XOXOXR.R.z.c.z.*XZ 2 4 @ . k x a r r w t -   [ a f :   O h h e e p p p O : e : , p j p d e g O   - > j ,   X # ; h   = g O o ",
"d : b o O > O d d : : d = O % s ] ] s i O O - : : : b B o : : ; ; - > > - - - : - > > > - : ; > ; ; ; ; : > > . e p e e e v # < < 6 Y.!.z.z.T.!.+X<X,X5X5X5XqX5X,X,X,XOX~.z.!.l.2XW 2 0 8 5 f.%X!.~.z.^.<X4X8X5XwX8X5X5X5X5X,X<X~.b.R.T.2XU 2 8 Z Z I.`.~.~.E.^.>X,X8X4X,X,X6X4X4X,X<X~.R.R.H.E.D.0 G 0 8 U $X!.!.!.^.`.3X8X8XwX8X9XwX8X,X4X<X~.E.!.z.1Xx.5 8 Z 0 Y &X!.~.(.~.OX4X4X8X0X8X9X5X5X8X6X<XOX!.R.b.@Xu.2 S 0 q f.1X!.~./.(.#X8X8XqX8X9XwXwX9X8X,X#X^.T.~.R.OX9.7 0 8 D h.OXb.W./.XX>X4X8X8X0X8X4X4X8X8X>X&X~.~.R.z.7XT 0 8 D 7 f.@X!.!.E.XX+X3X5XwX8X8X8XwX8X8X,X+X/.b.b.'.%XL Z G D S  X(.b.R.T.^.4X3X4X8X8X,X,X5X>X8X+X[.!.R.b.E.|.K G Z 0 K .XD.~.E.~.[.#X3X3X8X5X8X,X6X4X>X3X^.!.b.n.z.*XZ 5 < @ . k ( r r w t t -   V a f >   X a f p e p p p   e e : # p h : e : g O   > > j %   X # > g   = h O o ",
"d e j % o o % g e d d d O * | } aXaXdX| ] X X : > > e ..= o : > : - - > - - - - > > ; : - - - > ; > ; - > : - . e e r r u v # @ 2 6 F.^.b.z.!.).+X,X5X9X5X5XqX8X9X9X5XOX^.T./.z.7XW 1 0 8 7 f.@X!./.^.OX3X8XqX8XwXtX9XtXtXtX9X>XXX!.R.R.2XI 5 0 Z Z L.1X(.(.~.OX4X5XqX9X8X9XwXqX8XqX3X^.]./.!./.G.Z Z 8 8 U $X!./.!.~.<X3X8X0X0XtXqXtX9X0X5X3X^.!.~.z.%Xj.5 Z Z 8 Y &X~.E.~.XX>X8XqXqXtXqXqX9XtXwXwX,X&X!.T.b.OX8.6 Z 0 7 B.3X~.(.~.).3XwXwXtXtX0XtXtXqX9X8X3X).~.!.z.&X9.Z 8 7 D j.oXb.T.~.@X4XqXwX0XwXwXwXqXqXqX4X<X).~.!.T.eXT 8 8 D 8 h.oXE.!.XX_.#X3X0X0XqXqXqXtX9X9X9X&X/.E.R.R.%XI Z F Z S ;X(.b.E.].OX4XwX9X8XtXqX9X9X8XwX,X[.E.z.b.b.}.I G Z 8 K .X~.'.!.~.`.5X0X8X0X0X8X8X8X8X9X4X[.!.b.s.!.*XZ 1 1 < . v v r a e t t &   V a p >     f f : p e p p O p e : # p g e p p g o   > : j %   o # > h   = g O o ",
"d p j % O   : d : : d = * | hXsXaXhXsXdXdX]   = p - ; N :   ; > ; : > : - - > > - > > : > > > - > ; - > - : > O e u r u r v + @ 2 6 F./.z.T.~.).#X8X5X0X0X0XqX9XtX9X8X>X).!./.T.eX^ 5 8 8 Z F.@X!./.~.#X5XwXqXtXtXtXtXtXtXtXtX>X).E.!.!.2XI 6 8 Z 7 I.1XE.~.[.OXqXqXtXtXtXtX0XqX9XqX5X).~.T.'.(.L.G 8 G 0 U $X~.!.!.).4X8X5X0X0XtXqXtXtXtXwX8XOX~.~.T.1XD.5 Z S 0 Y 1X^.(.E.(.3X0XtXtXtXtXtXyXtXtXqX6X+X~./.R.%X8.9 7 G 7 B.1X/.(.(.).4X0XqXtXpXtXpXyXyXqXwX4X).].E.T.%X9.8 8 Z D h.`.'./.).1X8XtXtXtXtXtXtXyXqXtX0X3X).~.~.R.eX/ Z 8 G 8 h.@X~.^.^._.3X8XqXyXtXtXtXtXwX9XwX&X~.!.b.].%XK A D S S ;X^.!./.).@X4X8XqXtXtXiXiXtXtXqX8X$X].R.R.!.}.K 8 S F K .X(.~./.~.).>X0X8X0XqX9XqXqX9XwX4X@X~.b.k.!.*XZ 2 < <   k x r r r t - =   ` f e ;     f f : e : e e O : : e % e j e d p d O   > - j %   X # - g   = f   % ",
": : j % O   p p : e d o ] aXsXsXfXfXfXaXaX} *   p - - h g   = : > > : = , o o & % = % % & & & & % , % % # # =   t t e e r k # @ 1 8 Y.^.b.!.^.).>X8X9X9XtXtXqXtXtX9X5X3X).!.E.T.eX! 5 0 8 7 f.`.!.^.~.@X5X0XtXyXyXyXyXyXyXtXtX>X)./.T.!.2XI 6 0 Z Z I.`.E./.(.OX0XqXtXtXyXyXqXtXtX9X6XOX^.T.!.(.D.G 8 G 0 R .X~.!.^.`.3X0X0XtXtXyXtXtXtXtX0X8X).(./.T.1XG.6 G S y T 1X~.W.^.).3X0XtXyXtXyXtXyXpXyXqX8X+X]./.R.&Xu.9 Z G 8 F.1X!.~.).@X5X0XtXyXpXyXyXyXyXtX0X3X).~.T.T.+Xu.Z 8 Z G h._.!./._.#X8X0XyXyXyXpXtXpXiXqXqX3X).~./.z.eXT Z S D 8 h.1XE.~.^.).<X0XqXyXtXiXpXqXtXqXwX&X).R.!.].%XL S D A S ;X).!./.^._.8XwXtXqXqXiXiXiXtXqXwXOX(.~.!.!.[.K 8 Z S U  X/.^.~.~.^.<X8X0XqXqXqXqXtXqXqX4X+X~.b.z.!.=X7 4 1 @ . k x r r w t - &   _ f p e   O d j e e p p p . e : e # g j : d d d O   - - j #   X # - g   = g . o ",
"d : j ,     d : : : d , } sXhXhXjXgXfXgXaX} s   w : : p n   & ; - - : X     .                               X O u u e u r k o @ 1 6 F./.b.!./.).<X5X9XtX9XtX0X0XtX9X8X,XXXT.!.z.eX! 5 Z 8 7 Y.`.!.^.!.).4X0XyXpXtXpXpXyXyXtXqX#X).^.R.!.3XI 6 Z G Z I.`./.XX~.`.0X0XtXtXyXpXqXqXtX5X,X^.~./.'.(.D.G Z G G R $X/.~./.).1X8X0XtXyXpXyXtXtXtX9X4X`.~.~.T.#XG.7 G S 0 Y 1X~.(.).~.<X0X0XtXpXyXyXyXpXtXtX8X@X@X/.R.&Xq.9 A A 0 V.1X!.~.^._.4X0XtXyXpXyXyXpXyXtXtX>X^.~.E.T.OXu.Z G Z G h.^.!.W./.@X5XtXyXyXpXyXtXyXtXtX9X4X)./.!.z.eX/ Z Z A 8 D.1XT.(.~.(.&X8X0XtXyXpXiXtXtXqX8X+X(.R.!.~.%XL S A S G ;X).!.~.(.).3X8XtXtXtXyXiXiXiXiX8X+XXX~.!./.}.K Z Z S U OX~.^.~.(.^.3XwX0X0XqXtXtXqXqXwX3XOX~.T.z.!.*XZ 1 1 < . k v a w w w t -   ) f f :     d h e e e d : O : e : = p j d d j V X   - - h #   X o - g   = g O o ",
"p : j %     g e > p d * dXhXhXgXjXgXhXgXhXdX]   w : : p M   & > - - > # O     O O . O   . . O .   . O O O X & . t e e u r k o @ < 5 F.!.n.!.^.^.OX,X5X9XtXtXtXtXyX9X8X4X)././.z.eXQ 5 8 Z 7 t.@X!.~.~.`.3X0XtXpXtXyXpXpXyXtX9X<X~.~.~.T.2XI 2 7 G 7  X`.~.~.~.@X5XwXtXtXtXpXyXtXtX9X>X^.~./.!.^.D.G Z G G R $X/.^.!.(.+X4X0XtXqXtXyXqXtXtX0X3X_.(.~.D.OXG.7 Z F D Y &X~.~.(.^.#X4XwXtXyXtXpXyXpXyX0X4X1XoXT.'.1Xq.9 Z Z 8 f.1X!.~.^._.3X8XtXyXtXpXyXyXyXyX0X>X).].~.!.@X9.Z 8 Z G h.(.~.W.(.`.3XtXyXyXyXtXyXpXtX9XqX<X).^.!.D.7XT 8 S D 9 h.1XR./.(.(.+X0X0XtXtXiXiXtXyXqX8X&X~.E.D.~.@XI Z 0 A S +X(.D.^.(.XX3XwXqXpXtXtXiXiXiXqX8X#X_.!.~.E.}.K 8 Z D U $X~.^.(.~._.4X0X0XqXtXiXqXqXtXqX8X@X~.T.l.!.=X7 1 4 @ . k v r r t w t &   V f d -     f f e e : p d   e : : = > ; = = > :   O - - b #   o # - g   - g   o ",
"p e j #     d e > : d , } aXhXhXgXgXfXaXaXdX]   e ; > p n   o > - > > = o O o X o o o # X o o o # # # # o % = . u u e e t k o @ 1 6 F.!.D.!.~.^.+X<X8X9XqXtXtXqXtXqX5X<X^.~.!.l.eXQ 1 8 0 7 f.@X/.^.).+X5XwXtXyXtXiXiXyXuXiX9X>X).~.!.!.2XI 9 Z Z Z I.`././.~.@X,X8XtXtXtXtXyXtX9XtX,X).!.T.'.^.D.G Z D G R $X/.)./._.@X4X0XtXtXyXuXtXyXtXtX,X).E.].T.@XG.9 S S 0 Y 2X^././._.#X9X9XtXiXuXuXiXtXqXqX8X@X(.~.!.&X9.0 Z D 9 f.1X~.(.(.`.4XwXtXtXpXpXpXpXyXtXtX4X).~.~.T.%X9.Z 8 Z Z f.@X]./._.@X5XtXyXyXyXuXtXuXpX9XtX6X^.~.~.T.7XT D S A 0 V.@XE.E.(.`.#XwXtXtXyXiXiXtXtX9X8X#X~.E.!.].;XL 7 S D S ;X(.R./.~.~.6XwXqXtXtXuXtXuXuXqX8X+XXXE.!.!.[.K Z Z Z U  X/.'.W.~.~.6XqX9XtXtXtXiXqXqXtX9XOX~.E.l.!.=X7 2 1 @ . k x r r w t - =   ` p d >     f h : p e p p O : : e # h e = > p M #   - - b #   o o - g   = g O o ",
"e : d #     p : > > b , ] dXaXhXgXhXaXdXaXdXi   p - ; p g   o = - - > ; # o = & = & & # = & & & # # % % = - = O t u : u e v # @ 1 8 F.~.b.!.!.).<X6X9X9X9XqXtXqX9X9X8X+X^.!.!.z.eXQ 6 7 8 7 F.@X!.~.~.+X5XtXtXtXtXiXyXtXyXiX9X>X^.^.T.!.7XI 9 Z Z Z I.`.~.~.^.OX,X9XtXtXtXtXtXtXtXtX,XOX~.E.D.~.G.A 8 G G U $X!.~./.^.#X5X9XtXqXtXyXtXtX9XqX,XXXE.~.l.1Xc.8 D Z D Y 1X^.E.[.(.#XqX9XtXtXuXyXyXtXtXtX8X@X_./.R.&Xu.0 Z Z 8 t.1XE.E.)._.3X8XqXtXpXyXpXyXtXtXtX4X).~.~.T.$X9.Z G Z G f.`.!./.(.<X5XwXtXtXyXpXtXyXtXqXqX>X).~./.T.eXS.A F F q V.@XE.~.(.).#X8XtXtXyXtXiXtXtXtXwX#X).!.!.~.;XL Z Z Z G ;X(.!.E.].XX6XqXqXtXtXuXtXuXtXqX8X#X).].R.~.}.K G 7 G P  X!.].~.~.XX6X9XqXtXqXtXqXiXtXqX9XOX].z.z.D.=XZ 2 4 4 . a x a w r t - =   ` a p >   O d f e e e e p . > p e & p g : d d b X   - > h #   o # - g   = d   o ",
"; : d X     > p > = M > i | dXdXaXdXdX} dX] , * e - > d ;   o = = - ; > o X % % # # & = % % % , # = = = - - > . u u e t t k o @ < 8 F.].D.!.!.^.<X4X5X9X8XqXqX9X9X9X8X&X~./.!.z.eXQ 6 8 G 7 B.@X!.~.!.OX4XqXqXtXtXiXtXtXtXtX5X+X^.^.!.!.7XI 9 8 D Z I.`.E.~.].OX9X9XtXtXtXtXtXtXqX0X5XOX/.T.'.~.G.A 8 D Z U ;X/.[.~./.#X8X8X9X9X9XtXtXtX8X9X,X).].].l.%Xh.7 A S D U 1X~./.~.).3X8XqXtXtXiXyXtXtXqXtX5X+X).~.!.&Xq.9 A D A f.1X/.~.)._.3X8X9XtXyXyXyXyXtXtXtX3X).~.R.T.$XQ Z Z Z G h.`.R.(.).1X8X8XqXtXtXpXuXtXtX9X9X>X).~.~.T.7XE A S S 0 V.oXR./.~.).<X8XqXtXtXqXyXqXqXtX0X&X~.^.!.!.;XL Z 0 A Z ;X_.!.E.^.@X4XwXqXtXtXtXtXtXtX9X9X$X~.'.E.!.}.K Z 0 D U .X/.'.W.~.`.4X9XwXtXtXqXqXtXqX9X4XOX!.b.z.R.-XZ 1 < @ . a x w r w t - $   _ p d :   . a h p p e p p O : p : & : h : d d h X   - - j #   o o - d   - f   o ",
"e ; d #     = : > = d V = ] | } } dX} } ] * # : ; = > f o   # = - - ; h C j M B _ ..o.o. . .o. .....X.V j = > O t u t e t v o @ 1 9 F.!.b.!.!.~.+X,X,X9X9X9X8X9X9X9X8X<X!./.!.z.7XQ 5 8 0 8 M.@X!.!.T.).3X9X0XtXqXqXtXqX9X9X5XOX^.!.D.!.3XI 9 Z S Z I.`.R.R.E.XX,X8X8XtX9XtX9XtX9X9X4X).!.~.'./.G.F 8 G D R $X!.XXE.).@X5X5X8XqX9X9XtXtX8X8X>X.XR.R.l.1Xh.7 Z D 0 I 3X~.E.~.).&X8X8XtXtXtXtXtXtX0XtX5X+X^.~.'.1Xu.0 Z Z 8 C.1XE.~.~.).3X8X0XqXwX9XtXqXqX0X0X3X_.R.R.z.%X9.Z 0 8 A f.`.'./.(.#X8X8XtXtX9XtXtX9XwX8X9X>X[.^.R.z.eXT A A D 0 V.@XE.~.E.`.1X5X8XqXtXtXiXqXtXtX8X#X/.].!.'.&XJ Z Z Z S $X(.!.(.~.OX4X8XwXqX9XtXtXqXqX9X8X+X!./.].!.[.I 0 Z Z P .X!.!.T.~.OX3X9XwXqXtXqX8X8X8X8X4X+X~.b.k.!.-X7 1 1 @ . k v r e w - t #   _ f d :   O d f : : : : p O : : : = : j : d e d O   - - j #   o % > j   = f O o ",
": > g o O   o : : = > M V , i ] ] ] ] s , , p > e > > p O   & = - > > e j j j M B C V V B B V B B B B j e > > O e e r e r k o < < 5 F.!.n.!.D./.+X>X,X4X8X9X,X5X8X8X,X+X^.z.z.z.2X8.5 A 0 7 t.@X!.D.!.^.<X5X9X9X9XwX8XqX8X8X3XOX].R.b.T.2XK q 8 8 Z I.`.R.!.T.^.,X5X5X9X8X8X9X9X5X8X,X).~.T.H.~.G.G G Z 8 R ;X/.R.E.!.OX,X8X9X9X9X9X9X5X5X,X+X^.T.b.k.1XG.5 Z Z 0 Y &X'./.^.^.+X4X4X8X9X9X9X9X9X8XwX>XOX!.!.D.@Xu.6 8 0 8 h.1XT.!.!.^.+X3X8X0X5X8X8X0X8X8X8X+X!.z.!.T.$X8.7 Z Z F f.@XR.E.~.+X4X5XwXtX9X9XqX9X9X8X5X>X/.!.b.z.eXT 0 Z A 8 V.oXR.R.!.~.#X8X4X9XqXqXqX9X9X9X4X#X~.D.D.].%XL 0 Z G Z =X(.b.E./.^.3X,X8X9XqXtX5X9XqX8X8X).!.b.'.E.|.K A Z Z P  XE.R.T.R.^.>X9X9X9XwX9X9X5X5X8X,X~.b.b.v.!.=X7 4 4 @   a v r w w w * #   ) f p ;   . d g : : : e p X - : : % e h e e : d X X - - j %   o o - h   = d O o ",
": > g o   o   = : = > :  . .% , * * * , = j : > ; > p =   O & ; - = > > : : : : e : e : > : : : : e e : ; > -   : e r e r v O @ 1 8 U.R.b.!.z.D.OX+X#X>X<X<X>X6X3X,X#X.X!.D.b.l.2XQ 5 8 Z 8 M.@XT.!.z./.+X<X,X>X8X6X4X,X,X4X#X[.R.T.b.l.;XI 5 0 7 Z L._.z.b.R.~..X<X,X,X,X,X>X,X,X>XOX!.D.!.c./.G.G Z G 0 R $Xz.v.b.b.OX,X>X,X8X9X5X,X,X,X+XOX!.R.b.k.@Xf.1 0 Z 0 Y %X!.T.!.R.OX#X,X,X5X8X8X,X4X8X5XOX~.z.z.b.@X8.3 Z Z 0 d.1Xl.!.E.!.^.#X3X4X3XwX8X4X5X>X>X#XR.b.'.k.OXQ Z 8 Z F f.).b.W.~..X#X,X4X8X8X8XwX,X6X,X,X+Xz.!.!.D.7XT 0 A A 9 c.oXT.R.!.!.+X<X4X6X3X6X8X5X8X3X>X^.R.R.z.'.%XL 0 Z Z Z $X(.R.W.z.!.+X>X,X8X8X5X,X5X,X<X>XOXb.c.b.!.'.L Z Z Z K  XR.!.E.R.].OX,X5X,X,X<X,X<X5X6X<X!.b.v.n.n.=X7 1 1 @   r v w r w t $ &   ` p p >   . d j e : : e d . - e : , e h e e p h X   - - j ,   o & > g   = d . o ",
"d : g o   %   O : > : = p V  .V j d j V B d : : - : p X   o % = - - - - - = > i > > > - = = ; - - > - - - t -   > u u t t k o @ 1 5 F.R.c.D.b.b.D.^.!..X).[.OX+XOXOX!.'.D.c.c.n.2X8.q 8 Z 8 M.XXn.z.!.D.OX).OXOX+XOX+XOXOXOX[.!.b.n.b.v.%XI 5 q 8 Z I._.b.D.R.R.!..X.X<XOXOX^.OX+X[.^.D.b.z.H.!.D.G 8 D 0 U $Xz.b.b.!.!.OXOXOX>X.X+X+X+XOX].!.R.b.b.s.oXj.1 8 8 9 Y %Xb.z.R.T.^.^.).OX+X&X#X+XOX>XOX^.R.v.b.c.@Xu.6 A A q C.1Xl.z.T.!.~.^.`.`.+X+X+X&X+XOXOXXXR.b.v.k. X8.8 Z Z D f._.H.z.R.~.).+X<X+X#X#X#X+XOX.X@X!.z.T.l.l.7XT 8 S D 7 h.XXT.T.!.R.!.[.OX+X@X@XOX#X#XOX^.!.b.v.b.D.$XH 7 8 8 7 $X/.b.T.z.].^.OXOX+X+X.X+X+XOX.X).!.v.k.x.b.|.L S Z G K  Xz.D.z.b.R.^.OXOX+XOX.XOXOXOXOX].!.c.x.k.z.*X7 1 < @   k v r w t t - &   ) f p >   X d h p : : e d . - e : % e h : e e h O   > - j %   X # > d   = d . o ",
"u : g o   =     o d > > > > d j B B M h e : : : > d =   . # # = - = - = = ; - = > = - - - - > - - > > - = - -   > u r w t k O @ < 9 Y.E.j.z.b.b.b.R.!./.~.^.!.!.!.!.!.!.R.k.k.m.2XS.5 8 0 7 f.XXn.D.b.!.!.~.^.^.~.[.~./.^.[.!.R.v.k.v.l.:XK 3 A 8 7 I._.b.b.b.v.!.!.~.!.!.).~.^.!.!.!.b.b.l.D.D.F.Z Z D 8 R  Xb.!.z.b.z.!.~.^.^.~.~.^.[.~.!.~.E.A.b.s.@Xa.6 8 7 0 I %Xv.b.b.!.!.!.^.].!.XX).].~.^.~.!.R.v.b.c.oXS.9 A Z 8 d.1Xz.v.z.R.!.!.^.^.).^.^.).).~.!.~.b.b.'.x.[./ Z 0 Z D f.(.Z.l.l.!.!.^.~.).^.^.~.^.^.!.~.T.l.n.l.k.7XT 9 Z G 6 V.oXb.v.z.!.~.R.).(.~.^.).OX~.~.!.R.b.c.n.b.%XH 7 8 Z 7 =XW.c.z.b.!.!.!.^.~.~.[.^.^.^.~.!.!.R.x.c.z.|.L G 8 0 L {.b.b.n.b.b.b.~.^.^.~.~.!.~.~.~.E.b.n.x.s.n.*XZ 4 1 @ . a v e t t t = &   B f d =   X p h : : p : p O - : e % : h : e : h O   - ; h %   o # - f   % f O o ",
": : h o   - X     % : : : > : e e e e : = : > e e %     o # # = > = = - > = = - - - - > - > > = - ; - - - - -   : e w e w a + @ < 5 C.!.h.g.v.v.v.R.R.R.!.~.R.!.R.R.Q.R.v.k.s.m.2XE 1 8 8 7 M.oXb.!.b.z.R.].T.~.~.~.!./.~.!.R.b.v.b.c.k.;XH 6 8 8 7 I.(.c.b.R.l.D./.E.!.R.].E.!.R.b.R.R.c.v.Z.v.V.0 8 D 8 R  Xz.!.c.b.D.R.~.!.~.~.D.!.~.R.R.R.b.b.b.g.oXa.1 0 8 0 I $Xb.v.l.R.R.E.].~./.!.~.R.R.!.T.b.b.v.b.g.oXS.9 Z 0 9 d.1Xk.z.T.b.!.T.E.!.!.!.!.~.~.].T.R.v.v.v.s.}./ 7 0 Z A d.E.Z.l.b.b.R.!.R.~.~.E.Q.E.E.!.R.A.v.v.v.p.2XT 5 A A 5 V.XXl.l.v.!.R.R.R.~.~.].].~.T.~.R.R.v.v.n.b.oXH Z 8 Z 8 =XE.c.R.b.v.R.R.!.!.E.].~.~.~.R.].T.b.k.x.x.{.H A Z 0 K .Xb.c.v.b.b.!.!.!.~.!.].E.~.E.].R.R.v.k.p.s.*X7 1 < @ . k k r t t t $ &   B f e ;     d h p e e e p X = : : , p h : : p d X   > - j =   o = = d   = g   o ",
": : j o   - o O     o > e : > > > > = : > : e e o     O # # & - > > > > > > = - - > - > - = > > - - - > = - -   ; e : e w k o 4 1 5 F.!.g.s.g.k.x.b.R.R.!.b.b.b.b.E.Q.l.A.Z.p.m.2XE 1 8 8 8 t.OXc.D.!.k.v.!.b.!.R.R.].!.R.b.R.b.v.c.k.n.;XK 3 8 A Z I.(.D.v.v.b.D.b.T.R.T.R.!.Q.b.R.v.b.b.c.g.l.V.0 8 0 0 U  Xz.v.v.b.b.b.R.!.!.!.!.R.z.b.R.k.n.b.x.s.oXs.5 8 8 0 I $Xx.l.b.R.b.R.~.~.R.R.T.!.l.R.b.R.b.c.k.g. XQ 9 8 0 9 d.@Xk.b.b.v.b.R.b.R.R.R.E.~.R.R.R.R.Q.c.s.j.|./ 8 6 7 A C.].x.l.b.b.E.R.E.~.!.E.Q.E.R.R.b.v.v.k.k.m.2XY 8 Z 8 5 h.oXb.b.T.'.!.R.b.].E.E.E.R.T.].R.R.k.x.x.c.}.S 8 8 8 7 $XT.c.l.x.l.R.!.R.R.R.!.R.].E.R.].l.b.x.x.b.|.H A 8 8 K {.n.x.s.b.b.~.R.v.b.!.R.R.R.R.R.v.b.v.x.p.k.-X7 < < 4 . a v w t e - t #   ) p p ;   O p f w p : e d O - : : % p h : d e d o   - = j =   X & - d   = g   # ",
": : j % X - # o O     . = : e e : : : e e : = O       o # % = - > - > > = = > - = - > > - - > > & - - - = - -   ; : e e r r o < 4 8 C.v.s.k.x.A.x.x.R.v.b.v.v.v.l.b.v.k.v.x.g.m.2XW 6 8 8 8 y.OXc.k.Z.k.v.b.b.l.b.R.b.!.!.b.v.b.b.k.k.n.:XK 5 7 8 7 P.(.v.b.b.Q.k.n.b.n.!.z.R.n.v.b.n.n.c.m.V.R.V.0 0 0 0 U }.k.v.n.v.c.b.b.b.b.!.z.D.b.b.b.x.x.v.x.i.oXd.1 8 8 0 I :Xs.b.b.z.v.l.b.R.b.R.l.'.R.v.b.b.b.k.x.h.[.S.3 Z 0 q d.oXi.z.b.v.R.H.l.R.R.R.T.R.b.!.'.l.b.c.k.s.]./ Z 0 Z D M.(.x.T.R.l.R.l.R.R.R.R.R.!.!.R.b.k.x.k.k.k.2XY 0 Z 8 5 B.oXx.R.v.b.R.b.R.l.R.T.T.Q.v.R.R.R.v.s.x.v.:XH 7 7 7 7 :XT.x.v.v.R.b.A.R.b.R.~.b.l.b.b.R.b.v.g.s.x.A.J D 8 A P ].b.x.n.x.v.b.!.b.R.b.l.!.R.T.v.l.b.x.g.p.x.-Xq 1 < @ . a x w t w t - #   N e e -   . d f : : e e p   = : : = : g : d : h o   - = j %   o # = d   = d   # ",
"d : j o   - % # o O     O O % = = > > = % O O     O o % # % = - > = > = > > = - = - = = > = = i ; ; - - - - -   ; e : e r k O @ 4 6 C.v.g.g.v.A.v.b.c.x.b.v.x.x.v.b.l.s.Z.s.d.m.2XR 1 0 0 8 y.[.c.x.x.x.x.x.A.v.R.b.v.b.b.v.c.b.l.x.j.x.:XK 5 8 8 7 P.(.x.c.v.v.n.z.v.b.b.b.b.c.v.x.v.n.Z.k.V.R.h.8 9 0 8 K [.z.c.x.c.b.v.b.D.v.n.k.z.R.c.b.b.v.x.g.i. Xa.5 8 8 9 K :Xk.c.k.c.v.v.x.T.Q.R.R.T.b.x.x.b.x.k.s.g.oXS.2 8 0 q C.oXi.v.c.v.v.b.l.b.R.l.l.R.b.T.Q.v.A.g.g.s.[./ 8 0 7 0 t.(.Z.l.x.v.b.l.b.v.v.v.v.A.R.v.x.x.k.x.k.m.2XY 9 8 Z 5 d.XXk.A.b.x.b.R.T.R.R.v.T.v.T.v.v.b.v.x.c.x.oXS 8 8 7 7 :XR.g.v.b.x.v.b.b.v.v.b.b.b.v.b.l.A.x.g.k.k.K.H Z 8 0 K |.v.c.k.n.c.n.b.b.b.b.l.b.v.b.v.b.v.x.p.a.x.*X7 1 < @ . a k r w e - t =   N p d -   O f f : p e e e X - : e , d j : p p d O   - - j =   X & = d   - d . o ",
": : d %   : % % % o O             .           O   O # # = = - - = > = ; = > > - - - - - - - - - - ; = > > - -   > t > r r k + @ < q C.b.g.g.x.x.c.b.k.x.x.v.b.g.x.x.x.g.g.p.C.i.2X^ 3 0 6 8 y.[.c.k.k.x.x.x.x.x.b.v.k.c.c.x.c.c.s.g.c.k.:XI 5 8 8 7 L.~.s.x.x.x.v.n.x.b.v.c.v.c.x.x.v.c.b.m.B.l.f.8 8 0 0 K }.v.c.c.x.k.x.v.b.c.v.j.v.b.c.b.Z.g.x.s.d.].d.1 0 8 9 L  Xg.x.s.b.x.v.n.k.b.v.v.v.p.x.b.x.c.x.g.i.:XE 3 7 0 q C.oXp.x.x.x.b.v.z.c.b.x.b.v.x.x.v.v.x.g.g.p.|.E 8 6 8 0 M.~.c.k.k.g.v.b.b.x.v.x.v.v.b.k.l.x.x.g.p.i.2XY 9 8 0 2 d.[.s.v.k.x.v.R.v.v.b.A.v.v.A.v.x.v.x.c.s.g.}.S 8 8 8 7 :XT.g.k.v.A.x.v.c.v.v.x.v.b.n.g.v.x.g.g.g.g.H.F q 7 9 K {.k.g.j.k.c.g.c.x.v.v.v.v.v.x.x.x.k.k.i.i.b.P.5 1 < +   k k r w w t t &   B a e =   . d h : : : : d O - : : # d h : e : d X . - > j #   X o = d   = f   # ",
": > d %   > = % % # o o O                     o o o # # = = = ; ; ; ; ; > > = > - - - - > - - - - - > - > = -   > e > e t y o @ < q F.A.d.g.x.g.x.x.x.x.x.x.c.g.x.p.k.Z.h.a.d.m.2X' q q 6 7 t.~.j.j.g.x.x.g.g.x.x.c.x.x.c.x.c.j.i.a.g.i.:XK 1 9 8 7 L.^.g.x.b.x.c.c.x.c.c.h.c.c.x.x.c.c.x.s.C.k.V.8 8 9 9 U }.k.h.c.g.x.x.c.c.c.x.k.c.v.x.x.c.x.g.g.r.'.d.1 8 7 5 L :Xg.c.g.c.g.x.x.k.b.x.x.c.g.x.x.x.k.g.g.d.].S.9 8 0 q C.W.a.x.x.c.v.c.c.c.v.v.v.x.x.x.b.x.k.x.k.g.|.T 6 6 8 0 t.'.h.k.k.k.x.v.A.v.v.x.v.x.v.p.Z.k.x.d.p.i.2XY 9 7 8 1 d.[.g.x.k.x.x.b.c.x.z.v.l.l.A.x.x.k.x.g.d.g.}.H 8 5 7 7  XR.g.k.A.x.k.c.k.c.c.g.x.c.k.k.x.x.g.g.a.i.H.S 5 7 9 L |.s.h.x.x.v.k.c.s.c.c.v.x.c.x.x.v.s.g.d.i.x.-X7 1 < @ . k v r w w - - &   B a p -   . d h p : d p d O > e : # u g ; e e g X   = = j %   X & = d   = g O o ",
"> - d o   > = = % # % o o o O O O . O O O o o o o # % = = = = = > > ; ; > = = - - > - > > - > - - - - - = - =   > t e t t r o @ 4 3 C.A.i.w.h.a.h.d.g.h.V.g.g.g.V.p.p.h.g.d.t.e.2XR 3 q 5 6 y.'.i.k.g.g.g.g.k.p.h.g.x.k.g.s.s.j.d.g.h.i.=XI 6 8 9 7 P.^.s.g.x.h.c.c.c.g.k.c.j.x.j.s.c.c.x.p.B.s.B.8 7 6 9 P }.k.g.d.a.h.g.Z.g.c.s.g.x.g.g.h.g.c.g.d.d.].r.1 5 5 3 L :Xc.b.s.h.g.x.x.c.k.x.c.k.c.g.x.h.h.C.j.i.].S.9 8 9 q d.[.d.s.c.x.x.x.x.x.c.x.x.x.x.g.b.k.g.s.g.e.'.Q 7 9 8 0 t.'.g.p.k.h.c.k.x.x.Z.x.k.x.x.s.x.x.i.p.d.e.%XT 6 7 0 5 C.].g.x.b.g.x.c.v.k.c.v.x.k.A.x.Z.g.x.d.a.i.}.H 6 0 6 7 =XT.d.k.Z.p.s.j.x.g.x.c.x.c.j.x.g.h.g.g.w.i.G.S 5 0 9 J |.s.d.s.g.g.x.g.s.j.k.x.c.k.x.x.g.g.x.V.w.x.P.6 1 < @   v v r w p ; - =   ) p p -   . p d : e d p d   > e : = d j : e : d O   - = h =   o % = j   - g O # ",
"- > d o   > = = = = % # # o o o O O O o o o % % % = = - ; = ; - = > i : > i - ; - > - - - - - > - ; - - > > = X > e t r t r O < 4 9 M.x.d.g.d.h.g.g.g.g.g.g.g.x.p.d.g.d.d.d.C.e.;XR 5 q 6 9 y.!.d.s.g.h.g.g.g.x.g.s.g.g.g.g.g.g.g.g.d.d.-XK 2 0 9 7 U.!.g.h.d.p.g.h.h.s.a.g.s.g.g.a.h.g.g.i.B.x.f.0 5 9 9 P {.m.h.g.s.g.g.s.g.c.h.g.g.g.g.g.g.h.g.d.w.'.a.1 8 6 9 L }.d.d.x.s.g.x.j.g.i.g.h.j.c.g.x.g.h.d.g.d.].E 9 Z 9 q C.~.C.j.j.x.g.g.j.g.g.h.x.x.V.g.h.h.p.i.i.e.|.T 8 9 9 0 d.'.V.k.g.x.k.x.x.x.x.x.x.g.k.d.g.i.d.d.d.i.%XY 5 0 0 5 t.'.j.g.h.x.Z.c.c.c.g.g.s.x.s.g.p.s.g.a.w.d.|.H 5 0 9 7 *XT.d.p.p.s.x.s.j.x.g.x.s.s.s.v.g.g.g.i.r.a.J.F 9 5 5 J |.m.B.i.x.c.g.g.c.g.s.x.g.g.g.g.g.d.x.p.e.x.L.5 2 < @ . s y r w w w $ #   B p d =     d h e e : e e O = e e & d z : e : d O   > > h =   X o = d   = d O # ",
"= : d o o > = = - = > = = % % % , % % % % % % % = > = > = > = > > > > > : ; > > : : > - - : > > > : - ; - - =   > t ; e t r + 4 4 9 Y.x.t.d.d.d.d.d.f.d.d.a.d.j.d.r.w.B.r.t.C.u.2XR 3 6 6 1 M.'.d.d.d.h.d.j.d.j.d.a.j.h.h.d.d.h.g.d.r.w.=XL 2 6 9 7 I.b.d.h.d.a.h.h.h.h.h.d.d.h.h.a.d.d.d.w.M.k.B.9 6 9 9 U {.w.h.d.h.f.V.g.d.d.d.h.f.h.d.d.a.h.t.d.e.D.d.1 9 5 3 J }.i.t.h.d.h.g.d.h.w.d.h.h.g.a.d.h.f.d.d.i.}.T 9 7 9 3 B.~.d.h.d.h.g.g.g.h.d.d.j.h.d.d.h.h.d.d.d.w.{.W 7 6 6 0 t.T.V.x.V.x.g.c.h.s.d.j.c.s.g.d.p.i.g.t.i.r.2XY 5 8 8 1 t.'.d.g.g.j.c.c.c.c.g.h.h.c.d.g.g.V.a.d.y.d.{.S 5 6 5 5 {.b.M.a.h.g.h.h.g.h.g.a.g.j.a.i.h.d.d.t.t.a.F.A 9 6 5 J |.a.B.a.d.h.h.d.g.d.i.g.h.d.g.d.g.i.r.i.q.h.P.5 1 < @   k k e w w t t #   C r p -     f f e p e e p O > e : o d j e p : d X   = > j =   o & = d   = d O # ",
"MX% : = > : : : : > : : : : : : : : : : : : : i : : : : : : = = - > > > > > > > : : : > : : > : e : : ; ; - -   > r e e w u # @ < 2 N.D.e.a.r.t.t.d.d.d.t.a.t.t.d.t.r.d.w.e.t.w.;XP 4 q 2 q Q ].h.d.d.d.h.d.j.d.d.d.d.d.h.t.r.d.d.r.r.d.*XH 2 6 9 8 M.OXj.d.d.j.d.h.h.h.h.d.h.h.h.h.h.j.d.r.q.Z.y.9 6 9 0 J {.j.j.j.g.d.g.d.j.t.d.V.f.d.d.d.d.t.r.r.r. Xu.1 6 6 3 S K.c.d.d.d.g.d.h.h.d.g.h.g.d.d.d.t.t.t.d.c.*XI 9 8 9 5 q.%Xg.Z.d.a.d.d.g.h.g.d.d.g.g.d.d.d.d.d.t.d.{.R 5 5 8 q q.].g.j.g.g.p.g.g.g.d.d.h.d.h.d.g.V.i.w.e.g.;XL 5 7 9 3 u.}.g.g.d.a.h.h.g.h.g.V.g.h.d.d.f.f.e.d.r.H.G.8 5 5 6 5 C.oXi.a.j.a.d.h.d.j.g.j.d.d.r.d.g.d.t.e.y.c.F.Z 6 6 9 F |.j.f.r.d.d.d.i.g.g.d.d.d.d.g.d.d.d.w.t.e.K.C.5 1 < +   l k w w w - - =   ) p p -     p f e e e e d % : d e : b h : p e d X   > = j &   o = - d   = p O # ",
"MXV  .X.X.X.X.*.X.o.o. .X.X.X.*.X.X.*.*.*.X.*.*.$.$.*.*.&.&.X.= % : : : : ; : : : : : : : : e e > e e e e ; & O > e e e r r O @ @ 1 P V.L.L.{.I.L.L.I.{. XL.{.{.{.P.{.{.{.K.H.|.y.8 2 5 2 3 H C.{.|.}.}.{.{.{. X}.{. X{.}.{.{.{.{.{.{.{.e.7 2 9 9 8 U V.'.}.}.}.{. X X X}. X X X}.$X}. X{.|.L.K.U 9 5 2 0 Z q.'.}.}.}.}.*X{.}.*X X*X{.=X}.-X{.*X{.L.{.G.L 2 2 9 9 8 Q H.'.}. X}.}.}.}.}.}. X X{. X X{.{.{.=X}.e.Z 6 6 9 9 H Z.}.}.}.}.}.*X X X}.=X X X*X*X}. X}.*X|.|.B.S 9 9 9 5 L Z.].}.}.oX}.}.}.}.}. X}.}.}.:X}.:X}.*X{.*XM.Z 6 9 9 9 I V.}.-X}. X X X:X}.}.:X}.*X|.{.}.}.|.{.{.K.W 6 5 5 5 5 I H.'.].}.}.|.[.}.}.}.}.}.}.|.}.}.{.{.K.J.H.E 9 5 6 6 8 8.H.'.{.{.{.{.}.{.}.{.*X*X*X{.}.}.*X{.K.|.Z.P < 1 <   & ) a w w w t t #   N p p >   O p g : e e e d d *.$.$.*.o.: : p p d O   = - j %     O X %   O o . . ",
"MXp d : d d d : d d d : d d d d d d d d d d d d d h g d d d X.&.= O o X X X X X X X X X O O X X O o o X X X O   O o O X o O   o @ < 1 D R ^ W ^ W W W W W ^ ^ ^ W ^ ^ ^ Q Q Q R 8 1 1 4 < < 5 F R W ! ^ ^ ^ ^ ~ ^ ^ ^ ^ ^ ~ Q ^ 8.~ ~ W D 2 2 5 5 5 6 H E 8.Q 8.~ ^ ^ ^ ^ ^ Q ~ ! 9.9.8.8.0.W K 8 2 2 2 9 2 G U ! ~ ~ ~ ~ ! ! ! ~ Q 8.~ ! ~ ~ ! ~ ~ Q P 6 2 4 4 2 6 8 K W 8.0.8.0.8.9.~ 0.0.9.~ ~ ! ~ ^ ~ ^ R D 4 3 3 2 5 0 K E 8.! Q ! 0.0.0.0.! 0.0.Q 8.~ 0.0.0.q.Q F 6 2 5 6 3 5 H E 8.9.9.q.q.9.q.9.9.9.q.9.8.0.0.8.0.q.E S 8 5 9 5 6 8 J E 0.0.0.9.0.0.0.0.9.8.0.0.~ 8.8.~ 0.0.U 8 3 2 3 2 1 8 L R Q Q 8.Q 8.~ ~ ~ Q Q ! ! ! Q Q Q Q ^ P 7 5 4 2 1 1 Z Y Q ~ ~ ^ ^ 0.W W Q ^ ^ ^ ^ ! ! W Q ^ E J 5 < 4 . X #.x w w w - - * &   N f d =   . p h : e e e p d j j j j d e p d : d X   = = j =   .     .   .       ",
"MXMXMX: = = = - = = i = % > > > > > = : = > > i : : : : : : d $.>.$.X.X.O.X.O.@.$.$.%.%.%.%.%.%.%.%.&.%.&.;.&.&.=.&.;.:.=.=.:.N O @ @ @ < < < 4 < 4 4 2 4 1 < < < 2 < 1 1 1 1 1 4 @ 4 < 4 @ < < 1 2 5 2 2 1 < 2 < 1 4 1 2 1 2 1 2 2 2 2 1 < 4 4 4 4 < 1 2 5 1 1 1 2 2 2 6 1 1 1 2 5 5 2 5 2 1 1 < 4 4 4 < < < 4 5 2 5 5 2 2 3 5 2 5 5 2 2 2 2 5 2 2 1 < < < < < 2 2 2 2 4 6 5 2 2 5 5 1 5 5 5 5 5 2 1 2 2 1 5 < < 1 4 4 1 2 2 5 1 5 1 2 5 2 2 5 5 5 5 2 5 5 2 5 5 5 1 1 1 1 4 2 2 1 1 5 5 5 5 5 5 5 5 5 5 5 5 5 5 5 5 5 5 5 3 5 2 1 2 1 3 5 2 5 2 2 5 5 5 1 5 5 5 5 1 5 1 1 1 5 1 5 1 1 < < 1 < < < < 1 2 1 5 5 5 5 2 3 5 2 2 2 5 2 2 1 1 1 1 < < < < < 1 < 1 1 2 2 1 1 1 1 1 1 < 1 2 < 1 1 1 2 1 < < @ @ . & #.{ a p w w ; - $ =   B f p ;     d g : d d e : p d : d : : d d : : d o   = = j =     % - = X .       ",
"MXMXMX= > = > - = > > : : = > > : : : : > = > : > : : : e : > d V X.X.X.X.o.o.+.X.X.X.O.+.O.O.+.O.@.@.@.%.%.@.%.%.%.%.&.-.#.&.*.j $ @ o + + @ @ @ + + @ @ + + @ + @ @ + + + + + @ @ @ < @ @ @ < @ @ @ @ @ + @ @ + @ @ @ + @ @ + @ @ @ @ @ < < 4 4 @ @ < @ + @ + @ + @ @ @ @ @ @ @ + 4 @ < + @ @ < < @ 4 < < 4 @ @ @ + @ @ @ @ @ @ + @ @ @ @ @ @ @ @ @ @ @ < < 4 4 < < < < + @ @ @ @ @ @ @ @ @ @ @ @ @ @ @ @ @ @ < < < < < < < 4 < < < @ @ @ @ < + @ @ + @ @ @ < @ < @ < < < < 1 1 < < < < @ @ @ @ < @ < @ @ < @ @ < @ @ < @ < < < < < < < < < < < @ @ < @ < @ < @ < @ + @ < < + @ @ @ @ < @ 4 < @ < < @ @ @ + < @ < + @ @ + + @ @ @ @ @ @ @ @ < < < 4 < @ @ @ < < @ @ + @ @ @ + + + + + + @ + + @ @ @ @ + - [ ` a p w w w t t - #   ` f f -   O p f : p e p e d : : : p d d d : p d o   - : g ,   e %. . .C :   .   ",
"MXMXMXMXMX> > = = > > = > > % > = > > > = > = : = > > : e > : > : p e e e : : e : : e e e e p p p p d d d d d f f g f f f f f j ` b % + + @ + + @ @ @ @ + @ @ @ @ @ @ @ @ @ @ < @ @ @ 4 @ @ @ @ 4 < @ @ @ $ @ @ @ @ @ @ @ @ @ @ @ @ @ @ @ @ @ @ < @ @ 4 @ @ @ @ @ @ 4 @ < < @ < @ @ @ @ @ < @ 4 @ 4 @ 4 @ @ 4 @ 4 < @ < @ @ @ @ < @ @ @ < @ @ < < @ @ @ @ @ 4 @ 4 @ < @ @ < < < @ < @ < < < < < < < < @ @ < 4 4 < @ < < < < < @ < @ @ < < @ < @ @ < < @ @ < < @ < < < @ < < < 4 < < < < @ < < < < < < < < < < < < < < < < < < < @ < < 4 < < < < < < < < < < < < @ < < < < < @ @ < @ @ < @ < < < @ < < < 4 @ @ @ @ @ @ @ @ @ < @ < @ @ < @ @ 4 @ @ 4 < @ < < < < @ < @ < < @ < < @ @ @ @ @ @ @ + @ @ @ . > ..) p p p w p w - - - &   N a f =     p h : e e e : : d : : : : p : e e d O   : > %   : X. .h j z n = MXMX",
"MXMXMXMXMXMXMX= = = = = = % % > > = = = > = : = = : = > : = : > : i = - - - - - - > > - - - > > ; e ; e : : : e e e e u u f r e f ` _ - . . + + . + . + + + + + o + + + + + + + + + + + + @ + + + + + + @ + @ + + + @ + @ @ @ + + + @ + @ @ @ + @ + @ + @ @ @ @ @ @ + @ + + + + @ @ + @ + @ + @ @ @ @ @ @ @ @ + + + @ + @ @ @ @ @ @ @ @ + @ @ + @ @ @ @ @ @ @ @ @ @ @ @ @ + + + + @ + + + + + @ + @ @ + @ + @ @ @ @ @ @ < @ @ @ @ @ @ < + + + + @ @ @ @ < + @ @ @ + @ @ + @ @ < @ @ + @ @ + @ + + @ + + @ + + + @ @ @ @ @ @ + @ @ @ @ @ @ < @ @ @ @ @ + + @ + @ + + @ + + @ + @ @ + + + @ + @ @ + @ @ + @ @ @ @ @ @ @ @ @ + + @ + + + @ + + @ + + + @ @ @ + + + + @ + @ + + + + + + + + + @ + . + . . & +.N a p w w w w ; ; - t =   N p p -     d d p : e e e : : : : d : p p e : d o   - #   % $.V e > : e j g MXMX",
"MXMXMXMXMXMXMX= - = = = = = = = - = - = - = > = > > > > - - - - > - = - > = > > - > - - > > ; ; ; : : : > : : : e e : e e p e f e f N O.j k j k k z j j j v g g f j l j j j l l z j j l j l l z l j l z k z z j c z z c l j z z z z z z z z z l l z z v z c z z l z l z v z l z l l l z z z z z z c c b z c c c z v z z z x c c c c c c z z l c c c c c m c c c b b c b c c m c b m m b z z c c c z c l z c c v v c z c c v x c c c c c c c c c c v x c c l c c z n x c c z c c m z c c c N ( m m c m c c c c c c c c b c c c c c c c c c c c c c c c c c c c c c c z c b c c c m c c c c l c z c c c ( c c c c c z x c b c b b z v l z l l l c l c l z z x z z l k z l l k l l z l z l k f z k l l n -.) a a e p w w ; w - t - &   N r g =   O d d : : : : p : : : : : : : : p > u ,   X   # ;.V p : : : p d MXMXMX",
"MXMXMXMXMXMXMXMXMX= = = & - = - - - - - - - > > > ; : : > : : : : : : : : ; : : > : : ; e e e e e e p p e e e p p p e e e d f e u u r ` :.=.:.:.;.>.:.:.:.:.:.:.7.:.:.:.:.:.:.2.:.>.:.:.2.:.:.2.:.>.:.2.2.:.2.,.2.2.2.2.>.:.,.,.,.2.2.2.<.2.<.,.2.2.<.2.2.,.,.,.<.<.2.,.,.,.2.,.,.2.<.<.<.<.<.<.<.2.<.,.,.<.1.<.<.1.<.<.1.<.<.1.<.<.1.1.1.1.1.3.5.1.1.<.<.3.1.1.rX3.3.1.3.3.5.3.1.1.1.1.1.1.1.1.1.1.3.1.1.3.5.rX1.<.1.1.5.rX1.rX3.1.1.3.1.5.3.3.5.rX1.1.1.3.3.3.1.rX1.rX3.3.3.3.3.3.3.3.1.5.3.3.1.1.1.1.1.1.1.5.5.1.1.1.1.1.1.1.3.1.1.<.1.1.1.1.1.1.1.3.1.1.1.<.1.<.1.1.3.1.<.<.3.3.3.3.<.,.,.,.1.1.1.<.1.,.2.<.<.<.<.1.3.1.1.1.<.,.<.1.<.<.<.1.<.2.<.<.<.<.1.<.,.2.2.,.,.2.>.,.<.<.<.2.>.:.:.:.>.;.,.[ a r e e w w p w w w t - =   B f d =     d g : : : : : : : e e : : p : : : d o     - &.V : : p : p h - MXMXMX",
"MXMXMXMXMXMXMXMXMXMXMXMXMXMXMXMXMXMXMXMXMXMXMXMXMXMXMXMXMXMXMXMXMXMXMXMXMXMXMXMXMXMXMXMXMXMXMXMXMXMXMXMXMXMXMXMXMXMXMXMXMXMXe d r u e e j j z z z M z z z z z z z b z z z z z z z b b z b b b c c c M c b m N m b c b b c N m m b N b N N m N b c N N M b c N m N N c m N b N c N N c N ( N m N m N ) ) m N N N ) N ) ) ( ) N N N N m N C N ) ) N N N ) N N ) N ( m m ) N ) ( N ) ) N ) ) ) N ) ) N ) ) N N N ) ) ) N m ) m ( ) ) ) ) N ) N ) ) ) ) ) ) ( ) N ) c ) ) ) ) ( N ` m ) ) ( ) ) ) N ) ) ) m m ) m N ) ) ) ( ( ( ) ) ) N m m m ( ) N ) ( N N m m m m ( ( m ) m N m m ) N m N m m m m c N ( c m m m m N m m m N c ) m m c m N N c m N m c z m c N c ( z n n c m z z c z m z l z z l l n h l a e e e w p w w w w ; t - =   B p p =     d h : : p : : : e p e e d d : p : d %   > X.` ; : : : p p - MXMXMXMX",
"MXMXMXMXMXMXMXMXMXMXMXMXMXMXMXMXMXMXMXMXMXMXMXMXMXMXMXMXMXMXMXMXMXMXMXMXMXMXMXMXMXMXMXMXMXMXMXMXMXMXMXMXMXMXMXMXMXMXMXMXMXMXMX- u r e e e e e u e u f e u u u r u r u u f e d e e u r f u u r f f u f u u u u u f r e u f r f u u u u k u u u u f f f f u k f r u f u k k u u r u f k f u k f f k u u k u f f f r k u k k u f f f f a a k f f f f r u k k u u r k r k a k f a f k f u k k k k f k k k f k k k f k k k k k k k k k k f k k k k a k a r k a k k f r k k a k k a k k a k k k k k k k a u k k a k k k u k k a k a k k k k r k r k k k a a k k k r a k a a k a a a p a a a k f r r r a r k u a k p a a a a a f k r r r r r r a r e a e r r u r r f r e r p r r e r r e e r e e r e r e e e w e w e e w p p w ; ; t - &   N d e =     % - % = = * = = = % % % % = = , = =   - o.V e e p : : d MXMXMXMXMXMX",
"MXMXMXMXMXMXMXMXMXMXMXMXMXMXMXMXMXMXMXMXMXMXMXMXMXMXMXMXMXMXMXMXMXMXMXMXMXMXMXMXMXMXMXMXMXMXMXMXMXMXMXMXMXMXMXMXMXMXMXMXMXMXMXMX= p f e e u u f f f u f f f p f u u f u f u u k u f f f k k f f f f k f f f f k f f a f k k f k j f k f k k f k f k k l k k k f k k f k k f k k k k k k j l k k k k k k k f k k k k k k k k k k k k k f k v k k k k l l k k k k k k k v v f k v k v k k v l k v k v v k v k k v k v v v l v l l v v k l v x k v v k k v v k v k k k v k l k k k k k k k k k v v k k k k v l k k k v l v v k k k k k k k k k k k k k k k k v k k k k k k k k k k k v k l k k k k k k k k k k f k k k k f k k k k f a k r k k a k k a k f k r u a k r k k r r k r k k r r r a a f a a a a p p r e p w w w ; ; ; - #   z p p i d d h h d j d d h d d h d d h h j M b b b $.V p : e e : p MXMXMXMXMXMXMX",
"MXMXMXMXMXMXMXMXMXMXMXMXMXMXMXMXMXMXMXMXMXMXMXMXMXMXMXMXMXMXMXMXMXMXMXMXMXMXMXMXMXMXMXMXMXMXMXMXMXMXMXMXMXMXMXMXMXMXMXMXMXMXMXMXMXMX= - > ; - ; ; > ; ; t ; ; : t > ; > - ; ; > t - > ; > - - ; ; ; ; ; ; ; ; ; ; ; ; e > ; ; : t > > > > t ; > - ; > - : > ; e t > t ; t ; > > t ; ; ; : u t e - > > > ; ; > ; ; > e : t ; ; > - t t - ; ; : : t t ; ; ; t - ; t - > t ; ; ; - ; ; e e t ; ; ; > ; ; ; ; ; ; ; ; ; e e t t t t w ; ; ; ; w w e t ; w t w - t ; t ; w ; ; t ; w t ; w - e e ; ; - t t t ; t w w ; t w > t t t $ t ; t t t t - - - t ; t ; w - e w t t w w w t w ; e ; w ; t - ; t t ; ; - - ; t - ; ; ; t t - - t ; - t - - ; ; ; ; ; ; t ; - ; ; - - - - - = - = - - - t - - = = - = = - > w a w ; ; w t ; ; - #   m p : : V X.X.X.*.*.$.$.$.*.$.O.O.X.*.$.$.$.$.%.&.V e : : : e p MXMXMXMXMXMXMXMX",
"MXMXMXMXMXMXMXMXMXMXMXMXMXMXMXMXMXMXMXMXMXMXMXMXMXMXMXMXMXMXMXMXMXMXMXMXMXMXMXMXMXMXMXMXMXMXMXMXMXMXMXMXMXMXMXMXMXMXMXMXMXMXMXMXMXMXMXMXMXMXMXMXMXMXMXMXMXMXMXMXMXMXMXMXMXMXMXMXMXMXMXMXMXMXMXMXMXMXMXMXMXMXMXMXMXMXMXMXMXMXMXMXMXMXMXMXMXMXMXMXMXMXMXMXMXMXMXMXMXMXMXMXMXMXMXMXMXMXMXMXMXMXMXMXMXMXMXMXMXMXMXMXMXMXMXMXMXMXMXMXMXMXMXMXMXMXMXMXMXMXMXMXMXMXMXMXMXMXMXMXMXMXMXMXMXMXMXMXMXMXMXMXMXMXMXMXMXMXMXMXMXMXMXMXMXMXMXMXMXMXMXMXMXMXMXMXMXMXMXMXMXMXMXMXMXMXMXMXMXMXMXMXMXMXMXMXMXMXMXMXMXMXMXMXMXMXMXMXMXMXMXMXMXMXMXMXMXMXMXMXMXMXMXMXMXMXMXMXMXMXMXMXMXMXMXMXMXMXMXMXMXMXMXMXMXMXMXMXMXMXMXMXMXMXMXMXMXMXMXMXMXMXMXMXMXMXMXMXMXMXMXMXMXMXMXMXMXMXMXMXMXMXMXMXMXMXMXMXMXMXMXMXMXMXMXMXMXMXMXMXMXMXMX& p w ; ; ; ; - - #   N e : : d d d d d d d d d d d d d d d d d d d d d : : e : : p MXMXMXMXMXMXMXMXMX",
"MXMXMXMXMXMXMXMXMXMXMXMXMXMXMXMXMXMXMXMXMXMXMXMXMXMXMXMXMXMXMXMXMXMXMXMXMXMXMXMXMXMXMXMXMXMXMXMXMXMXMXMXMXMXMXMXMXMXMXMXMXMXMXMXMXMXMXMXMXMXMXMXMXMXMXMXMXMXMXMXMXMXMXMXMXMXMXMXMXMXMXMXMXMXMXMXMXMXMXMXMXMXMXMXMXMXMXMXMXMXMXMXMXMXMXMXMXMXMXMXMXMXMXMXMXMXMXMXMXMXMXMXMXMXMXMXMXMXMXMXMXMXMXMXMXMXMXMXMXMXMXMXMXMXMXMXMXMXMXMXMXMXMXMXMXMXMXMXMXMXMXMXMXMXMXMXMXMXMXMXMXMXMXMXMXMXMXMXMXMXMXMXMXMXMXMXMXMXMXMXMXMXMXMXMXMXMXMXMXMXMXMXMXMXMXMXMXMXMXMXMXMXMXMXMXMXMXMXMXMXMXMXMXMXMXMXMXMXMXMXMXMXMXMXMXMXMXMXMXMXMXMXMXMXMXMXMXMXMXMXMXMXMXMXMXMXMXMXMXMXMXMXMXMXMXMXMXMXMXMXMXMXMXMXMXMXMXMXMXMXMXMXMXMXMXMXMXMXMXMXMXMXMXMXMXMXMXMXMXMXMXMXMXMXMXMXMXMXMXMXMXMXMXMXMXMXMXMXMXMXMXMXMXMXMXMXMXMXMXMXMXMXMXMXMX; p ; - - - = #   N p e : > : : : : = : : : : : : : : : : : : : : : : : : e e MXMXMXMXMXMXMXMXMXMX"
};
