/* XPM */
static const char *enemy10_xpm[] = {
/* columns rows colors chars-per-pixel */
"399 81 207 2 ",
"   c #030503",
".  c #040A04",
"X  c #080A07",
"o  c #070B08",
"O  c #0A0E0A",
"+  c #040709",
"@  c #140E06",
"#  c #1C0A07",
"$  c #1B0C09",
"%  c #041304",
"&  c #0B1605",
"*  c #041A04",
"=  c #091A06",
"-  c #071208",
";  c #0B130C",
":  c #071908",
">  c #0C1A0D",
",  c #10140F",
"<  c #111305",
"1  c #050E12",
"2  c #0A0F10",
"3  c #0F1410",
"4  c #0E1B10",
"5  c #08131A",
"6  c #111612",
"7  c #141A15",
"8  c #181C17",
"9  c #171D18",
"0  c #191E19",
"q  c #230604",
"w  c #290605",
"e  c #220907",
"r  c #260A08",
"t  c #2C0B09",
"y  c #330D0B",
"u  c #3B0E0C",
"i  c #24130A",
"p  c #2A150B",
"a  c #291D0C",
"s  c #301410",
"d  c #062304",
"f  c #082506",
"g  c #072A05",
"h  c #092C06",
"j  c #0D220E",
"k  c #092B08",
"l  c #072308",
"z  c #132C0A",
"x  c #112508",
"c  c #093306",
"v  c #093406",
"b  c #16320B",
"n  c #18330B",
"m  c #0F2411",
"M  c #0F2811",
"N  c #122414",
"B  c #1A2115",
"V  c #132816",
"C  c #162319",
"Z  c #1B231C",
"A  c #152919",
"S  c #1B2B1D",
"D  c #1B331E",
"F  c #29251D",
"G  c #0A1B25",
"H  c #091925",
"J  c #0C222E",
"K  c #1F2620",
"L  c #1D2B21",
"P  c #1C3420",
"I  c #1D3821",
"U  c #0C2434",
"Y  c #0D2A3E",
"T  c #0D273A",
"R  c #102B3F",
"E  c #212522",
"W  c #242924",
"Q  c #272B28",
"!  c #292D2A",
"~  c #282D27",
"^  c #2D322D",
"/  c #28352A",
"(  c #2F3430",
")  c #2E3A31",
"_  c #313532",
"`  c #343B35",
"'  c #373E39",
"]  c #393E3B",
"[  c #383D37",
"{  c #410E0B",
"}  c #47110F",
"|  c #491310",
" . c #561815",
".. c #631D1A",
"X. c #681F1C",
"o. c #4E2D1D",
"O. c #492819",
"+. c #4E301D",
"@. c #6C211D",
"#. c #64211C",
"$. c #71221E",
"%. c #7D322E",
"&. c #712824",
"*. c #354436",
"=. c #364439",
"-. c #3B433C",
";. c #3A4A3D",
":. c #374638",
">. c #0D2C43",
",. c #0E2F48",
"<. c #112E44",
"1. c #0F3048",
"2. c #11324C",
"3. c #123553",
"4. c #133857",
"5. c #3E4440",
"6. c #3E4D42",
"7. c #3F5243",
"8. c #414641",
"9. c #434B45",
"0. c #464D48",
"q. c #494E4A",
"w. c #425345",
"e. c #445649",
"r. c #4B534D",
"t. c #445849",
"y. c #4C594E",
"u. c #435847",
"i. c #4D5650",
"p. c #4E5C52",
"a. c #515652",
"s. c #525D55",
"d. c #565D59",
"f. c #595F5A",
"g. c #4F6054",
"h. c #526156",
"j. c #546358",
"k. c #5A615C",
"l. c #59695E",
"z. c #5C6B60",
"x. c #83332F",
"c. c #8D332F",
"v. c #8C3631",
"b. c #8E3934",
"n. c #933A35",
"m. c #9A3E3A",
"M. c #943834",
"N. c #90302C",
"B. c #A73832",
"V. c #D63632",
"C. c #D53A35",
"Z. c #DC3A35",
"A. c #DC3D39",
"S. c #DA3733",
"D. c #CF3733",
"F. c #E33A36",
"G. c #EA3B37",
"H. c #E53D39",
"J. c #EC3D39",
"K. c #F33E3A",
"L. c #C7433D",
"P. c #D9433D",
"I. c #EC413D",
"U. c #E1403C",
"Y. c #F5413D",
"T. c #F9433E",
"R. c #BD4842",
"E. c #CE4943",
"W. c #C74741",
"Q. c #D34B44",
"!. c #DA4B45",
"~. c #DB524C",
"^. c #D4524B",
"/. c #DD5C54",
"(. c #DE5F58",
"). c #C7524B",
"_. c #EB4A46",
"`. c #E64742",
"'. c #FA4641",
"]. c #FC4B45",
"[. c #F34F4A",
"{. c #FC4E48",
"}. c #F34843",
"|. c #E2544F",
" X c #FD534C",
".X c #F6524D",
"XX c #E45A54",
"oX c #FE5B54",
"OX c #FD5A53",
"+X c #E6615A",
"@X c #EA645C",
"#X c #FE635B",
"$X c #FF6057",
"%X c #EA6B63",
"&X c #FF6B63",
"*X c #EB746C",
"=X c #FF746C",
"-X c #FF7067",
";X c #FF7B74",
":X c #FF837C",
">X c #FF8780",
",X c #FF8A85",
"<X c #FF8E89",
"1X c #FF928D",
"2X c #FF9591",
"3X c #FF9894",
"4X c #000001",
/* pixels */
"4X4X4X4X4X4X4X4X4X4X4X4X4X4X4X4X4X4X4X4X4X4X4X4X4X4X4X4X4X4X4X4X4X4X4X4X4X4X4X4X4X4X4X4X4X4X4X4X4X4X4X4X4X4X4X4X4X4X4X4X4X4X4X4X4X4X4X4X4X4X4X4X4X4X4X4X4X4X4X4X4X4X4X4X4X4X4X4X4X4X4X4X4X4X4X4X4X4X4X4X4X4X4X4X4X4X4X4X4X4X4X4X4X4X4X4X4X4X4X4X4X4X4X4X4X4X4X4X4X4X4X4X4X4X4X4X4X4X4X4X4X4X4X4X4X4X4X4X4X4X4X4X4X4X4X4X4X4X4X4X4X4X4X4X4X4X4X4X4X4X4X4X4X4X4X4X4X4X4X4X4X4X4X4X4X4X4X4X4X4X4X4X4X4X4X4X4X4X4X4X4X4X4X4X4X4X4X4X4X4X4X4X4X4X4X4X4X4X4X4X4X4X4X4X4X4X4X4X4X4X4X4X4X4X4X4X4X4X4X4X4X4X4X4X4X4X4X4X4X4X4X4X4X4X4X4X4X4X4X4X4X4X4X4X4X4X4X4X4X4X4X4X4X4X4X4X4X4X4X4X4X4X4X4X4X4X4X4X4X4X4X4X4X4X4X4X4X4X4X4X4X4X4X4X4X4X4X4X4X4X4X4X4X4X4X4X4X4X4X4X4X4X4X4X4X4X4X4X4X4X4X4X4X4X4X4X4X4X4X4X4X4X4X4X4X4X4X4X4X4X4X4XK i.z.a.r.7.0.0.0.6.5.6.9.5.] ] ] ' ] ] 5.5.] ` ] 5.' ] [ [ ' Z 1 4X4X4X4X4X4X4X4X4X4X4X4X4X4X",
"4X4X4X4X4X4X4X4X4X4X4X4X4X4X4X4X4X4X4X4X4X4X4X4X4X4X4X4X4X4X4X4X4X4X4X4X4X4X4X4X4X4X4X4X4X4X4X4X4X4X4X4X4X4X4X4X4X4X4X4X4X4X4X4X4X4X4X4X4X4X4X4X4X4X4X4X4X4X4X4X4X4X4X4X4X4X4X4X4X4X4X4X4X4X4X4X4X4X4X4X4X4X4X4X4X4X4X4X4X4X4X4X4X4X4X4X4X4X4X4X4X4X4X4X4X4X4X4X4X4X4X4X4X4X4X4X4X4X4X4X4X4X4X4X4X4X4X4X4X4X4X4X4X4X4X4X4X4X4X4X4X4X4X4X4X4X4X4X4X4X4X4X4X4X4X4X4X4X4X4X4X4X4X4X4X4X4X4X4X4X4X4X4X4X4X4X4X4X4X4X4X4X4X4X4X4X4X4X4X4X4X4X4X4X4X4X4X4X4X4X4X4X4X4X4X4X4X4X4X4X4X4X4X4X4X4X4X4X4X4X4X4X4X4X4X4X4X4X4X4X4X4X4X4X4X4X4X4X4X4X4X4X4X4X4X4X4X4X4X4X4X4X4X4X4X4X4X4X4X4X4X4X4X4X4X4X4X4X4X4X4X4X4X4X4X4X4X4X4X4X4X4X4X4X4X4X4X4X4X4X4X4X4X4X4X4X4X4X4X4X4X4X4X4X4X4X4X4X4X4X4X4X4X4X4X4X4X4X4X4X4X4X4X4X4X4X4X4X4X4X4XZ e.z.' L Q K W E K 0 0 Z Z 9 9 9 7 7 7 0 9 6 7 3 6 6 5 6 6 6 K ( 0 2 4X4X4X4X4X4X4X4X4X4X4X4X4X",
"4X4X4X4X4X4X4X4X4X4X4X4X4X4X4X4X4X4X4X4X4X4X4X4X4X4X4X4X4X4X4X4X4X4X4X4X4X4X4X4X4X4X4X4X4X4X4X4X4X4X4X4X4X4X4X4X4X4X4X4X4X4X4X4X4X4X4X4X4X4X4X4X4X4X4X4X4X4X4X4X4X4X4X4X4X4X4X4X4X4X4X4X4X4X4X4X4X4X4X4X4X4X4X4X4X4X4X4X4X4X4X4X4X4X4X4X4X4X4X4X4X4X4X4X4X4X4X4X4X4X4X4X4X4X4X4X4X4X4X4X4X4X4X4X4X4X4X4X4X4X4X4X4X4X4X4X4X4X4X4X4X4X4X4X4X4X4X4X4X4X4X4X4X4X4X4X4X4X4X4X4X4X4X4X4X4X4X4X4X4X4X4X4X4X4X4X4X4X4X4X4X4X4X4X4X4X4X4X4X4X4X4X4X4X4X4X4X4X4X4X4X4X4X4X4X4X4X4X4X4X4X4X4X4X4X4X4X4X4X4X4X4X4X4X4X4X4X4X4X4X4X4X4X4X4X4X4X4X4X4X4X4X4X4X4X4X4X4X4X4X4X4X4X4X4X4X4X4X4X4X4X4X4X4X4X4X4X4X4X4X4X4X4X4X4X4X4X4X4X4X4X4X4X4X4X4X4X4X4X4X4X4X4X4X4X4X4X4X4X4X4X4X4X4X4X4X4X4X4X4X4X4X4X4X4X4X4X4X4X4X4X4X4X4X4X4X4X4X4X4X0 r.z.` Z 9 G 9 6 6 6 6 5 6 6 6 6 6 4 3 5 7 6 6 6 7 6 6 6 6 6 9 7 W _ E O 4X4X4X4X4X4X4X4X4X4X4X4X",
"4X4X4X4X4X4X4X4X4X4X4X4X4XO 6 , 2 2 6 6 6 2 6 $ 3 6 6 6 6 6 6 6 6 6 6 6 6 8 6 6 6 6 7 6 7 7 7 6 7 6 7 9 7 7 7 6 7 7 7 7 7 9 7 7 6 7 9 7 9 2 4X4X4X4X4X4X4X4X4X4X4X4X4X4X4X4X4X4X4X4X4X4X4X4X4X4X4X4X4X4X4X4X4X4X4X4X4X4X4X4X4X4X4X4X4X4X4X4X4X4X4X4X4X4X4X4X4X4X4X4X4X4X4X4X4X4X4X4X4X4X4X4X4X4X4X4X4X4X4X4X4X4X4X4X4X4X4X4X4X4X4X4X4X4X4X4X4X4X4X4X4X4X4X4X4X4X4X4X4X4X4X4X4X4X4X4X4X4X4X4X4X4X4X4X4X4X4X4X4X4X4X4X4X4X4X4X4X4X4X4X4X4X4X4X4X4X4X4X4X4X4X4X4X4X4X4X4X4X4X4X4X4X4X4X4X4X4X4X4X4X4X4X4X4X4X4X4X4X4X4X4X4X4X4X4X4X4X4X4X4X4X4X4X4X4X4X4X4X4X4X4X4X4X4X4X4X4X4X4X4X4X4X4X4X4X4X4X4X4X4X4X4X4X4X4X4X4X4X4X4X4X4X4X4X4X4X4X4X4X4X4X4X4X4X4X4X4X4X4X4X4X4X4X4X4X4X4X4X4X4X4X4X4X4X4X4X4X4X4X4X4X4X4X4X4X4X4X4X4XE e.j.=.9 7 3 6 0 E K K K 0 E K E 0 E K K K 0 K Z K K E 0 0 E Z 6 6 7 E _ W 2 4X4X4X4X4X4X4X4X4X4X4X",
"4X4X4X4X4X4X4X4X4X4X4X4X4XF ! ! ! ! Q ! ! Q ! ( ! ! ^ ( _ _ _ _ _ _ _ _ _ _ _ _ _ ' ' ' ' ] ] ] ] ] ] ] ] ] ] ] ] ] ] ] ] ] 8.] 5.5.5.8.5.( 6 4X4X4X4X4X4X4X4X4X4X4X4X4X4X4X4X4X4X4X4X4X4X4X4X4X4X4X4X4X4X4X4X4X4X4X4X4X4X4X4X4X4X4X4X4X4X4X4X4X4X4X4X4X4X4X4X4X4X4X4X4X4X4X4X4X4X4X4X4X4X4X4X4X4X4X4X4X4X4X4X4X4X4X4X4X4X4X4X4X4X4X4X4X4X4X4X4X4X4X4X4X4X4X4X4X4X4X4X4X4X4X4X4X4X4X4X4X4X4X4X4X4X4X4X4X4X4X4X4X4X4X4X4X4X4X4X4X4X4X4X4X4X4X4X4X4X4X4X4X4X4X4X4X4X4X4X4X4X4X4X4X4X4X4X4X4X4X4X4X4X4X4X4X4X4X4X4X4X4X4X4X4X4X4X4X4X4X4X4X4X4X4X4X4X4X4X4X4X4X4X4X4X4X4X4X4X4X4X4X4X4X4X4X4X4X4X4X4X4X4X4X4X4X4X4X4X4X4X4X4X4X4X4X4X4X4X4X4X4X4X4X4X4X4X4X4X4X4X4X4X4X4X4X4X4X4X4X4X4X4X4X4X4X4X4X4X4X4X4X4X4X4X4X4X4X4X4XE s.z.) 9 6 9 o 0 0.d.s.a.a.s.d.d.d.d.a.d.d.d.d.a.a.d.d.a.a.a.a.q.E 6 8 7 Z _ E , 4X4X4X4X4X4X4X4X4X4X",
"4X4X4X4X4X4X4X4X4X4X4X4X7 W ! ! ! Q Q Q ! Q Q ! ! ^ ^ ^ ^ ( _ ( ( ! ^ ^ ( ( _ _ _ _ _ _ _ _ ' _ _ _ ` [ ` ] [ [ ` ` ] ] ] ] ] ] ] ] -.] ] [ Q 6 O O O 6 6 7 7 7 7 6 9 7 7 9 9 0 9 9 0 9 0 9 0 9 9 0 0 0 0 0 0 9 Z 0 Z 9 Z Z Z Z 0 9 Z 0 0 0 0 9 0 Z 9 9 9 Z 0 0 0 0 K 0 0 0 K 0 C K K 0 K Z Z 0 K K 0 K K K K K K K K K K K K K K K K K L K K K E K K K K K K L E L E L K K K K L K K K K L E Z K K L L K W L L W L Q L L W W L L L W L L L W L L E K L L E L E E L L E E E L L K L K L K L L L L E L K L K K L L L Q L E L L K K L K K L W E L K L K L L K L E L E L L E E L E K K E L W E L L K W L K E K K L E L K K K E L K K K K L L K E Z K E K K K K K K K K Z K Z Z K Z K K Z Z 0 9 Z K K 0 0 Z 0 Z 0 Z 4X4X4XL j.z.( 7 N 7 9 . _ f.f.f.f.f.f.f.f.d.k.f.k.k.d.f.d.d.d.d.d.d.d.a.a.! 7 7 8 7 Z _ E O 4X4X4X4X4X4X4X4X4X",
"4X4X4X4X4X4X4X4X4X4X4X6 K 0 6 3 6 6 6 6 6 6 2 6 6 6 6 6 6 6 6 6 6 6 8 6 6 7 7 7 9 7 7 7 9 7 7 8 0 9 7 0 7 0 9 6 7 8 7 7 7 8 7 7 6 6 3 3 3 6 F 0 6 8 E ! ! ! ^ ^ ( ^ ) ( ( ( ( ` [ ` ` ` ` ` ` ` [ ` ` ` ] ' =.' ] 5.=.=.=.5.5.5.=.-.-.[ -.-.-.-.] =.' ' ' [ =.=.-.5.5.=.=.=.-.-.=.5.5.=.5.;.6.6.5.6.6.6.6.6.6.6.6.6.6.6.6.6.6.w.9.w.w.w.r.w.w.w.e.e.7.7.w.7.e.t.t.t.t.w.7.7.w.e.7.t.e.7.w.w.w.w.t.7.7.7.7.7.y.7.t.e.t.7.e.7.7.e.7.7.t.t.t.e.7.7.t.t.t.t.t.t.e.w.w.e.e.e.t.e.e.7.7.7.7.7.t.7.7.7.e.e.e.e.e.t.e.w.t.e.7.7.t.7.w.t.e.t.7.w.t.t.7.7.7.w.w.w.w.w.w.w.t.w.t.t.e.t.t.e.7.7.7.7.t.t.7.7.w.7.t.e.e.7.7.7.e.7.7.6.7.7.w.0.7.7.7.w.9.7.7.7.6.6.7.7.6.6.6.5.6.6.5.;.5.=.-.5.6.=.;.-.*.` :.-.-.=.=.=.-.=.` ) Z 4XW h.z.) 9 7 9 7 7 + ! L 9 9 9 9 9 9 9 7 7 7 8 7 9 6 7 9 6 6 6 7 6 6 6 0 8 7 7 7 6 E ( K O 4X4X4X4X4X4X4X4X",
"4X4X4X4X4X4X4X4X4X4X6 Z 0 9 0 9 0 7 8 8 8 0 0 0 0 0 Z 0 0 0 0 0 0 0 0 0 0 Z 0 0 0 0 0 K 0 0 0 0 0 K 0 E 0 E K K 0 E Z Z F E 0 0 0 0 9 9 9 6 , 8 6 O O 6 7 7 6 6 6 6 4 7 9 9 9 0 C 9 C 9 Z 0 9 0 Z 9 Z Z Z Z K Z K 0 K Z K K 0 K K Z Z Z Z Z Z K K K Z C 0 Z Z Z C K Z C C Z Z Z L C L Z L S Z S C L Z L K L L K L K L L L L K L S L L L L L L L L L L L S L L L L L L L P S S L L P L L S L D S L L P L P L P L L L L P L L P L L L L L L L L D L L P L W I P L S P S P L L L S L P P L L L S L L P L P L P L L L L L L P L L L L P S S L L L L S S P S S S S P L L S S S S L S S L L S L L A L L L L L L S L S S L S S S S L C Z S S S C S S V C S L C Z S S A Z C C C C C C A 9 C C N C 7 7 8 6 9 4 9 6 7 6 6 4 ^ l.l.) Z C 7 8 7 3 + W Q Z Z K K K K K K K K E E E 0 K 0 0 K K K 0 K 0 0 6 8 8 7 7 6 K ! 0 2 4X4X4X4X4X4X4X",
"4X4X4X4X4X4X4X4X4X6 0 0 0 8 6 8 8 8 8 8 8 0 0 8 0 8 0 0 8 6 8 0 8 8 0 8 0 8 0 8 0 9 0 0 8 0 0 0 0 0 0 0 E 0 0 E 0 E F Z 0 0 0 9 8 6 , 6 8 0 8 0 0 8 8 8 0 0 8 8 7 9 9 7 8 0 0 0 0 0 0 0 0 8 9 0 Z B 8 8 Z 9 0 0 9 9 0 0 0 0 0 0 8 0 0 Z 0 0 0 0 Z 0 0 Z 0 0 0 Z C C 0 0 0 Z 9 Z C C Z 9 Z Z Z Z Z Z Z Z Z Z B Z Z Z Z Z Z Z Z S S C K Z L C K Z S Z S Z Z S S S S S S K S S Z A S S Z S S S S S S S S S S S S S L K L L A L L K D S S S S S S F Z S S S S S S S S Z S S S S S S S S S Z C L S L L S L L K L S S L Z K A K L A L S Z A S Z S Z S L C A K C L C S C L C L L A L L C L J A L C L L L Z Z Z S Z Z S Z S K C L C S C Z L Z Z Z S Z Z C S S B Z S Z Z A C Z Z Z S Z Z B Z C Z 0 0 8 C 9 C C 8 7 0 7 8 ) z.z.) C 9 C 8 7 4 4 + W E 0 Z Z 0 0 K 0 E 0 0 0 0 E 0 0 0 E 0 0 E 0 0 0 0 0 7 7 7 9 6 7 0 ! Q 6 4X4X4X4X4X4X",
"4X4X4X4X4X4X4X4X; 0 0 7 7 7 7 6 6 8 6 8 0 6 0 0 6 7 9 7 8 8 8 6 8 0 8 0 8 7 0 8 7 0 0 6 8 0 0 0 Z F 0 0 0 0 0 0 0 0 0 0 0 0 0 0 8 6 6 ! ] 8.0.8.8.8.9.0.0.0.0.0.0.0.0.0.9.0.9.q.q.q.0.0.0.0.q.r.0.q.r.r.r.0.r.r.q.0.r.q.r.q.q.i.r.r.r.r.r.r.q.q.r.r.r.r.y.y.r.r.i.i.y.y.r.r.i.r.i.i.i.i.i.y.p.a.y.i.p.p.a.y.p.s.p.p.p.p.p.p.s.s.p.p.p.h.h.s.s.j.h.h.h.h.h.h.h.s.s.s.h.h.h.g.h.h.h.h.h.h.h.h.s.h.s.h.h.h.s.s.h.h.h.g.h.j.h.j.j.g.h.h.h.h.h.h.h.h.h.h.h.h.j.j.j.h.s.j.j.j.j.j.j.h.j.h.h.h.h.j.h.h.h.g.g.j.h.j.j.h.s.j.s.j.g.j.s.p.h.h.h.s.h.p.j.p.p.s.h.h.h.h.h.p.p.s.s.p.p.g.p.p.p.p.p.g.p.p.p.p.p.p.h.s.s.p.s.s.p.h.h.s.s.h.j.s.p.s.s.p.p.p.s.a.s.p.p.s.p.y.y.y.r.y.y.p.y.y.y.y.y.p.y.y.p.i.y.r.r.r.r.y.i.i.q.y.z.l.) C 9 Z C 7 7 7 ; + W W Z 0 7 6 6 6 6 6 6 6 2 2 6 6 6 6 , 6 6 6 6 6 6 8 8 7 7 7 9 7 7 6 0 ! E O 4X4X4X4X4X",
"4X4X4X4X4X4X4X2 0 0 7 7 6 7 6 8 8 6 6 8 8 7 8 6 8 0 8 8 6 8 6 0 8 7 8 9 8 0 8 8 6 0 8 0 8 8 8 0 0 0 0 0 0 0 0 E 0 K 0 0 0 0 8 0 7 2 ! 9.0.q.0.0.9.9.0.0.0.0.0.0.0.0.0.0.0.0.q.r.q.r.0.0.r.q.q.r.r.r.r.r.q.q.r.r.q.i.r.r.r.r.q.i.r.r.r.r.r.y.r.r.r.r.r.r.r.a.y.r.y.i.r.i.r.i.y.r.r.i.i.i.y.y.y.a.y.i.y.p.p.y.y.p.p.p.p.p.p.p.s.p.p.p.s.s.s.h.h.j.s.h.s.h.h.h.s.h.g.p.p.h.p.h.h.h.s.j.h.s.g.h.s.h.s.h.h.p.g.h.p.h.g.h.g.s.j.h.h.h.h.j.j.j.h.h.h.h.j.j.h.h.j.j.j.h.h.h.h.h.h.h.h.h.h.s.s.h.h.h.h.h.h.h.h.h.h.h.h.h.h.h.h.h.g.j.j.g.h.g.h.h.j.p.j.p.g.g.h.p.p.p.p.p.p.p.g.p.p.p.p.p.p.p.g.y.p.p.p.i.i.p.p.p.p.p.p.p.p.p.s.s.p.p.p.s.p.p.p.p.p.p.p.y.p.h.p.y.y.y.y.y.t.y.y.y.y.y.y.r.y.y.y.y.y.r.r.y.r.t.r.r.r.r.y.t.-./ C C Z C 7 9 7 6 ;   W E Z 7 +       +   +   + +   +                   X 6 7 7 7 9 6 6 9 7 0 ! 0 2 4X4X4X4X",
"4X4X4X4X4X4XX 0 0 9 7 7 8 6 8 7 6 8 8 8 7 7 6 0 0 6 8 8 7 7 8 8 8 8 8 7 8 6 8 8 8 7 8 7 8 0 8 8 0 0 0 0 0 0 0 0 0 0 0 Z 0 0 0 6 6 E _ E 6 6 6 8 6 2 2 6 6 6 6 ; 6 6 3 3 6 7 6 6 , 6 , , 6 6 6 6 ; ; , 6 6 ; 6 6 4 4 6 6 3 6 6 6 6 6 6 6 6 6 7 6 3 6 6 6 , , 6 ; 6 6 6 6 4 8 6 6 4 4 7 7 7 7 7 7 6 7 7 7 7 7 6 7 7 7 C 7 N 7 N 8 7 9 4 m C 4 N 4 N 8 N 7 N N N C N 7 N N N N C C N N N N 7 N N C N N V N N j N N N m N N N M N N M V M V A N N N m N N N N V M m m m N A N N N V C N N A V V V V V V N N N M M M N N N M m V N N N N V V V N V m N N N N M N V M N N N N N N N m m N N N N N m m 4 M m N N V A V m N A m N C m N 4 N N V A N N N N N N N N N 7 j N 7 N N 7 N N N m 7 N 8 N N > > 4 7 6 N 7 7 7 4 4 9 C 9 N 7 C 7 6 4 3   L S C 6     X @ 2 O 2 2 O O O O 2 O O 2 O O O +     X 6 7 7 6 9 6 6 6 6 E Q , 4X4X4X4X",
"4X4X4X4X4XX , 6 6 6 , , 6 6 6 2 , 6 6 , 6 2 $ , 2 6 6 6 $ 6 6 6 6 6 6 6 , , , , 6 6 , $ 6 6 6 6 6 6 6 6 $ 8 8 6 6 8 8 6 6 6 6 7 E ~ 0 9 0 Z 0 9 0 8 0 8 9 9 7 0 0 0 0 9 0 0 0 0 8 Z 8 0 0 Z 0 0 0 8 C Z Z 0 Z Z Z Z Z Z Z Z Z Z 0 F Z Z Z Z Z Z 0 Z Z 9 0 Z Z Z Z 0 B Z C Z Z Z Z C Z S Z S S Z S S Z Z S Z S Z S S S S S S L L F P L L D W P S L D S D D D S S S D D D D D I D P P P D S P I D D P D W D D D D D D D D P P P P D D D D D D D D D P D P P D D D D S D D D D D D D D D D D D D D P P D D D D D I P P P D P P P P D D D I D D P D P P P P D D D D P P P P P P P P D D D D D D L P P D D D P P P P D D L P P P P L D D D D D D D D S D D A A D D D S S S D D D S D S D D S S D A S S S S S S A S C C C C 7 9 8 7 7 7 4 3 + K L K 6     O 6 7 6 7 6 6 8 7 6 6 6 6 6 6 6 O 6 o     X 2 8 6 8 6 7 6 7 7 0 O 4X4X4X4X",
"4X4X4X4X2 0 E E E E E E E E E E E E E E E E Q E Q E Q Q Q E Q Q Q Q E Q Q ! Q ! Q Q Q Q Q Q E Q W ! Q ! ! ! Q ! ! Q W ! ! ~ E W W 0 7 0 9 0 0 9 8 8 7 8 9 9 9 7 0 9 9 7 8 0 8 0 8 Z 0 0 0 8 8 0 9 8 8 8 0 0 8 B 8 8 Z 0 Z Z Z 0 Z 0 Z 8 Z Z Z 0 8 Z Z Z Z Z Z B Z Z Z Z C Z Z Z Z Z Z Z Z Z Z S Z S F S S S S S S S S S L S S D S S D S S S L D D S S D D D D D S D D D D D D D P P D D D S D D D D D D D D D D D D D D P P I P D D I D D P I D D P P P D D D I D D D D D D D D D D D D D I D D P P D D D D I I I I D P P P I P D D D D A D D P P P I D D D D I P P P P P P P P D D P D D S P P D P D D D P D P P P D P P P D D D A D D D A D D D A A D S D A D D A A D D S D S S D A D A S A D A D D A S S S A C C A 9 C 7 C 4 4 7 4   W K 0 7     , 7 7 6 6 0 8 6 7 7 7 7 6 7 6 6 6 6 +       + 6 7 6 7 7 8 6 7 7 4X4X4X4X4X",
"4X4X4X2 F ] 8.8.8.8.8.5.5.] 5.5.8.8.5.5.8.8.0.0.8.0.0.0.0.0.9.0.9.0.8.0.0.q.q.q.0.0.0.q.q.q.0.0.q.q.q.q.q.q.q.q.q.q.q.q.q.q.[ W 0 8 7 0 7 6 6 $ 2 6 6 6 , , 6 O 3 6 3 , 6 , 6 O , 6 6 O , , , ; 6 ; 6 3 O 6 , , , , , 6 6 6 7 6 6 6 6 , , 7 , 6 , 3 6 6 6 6 6 4 7 6 6 , ; , 6 6 7 6 6 > 6 > 6 6 6 6 7 N 7 7 7 7 C N 7 N N N C 8 N N N N N N N N N N N N V N V m N N V N C N A N C V N V A N V V V V A V V N N m V N N N V V V V V V V M V A V V V V V V V N N m V m V V V V V V N V V V V V N V V V M V V V V V V V V V M V m V V V V M M V m N M N M M V M N V M N N M m M N M M V V M M M N M V M V m V M V V V N A m m A 4 m m N N N j N m N N j N N N m m m N j N N j N N N N N 7 N N N N 7 7 j 4 j 4 4 C S S C C C 7 9 7 7 6 4 3   K L 0 6 +   , 7 7 6 7 7 6 6 8 8 7 7 7 6 6 6 6 6 X   + X   X 2 8 7 7 7 6 7 6 X + 4X4X4X",
"4X4XO 0 Q Q E Q E Q E E E E E E E Q E Q Q E F Q E Q Q E Q Q W W E W Q Q W ! ! ! Q Q Q Q ! ! Q Q ~ ~ ! ! ! Q Q Q Q Q Q Q W W 0 8 7 0 8 8 O +                                                                                                                                                                                                                                                       .   . . .   .   . .           .   . . .   . . . . .   . . .   . .   . .         .   . . .   .     . . . .   . .     . . . . + . .   . .   . . . . . . . .     . . .     . . . .       .   . .   .     .             .   .   . .   .             .                                                         o 7 S C C N C N 7 4 4 4 ; + K K 0 7     2 9 8 6 7 7 8 7 7 7 7 7 6 6 7 6 6 6 O   6 6 + + + 2 7 6 6 6 6 X   + 4X4X4X",
"4X@ 6 E 8 6 8 8 6 8 6 6 8 8 6 8 8 8 8 8 8 8 8 8 8 8 8 8 8 8 8 8 8 6 8 6 0 7 8 0 9 6 8 7 0 0 0 0 8 8 0 0 8 6 8 8 6 8 7 8 6 8 8 0 8 8 7 O +                                                                                                                                                                     . . .   % . % . % % % . % . % % % . . % . . % . . . % . . % . % % % % % % % % % % % % . % % % . % % % . % . % % . % % % % % % % % % % % % % % % % % % % % % % %   % . . % . % % % % % % % % % % % % % % % % % % % % % % % . % % % % % % % % % . % % % % % % % % % % % % % % % % . % % % % % % % % % % % % % % % % % % % . % % % . % . % . % % . % . % % % % % % % . % % % % . % % . . % .   . . - 4 V Z V 8 N 6 4 9 4 3   K K 9 6 +   , 9 8 7 7 7 6 0 7 0 7 7 7 8 7 6 6 7 o   o 9 6 +     O O O O +     + + X 4X",
"O 9 E 0 0 0 0 8 8 0 0 0 0 0 8 F 0 8 0 F 0 0 0 0 0 0 E 0 0 0 0 F 0 E 0 F 0 E 0 0 Z F Z E 0 0 E 0 E 0 0 E E 0 0 E 0 0 F 0 0 0 8 0 0 0 2                                                                                                                                                         .   . . % % . % . . . % . . . . . .   . . . . . . . % % . . . . % % % % % . % . . . . . . . . . . . . % . . % % . % . . % % % % % . % % . . . . % . . % . . % % . % % . . . . % % % % % % % . . . % . . . % . . . % . . . . . % . . % % % % % % % . . . . % . % . . % . . % . . . . % . . % . % * % % % % . . .   . . . . % . . . . . % . . % % . . % % % * % * * * * * * * * * * * * * * * * * d % % % % % . %   X 7 B N N 7 7 6 6 4 >   K Z Z 9 +   6 9 6 7 6 8 6 7 6 6 6 6 6 6 6 6 6 0 2   o 3 0 @                     X   4X",
"O 0 8 8 8 8 6 6 6 8 7 6 6 6 6 6 6 6 8 6 6 8 0 6 6 8 8 6 8 8 8 6 8 8 6 8 8 8 7 8 9 7 8 $ 7 8 7 8 8 8 8 7 8 7 7 6 8 8 6 6 6 6 6 8 7 O               +   + X X . +   + O +   + + X + + +               + X X X + + o X X o + O o o + + X X o .     . . .       O o X X o O + O o - X - - O - - ; O O - % % % . % .     . X O O X - O ; O O - O - O - ; - ; 2 ; ; > % % %       + O - O O O - - O ; - O - O ; ; - ; 1 ; ; * % . .     . - O O ; X - O 3 O O - O O ; - ; ; ; : - * % * % .       O O O O - - O O O O - - ; ; ; ; - ; ; ; % % * %       X - O o O O ; o - O O o - ; ; - ; ; - - - - % * % .     X - - O O O 1 o O O - - O O ; ; ; - ; ; ; % % % * * & & & < a O.O.+.+.+.+.+.+.O.+.+.+.o.o.O.o.o.O.o.a $ $ 8 S A 7 7 4 4 6 3 + K Z Z 6     6 7 O O O O 2 O X O X O O + X O 2 0 O   o , 0 2   + + X X     + +     X 4X",
"+ X   + + X + + + +     X + X   + + + X X X + + X   X +   + + + + + X + + + +   X + +   + +     + + + +   + X     + + + X   + +               O O O 6 6 6 6 7 7 6 6 6 6 6 6 6 7 7 , ;             O , 6 6 6 6 7 8 6 7 7 6 6 6 8 6 8 8 8 6 > X     .   .   ; 8 7 7 7 N 8 C 8 9 C C C C C Z Z A A A N * . % % * . .   . > 9 9 N 7 9 C Z 9 C 8 C C Z C Z Z A A A N % % % .   . ; 9 N 8 N 8 9 Z C C C C Z C Z Z C Z C A A > . % .     ; 8 C 9 7 8 C 9 C C 9 C C C Z Z Z S C A C > . * % .   X ; 8 C 8 7 C 9 9 C C 9 C 8 C Z Z C S C Z A : . d .     . 3 7 8 9 9 C C C C N 8 Z C A C S Z Z A A A : - * * .     - 7 C C 7 9 C C C C 9 C C C Z Z C S C C A > . * d = # e q s v.L.E.E.P.E.E.E.Q.P.Q.P.P.Q.Q.Q.Q.Q.L.L.B.#.y # B C C N 7 6 4 ;   K K C 6     6 7 6 E W ! Q Q Q ! Q Q ! ! W 0 8 0 X + o O 0 6   + $ 8 0 X @ 0 O O   + X ",
"                                                                                                                                            O ; O , , ; 6 , , ; , , ; 6 ; ; ; ; , , ; O   .     + 6 6 , , , , 6 > 3 6 3 6 6 3 6 6 6 6 6 6 ; - +   .     O 4 6 6 > ; 4 4 4 4 3 4 4 4 4 7 4 4 9 4 7 N > % % % * %     ; 3 ; - ; ; ; ; 3 > ; 1 ; > > ; ; 4 3 > ; 4 : % %     o ; ; ; ; - ; 1 ; > ; ; ; > ; > 3 ; 4 3 > 4 4 % .     + ; > ; - ; ; ; ; ; ; > ; > ; 3 ; ; 3 > > 4 m : * %     O ; ; - - ; ; ; > ; > 3 1 ; > 3 ; ; 4 > > 4 4 - d %     - ; ; ; ; ; ; ; ; ; ; ; 3 > > 3 ; ; > ; ; > > - d * .   + ; ; ; ; ; ; ; ; ; ; > ; ; ; ; ; ; 3 > > 4 m - * d = $ r r #.^.P.Z.Z.P.Z.A.C.C.Z.U.U.Z.A.Z.Z.A.V.V.D.P.N.} # 8 S V 7 4 4 4 3   K K 0 7 +   6 9 E -.q.r.a.a.r.i.a.a.a.a.0._ 0 0 O   O , F 2   X , 6 E O O F 6 O X   + ",
"                              X         + +                                                                               X   X           X O + X +   + X + + X + X X + X X X X . X X ; X   .   X - X . + X . . X + X . . + + o X o o o o o - +         ; - X X o X o o o o o . X o o - o o - o X - 4 % % * * .     ; - - O o O o ; - ; - - O o ; - o - - - o > > ; % .   O ; - o o O - O - ; o ; o ; o - - - ; - ; - m : * .   ; ; o o o - o O - - ; o o ; ; : : - ; - - ; 4 : d %     ; O O O - o O - ; o o - - ; O - - ; ; - - ; m : d %   . ; - O - - o o - - O - ; O - O o - - ; ; ; - j - d * .   - ; - X o o o - ; - o o ; o > O : ; ; - - ; m > d d z i t r %.|.Z.V.Z.Z.Z.F.Z.S.F.F.S.V.Z.H.F.S.V.V.D.P.L. .# 7 S 7 4 7 7 4 3   K K 0 6     7 Z E 0 Z Z E E F E E E 0 0 8 8 6 0 O   O 6 0 2     + O 0 + X 8 + O       ",
"                . + X X   + X +   + O O O O X X X X X X X X X X + X   + X + . + X X   + + . . + X     .     . .     X O O O O O           O X X X X O O X O O X O - X O O X O O O o O ; .       X O O X X O O O - O O O - O ; - - O ; O O O ; X   .     ; ; - O ; - ; > ; - ; ; ; > ; : > - > > > > m : * * * .     3 ; o ; - ; - O o ; ; ; ; ; ; ; ; > > ; > > m % - .   - ; ; ; O O ; ; - - ; ; ; ; > ; ; ; ; : ; ; m > % .   o ; ; - ; O ; ; - ; ; ; ; ; 1 ; ; ; ; ; ; : M > d % .   ; ; O - ; ; - ; - ; ; ; ; ; ; : > > ; ; ; > N : d %     3 ; - o ; - ; ; O ; ; ; ; ; > ; : ; ; : > > m : d * %   O ; ; O - - - ; - - ; ; > ; ; > > ; ; > ; : m > * g x i t r %.XXF.Z.G.I.G.G.U.F.F.F.I.U.F.J.G.H.Z.S.V.`.L. .# 8 S C N 4 4 4 ;   K K Z 3 +   7 F 0 0 0 Z Z K 9 9 7 7 6 6 8 7 6 0 o   O 3 0 ;     O ; 0 O O 8 O X       ",
"+             + X X X O X X O @ O O o O O @ O O O O O O O O O O X X O X X O X O X X X X X X X X X X X X + X X +     O O O O O , +         O O X O O O O O X + O O X X O + O o o O O O , X   +   X ; ; O O O O - O O O O O - o o ; O O ; O - ; X   .     ; ; - O O ; - o - ; ; - ; ; ; ; ; > - 1 ; > m : * d d %   . 3 ; - ; O - ; ; - - > ; ; ; ; > ; > ; : > > N = %     o ; O - - ; ; - o ; ; - ; ; > ; : ; > > ; : V > : .   - ; o - ; ; ; - o ; - ; O > - > > > ; : ; : V > d * .   ; - - O ; O ; O ; - ; o ; ; ; ; ; ; ; : ; : m : d %     ; ; - ; o ; ; o - - ; ; ; o > ; ; > ; ; ; > M > g *     O ; - - ; O ; ; o ; ; ; - ; - ; ; ; ; : ; : V j d g z i y p %.XXH.G.I.J.I.J.G.J.G.G.G.Y.J.J.J.G.F.Z.V.U.L. .# 7 S A C 7 4 4 ;   K K 0 4     6 0 0 0 Z F Z Z 0 0 0 7 0 8 8 7 6 0 o   O 3 Z O   + X O 0 X X 8 O X       ",
"+ , 0 E Z ,   O O O 2 O o O 2 2 ; O , O 2 2 $ , 2 2 O 2 2 $ 2 2 X     + X     + +   +   + X   + +   +       + +     @ ; ; O 3 6 X         O X O o O O - O O o O O O O O O O O O O O O ; +   X   + ; O O O O O ; O X - O o O ; O o O ; o O O 6 o   .     , ; - ; ; ; - ; - ; - ; ; ; > ; 1 > ; : > > N * % d d %   . ; ; ; - O ; - O ; - ; - ; > ; : > ; - > 4 > m % & .   - ; ; - ; ; ; o ; ; - ; ; ; > ; > ; ; > > > M > * .   ; ; ; - ; ; ; o ; ; ; ; > ; > ; ; ; ; - > > M > l % + . - ; ; ; ; ; ; o ; ; > ; ; ; ; ; ; ; ; > > ; m = d *   . > O - ; ; ; - ; ; ; - ; ; > ; > ; ; > > 4 > m - d * %   O - ; - O ; ; O ; - ; ; 1 ; ; ; > > ; > > > M 4 d d z i y t x.+XI.G.K.J.I.I.I.I.Y.Y.Y.Y.K.Y.K.K.J.F.F._.Q. .e B S A 7 7 6 4 ;   L K C 6     6 K 9 0 0 0 0 9 0 9 7 7 0 9 7 7 6 0 2   O $ 0 2   X X , 0 X O 8 O X     X ",
"  0 ^ _ _ 9 + O 2 2 O $ , $ 2 2 , , 6 6 , 6 3 , , , 6 2 , , 2 2                                                     O , ; , , 7 X         O O O o o O o o O O O O O O O O O O O O O ; 6 X   .   X ; ; O O O O O O O O ; ; O O ; ; O ; ; - O ; O   X     ; O - ; ; o ; o ; ; > 1 ; ; ; > > 4 > ; > > m ; % d l .     3 ; ; ; ; O ; O ; ; ; ; ; ; ; ; 5 ; > > 4 > m ; %     - ; O ; 1 O ; ; ; ; ; > ; ; ; ; > > > > ; ; m > & .   O O ; O 1 o ; ; - ; o > 1 ; ; > > > ; > 4 > M > l * .   ; O O ; O - ; ; ; - ; ; ; > > ; > > > > 4 > V > l * .   ; O ; ; ; o ; ; ; - ; 3 ; 4 ; ; > 3 ; > > > M > g * .   X ; - ; ; O ; ; ; - ; ; ; > > ; ; ; > 1 > > m m d g z i t y x.+XI.G.K.Y.T.I.Y.Y.Y.T.T.T.T.T.Y.K.J.J.G._.!. .r B S V 7 N 4 4 ;   K K Z 6 + + 6 0 9 9 8 7 9 9 7 9 7 9 9 7 7 7 6 0 +   O 2 Z 2     X O 0 X X 0 2 O       ",
"  6 6 6 8 $ X 2 2 O ; 6 , 2 2 , , $ 2 2 2 6 , $ 3 3 $ 3 6 2 2 6 +               +                                   O , 3 3 3 6 O         O O O O o o O O O O O O O O O O O O O O O - 3 X   .   X ; O O X - O O - O O ; ; O - ; O - o O - O 3 o   .     ; ; - O ; O ; ; ; ; O > ; > ; ; > 4 > > 4 > N = * d f -   . ; ; O ; ; O ; ; ; o ; ; 1 > > 3 ; > > > > 4 N : % %   O ; O ; O O ; - ; ; - > ; ; ; > ; 4 > > > > M > * .   ; ; ; O O ; ; ; - ; > ; ; 4 ; ; ; 4 > > 4 > M 4 d * +   ; O O - ; ; ; - ; - o ; ; 4 ; 1 3 ; > > 4 > N l d * +   3 ; ; o ; O - 1 ; - ; ; ; > ; ; ; > > > 4 > M - g * .   O ; ; O O ; ; O ; ; - ; ; ; ; 3 ; > > 5 > 4 M 4 d g z i y y x.@XI.J.T.T.T.Y.T.T.Y.T.T.T.T.T.T.K.K.J.J.}.!. .r B S C m 6 6 4 ;   K Z 0 6     6 K 9 7 9 7 7 7 9 9 7 8 7 7 6 7 6 0 O   O 2 0 O   X X , 8 X X 8 X X       ",
"  6 7 6 0 2   2 , O 6 O , 2 , O 2 6 8 8 0 0 7 2 O 3 6 6 , 6 , 0 6 2 @ 2 2 , 2 , 2 6 6 6 2 , $ 3 , 2 6 ; $ 2 2 o +   2 , 3 O 3 7 O         O O O O O O o O O o O O O O - O O O ; ; O O , X   .   X ; O O O O O O O ; O O O O O O O O O ; O O 3 o   .   . , ; ; ; ; ; ; ; ; ; ; ; ; ; > ; ; ; ; > 4 > m * % d d . .   3 ; ; O ; ; ; > ; > ; > > ; 4 ; 4 > > ; > m j * ; .   ; ; ; o ; ; ; - ; ; ; ; 1 ; > 5 > ; > > 3 4 M j * .   o ; ; O - ; ; - > ; ; ; ; ; > > 3 > > > > > M > f * X   ; ; ; O o ; ; o > ; > ; ; ; > > > ; > > > : N > g % . + 1 ; ; o ; ; ; ; ; ; ; ; ; ; ; ; > > 5 > > > M > g d %   X ; ; O O ; ; ; > ; ; ; ; 1 > > > > > > > > M j d c z i y y v.%X}.T.T.'.T.T.T.T.T. XT. X'.T.T.T.K.G.J.[.^...w B A V N 7 4 4 ;   K K Z 3     6 0 7 7 9 7 9 7 7 9 0 7 8 7 9 9 6 0 O   O 2 0 $   + X 2 8 X 2 0 O X     X ",
"  , 6 6 0 2 X O , 2 $ 3 3 O O 6 0 Q ! ! ! [ _ ! E 2 2 6 6 6 6 0 Q E E E F 0 E E E W W E E E E E E E E E E E E 8 2   O 6 ; , , 7 O         ; O O O o O O O o O O O O O O O O O O O O ; , X . .     ; , O O O O - O ; O O ; O O ; ; ; O ; O O 3 o + .   . , ; ; O ; ; ; ; - ; ; ; ; > ; > ; > > > 4 > V : * d f &   . ; ; o - ; ; ; ; ; ; > - ; > > > ; > 3 > > > m & % .   - ; ; ; - ; ; ; > ; - > ; 1 ; ; > > ; ; > > M > : X   ; ; ; O ; ; ; ; ; o > - ; ; ; ; > > > 1 > > M > k : .   ; ; ; O ; ; ; - ; ; ; - ; > 5 > > > > 1 4 > m > h % .   ; - ; O ; ; ; - - ; ; ; ; > ; > ; > > ; 4 > m : g d .   X ; ; ; ; ; ; ; ; ; ; ; ; > > ; > ; > > ; > M m d c b i y u v.@X}.Y.'.}.T.{. XT.{.oX X{.'.Y.T.T.Y.K.J.[.~...t B S A 7 > 4 4 ;   E K 0 7     6 0 9 6 9 9 9 6 6 0 7 7 7 9 7 6 7 0 O   O @ 0 6   X X O 8 + X 0 X X +     ",
"  , 6 6 0 2 + O @ , 6 2 + 6 E E Q E 0 E 0 E W _ ] _ 0 $ 6 6 6 6 7 8 8 0 7 0 8 8 0 0 0 8 0 0 9 9 8 8 8 8 0 0 9 7 6 X 6 6 6 O 2 7 O         O O - O O o O O o O O O O O ; O O O O ; O O , +   . . X O O O O O O O O O O ; O O O ; O O ; O O ; 4 o . .     ; ; ; ; ; - ; ; ; - > ; ; ; 1 > > > 4 > 4 > N : * d g %     ; ; ; ; ; ; > ; o - ; ; ; > ; ; > ; > > 4 4 m : * X   O O ; - ; ; ; O ; o ; ; ; ; ; 3 > > > > 4 > M > * +   o O ; ; - ; ; O ; - ; ; ; ; ; ; 1 > > 4 4 > M j k * .   o ; O ; ; ; ; 1 ; - ; ; ; ; > ; ; > 4 > 4 > m = h & .   ; ; ; ; ; ; ; ; ; o > ; ; ; 1 ; > > > > 4 > m > h d .   X ; ; ; ; ; > o ; o - > ; ; ; ; > ; ; 4 4 > m M f c z p y y v.%XI.T.].'.{. XOX{. XoX X X X X{.'.T.T.K.[.~...t B S N N 7 6 ; ;   L K 0 6     6 0 0 6 6 9 0 0 0 7 9 7 6 7 7 6 6 0 X + O 2 0 O   + O , 8 X 2 6 X X     + ",
"  , 6 6 0 , + $ ; 6 O + 6 E W 8 2 , , 2 , 2 $ O 0 ] 8.E , , 6 , 2 O O O $ O O O @ O O O O O O O 2 O O O O O 2 O O X , 6 , , , 6 O         O O o O O O - O o o o o o O O O O O O ; O - , X   .   X O ; O X O ; ; O O ; O ; O ; O O o ; O O O 6 o   .     ; ; ; O ; - ; ; - ; ; ; ; ; ; ; > > 4 > 4 > j = = d f -   + ; ; o ; ; o > o ; ; ; ; ; 1 ; > 1 > 4 4 > j m : % X   O ; ; O ; ; ; ; ; ; ; ; - ; > > > > > > 5 > M j : .   ; O ; ; ; ; ; ; ; ; ; ; ; > > ; > > 4 4 > > M > f * .   ; ; ; ; ; ; ; > - ; 1 ; ; - > ; ; > 4 > > > m = h =   + ; O O ; O ; ; ; ; ; > ; ; ; > > ; > > 4 4 > M : h f .   - ; ; O - O ; ; ; - ; 1 ; ; > ; ; > > 4 4 > M 4 d v b i y u v.%X}.'. X]. X#X$X$X$X#X$X$X#X#XoX X].].Y..X/.#.t B S V 4 7 4 4 O   E L Z 7     6 0 7 6 7 0 9 9 0 7 7 0 9 7 7 6 6 7 O + O O 0 ,   + O 2 0 + O 6 O X     + ",
"  , 7 6 0 2 + 2 6 O X , E 0 7 7 7 7 2 6 6 , 2 6 , O ^ [ E , , 2 2 2 O , O 2 2 2 2 , 2 2 2 O $ 2 , , O 2 @ , 2 2 O X O ; , , 6 8 O         O O O O O O O O O O O O O O O O O O ; O O O , X   +   X O O O ; - O O ; O O ; O ; O O O ; O - ; O 6 o . + . X ; ; ; - ; ; - ; 1 ; ; - > ; ; ; > ; > 4 > > m : * d f % . + 3 ; ; ; - ; ; 1 o - ; > ; ; > ; > > > > 4 > m : * X + O ; ; ; ; - o ; - ; ; ; ; > ; > ; ; ; > > 4 M j : .   - 3 ; O ; o - ; ; ; - 1 ; ; > ; > > > > > ; m m f : .   ; ; O - ; - ; o ; ; > ; ; ; ; ; > > > > > > j j h * . + 3 ; - ; ; - O - ; ; ; 1 - > ; > > 4 > > 4 > m : h d %   O ; ; ; ; ; - ; ; ; ; ; ; ; > > > ; > > 4 > m l d v n a u u M.%X[. X]. X$X#X&X-X=X-X=X=X;X=X&X$X X].Y..X/.@.w B S C m 4 6 3 ;   K K 0 7   + 7 0 7 9 6 7 0 7 7 6 6 6 7 6 6 7 7 8 @   O 2 0 ,   + X O 0 X X 8 O X       ",
"  6 8 6 0 , X O O O O 0 0 6 6 8 6 , 6 2 2 O O 6 6 , o F ! 0 2 , , 2 @ 3 , O , , , , 2 , O , , 2 O , @ ; @ ; 2 , @ + @ 6 3 6 6 7 X     X   O ; O O O O O ; O O O O O O O 3 O ; O O ; O ; X + +   O ; ; O O ; ; O , O O O O ; O ; O - O ; - - 6 X   .   . ; ; ; ; o o ; ; - 1 ; ; > ; > > ; > > > 4 > m : d d g - + . , ; ; ; - O ; ; ; ; ; ; ; > 3 ; > ; > > 4 > m * * X . - ; ; ; ; - ; ; ; ; ; ; ; ; > ; > ; > > > > j j : - . ; ; O - ; - o ; ; ; ; ; ; > ; 4 3 > > > > > M > g = . . ; ; O ; ; - O ; ; ; ; ; ; > ; 4 > > ; > 4 > N = c : . . , ; - ; o ; ; ; ; ; ; ; > 1 > ; > > > > > 4 M : g d % . - ; - ; ; ; ; O ; ; ; ; ; ; > ; 4 ; ; > > 4 N j h v n p u u M.%X{.]. XOX&X=X:X:X:X:X:X:X:X:X;X#X X{.T.$X/.@.t B A A 7 4 4 4 ;   K K 9 4 +   6 0 0 7 7 9 0 , o O O O 6 7 6 6 7 0 O   O O 0 O   X X 2 8 X O 6 O X       ",
"  6 6 6 8 $   O @ X 8 8 6 6 8 6 2 X X X X O + O O 3 6 , E W $ 2 6 $ 2 , , 2 , o O , O , , O o , 2 2 , 2 , 2 , 2 ; + 2 6 , ; ; 7 O         O O O O O O O O O o O O O O O O O ; O O O O 6 + .     + , O ; O O O O O ; O , ; O O O ; O O O ; ; 6 X X X . + 4 ; O ; ; ; ; ; ; ; > ; ; ; > 3 3 > > ; 4 > m : * g k -   + 6 ; O ; O ; ; ; > ; ; ; > ; ; 3 3 > > > 4 > M = : X + ; ; ; X - ; O ; ; ; > 3 ; ; ; 5 4 > > > > > N j * .   ; 3 O ; o ; ; ; > ; ; ; ; ; ; > ; > > ; 4 ; M j c = . X ; ; - O O ; ; ; ; ; - 1 ; ; > ; 4 ; 4 > > > m l c = . + 6 ; O ; ; O - ; ; > ; ; ; ; ; > 5 4 > ; > > M > v g X   ; 3 O ; O - O ; 4 ; 1 ; ; ; > ; > > > > > = m j h v n p u u M.*X.X].oX&X;X:X,X,X,X<X<X1X1X,X:X#XoXOX{.$X(.@.t B S C m 4 4 ; ;   K Z 9 4   + 6 K 7 7 6 7 0 O + O X + 2 7 8 6 6 0 O   O 2 8 O   X X 2 8 + O 8 X X     X ",
"  2 6 6 0 2 + O + 2 7 7 8 6 8 O + 2 5 5 H 5 o + O 3 , 2 6 W 6 O 3 ; 3 , , 2 , o 2 ; 2 , 2 O , , 3 O @ 3 2 , 6 ; , + O , , , , 6 O         O O O O O O O O O O O O O O O ; o O O O ; - , X   .   X ; O O O ; ; O O ; O 2 O O O O O O ; O O O 6 O   X . . 3 ; O ; ; ; ; ; > ; ; ; ; > ; ; 4 4 > > 4 > M > * g g & . + 6 > O ; ; O ; ; ; ; - ; ; ; > ; 4 > > 4 > > m : * .   ; ; ; O ; ; ; ; ; ; O > ; ; > > > ; > > 4 > N j : X   ; ; ; ; 1 ; ; - ; ; ; ; > ; ; ; > ; > > > > M m h = . . ; ; ; ; ; - ; ; ; > ; ; ; ; ; > 4 > > ; > > N j c = .   ; ; O ; ; ; ; ; ; ; - ; ; ; ; > > > > ; 4 > M > c d .   O 3 ; o ; ; ; ; ; > ; - ; ; > ; 4 ; > ; 4 > V j h v n p u { M.*X X X$X&X;X,X1X1X1X1X1X2X1X1X:X-X$X{.{.$X+X$.t B S C m 4 6 6 - + K Z Z 3     6 0 9 9 9 9 0 + O ; , O 6 7 7 6 6 0 O   O O 8 O   X O 2 0 + O 6 X X     + ",
"+ 2 6 6 0 O   @ X 6 6 6 6 8 2 + 5 U R <.<.R J 5   O 6 6 2 0 0 X O 3 O 2 2 , , , O , , , O , O , , 3 O , 2 6 O , O X 2 , , 2 6 7 X X .     O O O O O O O O O O O O O O O O O O O O O ; 6 X   .   X 2 O O O ; ; O O O O ; ; , ; O O ; O ; O ; 6 X   .   + 3 ; ; ; ; o ; - ; ; - O ; ; > ; 1 ; > > m > M : d g g %     > ; ; ; O ; O - ; ; ; 1 ; ; > ; ; > > > > j V = * .   ; ; ; ; ; - O o > ; - ; ; ; ; ; ; > > > > = N j : .   ; ; ; ; - ; ; ; ; - ; ; ; ; > ; 3 > > > > > m m k = .   , ; ; ; O ; O ; ; ; ; ; ; ; > ; ; ; > 4 > > j l c > .   , ; ; ; O ; - ; ; ; ; ; ; ; 4 ; ; > > ; 4 > M l g k -   o ; ; ; ; o ; - ; ; ; ; > ; ; > 5 > > ; 4 > m M c v n a u u M.*X$XOXoX-X>X1X1X2X2X2X2X2X1X,X:X-X$XOX{.$X/.$.t B A A 7 7 > , -   K K Z 7 +   6 Z 6 6 9 6 7 O O 6 6 O 6 7 7 6 6 0 o   O @ 8 2   X X , 0 X O 8 O X       ",
"  3 6 6 6 2 + + X 6 6 6 6 6 + H >.,.,.2.3.3.<.J 1 + , 6 6 7 0 + X , O , O 2 , O 2 , O o O 6 O 6 , , , O 6 , ; O 2 X O 6 2 @ 3 7 O         ; ; O O O O O O O @ O O o O O o O ; ; O ; O 6 X       X ; O O O ; ; O O O O ; ; O O O ; ; O ; O ; , X   .   X 6 ; ; ; o > - O ; ; ; ; > > ; ; > > > > 4 > m j * g g &   . 6 ; ; - ; ; ; ; > ; ; ; > ; ; > ; > ; > > > M * = X + ; ; ; ; ; ; ; o ; ; > > ; ; > ; ; > > > > > m j = X   O ; ; ; ; ; ; O ; - 1 ; ; ; > ; > 1 > > > > m j k = X . ; O ; O ; ; ; O - ; > ; 1 - > ; > > ; > > > V j c =   X ; ; O ; ; ; - O - ; - ; ; > > ; > > > > > m M > v g X . - ; ; ; ; ; ; - - ; ; ; ; 1 ; > ; > > > > > M m h v n p u { m.*XOXOX$X-X>X<X2X1X2X3X2X2X3X<X:X&X$XOX.XOX/.@.t B A V 7 4 7 > ;   K Z K 7 +   3 0 9 9 6 7 7 O O 6 6 O 6 7 7 6 6 9 O   O 2 8 2   X O 3 9 + O 8 O X       ",
"  $ 6 3 8 O +   X 6 6 6 8 O 5 T >.3.3.3.3.4.<.R G + O O O 6 E O X 2 , , , , , , , , , , 2 O 6 O , o O 6 , 2 6 O 2 + O ; , , 6 6 O         O O O O O O O O O 2 O ; O O O O O O O O O O , +   X   X O ; O O O O O O ; O O O ; O ; O ; ; O ; O 6 O X .     ; - ; - O ; ; ; ; - > ; ; 1 ; ; > ; ; > > j M = = g h %   X ; ; ; - - ; ; O ; 1 ; ; ; > ; ; ; > 4 > > j V : : -   O O - ; O ; ; - ; ; ; ; ; 1 - ; > 1 > 4 ; > M m = . . ; O o ; o ; ; - ; ; ; > ; ; > 1 > > > > > > M j c = . . ; ; - ; O ; ; ; ; ; ; ; ; ; ; ; > > ; > > > V l c =     ; ; - ; ; ; ; ; 1 > ; ; ; ; ; > 4 > > > > > M l v g -   o ; ; ; - 1 ; ; ; ; ; ; ; - > 3 > > ; > > > M M h v n p u { n.*XoXOX#X#X;X,X1X2X2X3X2X2X3X1X:X=X$XOX].OX/.@.t B S N N 4 6 > -   K Z C 6 +   6 Z 9 6 6 7 7 O O 6 6 ; 6 0 6 7 6 0 +   O @ 8 O   X O $ 9 + O 0 O +       ",
"  , 6 , 8 @   + O 6 6 6 0 2 5 >.>.3.4.4.3.3.,.<.G 1 o 6 , @ E +   @ ; 2 2 6 , 2 , , , , 6 O ; 6 2 2 2 @ , 2 , ; , X O 6 6 O , 6 X         O O O O O O O O O O 2 O O O O O O O O O , O , X   .   X ; O O O O O O O ; ; O O O O ; O ; O O O - 6 X X . X   6 ; - O ; - ; - ; 1 > ; ; ; ; > > 1 > > > j V l d d h % X . , ; ; ; ; ; - ; - - ; - ; ; ; > > > j 5 > > N = = . + ; ; ; ; O ; O ; ; ; ; - ; ; ; ; > > > 4 > 4 M m = X   O ; ; ; ; ; o ; ; ; ; ; ; ; > ; > - m 4 > > M m k = . + ; ; O ; ; ; O ; ; ; ; ; ; ; ; > > 1 4 > > > m j h * . X ; ; ; O ; ; - ; ; ; ; ; ; > ; ; > 1 4 > > > M > c g . . - ; ; O ; ; - ; ; ; ; ; ; ; > ; ; > > > 4 > m m g v n p u { n.*XOXOXoX&X;X,X<X3X3X2X2X2X1X1X,X;X#XoX X#X/.@.t B A N 7 4 4 4 -   K Z Z 9 +   6 Z 9 6 9 6 7 O O 3 6 ; 7 7 7 6 6 9 O   X 2 0 @   X X 2 8 X O 8 O O     X ",
"  , 6 O 8 O     O 6 6 , 0 + 5 >.T ,.3.3.3.3.<.<.U 2 + 2 2 2 0 @   O , 6 @ 2 2 O , 3 O O , 6 @ , 2 2 , , 2 , , @ @   O 6 , , , 7 X   .   + O ; O O O O ; O O O O O O O O O O ; O O O O ; X   .   X , ; O O O ; O ; O O ; ; O O ; 3 O O , ; ; 6 X   . . + ; ; ; ; ; ; O ; ; - ; ; ; > > > > 4 > 4 > 4 N = * g h &   . ; ; - ; O ; ; ; ; ; ; ; ; ; ; > ; > > 4 > j N = = .   ; ; ; ; ; - ; ; ; ; ; ; 4 ; > ; > > 4 4 4 4 M j * X . ; ; ; ; ; - ; ; ; ; O > > ; ; > ; ; 5 > > 4 M > c d .   ; ; - ; - ; - ; ; - ; ; ; > > > > > 4 > > > N l h = .   > ; ; ; ; O O ; - ; ; ; ; 4 ; ; 4 > > > > 4 M > c f -   o ; ; ; ; ; O ; : ; ; : > ; ; > > > 4 4 > 4 M m g v b p u u n.*XoXOX$X&X;X<X<X2X2X1X1X2X1X<X,X=X#X$XOX#X/.@.y B D B N > 4 ; ;   K Z 9 6     6 Z 6 6 9 9 7 O O 6 6 O 6 7 7 7 7 0 O + X 2 0 O   + X 2 0 X O 8 O X     + ",
"  , 2 6 7 O     X 8 , 2 0 $ 5 U T >.2.,.2.<.>.U G + O 6 , O 0 +   O 6 O O 6 O , 6 2 , O O 6 O 2 , , 2 , , ; 6 O O X O 6 2 2 6 8 X         O O O O O O ; O O O ; O O O O O 3 O O O O O 3 X       X O ; O O O ; O O O ; ; O O ; O O O O , O ; 3 o   X     ; ; - ; ; O ; ; ; ; - > ; > > > > ; 4 > 4 m m l : g g - . . ; ; O ; ; ; o > ; ; ; ; > ; ; ; > ; > > > j M * : X   ; ; - ; O ; o ; ; ; ; ; ; ; ; > > > 4 > > > M m * %   o ; ; O ; O ; ; > ; ; ; > ; > ; 4 > ; 4 > > M j c d + + ; ; - ; ; ; O ; ; ; ; ; > ; ; > > > 3 > > > M j c * . X ; ; ; O O ; - ; ; ; ; ; > ; > ; ; 4 > > j > M > v f &   X ; ; ; ; O ; ; ; ; ; ; ; > ; > > > ; > j > M m g v n p u { n.*XoXOXoX#X:X,X1X1X1X<X1X1X1X1X:X=X#XoXOX#X/.@.y B A C C 4 4 ; -   K K 0 7 +   6 Z 6 8 8 7 7 X O 2 6 2 6 8 7 7 7 0 O   O 2 8 O   X X @ 0 + O 7 O +       ",
"  2 3 2 8 2     X , 2 , 7 0 2 H T >.>.>.>.T U J 5 + O 6 2 2 8 X   O 2 2 6 @ 6 O O 6 O , 6 O 2 , 2 , O , , 6 O O O X O , 2 , , 6 X         O O O O O O O O O O O O O O ; O ; O O O ; O 3 X . X   X , ; O O O , O ; O O O ; O O O O ; ; O 3 ; 3 o   X   X ; ; O ; O ; - ; ; ; ; ; ; ; - ; 1 > > > > m m : * d g -   + 6 ; O ; O ; ; ; ; ; ; ; ; ; ; > > ; 4 > > > V : : X   ; ; O O ; ; ; ; - ; ; ; > ; > - ; > ; 4 > > V m : X . - ; - O ; ; ; ; ; ; ; ; - > ; ; > > > > > > M m c : . . ; ; X ; O ; ; ; ; ; - ; ; > > ; > ; > > > > M j h * .   ; ; o ; ; ; ; ; ; > ; ; ; ; - > > ; > > > > M l c f .   - ; O O ; ; ; ; ; ; ; ; ; ; ; ; > ; ; > > > V m g v n p y u n.*XOX XoX&X;X,X<X<X<X<X<X,X,X,X:X-XOX X].OX+X@.y B S A 4 4 4 3 ;   K K 0 7 +   6 9 6 7 8 7 7 O O 6 , 2 7 7 6 6 7 8 +   @ O 0 O     O 2 0 + O 7 X O       ",
"  , , , 8 O       O 6 6 6 0 6 H J T T T U U J H O + , , 2 6 6 + + O @ 3 , 2 6 O O , 6 O O , O 6 O , , O , o O 3 O X 2 6 , , , 6 O X .     O ; O X - O O O O - O O O O O O O O O O O O 3 .   X   + , O O O ; O O O O - O O O O O O O O O O ; 6 o   .   X 6 ; X O ; 1 ; ; ; ; ; ; ; ; > ; ; > > > > > M l : g g - . . , - O ; ; O ; ; ; ; > ; ; > > > > > > m > j m : * .   - ; X ; ; ; ; ; ; ; ; ; ; > > ; > ; > 4 > > m m : X   ; - O O ; O O ; ; ; ; ; ; ; > > > ; > > 4 > m m c l . . ; O O O ; ; - ; ; ; ; > ; > ; > > > > > 4 > m l c : + . 4 - o ; ; O ; ; ; ; ; > ; ; > 4 > ; ; 4 4 > M > c f . X X ; O - ; O ; ; ; ; ; ; - ; > > ; 4 > > 4 > m M h v b p y u n.*X{.].{.oX=X>X,X,X>X>X>X,X,X:X;X#X].T.].OX/.@.t B S m 4 7 3 ; -   K C 9 4     , 8 6 7 7 6 8 O + 6 , , , 7 6 6 8 8 O + O O 8 2   X O @ 0 X O 8 O X       ",
"  , 6 , 8 O +     O , 6 , 0 E 6 1 H H U G G H 1 + 6 , , @ 6 O   + O O O 2 6 2 6 6 6 O 6 , O 6 @ O 2 2 , , , 2 , 6   @ 3 , 2 , 6 X         O ; O O O O O ; O O O O O O ; O O ; O O ; O ; +   X   X ; ; O O O O O O O O O O - O ; ; O ; O ; ; 4 o X .   . > - ; ; ; ; ; ; ; ; - > ; > > > > > ; 4 > 4 M > * g g -   . ; ; ; - ; ; ; ; ; ; : ; ; > ; > ; 4 > 5 > > V : * - . - ; ; ; O ; ; ; ; ; ; ; ; ; > > > 3 > > > : M j * X   ; O ; ; ; ; ; ; ; ; ; ; - ; 4 ; > > 4 ; > > M j k = .   ; ; ; - ; O ; ; ; ; ; ; > ; > ; ; > > 3 > ; M j k * . + ; ; ; O ; ; ; ; ; ; - ; ; > > ; > > > 4 4 > M l c d %   O ; ; ; ; ; O ; ; ; ; ; ; > > ; > > ; > > > m m h v b i u u n.%X{.].].OX&X;X;X:X;X;X;X;X;X;X#XOX{.T.T. X(.#.r Z A C 7 4 4 3 ;   K K Z 7 +   6 Z 9 6 8 7 8 O O 6 6 , , 8 6 6 6 0 X   O O 8 O + + O 2 8 + O 6 O X     + ",
"  , 6 6 8 2 + X     2 , , 6 W ! 6 + 1 5 5 1 + + 6 8 O 2 3 6 +   O O O 6 , , 6 O O , O 2 , 2 , 2 O 2 2 @ , , o O , + O , 2 @ ; 7 O   X     O ; O - O O O O O O O O O O O O O O ; ; O O 3 +   .   O ; ; ; O O O ; O O O ; O O O O O ; ; O O ; 6 o . . X . 6 ; - ; - ; ; ; ; ; ; ; ; ; > ; 4 > > > > j M > = g f %   X ; ; O ; O - ; ; ; ; ; ; > ; ; > ; > > > 4 > M = : .   O ; ; O O ; ; ; ; - ; ; ; ; > ; > > ; > 4 > V j * -   ; ; ; O O ; ; ; ; ; ; ; > ; ; 4 ; 4 ; 4 > > M m k = . . ; ; O ; ; o ; ; ; ; > ; ; ; ; ; > 3 > ; > > V j k * . + ; ; O ; ; ; ; ; ; ; ; ; > ; ; ; ; > ; > > 4 M > h f %   - ; ; O - ; O ; ; ; ; 1 3 > ; ; ; > > ; > > V m g v n p u u n.%X.X'.'.].oX#X#X&X#X&X&X&X#X#X$X X].T.T.[./.#.w B S N 4 4 3 > ;   K Z 7 6     3 9 9 6 7 7 7 X X 6 6 O 6 0 7 6 6 0 O + X O 0 o     O O 9 + O 8 + O     + ",
"  O 6 6 6 O   X     O 6 2 6 6 _ _ E 2 @ O , 6 0 F , 6 2 6 $     o @ O O , O O 3 , , 2 , , 2 2 O 6 2 , , , 3 , , O + @ 6 , , 2 6 +         @ - O O O O O O O O O O O O O O O O O O ; O 3 + + +   + 6 O O O O O O O O O O O O - ; ; O O ; ; ; 6 o   .     ; ; O - ; O ; ; ; ; ; ; 4 4 ; > ; ; ; 4 4 > M = = d g &   X , ; - O ; X ; ; - ; 1 ; ; > > 3 > ; ; > > m M : : X . O ; O ; ; o ; ; ; ; ; ; 4 ; > > ; ; 4 > > > V N = .   O ; O ; ; O ; ; ; ; ; - ; ; > ; > > 3 > > > m m h * .   ; O ; O O ; ; ; ; ; ; ; ; > 3 > ; > > > 4 > M j g % .   3 ; O O - O ; O ; ; > ; ; > > > > ; > ; 4 > M > h f . + O ; - O O ; ; ; - ; ; - > ; ; > 4 ; > 4 4 > m M g v b i u y n.%X].Y.T.].]. X XOXoX#XOXoXoXoXOX].T.K.K..X/...t B S N 7 4 4 ; -   L Z 9 6 + + 3 0 7 7 6 7 7 O + 6 6 O 6 7 7 6 6 9 +   O O 9 $   X o O 7 X O 7 O +       ",
"  2 2 2 8 O   X X     2 6 3 2 $ ! _ ! ! W W ! E 6 2 2 6 6 o     O O O , O 2 O O o o , O 2 , O 6 , 2 O 6 , O , 2 O X O , , , 6 6 O         O O O O O O O O O O O O O O O O ; O O O O ; 3 .   .   X ; O O O O O O O O ; O - O ; O O O O ; ; ; 6 +   + .   3 ; ; O O - - ; - ; ; > ; ; > ; ; > > 4 4 > V j * g g - . . ; ; ; ; O O ; ; ; - - ; ; > ; > 4 > > > 4 > V : : .   O ; ; ; o ; ; ; ; ; ; ; ; ; ; ; > > > 6 > : V j * X   O ; ; O ; O ; O ; - ; ; ; ; ; > ; 4 ; > > > M m k = . . ; O ; ; ; - ; - - ; ; ; > > > ; 3 ; > 4 4 ; V j k * .   ; ; ; ; O ; O ; - ; ; ; ; ; > ; 4 > 4 > > > M l c f %   O ; ; ; ; O ; O ; ; ; ; > ; > ; 3 > > 4 > > V M g v z p u y b.%X}.Y.'.'.].]. X XOXOX{. XOX X X].].T.K.[./.@.r B S N N 4 4 3 ;   K Z 0 7     3 Z 9 6 7 7 7 O + 3 6 ; 6 9 6 6 6 9 @ + X O 9 O   + X O 7 + O 8 O X       ",
"  $ 6 , 8 @ + X X     X 2 2 , O 2 6 E W W E 8 2 2 , 6 6 o     X O O 3 O , , O , , , , 2 @ , 6 O O , 2 O ; @ , , 2   O , , 2 , 6 O     +   ; O O O O O O O O O O 2 O ; O O O O O O O O 3 . X X   O ; ; O ; O ; O O O O O O ; O O ; O ; O ; - 6 X   X   + ; ; O ; ; O ; O ; ; - ; ; > ; 3 > > > > 4 > z = * d f -   + ; ; O ; ; ; - o ; ; ; > ; > 3 ; ; > > > > 4 V : : o   ; ; - ; ; ; o - ; - - > ; 4 ; > ; > > ; > : V N : . + - ; ; O ; O ; - ; - > ; ; 4 > ; ; > > > 4 > M m g = . . ; ; - O O ; ; o ; ; - 1 ; > ; > > > > > > : N j k * .   ; ; ; O - ; ; - ; - ; ; > ; ; > ; > > > m > V > h f .   O ; ; O O ; ; - - ; - ; ; > ; > ; > > > > : V N d c b i y u n.XXY.K.T.T.'.T.{.]. X X X{.OX X].T.T.K.J.[.~. .t B S V 4 7 4 4 -   Z Z 9 6 +   3 0 0 9 6 6 7 O O 3 6 3 6 9 6 6 6 0 X + X O 8 2 + + X O 8 + O 7 O O     + ",
"  , 3 3 8 2 + + X +       O 2 , 2 @ O O O O 2 , , 6 6 O       X O @ 2 O , , 6 O 2 , O 6 , O O , , ; , , 6 O 6 O 6 + O 6 6 3 ; 7 O         O O O O O O O O O O O O ; O O O O O O ; O O ; . + +   O 3 O O O O O O O X - O O O ; O 3 O O ; O ; > O   .     > ; ; ; ; O ; - ; o ; ; 4 ; ; > ; > > ; > 4 V > * d f - .   ; ; - ; ; ; ; ; ; ; ; > ; ; ; > - ; > 4 > m M : : .   ; ; O o ; ; ; - ; ; ; ; ; ; ; > - ; ; > 4 > N M : .   O ; ; O ; ; ; ; ; ; ; ; > 3 ; > ; ; > ; > > V j k * . . ; ; - O ; ; ; - O ; - ; > ; ; > ; ; > > 4 > V j c * .   ; , - ; ; - ; ; ; ; > ; ; ; ; > > ; ; 3 > > V j c d .   X ; & O ; ; ; ; ; - ; ; ; > ; > ; ; ; > 4 > M m g c z i y y v.@X}.K.K.T.'.K.].'.].{.].'.{.'.Y.K.T.K.G._.~...t B S V 4 4 4 ; ;   Z Z 9 6     3 9 9 6 6 6 9 O o 6 6 O 3 9 6 6 6 7 O   X O 7 O + + O @ 0 X O 7 O X       ",
"  O , , 8 2 + @ X X +       X , , 6 6 ; 2 6 2 6 , @         X X O 2 2 6 O 2 2 ; , 2 6 O O O 3 O 2 @ , O O 6 O 6 O X @ 2 O 6 2 6 X     +   ; ; O O O O O O O O O O O O O O O O O O ; O , X . .   X ; ; O ; O X ; - ; O O ; O - O O O ; ; O O 6 o + . . + , ; - O ; ; - ; ; ; ; ; ; ; 4 > > ; > 4 > > M l * d d -   X 6 ; ; ; - O ; O ; - ; ; ; ; ; > > ; ; > > j M : * . . O ; ; ; O ; - ; O O ; ; > ; > ; > ; > > > > N m : . . ; ; ; O - ; O ; - ; ; - ; ; > ; > 4 ; > > : N j k = .   ; ; ; ; ; O O ; ; - ; ; O > > ; ; > > 4 > > m j h = .   ; ; ; - ; O o ; ; o ; ; ; > ; ; > > > 4 4 > m > g d % . O ; ; ; O - - O ; O ; ; 1 ; > ; > > > > > > V M d c z i y t v.@XJ.K.K.K.K.'.K.'.].'.T.'.'.T.K.'.T.K.G._.~...r B S N 7 4 4 4 ;   K Z Z 6     3 9 7 6 7 6 7 O o 3 3 , 6 6 7 6 6 9 O   X O 7 O   X X 2 7 + X 7 + O       ",
"  O , , 8 @ + X X + X         X O O , O @ , O O +           O O O ; 3 O , 2 @ 3 @ 3 3 ; 2 2 , 2 2 , , , , O O , 2 X O , , , , 6 X +       O ; O O O O O O O O O O O ; O o O O O O O O ; X   X   o 3 O O O ; ; O O O O @ ; O O O ; O 3 3 3 ; 3 + X . . X ; ; O - O ; ; ; ; ; ; > ; ; > ; > > > ; > > M : * d d % .   ; , O ; O ; - O ; ; ; ; ; > > ; > 3 > 4 > 4 M : - %   O ; ; - ; > 1 ; ; ; ; ; 3 ; ; > ; > 4 4 > > N m : . . O ; ; ; O ; ; ; - ; ; - ; ; ; > ; > > > 4 > N j g * . . ; ; ; O ; ; ; ; ; ; ; ; 1 ; > > > ; > 4 4 > N j h % . . ; ; O ; - ; ; ; ; - ; O ; > ; > ; > > > > > M = g d .   O ; ; O ; ; - ; ; ; ; - ; > > ; ; 3 > 4 > ; M m g g z i t t x.+XI.G.K.K.Y.K.K.K.K.T.K.K.K.Y.K.Y.Y.J.G._.~...t B A 7 4 > 4 4 ;   Z Z 9 4 +   3 9 7 6 6 6 9 O O 3 3 3 6 9 7 7 6 9 O   O O 8 O     X 2 8 + O 7 O O       ",
"  o 2 , 8 O   X O O X X                 + + X           + + O o O , O , ; @ , 2 , O 3 $ , 2 , O O , O 2 O , , , ,   O , , 2 , 6 X .       @ O O O O O O O O O O O O O O o ; ; O O O O ; X   .   + 3 ; O O O O O O O - O O O O ; O O O O O ; 3 o   .     , ; ; ; ; ; o ; ; ; - ; ; ; ; ; ; ; ; > 4 4 M > % * d - . . 6 ; ; - ; - ; ; ; ; ; ; ; ; ; ; ; > ; > 4 4 N > : . . ; ; ; ; ; o O - ; ; ; ; ; ; > ; > ; ; > > 4 m j : . . ; ; O ; ; - O - ; ; ; ; ; > ; ; ; ; > > 4 > N j k = .   , O ; - O ; O - ; ; ; ; ; ; ; ; ; > ; ; > > m = h = X . , ; O ; ; ; o ; ; ; ; ; ; ; ; > ; > > > 4 j V > h d &   O ; ; ; ; O ; ; ; ; ; ; ; ; ; ; ; > > ; > > N m d v z i t y x.+XA.Z.J.K.K.K.K.J.K.K.'.'.K.J.J.J.J.G.F._.^...t B A C N 4 ; ; -   K K 9 3     3 9 7 7 9 4 7 2 o 6 3 O 6 7 6 2 6 7 O   + O 8 O   X X O 8 X O 8 O +     + ",
"  O , , 6 2 + X O X X X                                 . X O @ O 2 , 2 O O 6 , O 6 O O o , , , , O O 6 6 2 O 2 2 + O 6 O 6 ; 7 X         O ; O O O o O o O O O O O O O O O O O O O O ; X   .   X ; ; O O O ; X O O O O O O O O O ; O ; ; ; 6 o   .     , ; ; O 1 - - ; ; ; ; ; > ; ; > ; > > > 4 > V > * d d X   + 6 ; ; O ; ; - ; ; ; ; ; > - ; ; > ; ; ; > > N : % -   ; O ; O ; ; - - ; ; ; > - ; ; ; ; ; > ; > > m 4 : X . ; ; o O ; ; - ; ; ; ; ; ; ; ; ; > > ; > 4 > N j f = X . ; ; ; O ; - ; ; ; ; ; - ; ; ; > ; ; > ; > > m j h % . . , ; O ; - O > O - > ; > ; ; > ; ; ; > > 4 > N = g d -   ; ; O - - ; ; O ; ; ; ; ; ; ; ; ; ; > ; 4 > m m d g z i t t %.+XA.Z.J.J.F.J.J.J.J.J.J.Y.J.F.F.J.J.Z.Z._.~...r B S N 9 4 4 ; ;   K Z 9 3     6 0 9 6 7 6 8 O O 6 6 ; 6 7 6 6 6 9 O   X O 8 O   + O O 6 + O 7 O X       ",
"  O , 6 8 O + + O O O X + X .                 +     + X X O 2 2 2 , 6 @ 6 O O 2 3 O O 6 , , 2 O 2 , ; , , 2 6 O @ X O 6 , ; 2 6 X X   X   , O O O O O O ; O O O ; O O O ; O O O O O O 6   X X   O ; O O O O O O O O O O O O ; O O 3 3 O ; - 6 o X . X   , ; O ; ; ; o ; ; ; ; ; - ; ; ; 3 ; ; > > > m = % d d - . . > ; O - O ; O ; ; ; ; ; ; ; ; > ; > > > > 7 V : : X + - ; ; ; O o ; O ; ; ; ; ; - ; > ; ; > > > ; m j : .   ; ; - - O O O O ; ; ; ; ; ; ; > ; ; > ; > > N j f % . + ; ; O ; ; O o - ; ; ; > ; > ; ; ; > > 4 > > N > g & . + , - - O O ; o ; 1 ; ; ; ; ; ; ; ; ; > > > > N = g * .   X , ; O O ; o ; ; ; - ; ; ; - > 3 ; > ; ; > m m d g z i y t %.XXH.H.H.H.G.F.J.F.J.F.J.G.F.F.H.G.F.S.S.`.~...r B A N 4 4 4 ; ;   K Z 9 7 +   6 0 6 6 3 7 8 O O 2 ; ; 6 7 6 7 6 0 O   O O 8 O     O 2 8 X O 7 O X       ",
"  o O O 6 O + 2 O + O X X X + . X     X     + X   + + X X O @ O , 6 O O @ ; , O ; $ 2 6 O $ , O O , 6 @ 2 O , , 2 X ; 6 , 2 6 6 O         O O O O O O O o O ; O 3 O O O O O O O ; O - 6 + . X   O , O O ; O O O O ; O O O O O O ; O ; ; O O 4 X   . . X , ; - - - ; O ; ; ; ; - ; ; ; > > ; 4 ; > > N = * * * - + . 6 ; O - ; O ; ; ; ; ; ; ; ; ; 3 > 4 4 > > > m = : X X ; ; O ; - - ; ; ; ; ; ; ; > ; ; ; 4 ; 4 ; : N m : X . ; ; ; - - O ; ; ; ; ; - ; ; ; ; > 4 4 4 > ; N j f * X . ; ; ; - ; ; ; ; > ; ; ; ; > > ; ; ; 4 3 > ; N > g % . + 6 ; ; - ; ; O ; ; ; ; ; ; ; ; > ; > 3 > > > N : g = % . ; ; ; ; ; O - ; ; ; ; ; > ; ; ; > > > 4 4 > m m d g z $ t t %./.A.C.S.Z.H.H.F.F.F.Z.F.Z.Z.Z.Z.S.S.S.C.`.^...r Z A 9 4 4 3 ; O   K K 9 4     3 9 7 6 6 6 6 2 O , 2 O 7 7 6 6 6 8 O   X O 6 2   X O O 8 + O 7 O X       ",
"4X4X4XO O + X @ O O O O O X X X X X X X O + X O X O X O O 2 O 6 O O ; O 2 2 , ; 3 2 , 2 , 2 O 2 2 2 2 2 , @ O , @ + O 6 @ , 2 6 X   .   X O O O O O o o O O o O o O O O O O O O O O O ; X . +   + 2 ; O O O O O O O O - O O O ; O ; O O ; ; ; X   . X X 6 ; - O ; O O - ; ; ; ; ; ; > 3 ; > > ; > > N = % d * - X + 6 ; - O O - o ; ; ; - o ; : - > ; ; > ; ; : m ; = X   ; ; O O - o o ; ; - ; - ; - ; > ; > > 3 > ; N > : . . 3 ; o ; o ; - ; ; O ; O : ; : ; ; > ; ; ; ; j j f * + . 6 ; O O o O o ; o ; ; o ; - 1 ; > - > > > ; j > k : . . 6 ; - - O O - O ; - ; o : > 1 ; > ; ; ; ; > j ; g d -   ; ; O - O - ; o ; ; ; - - ; > ; > ; > ; ; ; m m d g z r r r @.^.`.C.A.A.A.A.A.P.U.U.H.H.A.A.A.A.A.A.A.~.R. .e Z A 4 9 4 4 4 o   K K 0 7 +   3 Z 9 6 6 6 7 8 E W E E E 7 6 6 6 8 O   O O 8 O   + X O 8 + O 7 X X     + ",
"4X4X4X2 8 7 7 8 0 0 0 0 0 0 E 0 0 0 0 0 0 E 0 0 0 0 0 F E E E ~ 8 X O , , , , , 2 2 2 , 2 , 2 O 3 $ 2 2 O 3 , $ O + O $ O , , 6 X         O ; O O O O O O O O O O ; O O O O O O O ; 3 ; + + X   X ; ; O ; ; ; ; ; O O ; O ; ; O ; ; ; ; ; ; 6 O . X +   4 3 ; ; ; ; ; ; ; ; > ; > 4 > 3 > > > 3 4 4 m ; * % * % .   3 3 ; 4 ; ; > > 1 ; > 6 > > > 4 4 4 4 4 7 N m % % -   - 4 ; 3 ; ; 3 3 3 ; 4 3 > 4 > 4 4 4 7 4 4 N V : & .   ; > ; 3 ; ; ; ; 3 ; > 4 > > > ; ; 4 4 7 4 N V ; d % X   ; > > 3 3 ; ; ; ; ; > ; ; 4 4 4 4 4 4 4 7 m N : f % . . ; 3 ; ; ; ; ; 3 3 3 3 3 > 4 4 4 > 4 7 4 7 M N : g * % + - ; ; ; ; 3 ; ; 3 3 ; 4 > 4 4 > 4 4 m 4 4 7 V = d g z i r r | B.Q.~.~.|.~.~.|.|.|.|.XX|.|.|.|.|.~.~.~.).x.| r B A N 4 4 3 > ;   K Z 9 6 +   6 8 7 6 6 9 6 7 E E E E Z 6 7 7 6 9 O   O O 8 O     X + 2   X O + X       ",
"4X4X4X8 E E 0 E E E E F E W W E W W Q W W Q Q Q ! Q Q ! ! ^ ^ _ ! 0 O o o O O o @ 2 O O O @ 2 @ O O O O O O o O 2   X O O , o , X     X     X ; 3 ; 3 6 3 ; , ; 3 3 3 6 3 3 3 3 , 6 6 O   . .   + O 6 6 6 ; 6 , 6 6 , 6 6 3 4 3 3 3 3 4 4 3 ; + . . +   O ; 4 6 4 6 4 3 4 7 7 7 7 4 7 4 7 A C N N N 4 % * * * X .   X 3 6 0 C 0 9 9 C C C C Z C Z C C Z S S A A > - % X .   ; 6 C 9 9 C 7 8 C C C C Z C C C Z S A S A N - - X     ; 6 C 9 Z 9 9 9 C Z C Z Z Z A C C S A S A j - d % X   X ; 6 9 C C 9 9 Z C Z A C C C C C S Z S S V > - d = X   X 4 7 8 Z C 9 9 C C C C C C C C Z S A S S C > % g d -   + ; 6 C 9 C C 7 C C C Z C C Z C C Z Z S S A N % * g x # $ r t | &.c.v.M.M.v.n.n.n.m.m.m.m.m.m.m.m.m.M.@.{ u i F C 7 4 4 ; ; o   Z Z 9 4 +   6 7 9 6 6 6 7 7 7 O 6 3 ; 6 6 6 6 7 +   X O 8 O                           ",
"4X4X4X4X2 6 6 6 , , , , 2 , , 6 6 6 6 6 , , , , 6 6 , 6 6 6 6 2 E ( E $ O O o O O O O + + O O 2 o o O O o O X X O X X O O O o 2 X     +       + o o O O O O O ; O O O O O O O O O O X     X   X     O O O ; ; ; ; O O ; O , 3 ; ; ; ; ; 3 O o   . . . .   o ; > 3 6 3 3 3 6 6 > 6 4 4 4 7 4 7 4 4 > - - % * * % . .   . O - ; - ; O ; ; ; ; ; - ; ; ; 3 ; ; - - . % % - .     + O ; ; ; O ; ; - ; ; ; ; ; ; : ; ; ; -   . % . .     O - - ; ; - ; ; ; ; - ; ; ; 3 ; 3 ; ; -   % d % %       - - ; ; - ; O ; ; ; ; ; ; ; ; > ; ; ; -   % d % o     . X ; ; ; - - O ; ; ; ; ; ; ; : ; ; ; ; - . % d * X       X - ; ; ; O - ; ; ; ; ; ; - 3 > ; ; ; - . . * g & # # e e r q q q # # q q q q q w q w w t w w w w q w t F W C 4 4 3 3 ; -   K Z 0 7     6 8 6 6 6 9 7 6 7 6 6 6 6 6 6 6 6 9 @   X O 8 O     + O o +               ",
"4X4X4X4X4XO , , 2 2 2 , , , , 2 O , , 2 2 , , , , , 2 , 6 2 , 3 2 E ] [ ! ! _ ! ! ! ^ ^ _ ! ^ ^ ^ _ ^ ^ _ _ _ _ _ _ _ _ _ _ _ _ ~ 2 X     X               +                   +         . . . . .         +         +                         . . X . .           +       . .   +     .   .         . % - * % . . .                                     .       % % % X . .                               .         . % % * % . .                               .     .   . . % * * .   .                                     .     % % * % - .                   .               .         % % * * % . . .                                   .   . . % * d % & @ @ O @ @ @ @ < @ @ @ @ @ @ @ @ @ @ $ @ @ @ @ # i F F 8 4 4 4 4 4 ; O   K Z 9 7     6 7 9 6 6 6 6 7 7 6 6 6 6 6 6 6 6 7 O   X O 0 O   + W ] ( W O           X ",
"4X4X4X4X4X4XO , 3 O 3 O @ 3 O , 2 , @ 6 O , 6 O , 2 O 3 6 3 3 6 , 6 W ] 8.0.q.8.8.9.0.8.0.0.9.9.9.9.9.9.0.0.q.q.q.q.q.q.q.q.q.q.] W , +       . +                         .     X     . . . X +   .   .             .   +         .       . . X . . . .   .   . . .   .   . . . . . . . . . % . % . % % % % % % % % . . % % . % . . % . % % % % % % % % % % % * % * % % % % % % % % % % % . % % % % % % % % % % % % % * % * % % % % % % % % % % % % % % % % % % % % % * % % % * * % % % % % % % . % % . % % % % % % % % % % % % % % * % * * * * % % % % % . % % % % % % % % % % % % % % % % % * * * % % % % % % % % % % % . % % % % % % % % % % % % % % % * * * % * % * * % % % % % % % % % % % % * % % % % % ; / ) 9 4 4 4 4 3 ; ; -   K Z 9 5     , 7 6 7 6 6 7 7 7 6 6 6 3 6 6 6 6 7 o   X 2 8 O + 0 5.9.[ ` E O       X   ",
"4X4X4X4X4X4X4XO O 3 O 3 ; O , O 2 2 3 O , 6 O 6 O , 3 O O ; O O O 2 O o 2 2 $ 2 2 , $ , @ , , , 2 2 , , , 6 2 , , 2 , 6 2 , , 8 6 0 0 6 X   .                 .         +   .           X       .   .         .               .       . . .     .   . .   . . .         . .     . .   . . . . . . % . . % . % % % % % % % % % % % % % % % % % % % * % % * * % * * % * % % * % * * % % * % % * % * % % % % * % % % * * * * * * * * * % % % % % % % % % % % * % * % * % * * * % * * * * * % % % * % * % * % * % % % % % * * % % * * * * * * % * * * * * % * * % % % % % % % % % * * * % * * * * * * * % * * * * % % * % * % % % % % % % % % * % % * * * * * * * * % % % % % % % % % % % % . % % % % . % % % . : W / N 4 m 9 6 4 3 > 3 o   K Z 0 6     6 9 6 7 0 6 6 6 7 6 6 6 6 7 6 6 6 7 +   O , O X 0 _ E 6 ; 6 E 8 X     + 4X",
"4X4X4X4X4X4X4X  O O O O , O O O 2 O 2 , O O O ; O O ; O O @ O , , 2 3 3 2 , 3 3 6 2 6 2 2 6 6 , 6 6 , 6 6 6 6 , 6 6 6 6 6 7 6 8 6 6 0 0 6 O + X X + X X X X X O X X O O + O X X X X X X X X O O X O X X X O X O - X X + O O - X O X X O - X O O X O - - O X O O - O o O - - O O - o - O - - - X - - - - - - - & % ; ; ; % : ; > * : > & * & : ; * ; : > * : > = * : = > * = > = * : = = * : > > = = : l = = = : = = = = > = * l j = = > * = > = : l * = = > = : * = : = j = * = > j > = * = : > : j * = : l j : * = = > > l * = > l = > : > > = : l * l l : > = * : : > = : * = = > l = * = l > = j * = = > > l * = : : = > * = : > : : * : : > l : : = : > = = : : : : * : : : * : : & * : : ; : : - : % 8 W / C 4 4 7 4 9 4 4 4 3 -   K 9 7 6     6 7 9 7 9 6 7 6 6 6 6 6 7 6 7 6 6 7 O   X O + 0 _ E 6 6 6 2 7 0 O   + 4X4X",
"4X4X4X4X4X4X4X4X  + O 3 O 3 O O O , O O 2 , 3 O 6 O 3 3 , 2 2 2 O O O 3 ; , 3 3 , 2 6 6 6 6 6 6 6 6 6 6 6 7 6 6 6 6 6 7 6 7 6 , 6 6 6 8 0 0 ~ ^ ! ^ ! ! ! ! ! ^ ^ ^ ! ! ^ ^ ^ ^ ( ^ ^ ^ ^ ^ ! _ ! ( ^ ( ^ _ _ ( ^ ( ( ( ^ ^ _ _ _ ^ _ ( _ ) _ _ ( ( _ _ _ ( _ ` _ ` ` ` _ _ ` ` ` ` ` [ ` _ ` ` ` ` ` ` ` ` ` ` ` *.*.*.*.` =.*.*.=.=.=.*.=.:.=.*.*.:.*.*.*.:.:.:.:.;.:.:.:.:.*.*.*.;.:.:.:.:.;.;.;.:.:.*.;.;.;.:.:.*.:.;.:.:.:.;.:.;.:.:.:.:.:.:.:.:.:.:.:.;.:.:.:.:.:.:.:.:.:.:.:.:.:.:.;.:.:.:.:.:.:.:.:.:.:.:.:.*.*.:.:.:.:.:.;.:.;.:.:.:.*.:.:.*.*.:.:.:.*.*.:.:.*.*.*.:.:.*.:.:.:.:.:.:.:.:.:.:.:.*.*.*.:.:.*.:.*.*.:.*.:.*.*.*.*.*.*.*.*.*.*.*.*.*.*.*.*.*.*.*.*.*.*.*.) ` *.*.` ) ) ` *.` *.` ` ` *./ C 4 9 9 4 4 4 3 4 ; ; o   K 9 7 3     6 8 6 6 6 7 7 6 6 7 7 5 6 7 6 6 6 7 O   + + 0 _ E 8 6 6 6 6 7 6 X 4X4X4X4X",
"4X4X4X4X4X4X4X4X4X4X+ O X O X O O O O O O O O O O O O O O O O X X X O O @ O O @ O O O 6 @ O 6 O 6 , 2 2 , @ 3 ; O 2 @ ; , 2 2 6 , , 6 6 6 E _ [ ` [ ` _ _ [ ` ] ] ] ] [ [ ] ] ] ] ] -.] ] ] ] ] -.] ] -.] 5.-.-.] ] ] -.-.-.] 5.-.] 5.5.5.5.5.5.-.-.-.-.5.-.;.8.5.8.8.8.8.8.9.8.6.9.9.9.8.9.8.8.9.8.9.8.8.8.9.6.8.9.9.9.9.9.9.9.w.9.w.9.w.9.w.9.w.7.w.9.9.w.w.w.w.w.w.w.9.w.w.9.9.7.w.9.w.9.w.9.w.w.w.w.6.w.w.w.w.w.6.w.w.w.w.w.e.e.e.w.w.w.7.7.w.7.w.7.7.w.w.w.7.w.7.7.7.7.w.w.w.9.7.w.9.w.7.7.7.w.w.w.7.w.w.7.w.6.9.7.7.w.w.w.e.w.w.w.w.e.w.6.;.w.7.w.7.w.7.w.7.7.7.;.w.;.w.6.7.;.w.7.7.6.7.6.;.w.9.;.;.6.6.6.6.;.;.;.7.6.6.;.6.6.;.;.;.;.;.;.;.;.;.;.;.;.;.:.;.-.;.;.;.;.;.:.;.-.;.;.:.-.:.;.5.;.;.:.:./ C 7 7 7 4 7 6 4 4 4 ; ; -   K 9 0 6 +   6 8 7 6 7 7 6 6 6 6 7 6 6 6 6 6 6 7 +   + 0 _ E 2 6 6 6 6 , , O 4X4X4X4X4X",
"4X4X4X4X4X4X4X4X4X4X4X                            +                               +                                 +         X 2 6 , 6 6 , O X X X O + X X X X O O X o O O O O + O X X O O X O o - O o O O - X O O O o X & X O O O - X X X O O X - O O X O X X O - ; o - o - X O - O O ; - - O - - - - - - - ; & ; - - % ; % o - % ; > ; ; - ; ; ; ; & & ; - - ; ; ; ; : : ; ; : ; : ; ; : ; : ; ; ; % > : ; : : ; > - : ; % ; - : & ; = = > > ; > > ; > : : : * ; > : = > : : - : : > : : ; > ; : : : : > > : ; : : : : > > ; > > = : : ; > : : = : : : ; : : : : ; : : : = ; ; ; : > & & - - : : ; : ; > : : > : - ; : : : ; - - ; : : ; & ; : ; : : ; - - ; ; - - - ; - - - ; - - ; : ; - - - O - - - ; 4 7 N N 4 4 6 6 6 4 ; ; ;   K 0 9 6     6 8 7 6 6 6 6 6 8 6 6 7 6 6 6 6 6 $ + + 8 ( F 2 6 6 6 6 6 , O 4X4X4X4X4X4X",
"4X4X4X4X4X4X4X4X4X4X4X4X4X4X                                                                                                    X O 2 6 , 6 6 6 , , 6 6 6 , 6 6 6 6 6 6 7 > 7 6 6 7 6 6 6 6 6 6 7 6 6 6 6 6 6 7 7 7 7 7 7 6 6 7 7 7 4 4 7 7 6 7 7 7 N 7 7 7 7 N 7 7 7 4 7 8 N 7 9 7 N 9 B 8 C N 7 N N 7 7 N N 7 C C N C A C C N N N B B A C B A A C C N A C N A V V A B S A C V A C C A V A A A V V V A A N V V V V C A A A A V N C A V A S A V A A V A A V A A C A A A V V V V V V C V A A V A S V S N V V A V V N V S A A A A A V V A V A V V V V V A V A V A A A N V V V A A V V V V V N N A V V V V A m V V V A N V N V A V N C V V V N N V N N V A V N N N N N C N N m N N N N m N N N N 7 4 m N 9 C 7 7 N 7 7 6 7 4 7 ; 6 3 ; o   0 9 7 6 +   2 , 2 , , , , 2 2 , 2 2 2 6 2 2 2 O X 8 ! E 2 6 6 , 6 6 , O   4X4X4X4X4X4X",
"4X4X4X4X4X4X4X4X4X4X4X4X4X4X                              X           . + +             .     .   +           X .   . . X           O , 6 6 6 , , ; , O , , ; , ; , > , 6 ; 6 > 6 6 6 > 6 6 6 6 6 6 6 6 6 6 6 6 > 6 6 6 4 6 > 6 6 6 6 4 4 4 4 7 4 7 6 6 6 7 7 > N 4 N 7 6 N 7 7 N 4 4 7 N 7 7 7 4 7 7 4 N 7 7 N N N N N 7 N A N N N N N N N N N N N N N N N A A N N N C A N V V N N N A V A A M V N A A A V V V M V M V V V V N V V V V V V V V V V V V A V V V V V V V M V V V V V V V V V V A A V V V V V V V V V V V V A V V V V V V V V V V V V V V V V V V A A N N N N N N N N A V V M M A N V V V C M V V M m N V N N N N m N V V N N N > N 4 N N N m 7 N N N N m m 7 7 N N m 7 m m 4 N N 4 9 4 N m 7 7 N N 4 4 6 4 4 > 7 4 ; ; + 0 9 9 7 6 8 6 8 8 6 6 7 6 8 6 0 6 0 6 6 8 8 8 8 0 ! E 6 6 2 6 6 6 6 X   4X4X4X4X4X4X4X",
"4X4X4X4X4X4X4X4X4X4X4X4X4X4X4XX X X         . +   . .   X   X   . + . + . +   . + . . . X . . + . + . . X   X + + + X X X . . .       X O O 2 O X O X O X O O X ; O X O O - O O O O ; - ; ; ; ; O O ; O , O ; ; ; ; - ; , ; ; O ; ; ; ; < , ; , ; ; ; ; ; ; ; ; ; ; 3 ; - ; ; , 3 3 3 ; ; > ; 4 3 ; > 3 > ; ; > ; 4 6 > > > 6 4 , > 6 > > 6 > 6 > > 6 > > > > > > 6 6 > 4 4 4 > 4 4 4 4 m 4 4 4 > 4 4 4 4 > 4 > > > 4 j > > 7 > j > 4 m 7 j j > 4 4 4 m 4 4 4 4 4 4 > m 4 4 4 4 j 4 > m m 4 j j 4 4 j 4 4 4 m > 4 4 4 m m m 4 N j j m 4 N > j > > > > m 4 4 4 4 m 4 j > 4 4 4 4 > > > > > > > > ; > > 4 4 > > > 4 > 4 j 4 7 > > = 4 4 > > > > : > ; > > > > > > > > > , > ; > > ; > > ; > > ; ; 4 3 4 ; : ; 6 ; 3 7 4 4 6 4 3 6 3 4 ;   9 K 4 7 E ! ! ! ! ! Q W Q Q Q Q Q Q Q Q Q Q ! ! _ W 6 3 6 6 6 6 6 O   4X4X4X4X4X4X4X4X",
"4X4X4X4X4X4X4X4X4X4X4X4X4X4X4X4X    X + . X . X X X + X X X X . + + X X X X X X X X + + + X + X X X X + X X . X o o X X X + X + +                                                                                                                                                     .                                       .                     .     .         . .                                 . . .   .             .             +   .     .   .   .     .                             .     .                 .       .   .         .     .   .             .     . .   .     .       .   .   .     .         .                                                           +       .             .   . ; 6 3 6 > 4 3 6 ; -   0 0 7 5 8 0 0 0 0 0 0 0 8 8 0 8 0 9 7 9 8 7 0 0 9 6 6 6 6 6 6 6 O 4X4X4X4X4X4X4X4X4X4X",
"4X4X4X4X4X4X4X4X4X4X4X4X4X4X4X4X4X  X X X X X + X X + O X O X X O o X X X X X X X X X O X X X X X X X O X X X X O O O O X O O X . +                                                                                                                                                                         .                 .         . .     .           .   . .   .         .   . .   . .   .   .       . . . . .   . .   . . .   . . . . .     .   .   .   . .   . .   . . . . . .   .   . . . .   .     . % .   . . . . . X . . % . % . . . . .   . . . . . . . . . . . .   . .   % . . .   . . . .   .   . .   . .   . .   . . .   . . .   . .   .   . . .   . .   . . X .   . . .       .     .             ; 4 6 4 6 6 3 3 ;   0 0 7 7 6 7 0 7 6 7 7 6 6 6 6 6 6 9 6 6 6 6 6 6 7 7 6 6 6 6 6 O 4X4X4X4X4X4X4X4X4X4X4X",
"4X4X4X4X4X4X4X4X4X4X4X4X4X4X4X4X4X4X  O O O O O O O O O O O O O O O O ; O - O O X X O O O O ; O O O O O O ; O ; O O O O ; - O O ; X O X X   X       .       .     .           . +   .     .     . .   . .   . . . .   X . . . . .   . . . . . . . % . . . . - . . . - . - . . - . % . - - . * - % - % % % . - - % % % % % - % % % - & % % % % % % - % % % % % - % % * % * - * % * % - * : * % % % : * : * % % % % % % * % % % % % % % * % % % % * * - * * - * * % * : * % - * * % % * % % % - - % & * - * * % : * % : % * : * % % % % % % % : % * * % * % % * * % % - * * % % * - * * - - * % - % % % % * - * % % % - * % - * % % % - % % % % % % % % % % - % % % - % % - % * % % % % - % % % % % . % % - . . . .     ; > > 6 ; ; ; O   Z 0 7 9 6 6 9 6 7 7 7 7 7 7 7 6 6 9 6 7 6 6 8 6 6 6 6 6 6 6 O 4X4X4X4X4X4X4X4X4X4X4X4X",
"4X4X4X4X4X4X4X4X4X4X4X4X4X4X4X4X4X4X  + O X O O O + O O O O O O O O O O O O O O O O O O O O O O O O O O O O O O O O O O ; O O O O O O O X O X       . + +   . X + X . + . + . + .   X + . . . X + . . .   + + . . + X + . + X X . + . . X X + X + X . X X . X + . . X X X X X % X - X X X - X X X . o o X - X X - X - X X - X X - X X - X X - X - X - X - X - - - - X - X - - X - - X - - X - - o - - - X - - - - - - X - - X - X - - - X - - X - - X - X - - - - - - X - - X - - - X - - X - - o - - - X - - - X - - X - - - X X - - X - - - X - - X - X - - - - - - X - X - - X - - X - X - - X - - X - X - X X - X - X - - X X % X X - X - X - X X - X X - X - - X - X X . - - X X - X X - X . . X X . X . X +       - ; > ; ; ; O   7 9 7 7 7 7 7 7 7 7 6 7 7 6 6 8 6 8 , 7 6 7 6 7 7 6 6 6 , X 4X4X4X4X4X4X4X4X4X4X4X4X4X",
"4X4X4X4X4X4X4X4X4X4X4X4X4X4X4X4X4X4X4X                    +     +     + X   +     +     X +         + X +   . X       X +   . X   . X +   + . 4X4X4X4X4X4X4X4X4X4X4X4X4X4X4X4X4X4X4X4X4X4X4X4X4X4X4X4X4X4X4X4X4X4X4X4X4X4X4X4X4X4X4X4X4X4X4X4X4X4X4X4X4X4X4X4X4X4X4X4X4X4X4X4X4X4X4X4X4X4X4X4X4X4X4X4X4X4X4X4X4X4X4X4X4X4X4X4X4X4X4X4X4X4X4X4X4X4X4X4X4X4X4X4X4X4X4X4X4X4X4X4X4X4X4X4X4X4X4X4X4X4X4X4X4X4X4X4X4X4X4X4X4X4X4X4X4X4X4X4X4X4X4X4X4X4X4X4X4X4X4X4X4X4X4X4X4X4X4X4X4X4X4X4X4X4X4X4X4X4X4X4X4X4X4X4X4X4X4X4X4X4X4X4X4X4X4X4X4X4X4X4X4X4X4X4X4X4X4X4X4X4X4X4X4X4X4X4X4X4X4X4X4X4X4X4X4X4X4X4X4X4X4X4X4X4X4X4X4X4X4X4X4X4X4X4X4X4X4X4X4X4X4X4X4X4X4X4X4X4X4X4X4X4X4X4X4X4X4X4X4X4X4X4X4X4X4X4X4X4X4X4X4X4X4X4X    ; 6 , ; ; O   O 6 3 ; @ ; ; ; 2 O , O 2 2 2 O 2 , O ; ; ; O ; 6 O O O +   4X4X4X4X4X4X4X4X4X4X4X4X4X",
"4X4X4X4X4X4X4X4X4X4X4X4X4X4X4X4X4X4X4X4X                                                                                                  4X4X4X4X4X4X4X4X4X4X4X4X4X4X4X4X4X4X4X4X4X4X4X4X4X4X4X4X4X4X4X4X4X4X4X4X4X4X4X4X4X4X4X4X4X4X4X4X4X4X4X4X4X4X4X4X4X4X4X4X4X4X4X4X4X4X4X4X4X4X4X4X4X4X4X4X4X4X4X4X4X4X4X4X4X4X4X4X4X4X4X4X4X4X4X4X4X4X4X4X4X4X4X4X4X4X4X4X4X4X4X4X4X4X4X4X4X4X4X4X4X4X4X4X4X4X4X4X4X4X4X4X4X4X4X4X4X4X4X4X4X4X4X4X4X4X4X4X4X4X4X4X4X4X4X4X4X4X4X4X4X4X4X4X4X4X4X4X4X4X4X4X4X4X4X4X4X4X4X4X4X4X4X4X4X4X4X4X4X4X4X4X4X4X4X4X4X4X4X4X4X4X4X4X4X4X4X4X4X4X4X4X4X4X4X4X4X4X4X4X4X4X4X4X4X4X4X4X4X4X4X4X4X4X4X4X4X4X4X4X4X4X4X4X4X4X4X4X4X4X4X4X4X4X4X4X4X4X4X4X4X4X4X4X4X4X4X4X4X4X4X4X4X4X4X4X4X4X4X4X  O , 6 ; ; X +       .               +           X                       4X4X4X4X4X4X4X4X4X4X4X4X4X",
"4X4X4X4X4X4X4X4X4X4X4X4X4X4X4X4X4X4X4X4X4X4X4X4X4X4X4X4X4X4X4X4X4X4X4X4X4X4X4X4X4X4X4X4X4X4X4X4X4X4X4X4X4X4X4X4X4X4X4X4X4X4X4X4X4X4X4X4X4X4X4X4X4X4X4X4X4X4X4X4X4X4X4X4X4X4X4X4X4X4X4X4X4X4X4X4X4X4X4X4X4X4X4X4X4X4X4X4X4X4X4X4X4X4X4X4X4X4X4X4X4X4X4X4X4X4X4X4X4X4X4X4X4X4X4X4X4X4X4X4X4X4X4X4X4X4X4X4X4X4X4X4X4X4X4X4X4X4X4X4X4X4X4X4X4X4X4X4X4X4X4X4X4X4X4X4X4X4X4X4X4X4X4X4X4X4X4X4X4X4X4X4X4X4X4X4X4X4X4X4X4X4X4X4X4X4X4X4X4X4X4X4X4X4X4X4X4X4X4X4X4X4X4X4X4X4X4X4X4X4X4X4X4X4X4X4X4X4X4X4X4X4X4X4X4X4X4X4X4X4X4X4X4X4X4X4X4X4X4X4X4X4X4X4X4X4X4X4X4X4X4X4X4X4X4X4X4X4X4X4X4X4X4X4X4X4X4X4X4X4X4X4X4X4X4X4X4X4X4X4X4X4X4X4X4X4X4X4X4X4X4X4X4X4X4X4X4X4X4X4X4X4X4X4X4X4X4X4X4X4X4X4X4X4X4X4X4X4X4X4X4X4X4X4X4X4X4X4X4X4X4X+ ; - - ; X + + o + X . X X . X   + + X X   X . + . +   . +         4X4X4X4X4X4X4X4X4X4X4X4X4X4X",
"4X4X4X4X4X4X4X4X4X4X4X4X4X4X4X4X4X4X4X4X4X4X4X4X4X4X4X4X4X4X4X4X4X4X4X4X4X4X4X4X4X4X4X4X4X4X4X4X4X4X4X4X4X4X4X4X4X4X4X4X4X4X4X4X4X4X4X4X4X4X4X4X4X4X4X4X4X4X4X4X4X4X4X4X4X4X4X4X4X4X4X4X4X4X4X4X4X4X4X4X4X4X4X4X4X4X4X4X4X4X4X4X4X4X4X4X4X4X4X4X4X4X4X4X4X4X4X4X4X4X4X4X4X4X4X4X4X4X4X4X4X4X4X4X4X4X4X4X4X4X4X4X4X4X4X4X4X4X4X4X4X4X4X4X4X4X4X4X4X4X4X4X4X4X4X4X4X4X4X4X4X4X4X4X4X4X4X4X4X4X4X4X4X4X4X4X4X4X4X4X4X4X4X4X4X4X4X4X4X4X4X4X4X4X4X4X4X4X4X4X4X4X4X4X4X4X4X4X4X4X4X4X4X4X4X4X4X4X4X4X4X4X4X4X4X4X4X4X4X4X4X4X4X4X4X4X4X4X4X4X4X4X4X4X4X4X4X4X4X4X4X4X4X4X4X4X4X4X4X4X4X4X4X4X4X4X4X4X4X4X4X4X4X4X4X4X4X4X4X4X4X4X4X4X4X4X4X4X4X4X4X4X4X4X4X4X4X4X4X4X4X4X4X4X4X4X4X4X4X4X4X4X4X4X4X4X4X4X4X4X4X4X4X4X4X4X4X4X4X4X4X  X X o X X X + X + + . X . X . + . + . X . .   + +   . .       4X4X4X4X4X4X4X4X4X4X4X4X4X4X4X4X",
"4X4X4X4X4X4X4X4X4X4X4X4X4X4X4X4X4X4X4X4X4X4X4X4X4X4X4X4X4X4X4X4X4X4X4X4X4X4X4X4X4X4X4X4X4X4X4X4X4X4X4X4X4X4X4X4X4X4X4X4X4X4X4X4X4X4X4X4X4X4X4X4X4X4X4X4X4X4X4X4X4X4X4X4X4X4X4X4X4X4X4X4X4X4X4X4X4X4X4X4X4X4X4X4X4X4X4X4X4X4X4X4X4X4X4X4X4X4X4X4X4X4X4X4X4X4X4X4X4X4X4X4X4X4X4X4X4X4X4X4X4X4X4X4X4X4X4X4X4X4X4X4X4X4X4X4X4X4X4X4X4X4X4X4X4X4X4X4X4X4X4X4X4X4X4X4X4X4X4X4X4X4X4X4X4X4X4X4X4X4X4X4X4X4X4X4X4X4X4X4X4X4X4X4X4X4X4X4X4X4X4X4X4X4X4X4X4X4X4X4X4X4X4X4X4X4X4X4X4X4X4X4X4X4X4X4X4X4X4X4X4X4X4X4X4X4X4X4X4X4X4X4X4X4X4X4X4X4X4X4X4X4X4X4X4X4X4X4X4X4X4X4X4X4X4X4X4X4X4X4X4X4X4X4X4X4X4X4X4X4X4X4X4X4X4X4X4X4X4X4X4X4X4X4X4X4X4X4X4X4X4X4X4X4X4X4X4X4X4X4X4X4X4X4X4X4X4X4X4X4X4X4X4X4X4X4X4X4X4X4X4X4X4X4X4X4X4X4X4X4X4X4X4X4X4X4X4X4X4X4X4X4X4X4X4X4X4X4X4X4X4X4X4X4X4X4X4X4X4X4X4X4X4X4X4X4X4X4X4X4X4X4X4X4X4X4X4X4X4X",
"4X4X4X4X4X4X4X4X4X4X4X4X4X4X4X4X4X4X4X4X4X4X4X4X4X4X4X4X4X4X4X4X4X4X4X4X4X4X4X4X4X4X4X4X4X4X4X4X4X4X4X4X4X4X4X4X4X4X4X4X4X4X4X4X4X4X4X4X4X4X4X4X4X4X4X4X4X4X4X4X4X4X4X4X4X4X4X4X4X4X4X4X4X4X4X4X4X4X4X4X4X4X4X4X4X4X4X4X4X4X4X4X4X4X4X4X4X4X4X4X4X4X4X4X4X4X4X4X4X4X4X4X4X4X4X4X4X4X4X4X4X4X4X4X4X4X4X4X4X4X4X4X4X4X4X4X4X4X4X4X4X4X4X4X4X4X4X4X4X4X4X4X4X4X4X4X4X4X4X4X4X4X4X4X4X4X4X4X4X4X4X4X4X4X4X4X4X4X4X4X4X4X4X4X4X4X4X4X4X4X4X4X4X4X4X4X4X4X4X4X4X4X4X4X4X4X4X4X4X4X4X4X4X4X4X4X4X4X4X4X4X4X4X4X4X4X4X4X4X4X4X4X4X4X4X4X4X4X4X4X4X4X4X4X4X4X4X4X4X4X4X4X4X4X4X4X4X4X4X4X4X4X4X4X4X4X4X4X4X4X4X4X4X4X4X4X4X4X4X4X4X4X4X4X4X4X4X4X4X4X4X4X4X4X4X4X4X4X4X4X4X4X4X4X4X4X4X4X4X4X4X4X4X4X4X4X4X4X4X4X4X4X4X4X4X4X4X4X4X4X4X4X4X4X4X4X4X4X4X4X4X4X4X4X4X4X4X4X4X4X4X4X4X4X4X4X4X4X4X4X4X4X4X4X4X4X4X4X4X4X4X4X4X4X4X4X4X4X4X",
"4X4X4X4X4X4X4X4X4X4X4X4X4X4X4X4X4X4X4X4X4X4X4X4X4X4X4X4X4X4X4X4X4X4X4X4X4X4X4X4X4X4X4X4X4X4X4X4X4X4X4X4X4X4X4X4X4X4X4X4X4X4X4X4X4X4X4X4X4X4X4X4X4X4X4X4X4X4X4X4X4X4X4X4X4X4X4X4X4X4X4X4X4X4X4X4X4X4X4X4X4X4X4X4X4X4X4X4X4X4X4X4X4X4X4X4X4X4X4X4X4X4X4X4X4X4X4X4X4X4X4X4X4X4X4X4X4X4X4X4X4X4X4X4X4X4X4X4X4X4X4X4X4X4X4X4X4X4X4X4X4X4X4X4X4X4X4X4X4X4X4X4X4X4X4X4X4X4X4X4X4X4X4X4X4X4X4X4X4X4X4X4X4X4X4X4X4X4X4X4X4X4X4X4X4X4X4X4X4X4X4X4X4X4X4X4X4X4X4X4X4X4X4X4X4X4X4X4X4X4X4X4X4X4X4X4X4X4X4X4X4X4X4X4X4X4X4X4X4X4X4X4X4X4X4X4X4X4X4X4X4X4X4X4X4X4X4X4X4X4X4X4X4X4X4X4X4X4X4X4X4X4X4X4X4X4X4X4X4X4X4X4X4X4X4X4X4X4X4X4X4X4X4X4X4X4X4X4X4X4X4X4X4X4X4X4X4X4X4X4X4X4X4X4X4X4X4X4X4X4X4X4X4X4X4X4X4X4X4X4X4X4X4X4X4X4X4X4X4X4X4X4X4X4X4X4X4X4X4X4X4X4X4X4X4X4X4X4X4X4X4X4X4X4X4X4X4X4X4X4X4X4X4X4X4X4X4X4X4X4X4X4X4X4X4X4X4X4X4X",
"4X4X4X4X4X4X4X4X4X4X4X4X4X4X4X4X4X4X4X4X4X4X4X4X4X4X4X4X4X4X4X4X4X4X4X4X4X4X4X4X4X4X4X4X4X4X4X4X4X4X4X4X4X4X4X4X4X4X4X4X4X4X4X4X4X4X4X4X4X4X4X4X4X4X4X4X4X4X4X4X4X4X4X4X4X4X4X4X4X4X4X4X4X4X4X4X4X4X4X4X4X4X4X4X4X4X4X4X4X4X4X4X4X4X4X4X4X4X4X4X4X4X4X4X4X4X4X4X4X4X4X4X4X4X4X4X4X4X4X4X4X4X4X4X4X4X4X4X4X4X4X4X4X4X4X4X4X4X4X4X4X4X4X4X4X4X4X4X4X4X4X4X4X4X4X4X4X4X4X4X4X4X4X4X4X4X4X4X4X4X4X4X4X4X4X4X4X4X4X4X4X4X4X4X4X4X4X4X4X4X4X4X4X4X4X4X4X4X4X4X4X4X4X4X4X4X4X4X4X4X4X4X4X4X4X4X4X4X4X4X4X4X4X4X4X4X4X4X4X4X4X4X4X4X4X4X4X4X4X4X4X4X4X4X4X4X4X4X4X4X4X4X4X4X4X4X4X4X4X4X4X4X4X4X4X4X4X4X4X4X4X4X4X4X4X4X4X4X4X4X4X4X4X4X4X4X4X4X4X4X4X4X4X4X4X4X4X4X4X4X4X4X4X4X4X4X4X4X4X4X4X4X4X4X4X4X4X4X4X4X4X4X4X4X4X4X4X4X4X4X4X4X4X4X4X4X4X4X4X4X4X4X4X4X4X4X4X4X4X4X4X4X4X4X4X4X4X4X4X4X4X4X4X4X4X4X4X4X4X4X4X4X4X4X4X4X4X4X4X"
};
