/* XPM */
static const char *enemy11_xpm[] = {
/* columns rows colors chars-per-pixel */
"397 80 160 2 ",
"   c #020402",
".  c #040B04",
"X  c #080B07",
"o  c #030709",
"O  c #070D08",
"+  c #0A0E0A",
"@  c #031303",
"#  c #081107",
"$  c #031A03",
"%  c #081F06",
"&  c #071309",
"*  c #0B130C",
"=  c #071909",
"-  c #0C1A0E",
";  c #10140F",
":  c #060E12",
">  c #0F1510",
",  c #0E1A10",
"<  c #07131B",
"1  c #08141B",
"2  c #0B181F",
"3  c #111612",
"4  c #131A14",
"5  c #181C17",
"6  c #171D18",
"7  c #191E19",
"8  c #052303",
"9  c #082206",
"0  c #072B04",
"q  c #082C05",
"w  c #0C210E",
"e  c #082B08",
"r  c #063205",
"t  c #093405",
"y  c #063804",
"u  c #0A3B06",
"i  c #073308",
"p  c #0B3509",
"a  c #0C3B08",
"s  c #0E2311",
"d  c #0F2811",
"f  c #132415",
"g  c #182317",
"h  c #132914",
"j  c #162319",
"k  c #1B231C",
"l  c #162A19",
"z  c #1B2B1D",
"x  c #17321E",
"c  c #1B321E",
"v  c #1B381F",
"b  c #21251F",
"n  c #0B1B23",
"m  c #0A1D2A",
"M  c #0C212E",
"N  c #1E2520",
"B  c #1E2C21",
"V  c #1D3420",
"C  c #1E3921",
"Z  c #0C2535",
"A  c #0C2639",
"S  c #0D293C",
"D  c #10293B",
"F  c #212522",
"G  c #232B24",
"H  c #282D27",
"J  c #262D28",
"K  c #2A2E2A",
"L  c #223325",
"P  c #203A23",
"I  c #263429",
"U  c #2C332D",
"Y  c #263A2B",
"T  c #293B2D",
"R  c #30332E",
"E  c #2F3430",
"W  c #2F3C32",
"Q  c #313632",
"!  c #343A35",
"~  c #383C37",
"^  c #363D38",
"/  c #393D3A",
"(  c #0B4105",
")  c #0E4108",
"_  c #2B4030",
"`  c #354236",
"'  c #37423A",
"]  c #3A453C",
"[  c #3A483E",
"{  c #0D2C43",
"}  c #0D2E49",
"|  c #112F44",
" . c #0F324B",
".. c #103046",
"X. c #13344F",
"o. c #0F3350",
"O. c #133653",
"+. c #143955",
"@. c #103758",
"#. c #133A5B",
"$. c #3E4741",
"%. c #3E4A42",
"&. c #414641",
"*. c #434B45",
"=. c #454E48",
"-. c #494F4A",
";. c #435147",
":. c #45534A",
">. c #4B534D",
",. c #49594E",
"<. c #51564F",
"1. c #4E5450",
"2. c #4D5C52",
"3. c #515753",
"4. c #535B55",
"5. c #565D59",
"6. c #595E5A",
"7. c #4E6254",
"8. c #516456",
"9. c #536659",
"0. c #5C625E",
"q. c #55695A",
"w. c #5A6D5D",
"e. c #5B715F",
"r. c #5E6461",
"t. c #5D6E62",
"y. c #5D7262",
"u. c #616662",
"i. c #646B65",
"p. c #676E69",
"a. c #686E6A",
"s. c #617565",
"d. c #647966",
"f. c #667569",
"g. c #6A736C",
"h. c #667B6A",
"j. c #6A7B6C",
"k. c #6E7671",
"l. c #6D7B72",
"z. c #717771",
"x. c #727C75",
"c. c #757E78",
"v. c #6E8072",
"b. c #728075",
"n. c #75847A",
"m. c #78867D",
"M. c #76887C",
"N. c #7A8A7E",
"B. c #7B907F",
"V. c #7F8682",
"C. c #7D8D82",
"Z. c #7D9183",
"A. c #818682",
"S. c #828B85",
"D. c #878F89",
"F. c #888F8B",
"G. c #819386",
"H. c #879089",
"J. c #8A918B",
"K. c #000001",
/* pixels */
"K.K.K.K.K.K.K.K.K.K.K.K.K.K.K.K.K.K.K.K.K.K.K.K.K.K.K.K.K.K.K.K.K.K.K.K.K.K.K.K.K.K.K.K.K.K.K.K.K.K.K.K.K.K.K.K.K.K.K.K.K.K.K.K.K.K.K.K.K.K.K.K.K.K.K.K.K.K.K.K.K.K.K.K.K.K.K.K.K.K.K.K.K.K.K.K.K.K.K.K.K.K.K.K.K.K.K.K.K.K.K.K.K.K.K.K.K.K.K.K.K.K.K.K.K.K.K.K.K.K.K.K.K.K.K.K.K.K.K.K.K.K.K.K.K.K.K.K.K.K.K.K.K.K.K.K.K.K.K.K.K.K.K.K.K.K.K.K.K.K.K.K.K.K.K.K.K.K.K.K.K.K.K.K.K.K.K.K.K.K.K.K.K.K.K.K.K.K.K.K.K.K.K.K.K.K.K.K.K.K.K.K.K.K.K.K.K.K.K.K.K.K.K.K.K.K.K.K.K.K.K.K.K.K.K.K.K.K.K.K.K.K.K.K.K.K.K.K.K.K.K.K.K.K.K.K.K.K.K.K.K.K.K.K.K.K.K.K.K.K.K.K.K.K.K.K.K.K.K.K.K.K.K.K.K.K.K.K.K.K.K.K.K.K.K.K.K.K.K.K.K.K.K.K.K.K.K.K.K.K.K.K.K.K.K.K.K.K.K.K.K.K.K.K.K.K.K.K.K.K.K.K.K.K.K.K.K.K.K.K.K.K.K.K.K.K.K.K.K.K.K.K.K.7 t.x.r.r.5.9.0.9.5.5.5.9.1.1.2.>.1.>.4.5.2.3.1.5.5.1.2.1.1.N K.K.K.K.K.K.K.K.K.K.K.K.K.",
"K.K.K.K.K.K.K.K.K.K.K.K.K.K.K.K.K.K.K.K.K.K.K.K.K.K.K.K.K.K.K.K.K.K.K.K.K.K.K.K.K.K.K.K.K.K.K.K.K.K.K.K.K.K.K.K.K.K.K.K.K.K.K.K.K.K.K.K.K.K.K.K.K.K.K.K.K.K.K.K.K.K.K.K.K.K.K.K.K.K.K.K.K.K.K.K.K.K.K.K.K.K.K.K.K.K.K.K.K.K.K.K.K.K.K.K.K.K.K.K.K.K.K.K.K.K.K.K.K.K.K.K.K.K.K.K.K.K.K.K.K.K.K.K.K.K.K.K.K.K.K.K.K.K.K.K.K.K.K.K.K.K.K.K.K.K.K.K.K.K.K.K.K.K.K.K.K.K.K.K.K.K.K.K.K.K.K.K.K.K.K.K.K.K.K.K.K.K.K.K.K.K.K.K.K.K.K.K.K.K.K.K.K.K.K.K.K.K.K.K.K.K.K.K.K.K.K.K.K.K.K.K.K.K.K.K.K.K.K.K.K.K.K.K.K.K.K.K.K.K.K.K.K.K.K.K.K.K.K.K.K.K.K.K.K.K.K.K.K.K.K.K.K.K.K.K.K.K.K.K.K.K.K.K.K.K.K.K.K.K.K.K.K.K.K.K.K.K.K.K.K.K.K.K.K.K.K.K.K.K.K.K.K.K.K.K.K.K.K.K.K.K.K.K.K.K.K.K.K.K.K.K.K.K.K.K.K.K.K.K.K.K.K.K.K.K.K.K.K.K.K.K.5 t.x.E J I I U J F N N N N 7 7 4 4 6 6 6 4 > > ; 3 > + > 3 7 %.K.K.K.K.K.K.K.K.K.K.K.K.K.",
"K.K.K.K.K.K.K.K.K.K.K.K.K.K.K.K.K.K.K.K.K.K.K.K.K.K.K.K.K.K.K.K.K.K.K.K.K.K.K.K.K.K.K.K.K.K.K.K.K.K.K.K.K.K.K.K.K.K.K.K.K.K.K.K.K.K.K.K.K.K.K.K.K.K.K.K.K.K.K.K.K.K.K.K.K.K.K.K.K.K.K.K.K.K.K.K.K.K.K.K.K.K.K.K.K.K.K.K.K.K.K.K.K.K.K.K.K.K.K.K.K.K.K.K.K.K.K.K.K.K.K.K.K.K.K.K.K.K.K.K.K.K.K.K.K.K.K.K.K.K.K.K.K.K.K.K.K.K.K.K.K.K.K.K.K.K.K.K.K.K.K.K.K.K.K.K.K.K.K.K.K.K.K.K.K.K.K.K.K.K.K.K.K.K.K.K.K.K.K.K.K.K.K.K.K.K.K.K.K.K.K.K.K.K.K.K.K.K.K.K.K.K.K.K.K.K.K.K.K.K.K.K.K.K.K.K.K.K.K.K.K.K.K.K.K.K.K.K.K.K.K.K.K.K.K.K.K.K.K.K.K.K.K.K.K.K.K.K.K.K.K.K.K.K.K.K.K.K.K.K.K.K.K.K.K.K.K.K.K.K.K.K.K.K.K.K.K.K.K.K.K.K.K.K.K.K.K.K.K.K.K.K.K.K.K.K.K.K.K.K.K.K.K.K.K.K.K.K.K.K.K.K.K.K.K.K.K.K.K.K.K.K.K.K.K.K.K.K.K.K.K.4 9.l.B > 2 6 6 4 , 3 > 4 3 4 4 5 6 > 4 4 3 4 6 6 6 4 5 4 5 7 4 4 *.J K.K.K.K.K.K.K.K.K.K.K.",
"K.K.K.K.K.K.K.K.K.K.K.K.K.K.K.K.K.K.K.K.K.K.K.K.K.K.K.K.K.K.K.K.K.K.K.K.K.K.K.K.K.K.K.K.K.K.K.K.K.K.K.K.K.K.K.K.K.K.K.K.K.K.K.K.K.K.K.K.K.K.K.K.K.K.K.K.K.K.K.K.K.K.K.K.K.K.K.K.K.K.K.K.K.K.K.K.K.K.K.K.K.K.K.K.K.K.K.K.K.K.K.K.K.K.K.K.K.K.K.K.K.K.K.K.K.K.K.K.K.K.K.K.K.K.K.K.K.K.K.K.K.K.K.K.K.K.K.K.K.K.K.K.K.K.K.K.K.K.K.K.K.K.K.K.K.K.K.K.K.K.K.K.K.K.K.K.K.K.K.K.K.K.K.K.K.K.K.K.K.K.K.K.K.K.K.K.K.K.K.K.K.K.K.K.K.K.K.K.K.K.K.K.K.K.K.K.K.K.K.K.K.K.K.K.K.K.K.K.K.K.K.K.K.K.K.K.K.K.K.K.K.K.K.K.K.K.K.K.K.K.K.K.K.K.K.K.K.K.K.K.K.K.K.K.K.K.K.K.K.K.K.K.K.K.K.K.K.K.K.K.K.K.K.K.K.K.K.K.K.K.K.K.K.K.K.K.K.K.K.K.K.K.K.K.K.K.K.K.K.K.K.K.K.K.K.K.K.K.K.K.K.K.K.K.K.K.K.K.K.K.K.K.K.K.K.K.K.K.K.K.K.K.K.K.K.K.K.K.K.K.3 4.f.J 2 7 4 4 > > > > > * + > > + > * > * > > + 1 + > + + + 3 6 > 4 ] K K.K.K.K.K.K.K.K.K.K.",
"K.K.K.K.K.K.K.K.K.K.K.K.K.+ F F F F b b F N F F J F K F K K K K F K F K R K K K K K R K R E R R E E K Q E Q Q E K Q Q Q Q Q Q Q E Q Q Q Q Q 3 K.K.K.K.K.K.K.K.K.K.K.K.K.K.K.K.K.K.K.K.K.K.K.K.K.K.K.K.K.K.K.K.K.K.K.K.K.K.K.K.K.K.K.K.K.K.K.K.K.K.K.K.K.K.K.K.K.K.K.K.K.K.K.K.K.K.K.K.K.K.K.K.K.K.K.K.K.K.K.K.K.K.K.K.K.K.K.K.K.K.K.K.K.K.K.K.K.K.K.K.K.K.K.K.K.K.K.K.K.K.K.K.K.K.K.K.K.K.K.K.K.K.K.K.K.K.K.K.K.K.K.K.K.K.K.K.K.K.K.K.K.K.K.K.K.K.K.K.K.K.K.K.K.K.K.K.K.K.K.K.K.K.K.K.K.K.K.K.K.K.K.K.K.K.K.K.K.K.K.K.K.K.K.K.K.K.K.K.K.K.K.K.K.K.K.K.K.K.K.K.K.K.K.K.K.K.K.K.K.K.K.K.K.K.K.K.K.K.K.K.K.K.K.K.K.K.K.K.K.K.K.K.K.K.K.K.K.K.K.K.K.K.K.K.K.K.K.K.K.K.K.K.K.K.K.K.K.K.K.K.K.K.K.K.K.K.K.K.K.K.K.K.K.K.K.K.K.K.7 s.f.K , 6 , o 7 $./ ^ ~ ^ / / ~ ^ ~ / / ~ ~ ~ / / / ~ Q / ! / N > 5 4 7 ! K K.K.K.K.K.K.K.K.K.",
"K.K.K.K.K.K.K.K.K.K.K.K.K.7 ~ ] &./ Q / / ~ ~ / / ~ / ] &.&.&.-.&.&.&.&.&.&.&.&.&.*.*.-.-.-.-.-.-.-.-.>.-.1.1.>.1.-.>.3.>.<.3.3.3.5.6.5.6.6.&.3                                   o                                                                                                                                                                                                                                                     K.                  K.                                                      K.                                                                                                                                                                                            K.K.K.k l.M.N > 4 4 6 + r.S.D.A.A.S.S.F.S.D.F.F.F.F.S.S.A.S.A.A.A.A.V.V.r.5 5 4 4 4 $.K o K.K.K.K.K.K.K.",
"K.K.K.K.K.K.K.K.K.K.K.X 3 F 3 + : + ; + + ; : ; + ; * 3 + ; ; + + ; ; ; + ; ; 3 3 ; ; ; ; ; ; + + 3 3 3 > > 3 > 3 ; * ; * ; ; + > * + + + + 7 K 5 3 N K E Q ' ^ ! ! / ' ' ^ / $.&.&.%.$.$.$.$.$.] &.%.%.&.%.*.=.&.=.=.=.=.&.=.:.;.;.;.%.&.*.=.*.%.*.%.%.$.%.*.*.%.=.>.:.%.%.*.;.;.:.:.>.;.:.:.2.:.1.2.,.,.2.2.7.2.2.2.2.2.2.2.2.2.8.9.2.4.8.2.8.7.7.8.2.2.8.7.9.9.9.q.8.7.2.2.8.7.9.8.7.7.7.7.7.2.8.7.9.7.9.q.q.9.9.q.q.9.8.8.8.8.7.9.9.9.9.9.9.7.9.q.q.9.9.q.q.7.8.8.9.q.q.8.7.7.7.7.7.9.7.8.q.8.q.q.q.9.9.8.9.7.q.9.9.9.9.8.7.7.9.7.9.8.q.q.8.7.7.7.8.8.8.8.8.7.9.8.q.q.9.9.9.9.8.8.8.q.q.q.8.8.8.w.9.9.8.8.9.8.8.7.7.4.8.8.8.8.7.8.8.8.2.7.7.2.7.8.2.2.8.2.2.,.8.2.,.,.:.:.,.1.,.,.,.*.%.*.,.>.:.;.:.:.:.:.*.] K.K.F f.j.6 > j 7 7 4 ; E , > 3 3 3 3 > > 3 > ; ; > 3 3 > + > 3 ; + : + 3 5 3 6 7 3 ; $.J   K.K.K.K.K.K.",
"K.K.K.K.K.K.K.K.K.K.X ; G 7 5 7 7 5 5 5 7 7 7 7 7 7 7 7 5 7 7 7 7 7 7 N 7 7 7 F 7 7 N 7 N N F F N F N N F N F N N F F b F F b b 7 7 N 7 7 5 5 3 6 > > 5 6 6 k 7 7 k k k N k k N B G N F G G B F F G F L J J J L L J J I U I U I J I J J J I I J J J I L J G G L I I I L L J J I L U Y I I T I U U I I I U Y I U Y I I Y Y T Y U T T T U T T W Y U T T T Y T T Y T Y T T T Y Y T U W T T Y Y Y T Y T T T Y Y Y T Y Y T T Y Y Y Y _ T T T T Y Y Y Y Y T T _ T _ T T T T T T T Y Y Y Y T Y W Y C Y Y T T Y T T _ T T T _ T Y T Y T T W Y Y Y Y Y Y Y Y Y Y Y Y Y Y T T Y Y T Y Y Y Y I Y Y Y Y Y C I I I Y Y I Y Y Y I I Y L I L I L I I Y I L I I L L I I L L I L L G J V B J B J L B B J B z z b z N B N k k k k 4 K.J f.y.J > 6 4 4 , > + E N N G N B F F G N N F F N F 7 F 7 N 7 N F N N 7 4 5 4 3 6 3 > $.J K.K.K.K.K.K.",
"K.K.K.K.K.K.K.K.K.X 3 F 7 4 5 5 5 5 5 5 5 5 5 5 5 7 5 7 5 3 3 5 7 7 5 7 6 7 7 7 6 5 6 7 7 7 7 7 7 5 b 7 b 7 7 7 7 k b k 7 b 7 7 5 3 5 3 3 + * * > +   + + + + X X o O O X + + + * * + + + # + # + + + * + + + + + + + + + + + + + + # + + + + + + * # O # X + + + # O # O # # O # # & O # * # * * # # # * # * # * # * * * # * # * = # & # & = & & & = * = = - = * * = = - = = @ & - @ & = = * - - @ = - = = = = * = = - @ = = - = * = - = * = - * & = = = * * % = * = = = * = # = * $ * @ = & = & = = @ = - = * * $ = # & @ & = = = = # * $ @ = * # = = * = * = * @ - = @ & = @ & & @ & @ & = = - @ & & $ # # # = # @ & = & & @ & # & @ & # # # # $ * @ @ # # # . . @ & O # # # . . # # X X . . . . X . . .   . X N v.t.B 4 k 6 4 f 4 * + U k 7 k N k N N N N 7 N 7 7 N k 7 7 k N 7 N k k 7 5 5 6 6 3 4 3 1 E K K.K.K.K.K.",
"K.K.K.K.K.K.K.K.o ; F 5 4 4 5 3 5 5 3 5 5 5 5 5 5 5 2 5 5 5 5 5 7 7 7 5 5 5 6 6 6 7 7 4 7 3 7 7 7 F 5 7 7 7 b b 7 7 7 k 7 7 7 5 5 5 3 X 7 K K E E K Q Q E E E E E E U E E Q Q Q Q Q Q U Q Q Q ! ! W ! R ! ! Q ! ~ Q Q ^ ! ! Q ! ~ Q Q ^ ~ ~ ^ Q ! ! ^ ^ ~ ~ ! ! ! ! ! ~ ~ ^ ^ ^ ^ ^ ^ ' ^ ' ^ ' ' ' / / ' ' ` ' ' ' ' ' ` ' ' [ ' ' ] ] ] ] ] $.$.[ ' [ ] ] [ [ [ [ [ $.[ [ ] ] %.[ ] %.[ [ [ ] [ ] [ [ [ [ [ [ ] [ [ ] $.%.[ [ [ [ [ [ [ [ [ [ $.[ [ [ [ [ [ %.[ ' [ [ %.[ [ $.[ [ [ [ ' [ %.[ %.%.' [ $.[ $.[ ' [ ] [ ] ] $.%.[ [ ] ' ] ] ] ] ] ' [ [ ] ] ' ] ] ` ' $.[ ` $.] %.] ' $.%.` ' %.$.' ] [ ] [ ' [ ] [ %.' $.%.] $.] $.$.' ] ' [ ' ' ] ' ] ] ' ' ] ] ` ' ' ] ' ' ] ' ' ' ' ] ' ' ' ' ` ~ ' ~ ^ ~ Q &.C.t.G 6 j k 6 4 4 , + + U k 6 k 7 6 7 k 7 7 7 7 5 6 7 7 5 k 7 7 7 7 7 7 7 5 3 3 3 7 4 3 4 4 E K K.K.K.K.",
"K.K.K.K.K.K.K.K.+ F 4 5 3 4 3 3 7 3 5 5 5 5 5 5 3 5 5 5 5 5 3 5 3 5 5 7 7 6 5 5 5 7 7 4 7 b 7 3 5 b 7 5 7 7 F 7 b 7 7 7 7 7 7 5 7 5 X $.i.i.a.a.p.i.a.g.k.k.k.k.k.k.l.g.a.a.a.z.z.z.k.g.z.k.k.z.z.z.z.x.z.z.z.x.z.k.x.z.z.c.l.z.c.g.c.c.z.x.x.z.z.z.z.c.c.c.n.c.c.n.n.c.n.z.x.c.x.b.x.b.c.x.c.n.c.b.n.m.n.n.c.m.m.n.n.m.m.m.V.m.m.m.N.S.C.C.V.C.C.C.C.C.C.M.C.M.m.C.m.N.N.N.N.N.C.C.C.Z.M.N.S.N.N.N.C.C.M.N.N.N.C.C.M.C.C.C.C.Z.Z.C.S.C.C.B.Z.Z.Z.C.Z.C.Z.Z.Z.Z.C.C.Z.C.B.B.Z.S.C.C.N.C.C.C.C.C.Z.Z.C.C.C.Z.G.C.C.C.C.C.C.C.C.C.B.N.N.B.C.C.C.C.M.M.Z.N.M.M.N.M.M.M.M.M.M.M.M.M.n.C.M.M.n.n.M.n.n.n.V.M.m.m.N.m.m.M.C.V.M.M.M.C.m.b.M.m.M.n.M.M.m.N.m.M.n.n.b.b.v.l.b.b.b.v.n.b.b.b.x.b.n.x.l.l.l.j.x.z.l.x.x.l.l.:.J 4 k k j 4 4 4 > + + U 7 k >                                         o 5 5 3 7 7 3 4 3 3 3 W J   K.K.",
"K.K.K.K.K.K.K.K.k 7 5 3 5 5 3 5 3 5 5 3 3 5 3 5 5 5 5 5 5 3 5 5 7 5 3 5 4 5 5 5 3 3 7 7 3 5 7 7 5 5 5 5 b 7 7 7 7 7 b 7 7 7 5 7 3 o K / 5 ; ; 3 > + + + + + + + + + + * ; ; ; + + X * + + + + * + # * + # + + * & * + + * + * * * + + * # * > * * * + + + # # + X * + # * * * > & & > > ; * * * * * * ; * * * * * > * > > , * > - * * * & , & - * * - - * , 4 3 * - = * - - , - & - - - - - = - - - - - - - - - = - - - - - - - = % - - - - - - - - - - - - * - - - = - - - - - , - - - - , , , - = w - - - - = - - - - = - - - - - , - - - , - - - - - = - - * , & , - - - - - = = - - - > , & & = & - * , - - - - & , - - , & - - - - , , - & = - , , # - - - , * - , - - * - - , # - - - * * * * - * * * * # * - f f j j 6 4 4 4 , * + K 6 k +     o X X o + X o X o o X o X X o X o     o 3 4 3 4 4 4 4 6 3 > / F K.K.",
"K.K.K.K.K.X X 5 7 3 5 3 4 3 5 5 5 5 5 3 3 5 5 5 3 5 5 3 5 5 3 5 7 5 7 5 5 3 3 5 5 5 5 5 3 5 7 5 5 5 5 5 5 5 7 7 7 7 7 5 7 7 7 3 + K Q 5 7 7 7 k 7 7 7 5 7 6 7 5 7 7 7 7 7 k k b k 7 7 7 7 b k 7 g 7 7 k b 7 g k k k k k k k k b k 7 b k k b k b k k k k k k g k 7 k k k 5 k k k k k k z k B z z N k z B k z b k z B b z z z B V G z c z c B z L B V B z c z v z V z V c V V V V V V V V V V V c V L c V c V c c c V c c V V V V V c V v V c v V x c v c V V V c c c z c c v c V V v c V V c V v C C V V v c V z V c V v V V V V v v b v v c v c x V V V x c L x V V V V V V c V V B c c c c x V V x c V c V L c V z c c B V V z c z v V c c c c c V c c x l c z c z z c c c v z c c z c z z z h l B z z z z z k z k j j 4 4 4 4 6 , , * + U 6 j >     3 3 4 3 4 3 3 > 4 > 4 3 3 3 3 + > >       4 4 3 4 4 3 4 3 3 5 N K.K.",
"K.K.K.K.o o o + + + + + o + + + o o o + + + + o + + + + + ; + + ; + + + + + + o + + + + + + + : o + + + + X + + ; ; + + + + X 3 U K 4 5 5 5 5 5 4 4 4 4 5 5 5 4 4 5 5 4 5 5 5 5 7 7 7 5 5 7 7 7 7 5 5 5 7 7 7 7 7 5 k k k 7 k 7 k 7 k 5 5 7 k k 4 7 6 k 7 k k 5 k k g k g g 4 k j k k k k k k k k z k k k k z z z z z z z B z z z z z B z z z z V z x z c z z c z x l c z z V V B V c z c z z c c c c c V z z x z c V c x x V V v v v x c z c c x x v c c c x c c c x x c c c z v z c v v V c c V x x x x x v c v v c x V x V x x c c c x x x c v c x V x v c x x x x c x V V x x x x x c z l v V x v z c c v c V c c x x x V c z z z x c c z x z l x l x z c l x z h z z z z z z z c z z z z l z z l l c z z l l j j 6 f k j 4 4 , , * + I 6 N +     5 4 4 4 4 5 4 4 4 4 4 3 3 3 3 3 * 3       o ; 7 3 3 4 4 6 4 5 3 K.K.",
"K.K.K.X o R 1.-.1.-.1.-.-.-.-.-.1.-.-.-.-.-.1.3.3.3.3.3.3.3.3.3.3.3.3.3.5.5.6.6.3.3.6.6.6.6.5.3.5.6.5.6.6.6.6.6.6.5.5.5.6.u.3./ F 4 5 5 7 7 k 5 5 7 7 k 7 7 5 4 k 7 7 5 7 7 7 7 7 7 k 7 7 5 7 5 5 7 g 7 5 7 7 5 5 k 7 k 7 k b k 7 k b k k b k 7 k k k k k k k k k k k k k k k k N k z k k k k z z z B B B B B z z L V z B V B V V B z L L c L c V c v V v V V v V v c v V V P V V V C v V V V P P C C P v v P v V C V v c v V C C C C C C C C v C C C V v C v v v C v v C C v C v v C v v C C C C C v V v C _ P C C C C C C C C C P P v c c x c v x C C v C v C C V C x V V C v C v V v V V x V C V V v v C v C C C V C V V V x v c c v c c x c c z c c x x c x c z x v v c c c v z v z v v z z x z c z h z z z j k j j 6 j 4 4 4 , , + + U 4 k +   o 7 4 3 3 3 4 4 3 6 2 4 5 4 3 3 3 > 3           ; 6 4 4 4 3 > 6 3 K.K.",
"K.K.K.X F / Q R R E K R K K K K R R R R R R R Q R R R Q Q Q Q R R E R E E Q ! ~ Q Q Q ~ Q ~ R R Q Q Q Q ~ Q ~ Q Q Q Q R R Q K 5 3 5 5 5 7 X   o                                                                                                                     o                                                                                             .         .   o           .     .     .       .   .     .     .   .   .     . . .   X .   .         .   .   .   .   .         .   .     . .     o   .   .   .   .     . . . .   .   .     .     .   .   . .   o     . .   .                     o   .         .             .                                                             o 6 B j j j f , j 4 4 4 , * + J 4 N +   o N 3 5 4 5 5 3 5 4 5 3 3 4 3 3 > > 3   + N     o > 7 4 4 > 5 6   K.K.",
"K.K.X 5 F 3 3 3 3 3 3 3 ; 3 3 3 3 3 3 3 5 3 3 3 5 3 5 3 3 5 5 3 ; ; 3 3 3 3 4 3 3 ; 3 3 3 3 5 3 3 3 3 7 3 3 5 3 3 3 3 3 3 ; 3 5 7 5 5 7 +                                                                                                                                                                     . . . . . . . . . . . . . . . . . . . . . . . . . . . . . . . . @ @ . @ . . @ . . . . . . . . @ . . @ . . @ . . @ @ . . @ @ @ @ . @ @ . . @ @ @ . . @ @ . @ . . . . . . . @ . . . . @ . . . . @ @ . @ . @ . . @ . @ . @ @ . . . @ @ . . @ . . @ @ . @ @ . @ . @ . @ @ @ @ @ @ @ . @ . . @ . @ . . . . . @ . . . @ . @ . . @ @ . @ . . . @ . . . . . . . . . . . . . . . . . . .   .   . . .   .   4 c l 6 f j 6 , 4 , , * + J 6 N *   o 7 3 3 5 4 5 3 4 4 5 4 3 3 5 3 3 ; 3     7 7       + 3 3 3 3     K.K.",
"K.X 3 F 5 7 7 7 7 5 7 7 5 7 7 5 F 7 7 7 b 7 7 F 7 5 7 b 7 7 7 7 F F 7 7 F 7 N 7 b b 7 F k 5 F b F 7 b F b 7 7 F 7 b 7 b 7 b 7 5 7 5 7 +                                                                                                                     .     .                   .   .   .   .   . . . . . . . . @ @ @ @ @ @ @ @ @ @ @ @ @ $ @ @ @ @ @ @ @ @ @ @ @ @ @ @ @ @ @ @ @ @ $ @ @ $ @ @ @ $ @ $ @ @ @ @ @ @ @ @ @ @ @ @ @ @ @ $ @ @ @ @ $ @ @ @ @ $ $ @ @ $ @ @ @ @ @ @ @ @ @ @ @ $ @ @ @ @ @ @ @ $ @ @ @ @ $ @ $ @ @ @ @ @ $ @ @ @ @ @ @ @ @ @ @ $ @ @ @ @ @ @ @ @ @ @ @ @ @ $ @ @ $ @ @ @ @ @ @ @ @ $ @ @ $ @ @ @ @ @ @ @ @ @ @ @ @ @ @ @ @ @ @ @ @ @ @ $ @ @ @ @ @ @ @ @ @ @ @ @ @ . @ @ . . .   , z f 4 4 4 4 , 4 , + + J 6 k >   o k 3 3 7 5 5 5 7 7 7 5 5 3 4 3 3 3 5   o + 7 6                   K.K.",
"K.5 F b 7 b 7 7 7 7 7 7 7 7 7 7 b 5 7 F b b 7 F b 7 k k b 7 b F 7 F 7 F F 7 k F b 7 F 7 k 7 b k 7 b F 7 F 7 k 7 7 b 7 7 7 7 7 7 7 7 X                                                       .                                                     . . .   .         .                       . o     . . . @ . @ . .                                             . @ @ .   .                                           o @ @ .   . .                                           @ @ $ .     .                                           . @ $ . . .                                           . @ @ $ . .   .                                         o @ . .   . .                                         @ @ @ .   * z f j 4 4 3 , , * + J 4 k +   X k 3 ; ; ; + > * : * * + ; ; X ; 3 5 X   ; X F o                 K.K.",
"K.X + + + + + + + X X X + + X X X X + + X o X + X + X X + X o + + X + + + + X X + X + X + + X o + + + + X X X X + + X + o X X + + X             X + + + ; 3 3 3 3 * ; ; 3 * 3 3 > 3 * X             + 3 3 > > 3 3 3 > 3 > > 3 3 3 3 3 3 3 3 X . . .         * 4 4 4 4 4 6 4 6 6 4 f 4 j k f j j f f = @ @ @ @ # .   . X 6 k k j j k k B k k k k k z G z B B z x % . @ . .   o 3 k k k l k k k B k k k z z B G z V z z j @ . . .     3 z k j j k k N k z z k k z F z B B z z f = @ 8 . .     5 z k k l k B k k z k k k B B B B z z c f $ @ $ .     X 4 k k k j k k k k k z k z B B z B z z z s @ @ 8 . . .   , k k k j k k z k k k z k z B B z B B c f @ . .     * k k j j k B j k k k z k k B B B V z z l @ . @ . @ . , z f 4 f , 4 , * + J 6 k *   o b X       o                   ; 3 5 o o ; + N o   X 3 5 +   ; 5 K.K.",
"K.                                                                                                                                            ; > 3 3 5 4 5 4 4 3 5 4 5 4 4 4 4 4 4 4 ; o   X . o # 7 5 4 4 4 7 f 7 7 k 6 j 4 k j k 6 j j k * .   . . .   * k j 4 4 4 j j j 6 j k j 4 z z j B j l z h # @ @ $ $ .     > > * * * > > , * > > > > - , , , 4 , , , s . $ . .   # , * * * * > > , > > > , , * , 3 , , , , s $ . . .   * , > * * * * > , > * > , > , , , , 4 , , s & . 8   .   * , * * * * , > , > > > , , , > , , 4 - , s = @ 8 .     * 3 , * * * , , , > * > , > , 3 , , 4 , , s @ @ 8 .     # , > * * * , > > > * > > * , , , , 3 , , s - .     + 3 , * * > > > > - * > , > , , , * 4 , , s , . $ @ . . O B l 4 4 4 4 , : + J 6 7 +   o k X Q u.i.u.f.a.p.a.a.a.z.a.3.J 3 5     ; ; k o   3 ; F k   5 Q K.K.",
"K.                                                            o                                                       o o                   * X o o   o   o o   o   o o X   o   o   . + X   .     * O     o X   o o .   o   X o o   o o o   X *         o * . o . . X O . o . . X . X . . o . . . O - = . $ $ @   o . * O O # # + O & O # + & & * # & & & + & & , - @ .     > O # O + + O O # O & # O # # * # # # & & - s . .   o > O + O O + # + # & O + + & & # # & # # # - s . 0 .   o , O X O X O O O + O O + # O & # # & # O = , - . 8     . * # O O O O o O # O # + + & # # # & # & # , - @ 0 @     * O # O O # + # & # O * # & * + O + = # # > s .   . # # O O + O + & & O # + # & & * O & # & # & s @ @ $ . . X z 4 l , , , > + + L 6 j +   o J 5 G b F F K J F K K F F F 7 5 3 k     3 * b o   X o ; ;   3 k K.K.",
"K.                    X   X o o   o X X X X X X X X . X X o + X . o       X   X   o     o     o   o                   X X X X + X           * X X X X + + X + X + # + X + + + + + + + * +   .     + + + + + X O * + # + O # # + O + & > # + + *     .     - * & * : # # & > & * & * & > - & - , = - - - . $ $ @ .   o , & + * & # * * # & * * * * * * & * & > * - w @ .   . , # & * * # & > * * & * * * * * > * * - & - d @ . .   , # & * + + * * * * * * * & * & * * * * * = w @ 8 .     , O * # & + + & * * * * * * * * & * * * * - w @ 8 .   o 3 # # * * + > * * * * * * & - & * * * * * - , @ 0 @ . o , # * & : & # - + > * * * * & & * * * * = * w O .   * * & * # + + > # * * * * * * & - * - * * & d - $ $ @ . X V 6 4 4 6 , , + + J 6 j 3   X F 4 k 7 5 k 7 k 5 7 3 4 3 3 3 3 4 5 o o 3 X F o   X X 3 3   3 b K.K.",
"K.o             X X X X X X + o + X X X + + X X + X X + X X + + X X + X + X X + X X + + X X X X X X X X X X O X X     3 X X + ; +           3 + X + X + + + X + + + X X X + X X + + + + +   . X o * # + + O + + # + O + + O + + + * + + + * + 3     .   . 3 O + # + & * & # > * * * * & * * & & * * w d . 8 8 $ .   X > + * & + * * O * & * * & # * - * - & * - w d @ .   o 4 + O & O * * # # & * + * * & - & * & # , - h # .   . 3 + O & & * * O O & & * * * - - * - & = , - h # 0 .   . 4 + # & + * > & # & * * * & - * * , & = - - h @ 8     . - + # # & * & O # & * * * & * > & , & = - w d @ 0 .     - + O + & + > & O & * * * * * - * - & * - = h . . . * + O * & & * & O # * * * & * - * > & = > - h - $ $ $ @ O B s j f , , > * + J 6 j +   X F 4 5 k b k z F 7 7 7 4 4 5 5 5 4 3   o ; X b X   X X 3 3   3 k K.K.",
"K.  o X X X   o + X + + + + : + + + + ; ; + ; + + + + + + + ; + X X X X X o X X X X X o X X X X X o X X X X o X o     3 + * + ; 3           * X + + + & + + O O * + + + + + + X X + + * +   .     * * + + + + + + + X + + + & + + + + * * + + 4 o   .   . > # & * * > O & * * & & > & * & > & & * - w s . 9 9 = .   O * * * * * & & * & * * & > * * * * * * - - d w @ .   . - + * & > & + & * * & # & > & & * * & & , - d # .     , + # * * & + + > & & * * * & * * * - & , - d O 0 .   o - + * & > & + + & & > * * * - & & * * - , - d @ 8 .   . , * + & > & + & * * & * > & * & > * - * - w s . r @   . ; # # * * * + O * * & # * * & * & - * - - = h . .   * * * & > + # # * * & * & > & & * * * = - = h $ $ $ $ @ X z f f 4 f , > # + I 6 N +   o G 6 4 7 7 7 7 7 5 5 5 4 5 6 4 6 2 5   o ; + b o   X X 3 3   3 F K.K.",
"K.  ~ *.*.&.    ; + + ; + ; ; ; 3 * ; 3 ; ; ; ; 3 3 3 3 + ; + ; X                                                   X 3 + ; + 4 3           3 + + X + + + + + o + + + + + + + + + > + > +   X X   + * + + + ; X + + + + + + : + # + + * + * O 4   .     . > * * & + + & * & * * * , & , * * > - - - s w . $ 8 $     O * # * * + + + * * & * * * * - * - = - - - s d @ O .   , X * + + + > + & * > > > & > & , , , - , - f # @   . , X * * + + > & & & > * - - * * - , * - , - d $ e .   . 3 + * > + + & * * * & > * * * * , - - & - - d @ 0 .   o > O * : + + & * * * * * * * - & , - & , - , d @ 0 @     , + * + * + * * * & * > * , * & > , * - , = h #     * + * & + + : * & * * > * > * * * , - * , * h - 8 $ $ @ O P 4 k 4 4 > * + + J 4 k ;   o G 3 6 7 4 7 7 4 5 4 5 6 7 4 4 3 ; 5     ; + F     X o 3 5   3 k K.K.",
"K.  4 + > k     + + + ; + + ; ; ; ; ; 3 3 3 3 3 ; ; ; ; ; ; ; ; ;                                                   o 3 + ; ; 4 5     .     3 + + o o + + + + + + + + + + * + + + + + > + o X   X * + + X X X * + + + + * * + * * + + + + # + j     .   . > O & > + + > # * + & * * > & - - * & - - d f . $ 0 $ .   X > * + + * & > * & + > & > - & * , - * - - d f @ @     > # & * > + : * * * & > > - & > * - - - , - h $ O   o , + * * * * * & * + & > * > & & > - & - , - d # q .   . , + # + & * > * * & * & * , * * - * - , , w f . q .   . > + * * * + > & * # * & > > & & > , & - , s d @ r #     * + * * + & > > & + & * > > & & , , & - , * h # . . * + & * > + > * * & & * > > * & , - - - , - h - $ 8 $ @ O L f l , , , > * + J 4 k +   X F 4 7 6 6 7 4 5 5 6 4 , 4 4 4 4 5 5   o ; + b X   o + 3 3   3 7 K.K.",
"K.  7 4 3 F   X ; ; + ; ; ; ; 3 ; + X X + + + + + 3 3 ; ; 3 ; ; ;           o   o   X X o   .   o   X   o           X 3 * ; + 4 3           3 X + + X + + + + + + + + + + + + * + # + ; +   X     + * + + X ; + + + * * + + * + + + # * O + * 3   . .   X > * + + > & & * > & > * > & > > - - , - - w w . 8 8 $ .   . * + + * * * & * > * * * > # , * - - , - - f - $ . X o , * + + * & * # * & > > & & - > - - - - - - f # @   o , + * + * O * * * * > > & & - > - - , - , , d @ q O   o , * + + > + & & > # > > * & , > , & , - - s d @ e . o X 3 * + + * * & * * * * * > & , , * - - - - s s @ 0 @ . o 3 + * + > + & & * * > , & * , , * - : - - , d . X   * > + + + : & & * * * > & & , , * - * - - - h $ 8 8 $ @ X v 4 l f 4 , , # + K 6 j +   o F 3 6 6 6 4 4 4 6 6 6 4 6 4 5 4 3 5   o ; + b o   + + 3 3   3 F K.K.",
"K.  5 3 3 N   o ; ; ; ; ; ; + o o 5 K K K Q / F + + ; 3 3 3 3 ; F F b F F F k F F F F K F F F F F F F F F F F b ; X X 5 + ; + 4 3   o       3 O X + + + + X + + + + + + + + + + + + * * +   .     + * + * X X + + * + * + + * + + * + * + + + 3   X X   X * * + O * & + & > * * * > - , * - - - - - f w . $ 0 $ o   O , * + & * > & * * & & & * , > * , - - * - w d @ X     - * + + * > & * * * & & > , * & , , - & , - d @ @     - * + # * > * * & * * # - > > = , - - - , - d # p X   o , + * + + > & & * * # & * - > & , & , * , w d # q .   . - # * + * * * * * * & * , > * - , - , = - - d @ r @ .   ; * + + & * * * * * & O * , > & , - - - - = d O .   * * * + O * * * * * * # * , > & - , - - - = h = 8 8 $ @ O V f f 4 , , * O + J 6 k +   o F 3 6 4 3 6 6 3 5 6 6 4 3 5 3 3 5 5     ; + b o   X X 3 3   3 k K.K.",
"K.  5 3 3 N   X ; + + ; ; o o F Q ~ K F F K R / 3./ X + 3 3 3 3 F F F F k F F F F F F F F F F F b b F F F F F 7 4 ;   5 3 3 * 3 3         o 3 O + + + + + + + + + + + + + + + + + + + ; *   . .   + * * * + * * * + + + + # + + + + * + + * + 4   .     X * * + * * > > * & # * & * & * * - - - - - w f . 9 8 8 .   . > * & + * & > * + * > * , & * & - - - - - s d $ @   o * # * & * * > * & # > & & > & , & , - - , w d = .   o * + * * * * * * * # - & * , & : - & - - , - d $ p .     > * * & > > * > + & > & > & & , - - - % 4 - d @ t     o * * * * * * * * * & * & * > & & - & , - 4 w d @ t #   . * + * * : * * * # # > & * > & , & - - - , - h . o   * & * * * * * * * # * & > - & > - - * - , - h - 8 8 $ @ + c 4 f f 4 , , + + I 4 k ;   o F 3 6 3 6 3 7 6 4 4 4 6 6 5 5 3 3 5   o ; + b X   X X 5 3 o 3 k K.K.",
"K.  3 3 4 F   o ; + ; ; o ; R K + + : ; 3 ; : o + / a.F X 3 3 3 ; o X + X o X X : + + + + X X X + + + + o + + o + X X 3 3 + ; 4 3   .       , + + o X + + + X + X + + + * + + + + * + ; +   X o X + + + X * + X + + * * * + + + + + O + + * * 5     X   . * * * # > & * > * # > * * & & - - - , - - w h . 8 0 %     O * * + * * * * * * * * * * & - , & - , - - s d $ .   o 3 # * * > & + * * * > * * & > , & & - - , - d @ O o o ; # * + # * # * > + : * * * & - * - , - , - d # 0 X   X * + + + & & & > & & > > & * , - : - - - , % f @ q .   X * + * * * & * * & * > * - & , - * - , - - w d @ u @     * * * # * # * * * & & * * * & - - - - , - - d #     * + > * * * # * * * * + > & > > & - - , - * h % 8 8 $ @ X L f j 3 , , * + + U 7 k X   X k 3 4 3 6 7 7 7 5 4 6 6 3 5 3 ; 3 5   o ; X 7 X   + X 3 3   3 7 K.K.",
"K.  4 4 3 N   o ; ; ; o ; K 7 ; 3 5 3 3 3 ; ; ; 3 X 3 3.K + 3 3 ; ; ; + ; ; ; + 3 + + + 3 + > + 3 * > + ; ; ; ; ; o X 3 + ; 3 4 3           > + + + + + + + X + + + + + + + + + + + + ; *   X .   + + + + X + + + + + + + * + * * + # * * + + 7   X .   X * * * + & + * & & * * > & > , * * - , , - w w . $ 0 $ .   O > + * * + & * & * & * * & > > & , - , - * s s $ .   X > > + * + + * & & * & > & > & * , , , - - - d - . . . ; * * * * + * + & & > > & * > * - - - s - - d = r .   X , > O > * + * & + * & > * & > & - - , , - - f $ t . o X > * + * + & * & * & * * * & * * - - , , - - d @ u #   X * * + * * * * & * * > > & * , & > - , - , = d # .   * > + + * & * + = = : > & & - & - - - , , = h = 0 8 $ @ + c f f 3 4 3 * + + J k k +   X F > 6 4 4 6 7 4 5 4 4 7 4 3 3 3 5 7     * + k o   + X 3 ;   ; 7 K.K.",
"K.  5 3 3 F   o ; ; X + H 5 3 5 3 3 3 3 3 3 3 3 ; 3 ; 3 / F o 3 ; + + + : : + ; + 3 + + + 3 + ; + + ; + + + 3 3 + + o 3 + 3 ; 3 3   o .     3 + + + + + + + + + + + + + + + + > * + + * + o X   o ; ; + + * + + * + * + * + * + * + + + # + + 6     O   X > * * * & * + & & > > & : * - * * , - - - w d @ 8 0 9 X   X * * * * # * + > & > * * & , * * , - - - - h w $ O   . - # * * * # * * * * * & & , & , , & = - , , f $ . . o , + * * * & * + * * > & * - * * , - - - - , d = t X   X , * * * # # * & > * * > & > * - - * - - , s d @ u .   X - # * > # & + * > > & > * * > * - - - - - , d $ y $   X * + * * * & + & * > * & * * - * , * - - - - d O . X * + * * * * + + & > & > & > * * , & , - - , d w 8 8 8 @ . c f f , 4 , - + + J 6 N &   X F 3 4 4 4 6 7 > > + + ; 3 3 3 4 3 5 o   ; X b o   + o 3 3   3 7 K.K.",
"K.  5 3 3 b   X + X o F 3 3 3 3 5 ; + o     X + ; ; ; + 5 / + X ; ; ; + 3 ; : ; + 3 3 3 3 + ; + ; ; + 3 3 + ; + ; + X 5 ; ; ; 5 3           4 # + + + + + + + + + + + + + + + + + + + * * o .     + * + + + + + + ; + * * + * + + + * X * + + g . X .   O , + + * + * & * > & > * * * - , - * - - , s w @ 8 0 8 X   # , O + * O & * > * & * * > & , > - * - - - w w 8 @   X 4 + # * + * & * * * * > * * > > , - - - s - d $ #   O 4 + + & + * O * > & & > * * - , - * - - , - d = t X   X f + # + + * * > & & + * > & , , > & - - - - d $ t X   O 4 + + & O * * > & & * * * & , , - * - - - s d = u #   X 4 + + & O * * * > & + , * * * > - - - - , - d @ . o 3 * + & + & + > > & * > * & > , , , & - , - d $ 0 8 $ @ O c j 5 4 - , * + + J , N *   O F 3 f 5 3 6 4   o X o   4 5 3 3 4 5 o o ; X 5 o   + + 3 3   3 7 K.K.",
"K.  3 3 3 F     +   3 7 3 3 3 7 X o   : : : o   o 3 ; ; + F R   ; ; + ; ; ; ; + 3 + 3 + : ; + ; 3 + + ; + 3 3 + + + o 3 + ; + 3 5           3 X + + + X + + + + + + + + + > + + + * + 3 X   X X   * + * + + * ; + + + + + + + + + * + * + * * 5   X X   X 4 * * * * * > > & & > * * - * - , , - * - w f . 8 0 $ X   O 3 * * > # * * * > * * * * > - , - - - - - f d $ O . X 3 * * * * + * * * * & > * * - * , * - * , - h $ O . X , + * * + * > * > * + > & * , * , - - - , - h = u X   o 4 * * * * * * * > * + * & > > - , , - - - - h $ t X   O 4 * * > + * * * * * > * & * , - > , - * - s d @ ( X X o * * * > + * * * > > & > & * - - , , - * - = l X . X * > * * * * * & * > + > & * , * , - , & - = l w 8 0 $ $ O V 4 f - , 4 - # + J 6 7 +   o J > 5 5 3 5 5   + 3 + o 4 5 4 3 5 5 o o + X 7 o o X X 3 3   ; 7 K.K.",
"K.  3 3 3 b   X X o 7 3 5 3 5 o   : Z D D | m >   o 3 ; ; + ~ X o ; ; ; + ; 3 + + + 3 3 + ; + ; + 3 + ; 3 + 3 ; ; + o 5 + ; ; 3 3   . .     3 + + X + * + + + + + + + + + + + + X * + * *   X o   * * + + * + * + + * + * > + * + * * + * + + g   .     X , + * * # O + & > * + * * * - * * - - - - s h @ 8 0 9 .   O , + * * * * * * & & * * * * * * - - , - - w d $ #     , * * * + * * * * * & * * * * - - - - - , % h * #   o , * * * + + & * & * & > * * * - * - - , , % h = t .     4 # * * # + * * > & & > & * * * * - - - - w h = a X   X 3 + * + & + * * * & & * * * * - * - , , - s d $ y $ .   , * * * + + * & * & & * > * * - * & - - - = h # .   * * + > & & * * > & * & * * * & - - - , - & h w 8 8 $ @ O c j l 4 , 3 * + + B 6 j >   o F > 3 5 5 5 4   3 3 3 o 5 4 3 3 3 5   o ; X b X   + + 3 3   3 7 K.K.",
"K.  3 3 ; b       + 5 3 3 5 X   M | | } X.O.} D :   + 3 3 o J 7 X 3 ; ; ; ; ; ; 3 ; + + + 3 ; 3 3 ; 3 + 3 + ; + ; + X 5 ; ; + 5 3   o       3 + + + + * ; X ; + X X + * + O + * + + + > +   X X   ; + + + * + + + + * + * ; + + + * + * * * + 5   . .   O , * * + * > # * & & > * > & > - > - - - - w d @ 8 0 8 .   O - * * + * * O * & & > * * : - - & & & , - w h 8 #   X , + * + * * O # * & > : * * , & , > - - - - d $ #   . 4 # # & * * + * & * > * * * , & > = - - - w d = u X   X , + * + * * & * * & > , * & > & - & - - - w d $ y X   . , + * + > * + & * & > > * > , * - & & - - w d $ ( $ o   , + * * * * * * * # > > > & > * , - - - - % h # .   - + & * + > & + * & * * > * > & , & - - - - d 9 0 8 $ @ O v f l 4 , , * + + J j N +   X G > 6 4 3 3 5   + > * o 4 5 > 3 3 6 o   ; X k X   + + 3 3   3 k K.K.",
"K.  3 3 ; 7       5 3 3 3 5 X < X.} X.X.O.@.O.| Z o   3 3 + 3 F o + + + ; + ; ; + ; ; + + ; + + + ; 3 + + 3 3 + ; X   3 + ; ; 3 3           3 + + + + + + X + + + + O + + + + + + 3 + * +   X     + * + + + + * + * + + + * + + + * + + + + * 4 o   X   o , # * O > * + * * & > > & - > & , - & - - d d @ 9 q 8 X   O - * # + * # * + * > * * * = - > > , - - - w h $ @   o , O * * * * * * & > * > * * & > , & * - - w h = X X   3 + * + * * * # * > & > * & * > , & - - & s d = a X   o , O * + * * + O * > * & > & > , , > - = - s h # y X   . > & * # * * & * & > * * & * & > - , - % - w h @ ( =   X * + # & + * & + & > & & * * & * , * - - - - h X X   * + * & + > & + & > & > * & * - , - - - - - h w 8 8 8 @ O x f f , , , - O # G 6 B >   o N 3 6 4 5 4 5   > 3 3 X k 6 3 3 4 5 o o ; X 7 o   + + 3 3   4 k K.K.",
"K.  3 3 3 b       3 3 5 3 3 o Z } { #.#.O.} O.| | 1   + ; + 3 F   X ; + ; + ; : 3 ; + ; 3 + + 3 + + 3 3 3 ; ; ; + X o 3 + ; ; ; 3   .     . 4 + + + * + + + + + + + + + + + + * + + + 3 +   X . o + + + + + + + + + * + * + + * + + * + + * X 5   . .   X > * + & # * & & * * & & & , & - - - , - - s h . 8 q 8     + 3 + + * # * * * > & & * * > & - = - s - - w h $ . X o , * O * * * + * * & * * = * & , - & s , - - h = . . X , # * & * > + & > & * # * > * , = - - , - , d = u O   X , # * * * * * * * * & * & , & * = & , - - - h $ r .   X , + + * & + * * * - & * & , * - = - s , - w l $ ( #   o - + + & * * + * * * * * & > - > = * w - - - h # . o - * + + * + & > * & * * & & , - & & , , - - d w 8 8 8 @ O c g g 4 , * - O + J 4 k +   X N > 4 3 5 4 5   > 3 3 X 4 5 4 4 > 5 o   3 ; 7 o   X X 3 3   5 b K.K.",
"K.  3 3 ; 7       3 ; ; 3 3   { } A O.@.+.+.O.S | m   + ; ; + F o X ; ; ; ; ; + + ; 3 : 3 3 ; + 3 ; + + ; ; + ; ; o o 3 > ; + 3 3     .     3 + + + + + + + + + + + + + + + + + + * + * +   . X   * ; + + * + + * + > + + + + * ; 3 * + + * * 5     X   X , + * > * + * + * & > * > & > & & , - - - s h @ 8 0 8 O   O * * * * * + * # & & > * > - > & - , - - - f h $ #   . 4 # * * * + & * + * * * - * , * & - - - - w h $ #   o , + * * * + & * # * * * - * - > & - , - , s d = u . o X , + * * * + & * # & > * > * - * - , , - , s f $ r X   . , * * & > * + + & * * * * * > * * , - - - w h $ ( # . o , + * * * + * * = * * * - * * * = - , - - w h # X   * * * > & * + * + & * * * > * > & - , - - s h = 0 8 8 @ # v 4 f , 3 , - + + J 4 k +   X F > 5 4 4 4 4   * , 3 o 6 5 > > 4 5     + X k     X + 3 3   3 7 K.K.",
"K.  3 3 3 7       3 3 3 3 3 o Z } A o.O.{ +.| S A n   X + 3 ; F   X ; + ; ; + + ; ; ; + + 3 + 3 : ; ; ; ; ; ; ; ; X   5 + + ; 5 3     .     3 + + + O + > + + + + + + + + > + + + + * * +   X     ; + * + * X * + + * + > + + + + + * + + ; + 6   X X   X * * + * * + * > - * * > & - , * * , s - f s w @ 8 q 9 X   O > * * * + # * > * * * * * * - - - - - - , d h $ O . . - # + * & * & > * * * # * - * * , - - - s - h $ O . X * # * * * * + > * * * & > * * & , - , - s - d = ) X   . - * * * * * * * * * * * > - = * , - - - d , d $ p X   . > * * * + + * > * * * * * - = - - - - - s w d @ ( #   . , # * * * + + * * * * & > * * - , - - - s - d # .   * & * * + + * * * > * & > * - * , - - - w - h w 8 0 $ $ O V , j 6 , - * O X J 6 N >   . N 3 3 j 4 4 4   > 3 3 o 6 5 3 5 3 5   o + + b o   X + 3 5   3 7 K.K.",
"K.  3 3 3 7       ; 3 3 ; b + < Z { } } | { S Z M :   ; 3 + 3 7   X + + + ; ; ; + ; + ; 3 + ; + ; ; + : + + ; : + + o 3 ; ; + 3 3           3 + + + + > + + + + > + + * + * + + * + + + +   X     + * * * X + + + * + + + + + + * + * + * * # 7     .   . 3 + * * + * & * * * * & > * = , - & - = w s h @ 9 q 9 .   O > + + * * * * * & * * - * * & * - * , - - w h $ .     4 # > + * * * # * > * * - * = * - - - - - - h = O   X 3 + * * + * & # * > & * * = * > - & - - - w h = ( O   . 4 O * * + & * & * - * * & * * * - * - - - w d $ y .   . , + * > * & * * * * * = * * * * - * - - - f d $ ( =     ; # + * + * * * * * * * * = * * - * - - - - h O . X * * + * * * * * * * * * - & * * - * - - - - h w 8 9 $ @ O V s j , 3 * - O + I 2 j +   X N 3 3 4 7 4 5   + 3 4 + 4 5 3 5 5 5     ; X 7 X   + X ; 3   3 5 K.K.",
"K.  3 * > 7       X 3 3 ; 7 7 o Z A Z A A D Z M n   o 5 + + 3 3   + ; + ; ; : ; + + 3 : + ; + ; ; + + ; ; ; ; > ; X o 5 + ; + 5 4     .     3 + + + + + + + + + : + + * + + + + + + + 3 X o . . X ; + + + + ; X # + + + * * + * + + + + + + * 6   X .   O 3 # * * * * * * # * * > * - * - * - , - - s d . 8 8 8 X   O , O O * + * * * * * * * = , - - - * - w - d d $ @ . X , X X & > + + > * * * * * * * - * - - - s , h = # . . , X O * + * * > * * * - * = - * - - - - , w d $ u O   X 3 O + + * * # > * * * - & - * - - - - - - s d # p X o X , O O + * * * * * * * * * - * - - - - - - w d @ u $ . o , + + + * * O * * * * * * * * * - - * - s - h # . o * + O + > * # > * & > * * = - - - - * - s - h w 8 8 8 @ O V j f , 4 , - + + J 6 N 3   o F 3 3 4 5 5 7   + > > X 5 4 > 3 3 5     ; X k o   + X ; 3 o 3 5 K.K.",
"K.  3 3 3 7       X 3 3 3 3 K + : m Z Z Z Z m n o   3 3 ; + 5 +   + + + ; ; + ; 3 ; ; ; ; ; + ; ; : ; ; ; + + ; ; X o 3 + ; + 3 3           4 + + + + + + + + + X + + + + + * + + + + 3 +   . o   + + * + + ; X O + + * + + + + + * * + + * # 4     X   X - # # * + * * * * * - * & , * - - - * - - s d @ 9 0 $ .   O * * * * > * * * - * * * * , * * - - - , % w h $ O   X ; X + * + * & * * * * - * - - - * - - - - % h $ O . X * # * * > + * * * * & * * , * - - , & - s = h = u . . X - + + + * * * * * * * * * , * - * - - s - - d $ p .   X > + + * * * * * * > & * * - - - - - * , - w h @ ( #   . * + * * * * * * * * * - * - - - - - - , , % h # .   * + * * * + * * * > & - # * * - - , * - - = h 9 8 0 $ @ + V s j , , * * # X G 4 N >   o k 3 4 5 4 3 7   ; 3 3 X 5 4 > 3 5 5   o ; X 5     + X ; 3   3 5 K.K.",
"K.  3 3 3 N         ; 3 ; + 7 /   o < n n n :     5 7 + + + 4   o X + + ; ; 3 ; ; + + + 3 + + ; + : + ; + 3 ; + ; X X 3 + + + 5 3     X     3 O O + # + + + + + + + + + + + + * > + + > +   . X o * 3 + ; + + + + + + + + + + + + * + + > + > 4 o . .   X , + * + * + * * * * * * * , * * - - - 4 = s f . % 0 8 .   X * * O # + + * * + * * * - - * - * - - - - d f $ @ o . , + > & * + * * * & * * * - * * - - - , - - h = . . X > + + O + & * * * * * * * - * - - , * , - - h = a .   X 3 * * * & + * * * * * * - - * * - - * - - w h @ r X   o > * * + * * * * & * * * * - * * * - * - - w h @ u $     ; * # + * * * * * * * * * * - * - - * - - = h X . X * * * + & * * * * * * * * * - * , * - - - - l 9 8 8 8 @ O V , j , , > * O + B 4 j +   X N 3 5 > 4 4 5   + > 4 X 4 6 3 3 3 5     + + 7     X o ; 3   3 7 K.K.",
"K.  3 3 + 7     o     3 > ; ; F 6.;           o F F + + ; 5 +   X + ; + + ; + ; + ; ; ; + 3 ; + ; ; ; + + ; + ; + X X 3 3 ; + 3 3         o 3 + + + + + + + + + + + 3 + + + + + + * + > +   X .   3 + * X + + + O + + + + O * * * + + > * * + 5   . .   . 3 + * & > + * * # * * * - - * - * * - - - d h @ 9 0 9 X   X , + * * * & > * & * * * * - - * - * , - - d d $ .   o > * + + & + * * * * * * - - - - - * - - , - h % .   o , & > * * + * * * * * * , * , * * * - - , s h = t . . X 3 # # + > + * * * * * * * - * - * * - - 4 w h $ r X   . , + O * * O * * * * * * - * - * - * - - - d h @ u #   X * + * * * + * * * * * * * , * - * * - - , - h # .   * * + + * + * * # * * # - , * * - - - - - - d w 8 8 $ @ O B j f , > , * # + J 4 6 +   o N > 5 5 4 4 4   + > > X 6 5 > 3 3 5 o X ; X 7 o   + + ; ;   3 7 K.K.",
"K.  3 3 3 7     X     + 3 ; ; X 7 1.~ F 7 b F ~ F + + ; 3 3     X + + + + ; ; + 3 + ; 3 3 3 3 ; ; ; ; ; ; + + ; ; X o ; + ; ; 3 3   .       4 + + + + + + + + X + + + + + + + + + + > * +   X o   * + + 3 + + + + + * # O + + + + * + * + * + 6     X   X > + + * + * * * * * * * * - - - * - - - - d h . 8 0 $ O   X > + + * + * # * * * * - * * - * - - - , - s h $ # . . , + * + > + * + * * * * * * - * - - - - - - h $ O . o , # + + & + * # * * * * - * - - - - - - - - h = t O   . 3 * # * + + * * * * * * * * - * - - , - - , h $ q .   . > * + * + * * * * * * * * - - - - - - , - d h @ u @ X X * # + + # + * * * * * * - * - * - - , - , = h # .   ; * + + * + * # * * * * - * - - * - - w - - d w 8 0 $ @ # V f j 4 3 * , O * J 5 N >   X N > 6 3 4 4 7 o + > 3 X 6 4 4 3 3 5     ; + b o   + X ; 3 o 3 7 K.K.",
"K.  3 3 3 7     X o     : 3 ; ; + + H Q / Q F 3 + ; ; ; 5 X     X X + ; ; + + : + ; + + + + 3 : + + ; + ; ; ; + ; X o 3 ; ; ; 3 3     .     4 O + + + + + + + + + + + + + * + + + + X > +   o .   ; * + + + * + + + + + + * * + + + + * * * * 4   o .   . , * * * # * + # * * * = * * * - - - , - - s h @ $ 0 $ .   O > * * + * + + * * = * * * - * - - - - - - f d $ #     > + * * + & * + * & - * * - * - , * - - - - l % O .   3 + * * + * * * # = * * * * - - - - * - - w h = t .     3 * * + * # * # # * * * - - * - - - - - - s f $ 0 X   o 4 # * + * # + # * & * * - * * - 3 - - - - s h @ u @   o > * > * * # # + = * * * * - * - , - = - - - h # .   * * * * + * * + * = * * * * - * , - * - - - l 9 8 8 $ @ O V j s , , , - O + N 4 7 +   o N 4 4 4 3 3 4 o + > 3 o 7 5 3 > 3 5 o   + X 7 o o o o ; ;   3 7 K.K.",
"K.  3 > ; 7   o X X       + 3 ; * + X X X X + ; ; ; 3 3 X       + + : 3 3 + 3 + + 3 3 + 3 + 3 + ; ; + + ; + 3 + 3 + X 3 + + ; 3 3           3 X + + + + + + + + + * + O + + + + + + + * +   X .   + > + + * + + + + + * + + * * * * + + > + * 4     X   X * # + + * * + * * * * * - * * * - - = - - s h . 9 8 9 .   O - # + * * * * * > O * * - * * - * - * - - f h $ . . . - # + * * * * * & * * * - * * - # - * - s - h = O .   - * # * * * * * * O * > - * * - # - - * s - h = y .   . , * + * * * * * > & * * * > * - # , & , - s h $ t O   . , * X > + * * * * # * - * * - * # - * - - w h @ u # .   , * X * * * * * * # * * * - * , # - * - , - d X .   * * O * * * * * * * * * * - > - # - - - , = h w 8 8 8 @ O v f f , , , , O + J 4 k ;   o b 3 5 3 3 4 6 o + 3 3 X 5 4 3 3 > 6   o ; X k     + X 3 3 o 3 7 K.K.",
"K.  3 + 3 b   o X X X       X 3 ; ; ; * + ; + ; ; 3 3 o       X + + + 3 ; ; + ; 3 + ; ; + : + ; + ; + ; 3 + + ; 3 + X 3 ; ; ; 3 3   o       4 + # + * + + + * + X + + X X + + * * * + * + o . .   ; * + + + + + + + + O + + + + + + + + + > + 7   o O   X ; * # * + * * # & * * * > , - - * * - , , d h . 8 8 $ #   X * # * * + * # * & * * * * - - * , * - , - d h @ # .   3 + + & * + # # * + * * * - - * * - - , - - h % #   X - + # * + # + * * * * * * - * # - * * , w - h = i . . X 3 # + & + * + + & * * * > - * = > * - - - , h # t X   X * # * * + & + # * * * * * , * * - - - 4 - d h $ t @ . o - * # + * # + + * * * * - - * & - - * , - - h $ . o * * * + + + # * # & * * * - * * - , & - , - h w 8 8 8 @ O c f f , , 3 * # + G 4 k X   o k > 5 3 4 > 5 o + 3 ; + 4 3 3 4 > 3 o   + o 5 o   + + ; 3 o ; 7 K.K.",
"K.  3 3 3 7   X + X X           ; 3 3 ; 3 3 3 3 3 X         o + + + + + + 3 + 3 ; + + ; ; ; 3 + + + 3 + + ; + 3 + + X 3 + ; ; ; 3     X     4 + + X + X + + + + + + + > + + + + X + + * +   X X   3 * + + * + + > + + * + + + + + > + * * * * 4   . .   X - * + * + * + * & & * # * * - & , - , , = s h . 9 8 $ .   O 3 * # * * * * * * & * * * * * - * - - , - w e $ #   o 4 # + * & > * * * * * * * * - * - - - - - - f $ O .   4 * # * * * * * * * * & * * - * - - - - , - d $ t .   o 3 * * + * * * * * * * * * - - * , - , - - - d @ t .   O 3 * * * & & > * * * * * * * - - - - - - - - d @ t # . . ; ; # * * * * * * * * * * * - * - - , - - - d # .   * * # + * * * * * * * & * * - * - * - , - = h 9 9 8 $ @ O c f 3 4 , , - + + N 4 j *   X N > 3 4 3 4 j o + > > + 4 5 4 3 3 5   o + X 5     + o ; ;   3 7 K.K.",
"K.  3 * 3 5   o * X X X             o o X X X o           X X X + 3 + 3 ; + + 3 3 + ; ; ; + ; + 3 3 + 3 3 + 3 + 3 + o 3 ; ; + 3 3   .     o 4 X + + + X + + + + + + + + + + + + + + + * +   X     > * + + + * + X + + + + * + * + + + > + * + 3     . . O 3 * # & > & * & > + * , * * * * - - * - , s d . $ 8 = .   O , * + + * + & * * * * * * - * * - - = - - f h @ # . X , * * * + & + * > & * * * - * * * - - - - , l = @   o 4 + * + * + & * * * # * * , * * * , - - - s h * i X . . 4 * * * * & + + > & & * * * * * & - - - - f h $ t X   . 3 + * + * + + * * * * * * - * * * - - - - f h @ t $   . 3 X * + # # * * * & * * * * * * * - - - - s h X . X ; * * * * + + * * * * * * * * * * - - - - - h w $ 8 $ $ O c 4 f , , - * O * G 4 k +   o b 3 3 4 4 3 7 o + > 3 X 5 4 3 > 3 5     ; + 7 X   + o 3 ;   3 5 K.K.",
"K.  ; + 3 N     + + X X o X                               X + + + ; ; + 3 + 3 + + + ; + + ; + ; + 3 : + 3 ; 3 ; ; X o 3 ; ; ; ; ;           3 + + + + X O + + O + + + + + + + + + + + * +   X .   + + + + + * + + + + + + + + + * + > * * * * 4   X O   O 3 # * * + & + * * * & * - * * * * - & - - - h @ $ 8 $ X   X 3 O & * * * * * & * > * * * - * * * & - - - h $ . .   3 + + * * + & * * * * * * * = * * * # - , - f = X   . 3 + * + * + * * & * > & > * * - * * * * , - h $ t X   X 3 O # * * + & * * * * * * & - * - * - * - - h @ q . o X - O # * * & * * & > * * * * * * * * - - - w f $ r @ .   3 + X * * & * + * * * * * * * - * * & * , - f # . o * * O * + & * * * * * * * * - * - * * * , - f - 8 8 $ @ O v 2 f , 3 , * O + J 4 k >   o k > 3 3 4 3 5 o + > 3 O 4 5 3 3 3 5     + + 7 X   + X ; ;   3 7 K.K.",
"K.  ; ; ; 7     + X + + X                             o o X + + ; + + ; + + + 3 + 3 3 + ; + 3 + + + 3 + + ; + 3 + X o 3 + : + 3 3     X     4 + + + + + + O + + + + * > * + + + + + O > O o O .   3 * + + * + + + + + + + + + * + + * + + * * 4     X   O , + # + & > & * * * * * & * - * * - * - - s h . $ 8 $ .   O * * + + * + & * * & * * & * * * - - - * - d d $ O   X 3 # * + & + O * * & * * * * * * * , - - - - h $ X . O , # # + * & # * * & * * & * & * * - - - , - h * 0 O   O 4 # # O + * + * * * * * * * * * * , * - 3 s h @ q .   X , + * O * & O * * # * * * * = * - - * * , s h @ r # . . , + + + + * + * * # * * * * - * * , - - - - h O . X * * * + & * O + * = * * * * * * * - - - , - h w 8 8 8 $ O c , f 6 , > - * : F 4 k +   o k > 5 3 3 3 3 X ; 3 4 + 4 5 3 3 3 5   o + + 7     X + ; 3   3 7 K.K.",
"K.  * + 3 5   X + + + X X X X X   X         o o     . X X X + + ; 3 ; + + ; + ; + 3 ; 3 + ; + 3 3 3 + 3 ; ; + + ; o X 5 ; + ; 3 3     .   o 4 X + X + + + + + * + + + + + + + + + + + * +   X .   + * + + * + + O + + * + O + + + * + > * + * 4   . X   X , * * + & + & * * & > * * * * , * - , - - s h . $ 8 $ . o X , + * + + + & * * & * * * * * * * , , - - w h $ # . . 4 # & & + + * * * * * * * * - ; * - , - - - h = # . o 3 + * & + + * * & * * * * * * - * - , - - * h = r O . o 3 + * * O + & * * * & & * * * , & - , - - - h = q O   X 3 * * * O + * * * * * * * * * * - - , - = - h @ r # . . , + * & + + & * * * * * * * * * * * , - - - f # O   * + * * + + & * * * * * * * * * & * - - * * h 9 8 8 $ @ + c 4 s , , * > O + N 4 N >   o N 3 3 4 3 3 4 o X X X o ; 3 3 3 ; 5   o + + 5 o o X X ; 3   3 7 K.K.",
"K.    X + ;   o + + X X X . o .   X .   X X X o o X X X X X X ; + + ; + + ; ; 3 + + 3 + ; + ; + + 3 + 3 + ; + ; ; + o 3 ; ; + 3 3   .     X 3 X + * + X + + + + + X : + + + * + + + + > +   X .   3 ; + + + + + + + + + + + * + + * + * + * # 3   O .   O , X X > + + * > * * + * * * - - * - , * * % h . % 9 = X o O 4 # + * * & > * > * * * , & , , - - , * - - f @ # o X 6 # + + > & * * * * * * - * - - * - - - - * s = . o . 6 + + & > & * * > > * * * * , , * - - * , = h # r O   X f O * * * * * & > > * * , & , > * - - * - % f @ q O   X 3 # # * * * * * > * * * - * , - * - - - - - d @ r # . X 3 + * + * * & * * > * * * - * - - , - * , = s # . . , * * + & * > & * * * * * * - , * - , > - $ f - 8 $ 8 @ + V f j , , , * + + J 4 7 +   X N > 7 3 3 3 5 3 F 7 5 7 G 3 3 3 5 5     ; X 5     + X ; ; o 3 7 K.K.",
"K.      + + X X ; + + ; + + ; ; + 3 ; 3 + 3 3 3 + 3 3 + 3 3 3 3 3 o + + + + ; ; ; + ; + ; ; ; + + 3 + ; + ; + ; + + o 3 + ; + 5 3       .   3 X X + + + + + X X + + + + + + + + + * + > +   X X o * * + + + + + + + * + * + + + * + + * * * * 4   . . o X f * * + # & + * * + * * # * - * - - * - = - f . $ $ $ X   X 3 # O O O X O O + . # & # O # & & * * = * d s $ O .   4 + X X X . O . O O O O O & # # = * * # # - f $ O X   f + X X O X . O # O # & # . # + # = * & # - s @ q . .   j # O . O O O O O O # O # . # # O & & # * , f @ e X     6 O O o X X X O O O # & O O & # * & & & * - f @ q . . o 4 + O O O X . O + O & O # O # # & * * * # = f O . o - + O O O O O O O O # # O # @ O O & & * & # f - 8 8 $ @ * V , f , , , * + + G 4 N *   o N > 4 3 4 3 3 k R E E E 7 3 4 4 > 3   X ; + 7 o   X o 3 +   4 3 K.K.",
"K.K.  + K U F K E E E K Q Q R R Q Q R R Q Q Q R Q ~ Q ~ / &./ &.&.7 o ; + 3 ; + ; ; + ; ; + + ; ; ; + + + + ; ; + + o 3 + ; + ; 3     o     X ; > > + + > + > * + + + ; > + > * + * 3 3 o o . X   + 3 > * * > * > > * * * * > > * - * > 3 * 4 3   X .     3 * , > > > > > 3 , > , , , , , - 4 f 4 f l - @ $ $ $ X o   3 4 k j j j 7 j j k z l k z j N B z z B z z * @ @ o   * f j k j k 6 l k z z z j k z k z z b z z v f . O .   + 6 j j j k 6 j k j k l k z z k z B z B B V s . 0 O .   * 4 6 j j k 6 j l k z z j z k B z B B z c v - @ q . X   * j 6 l j j j j j k k j B j l k z B B z B c - @ i $ X   + f 4 k j k 6 j j N j l k z k j z z z B z v f . .   X 4 6 k l j k j j k k l z k z z z B z B B v l @ 8 8 $ @ * B s 4 , * * * O + G , N *   o N > 4 3 3 3 4 4 > + > & * 3 4 3 3 5 o   + X 7                   K.K.",
"K.K.K.X 3 5 ; 3 ; 3 3 3 3 ; ; ; 3 3 3 3 3 3 3 3 3 3 3 3 3 3 3 3 7 ~ F X + + + X X X + X o o + + + + + + + + X X + X   X X X X X X     o .     o + > > 3 > 3 3 3 3 3 3 3 > 3 > 3 3 3 3 X   . X X     + 4 4 3 3 4 > 3 3 3 4 3 4 4 3 3 3 3 4 4 *     X . .   o * 4 j 4 j 6 7 k f j k k j j k k k l k f , O @ @ $ $ .   .   # 3 3 3 4 > 4 4 4 4 4 3 4 4 , 6 f 4 4 * . . $ . . .   X > 3 4 4 3 3 3 3 4 4 4 4 , 4 4 4 f 4 4 #   @ . . .   X * 3 4 4 3 > 4 4 4 3 4 3 4 4 f 4 4 4 4 * . . q . . o   X > 4 4 3 3 3 4 3 3 4 4 4 4 3 f 6 , 4 , # . @ 0 . o .   X 3 3 4 3 3 4 3 4 4 4 4 4 4 3 f f 3 4 , #   $ q @ . .   . > 3 4 4 3 > 3 4 , 3 f 4 3 4 4 f 4 4 4 * . . X .   o * 3 4 3 3 3 , 4 4 3 4 4 4 3 f 4 f 4 , * . . 8 8 @ X Y B , 4 , , * * + + G , N +   o k > 4 4 4 4 3 4 3 4 3 3 4 3 3 3 3 5     ; + 7 X   o             K.K.",
"K.K.K.K.K.+ 3 * + + + 3 ; : > > + 3 3 3 3 + 3 3 + 3 3 + 3 + + ; + 5 &./ + X X X o X + + + + + + ; + + + ; + : o + ; + ; + ; ; + ; X       . .                   o                         . .   X                 o             o         o     . . O   X       o   o                 o o   .       . @ # $ $ @ . . .                                           . @ $ O . .                                           . @ @ . .   .                                           . @ 8 X . .                                     o       . @ 9 . . .                                           . @ @ 8 # . .                     o         o             @ . . . .                                           . @ $ . . U ! , 6 , > , * * O + J , N +   o b > 4 > 3 3 3 4 3 3 3 > 3 3 3 4 > 3   o X + 7       3 J 3 X     K.K.",
"K.K.K.K.K.  o 4 + ; : + + ; + ; + + 3 + 3 ; + 3 3 3 : + ; ; ; ; ; + 3 3.u.a.a.a.u.i.a.a.a.a.a.a.u.u.a.a.a.a.a.k.z.z.z.z.a.a.z.z.i.-.;     .           .     . .         o   o     X   . .   X   .   .       X . . .   . o X   .   .       .   . O . . . .   .     . .   .   . . . . . . . . . @ O . . @ @ @ @ . . @ . . . @ . . . . . . @ . . @ . @ . @ . @ @ @ @ @ @ @ . . . . . . . . @ . . @ . . @ . . @ . @ . @ @ @ @ @ @ . . @ . . . . . . . . @ . . . @ . . . . @ @ @ @ @ @ $ @ @ . . . . . . . . . . . . @ . . @ @ @ . @ @ @ @ @ $ 9 @ @ . . . @ . . @ @ . . . @ . @ . . . @ @ @ @ @ @ @ @ 8 @ @ . @ . . . . . . . . @ . @ . @ @ . @ @ @ @ @ @ @ @ @ . . . . . @ . . . . . . . @ . . . . @ . @ . @ @ @ .   ` ` * f , , , - * * O + J > N 3   o 7 3 3 3 4 4 4 4 4 3 > > > 3 3 3 ; 3 o   ; + 7 X   7 z.r.4.~ X   K.K.",
"K.K.K.K.K.    o ; + ; ; ; + ; + 3 + + 3 + + 3 3 + 3 + 3 : ; + ; ; ; : o ; + + + + o : ; + ; + + ; ; + + ; 3 ; ; + + + ; ; ; ; ; ; 3 J ;     o o o   .         . .   .         .   X     .   X X   . . . .   .       .         . . . . . . . . X . . . . . . . .   . . . . . . . . . . . . . . . . @ @ @ . @ @ @ @ @ @ @ @ @ @ @ @ @ @ @ @ @ @ @ @ @ @ $ $ $ $ $ $ $ $ $ $ $ $ @ $ @ @ $ $ @ @ @ $ @ @ $ @ $ $ @ @ @ $ $ $ $ $ $ $ $ $ $ $ $ $ $ @ @ @ $ $ @ $ $ $ $ $ $ $ $ $ @ $ $ $ $ $ $ $ $ @ @ $ $ $ $ $ $ @ $ @ @ @ @ $ @ @ $ $ $ = $ $ $ $ $ $ @ @ $ @ @ $ @ $ @ $ @ $ $ $ @ @ $ $ @ $ $ $ $ $ = $ $ $ $ $ $ $ $ @ @ @ @ @ @ @ @ $ @ @ @ $ @ $ $ $ $ $ @ @ @ @ @ $ @ @ @ @ @ @ @ @ @ @ @ @ @ . @ . @ @ X ! ` & 4 , 4 , , 3 * * O # F 4 7 X   X 7 3 5 5 3 3 4 4 4 > 3 > 3 4 3 3 ; 3 o   ; 3 3 o 7 =.4 + + k F o K.K.",
"K.K.K.K.K.      o ; ; + ; ; + + + 3 + ; + + 3 + 3 + + 3 ; + + ; ; : ; ; 3 3 3 3 3 3 3 3 3 3 3 3 3 3 3 3 3 3 3 3 3 3 3 3 3 3 3 5 5 3 3 b 4 X                                 .                                                 . o         .   X   . . . .   . o . .     . .   . . . .   . . . . . . . . . . @ @ . @ . . @ @ @ @ @ @ @ @ @ @ @ @ @ @ @ @ @ @ @ @ @ @ @ @ @ @ @ @ @ @ @ @ @ @ @ @ @ @ @ $ @ @ @ @ @ $ $ @ $ @ $ @ @ @ $ @ @ @ @ @ $ @ @ @ @ @ @ @ @ $ @ @ $ @ @ @ @ @ @ @ @ @ @ @ $ @ @ @ @ @ @ @ @ $ $ @ @ @ @ @ @ $ @ @ @ @ @ @ @ @ $ @ $ @ $ @ @ @ @ @ @ @ @ @ @ @ $ @ @ @ @ $ @ @ @ @ $ @ $ @ @ @ @ @ @ @ @ @ @ @ @ @ @ @ @ @ @ @ @ @ @ @ @ @ @ @ @ @ @ @ @ @ @ @ @ @ . @ . . . . @ . . . * T Y * f , 4 , , , , , * O + G 3 k +   o k 3 3 5 3 3 4 4 3 > > > > 3 3 3 ; 5 o X ; +   7 / 6 3 3 3 3 K 5 K.K.",
"K.K.K.K.K.        o + > + + + + + 3 + + ; + + + + ; + + ; + + ; + + + + ; + + ; 3 3 + 3 3 + ; ; ; ; 3 3 ; ; 3 3 3 3 3 3 3 3 3 3 3 3 3 3 b 7 + ; 3 3 3 * ; ; ; 3 3 3 ; ; 3 3 3 3 3 3 3 3 ; 3 3 3 3 3 3 3 3 3 3 3 3 3 3 3 3 3 3 3 3 3 3 3 3 3 3 3 4 3 3 3 4 3 3 3 3 3 4 3 3 4 4 3 3 3 4 4 4 3 3 4 4 4 4 4 4 4 4 4 4 f f k 4 g 4 g 4 k g g f g f g f f 4 k f g f g f g g z f z f l h f l l f k k z l k z f l g l z g f g k f g g l l z g k f f g g f g f l z f g z k f g z f k f l l g l z g l z g g g f l z g l z f f g g l g l l k z l z g k z f z f z l l k l f k f k z g g f l z g f z g l g z l z k l g g z z z h g z g l l z k z g k l f f k z f z l k k l l l z l k f k f k f k k f f f f k l k f k f F ] Y , , f 4 , 4 , 4 , * * O + G > k +   X 7 > 3 3 5 4 3 3 3 4 4 4 4 4 3 1 3 3     X   5 / b > ; 3 3 * 6 4 K.K.",
"K.K.K.K.K.K.K.        X * * * + + 3 + ; ; + 3 ; ; ; * ; ; ; + * * + ; ; 3 ; ; 3 3 ; ; 3 3 3 4 3 3 4 3 3 4 3 3 4 3 ; 4 3 4 4 3 5 3 3 > 3 3 4 &.5.5.5.5.3.3.3.3.0.0.6.0.6.6.0.6.0.0.0.0.0.0.0.6.0.0.0.r.r.r.r.i.r.0.r.u.r.0.0.u.u.i.u.i.i.i.u.i.i.u.0.i.i.0.i.r.p.p.i.f.p.p.p.p.a.g.f.g.g.p.f.g.g.g.g.f.g.f.f.g.f.s.f.g.g.f.f.g.f.f.f.f.f.f.f.g.j.h.h.f.j.j.j.j.j.j.j.j.j.g.j.j.j.f.d.h.j.j.h.j.j.v.h.j.j.h.h.j.j.j.h.j.h.j.h.v.h.j.j.v.h.j.v.v.v.d.h.h.h.h.h.j.d.d.h.d.h.h.d.v.d.h.h.h.h.h.j.j.j.d.h.j.h.d.v.y.h.d.h.d.y.h.d.h.h.j.v.d.h.h.j.h.h.y.d.d.y.d.d.v.y.d.y.y.h.d.y.y.h.d.f.d.d.d.d.y.d.d.d.d.d.y.y.y.s.h.s.y.y.y.y.y.d.y.s.s.y.w.y.e.e.e.e.e.y.y.e.y.e.q.w.w.e.w.w.y.w.q.q.t.w.w.q.q.w.y.y.t.w.q.7.I f j , 4 , 4 3 3 > * * * X : B 4 7 X   X k > 4 3 5 5 4 3 3 4 5 3 3 3 3 3 3 3       3 1.7 ; ; 3 3 3 4 4 X K.K.",
"K.K.K.K.K.K.K.                  X o   o X     o     o       X         o o     X   X o       X     X X o X   X X o   X     X   X 3 3 > 3 3 3 X                                 o                     .                     .                                                   o     .   .                     .     X       . . . . .   . . . . . . . . .   . . . . . . . . .   . . . . . . . . . . . . . @ @ . . . . . . . @ . . . . @ . @ . . . . . @ . . @ . . . . @ @ . . @ . . . . . . . @ . . . @ . . $ . . @ . @ . & . . . @ @ @ @ . . . @ @ @ @ . . @ . @ @ . . @ . . . . . . . . . . . @ . . . . . @ @ . . . . @ . @ . . . . . . . . . . . . @ . .   . . . . . . . . . . .   . . . . X     . . . . * 4 j j 4 4 , , , , 3 * > X : N > 7 ;   X b > 5 3 3 3 3 3 3 ; 3 4 3 3 ; ; ; 3     3 3.; : 3 ; 3 3 3 ; o K.K.K.",
"K.K.K.K.K.K.K.                                                                                                                    + 3 3 3 * 3 3 3 3 ; 3 ; 3 3 3 3 4 3 4 4 4 3 4 3 4 4 4 3 4 5 3 4 3 4 3 3 3 4 4 4 4 4 4 4 4 3 4 4 4 4 4 4 4 4 4 g 3 4 4 4 4 4 f 4 4 4 f 4 g 4 f 4 f f 6 4 g f k f 6 f j 4 f f f j f f g f g f g h g h l z f f k f j f k f l f l l l f z z l h f f f l l l l l l h j h f l z f f l l h l l l h l f z l l d l l z l l l l l l h l h l l l l f d l l l l l h h l j l l l l l l z l l l h l l z l z l l l l l l l l l l l l l l f l z l l l l l h l l l l l h l s s l h h f l l j h s h h j f h l f f l f f f f l f f h f l j f f f d f j j f f f f h g f f f f f f s f f 4 4 f f 4 , , 4 , , 4 , > > * * X + F 4 6 +   o 7 3 3 3 3 4 3 3 3 3 4 3 3 3 3 ; ; + o 7 &.3 + ; ; 3 ; 3 3 X K.K.K.K.",
"K.K.K.K.K.K.K.                                                                                                    .       X         X 3 3 3 3 3 * ; ; ; ; ; * ; ; * ; ; 3 , - 3 * 3 4 * ; ; ; ; 4 3 , 3 , 3 3 - 3 , * , , , - , , ; - 3 , - 4 4 - 4 4 , - 4 , 4 , 4 , 4 - 4 f , 4 4 4 3 f 4 4 3 , 4 s , , 4 , 4 4 f f h f f f f s 4 g f g f f g f f f f f f f f f f w g g h g g l f j f f f f f s f h l f l f h d d s h f f f f f h f f h f l h f h f h l f h l h h l f h d s h s h h f h h h l f h h f l d d f f d f f h d l h h f l h f h h h h f d h h f h h h h s h f f f f d f s f d h s l h f f h f f s f f f d s f f f d f f f f f d 4 d f s w f f f s f s f f f , s s - , f f s s , - f f , s , f 4 4 3 6 , , , 4 , 3 3 3 * > X X F 4 6 3     o X X X X o X o X o o X o X X o o o 5 ^ 7 ; ; ; ; 3 4 4 o K.K.K.K.K.",
"K.K.K.K.K.K.K.                  o .   . X   . o X     o o o .   o .   o X   X   . .   . .   o . X . . . X   . X o . X X . . . o       o ; 3 3 3 * * ; * ; * ; * * ; * ; ; , * 3 ; ; > 3 3 , ; 4 3 3 3 3 3 4 3 ; 4 3 3 4 4 4 3 3 4 3 3 3 4 4 4 s , 4 , 3 4 3 4 4 f 4 f 4 4 4 4 4 f g f 4 4 4 f f f 4 f 4 f 4 4 f f f k l f f f k h g f g f f f f f g h f f f f h f f f f l f h h f f l z l f l l l s l f l h f f f f l f l h h l f h h l h l l f f f l l h h l h l h h h l h h f f f h f h l h l l z h l l h l h h f f l l l l l l h l h l f l h h h f h l l l f l l l f h l l f l l f f f l h f f f f l h f f l f f f l l l f f f f f h f f f s f f f f f f f f f h f f f 4 f f f h g 4 f s 4 f 4 4 f f 4 f 4 f f 4 , , , , 3 , , > * # X N 5 4 5 Q ! Q Q Q U K U E K K E R K E R Q R Q ~ / N > > 3 3 ; 4 3 X K.K.K.K.K.K.",
"K.K.K.K.K.K.K.                    X X   X     X o X X X . X X . X o X X X X . X X X o X X X X o X . o o X X   X X X X o X X o X X           o                                     o       o         .   X       .         .       .           X o     X o .           o     .     o o   o       o       .     . o           o       .       X o o   o   .         o   . o . o X o   o   o . . o X o .     o .   X   . . o   o . . .   . o   . . o X o . o X   . X   X . . o   X .   o . o   X . . X   o X     X . X o . O . . .   . . O . .   . . o . . .   .       . . . o .     .   X     . . o .   .   o   . . o . . X   o X .     o     o .                       o .   o     .       . o   o   o o     X   o # j , 3 , * , , , > # X N 4 4 3 7 N N 7 F k 7 7 7 7 N 7 N 7 7 7 7 7 F 7 4 3 3 * 3 3 5 3 o K.K.K.K.K.K.K.",
"K.K.K.K.K.K.K.K.K.                  o X X X X o . X X o X X X X X X o o X X X + X X o X X X X X o . + X X X X X O + O O X X X X X . X                                                                                                                                                                                                                                                               .         .                       .       .     .         .                   .     .           .                     . .     .   . .         . .     .     . . .   .   .   .     . .               .             .         .         .               .     .               .                                   X , , 3 - , > , > O o N 4 4 3 3 3 4 4 3 4 4 > > 3 5 4 3 2 ; 3 3 3 3 3 4 3 ; 3 4 3 3 o K.K.K.K.K.K.K.K.",
"K.K.K.K.K.K.K.K.K.                    o X X X X X X + X X X X X O + # X X X + X X X X X + X X X X X X X O X + + + O + + X + X + X X X X               .         .         .   . .   .     .   .   .   . .   . . .     . . .   . . . .   . . .     . . . . . . . . . . . . . . . . . . . . @ . . @ . @ . . . @ . @ . . @ @ . . @ @ @ @ . @ . @ . @ @ . @ @ . @ # @ $ @ @ @ . @ @ @ @ @ @ @ @ @ @ @ @ @ @ @ @ @ @ @ @ @ @ @ @ @ . . @ @ @ @ @ @ @ @ @ @ @ @ @ @ @ @ @ @ # @ $ @ @ @ @ @ @ @ @ # $ @ # @ @ @ @ @ @ @ @ @ $ @ @ @ @ @ @ @ @ @ @ = @ @ @ @ @ @ @ @ @ @ @ @ @ @ @ @ @ @ @ @ @ @ @ O $ @ @ @ @ @ @ @ @ @ @ . @ @ @ @ @ . @ @ . @ @ @ . @ @ @ @ @ . @ @ @ @ # @ @ @ @ @ @ # @ @ . @ @ @ . @ . @ @ . . .   o   + 3 - > 3 > > * O : N 4 6 4 3 4 4 3 5 3 4 4 5 3 3 4 3 3 3 4 3 3 5 4 3 3 3 3 3 3 X K.K.K.K.K.K.K.K.K.",
"K.K.K.K.K.K.K.K.K.                      X * * * + * + * ; X ; + * ; ; ; ; + * * + + * + ; * 3 * ; ; + ; ; ; + ; ; ; * 3 ; ; ; ; > + * * + + * X   o . . X X X X X O O X X X X O O O O O X O O O O X X O O . O O # O O O O + O + . O X # O # X # O # # O O # # + . # O # # + # # # * # * # * # * # # * # & * & * * * = * # * * = # # # * * * * $ * = * * = * * = * = * * = = * * - * = = - * = - = * - - = * = * = * = * = * = - * $ * = * = - * = * = * = * = - * = = * - - * * = = * - * = = * = * = - = * = - = * = - = - * - = * $ * * = - = * - % * = * = * $ * = * = * = * = * = = * = * = = * = * = * = * # # * = * * = = * = # * $ * * $ $ * * # = # * * # * * * $ # * = * * = * # # * # $ O # # # # # # O O     O 3 * ; * * * X X N 4 6 4 4 5 4 7 4 4 4 4 6 3 4 4 4 4 3 3 4 3 4 4 4 3 4 3 ; o K.K.K.K.K.K.K.K.K.K.",
"K.K.K.K.K.K.K.K.K.K.K.K.                  o     o   o     X   X X       o o   o o X   X     o       X o X o o         o . o   X o o   o   X o . K.K.K.K.K.K.K.K.K.K.K.K.K.K.K.K.K.K.K.K.K.K.K.K.K.K.K.K.K.K.K.K.K.K.K.K.K.K.K.K.K.K.K.K.K.K.K.K.K.K.K.K.K.K.K.K.K.K.K.K.K.K.K.K.K.K.K.K.K.K.K.K.K.K.K.K.K.K.K.K.K.K.K.K.K.K.K.K.K.K.K.K.K.K.K.K.K.K.K.K.K.K.K.K.K.K.K.K.K.K.K.K.K.K.K.K.K.K.K.K.K.K.K.K.K.K.K.K.K.K.K.K.K.K.K.K.K.K.K.K.K.K.K.K.K.K.K.K.K.K.K.K.K.K.K.K.K.K.K.K.K.K.K.K.K.K.K.K.K.K.K.K.K.K.K.K.K.K.K.K.K.K.K.K.K.K.K.K.K.K.K.K.K.K.K.K.K.K.K.K.K.K.K.K.K.K.K.K.K.K.K.K.K.K.K.K.K.K.K.K.K.K.K.K.K.K.K.K.K.K.K.K.K.K.K.K.K.K.K.K.K.K.K.K.K.K.K.K.K.K.K.K.K.K.K.K.K.K.K.K.K.K.K.K.K.K.K.K.K.K.K.K.K.K.      O , 3 * * * O o 4 6 3 4 3 4 3 4 4 3 3 4 > 3 4 4 4 4 3 4 3 3 3 4 3 3 3 > o K.K.K.K.K.K.K.K.K.K.K.",
"K.K.K.K.K.K.K.K.K.K.K.K.K.K.K.K.K.K.K.    X   X       . .   o   X       X   X     X   o       .         .   . X       X .   . . X   X   .   o   K.K.K.K.K.K.K.K.K.K.K.K.K.K.K.K.K.K.K.K.K.K.K.K.K.K.K.K.K.K.K.K.K.K.K.K.K.K.K.K.K.K.K.K.K.K.K.K.K.K.K.K.K.K.K.K.K.K.K.K.K.K.K.K.K.K.K.K.K.K.K.K.K.K.K.K.K.K.K.K.K.K.K.K.K.K.K.K.K.K.K.K.K.K.K.K.K.K.K.K.K.K.K.K.K.K.K.K.K.K.K.K.K.K.K.K.K.K.K.K.K.K.K.K.K.K.K.K.K.K.K.K.K.K.K.K.K.K.K.K.K.K.K.K.K.K.K.K.K.K.K.K.K.K.K.K.K.K.K.K.K.K.K.K.K.K.K.K.K.K.K.K.K.K.K.K.K.K.K.K.K.K.K.K.K.K.K.K.K.K.K.K.K.K.K.K.K.K.K.K.K.K.K.K.K.K.K.K.K.K.K.K.K.K.K.K.K.K.K.K.K.K.K.K.K.K.K.K.K.K.K.K.K.K.K.K.K.K.K.K.K.K.K.K.K.K.K.K.K.K.K.K.K.K.K.K.K.K.K.K.K.K.K.K.K.K.K.K.K.K.K.K.K.K.K.K.    . 3 3 * * *                         o                               K.K.K.K.K.K.K.K.K.K.K.K.K.",
"K.K.K.K.K.K.K.K.K.K.K.K.K.K.K.K.K.K.K.K.K.K.K.K.K.K.K.K.K.K.K.K.K.K.K.K.K.K.K.K.K.K.K.K.K.K.K.K.K.K.K.K.K.K.K.K.K.K.K.K.K.K.K.K.K.K.K.K.K.K.K.K.K.K.K.K.K.K.K.K.K.K.K.K.K.K.K.K.K.K.K.K.K.K.K.K.K.K.K.K.K.K.K.K.K.K.K.K.K.K.K.K.K.K.K.K.K.K.K.K.K.K.K.K.K.K.K.K.K.K.K.K.K.K.K.K.K.K.K.K.K.K.K.K.K.K.K.K.K.K.K.K.K.K.K.K.K.K.K.K.K.K.K.K.K.K.K.K.K.K.K.K.K.K.K.K.K.K.K.K.K.K.K.K.K.K.K.K.K.K.K.K.K.K.K.K.K.K.K.K.K.K.K.K.K.K.K.K.K.K.K.K.K.K.K.K.K.K.K.K.K.K.K.K.K.K.K.K.K.K.K.K.K.K.K.K.K.K.K.K.K.K.K.K.K.K.K.K.K.K.K.K.K.K.K.K.K.K.K.K.K.K.K.K.K.K.K.K.K.K.K.K.K.K.K.K.K.K.K.K.K.K.K.K.K.K.K.K.K.K.K.K.K.K.K.K.K.K.K.K.K.K.K.K.K.K.K.K.K.K.K.K.K.K.K.K.K.K.K.K.K.K.K.K.K.K.K.K.K.K.K.K.K.K.K.K.K.K.K.K.K.K.K.K.K.K.K.K.K.  K.  * > # * + . X X . X   . o     . o     X   o X o . o   .   X   K.K.K.K.K.K.K.K.K.K.K.K.K.K.",
"K.K.K.K.K.K.K.K.K.K.K.K.K.K.K.K.K.K.K.K.K.K.K.K.K.K.K.K.K.K.K.K.K.K.K.K.K.K.K.K.K.K.K.K.K.K.K.K.K.K.K.K.K.K.K.K.K.K.K.K.K.K.K.K.K.K.K.K.K.K.K.K.K.K.K.K.K.K.K.K.K.K.K.K.K.K.K.K.K.K.K.K.K.K.K.K.K.K.K.K.K.K.K.K.K.K.K.K.K.K.K.K.K.K.K.K.K.K.K.K.K.K.K.K.K.K.K.K.K.K.K.K.K.K.K.K.K.K.K.K.K.K.K.K.K.K.K.K.K.K.K.K.K.K.K.K.K.K.K.K.K.K.K.K.K.K.K.K.K.K.K.K.K.K.K.K.K.K.K.K.K.K.K.K.K.K.K.K.K.K.K.K.K.K.K.K.K.K.K.K.K.K.K.K.K.K.K.K.K.K.K.K.K.K.K.K.K.K.K.K.K.K.K.K.K.K.K.K.K.K.K.K.K.K.K.K.K.K.K.K.K.K.K.K.K.K.K.K.K.K.K.K.K.K.K.K.K.K.K.K.K.K.K.K.K.K.K.K.K.K.K.K.K.K.K.K.K.K.K.K.K.K.K.K.K.K.K.K.K.K.K.K.K.K.K.K.K.K.K.K.K.K.K.K.K.K.K.K.K.K.K.K.K.K.K.K.K.K.K.K.K.K.K.K.K.K.K.K.K.K.K.K.K.K.K.K.K.K.K.K.K.K.K.K.K.K.K.K.K.K.K.K.X + + # O O O O O X O X . O O O . O O X . . . X O O . . . . o K.K.K.K.K.K.K.K.K.K.K.K.K.K.",
"K.K.K.K.K.K.K.K.K.K.K.K.K.K.K.K.K.K.K.K.K.K.K.K.K.K.K.K.K.K.K.K.K.K.K.K.K.K.K.K.K.K.K.K.K.K.K.K.K.K.K.K.K.K.K.K.K.K.K.K.K.K.K.K.K.K.K.K.K.K.K.K.K.K.K.K.K.K.K.K.K.K.K.K.K.K.K.K.K.K.K.K.K.K.K.K.K.K.K.K.K.K.K.K.K.K.K.K.K.K.K.K.K.K.K.K.K.K.K.K.K.K.K.K.K.K.K.K.K.K.K.K.K.K.K.K.K.K.K.K.K.K.K.K.K.K.K.K.K.K.K.K.K.K.K.K.K.K.K.K.K.K.K.K.K.K.K.K.K.K.K.K.K.K.K.K.K.K.K.K.K.K.K.K.K.K.K.K.K.K.K.K.K.K.K.K.K.K.K.K.K.K.K.K.K.K.K.K.K.K.K.K.K.K.K.K.K.K.K.K.K.K.K.K.K.K.K.K.K.K.K.K.K.K.K.K.K.K.K.K.K.K.K.K.K.K.K.K.K.K.K.K.K.K.K.K.K.K.K.K.K.K.K.K.K.K.K.K.K.K.K.K.K.K.K.K.K.K.K.K.K.K.K.K.K.K.K.K.K.K.K.K.K.K.K.K.K.K.K.K.K.K.K.K.K.K.K.K.K.K.K.K.K.K.K.K.K.K.K.K.K.K.K.K.K.K.K.K.K.K.K.K.K.K.K.K.K.K.K.K.K.K.K.K.K.K.K.K.K.K.K.K.K.  o X o         o                                         K.K.K.K.K.K.K.K.K.K.K.K.K.K.K.",
"K.K.K.K.K.K.K.K.K.K.K.K.K.K.K.K.K.K.K.K.K.K.K.K.K.K.K.K.K.K.K.K.K.K.K.K.K.K.K.K.K.K.K.K.K.K.K.K.K.K.K.K.K.K.K.K.K.K.K.K.K.K.K.K.K.K.K.K.K.K.K.K.K.K.K.K.K.K.K.K.K.K.K.K.K.K.K.K.K.K.K.K.K.K.K.K.K.K.K.K.K.K.K.K.K.K.K.K.K.K.K.K.K.K.K.K.K.K.K.K.K.K.K.K.K.K.K.K.K.K.K.K.K.K.K.K.K.K.K.K.K.K.K.K.K.K.K.K.K.K.K.K.K.K.K.K.K.K.K.K.K.K.K.K.K.K.K.K.K.K.K.K.K.K.K.K.K.K.K.K.K.K.K.K.K.K.K.K.K.K.K.K.K.K.K.K.K.K.K.K.K.K.K.K.K.K.K.K.K.K.K.K.K.K.K.K.K.K.K.K.K.K.K.K.K.K.K.K.K.K.K.K.K.K.K.K.K.K.K.K.K.K.K.K.K.K.K.K.K.K.K.K.K.K.K.K.K.K.K.K.K.K.K.K.K.K.K.K.K.K.K.K.K.K.K.K.K.K.K.K.K.K.K.K.K.K.K.K.K.K.K.K.K.K.K.K.K.K.K.K.K.K.K.K.K.K.K.K.K.K.K.K.K.K.K.K.K.K.K.K.K.K.K.K.K.K.K.K.K.K.K.K.K.K.K.K.K.K.K.K.K.K.K.K.K.K.K.K.K.K.K.K.K.K.K.K.K.K.K.K.K.K.K.K.K.K.K.K.K.K.K.K.K.K.K.K.K.K.K.K.K.K.K.K.K.K.K.K.K.K.K.K.K.K.K.K.K.",
"K.K.K.K.K.K.K.K.K.K.K.K.K.K.K.K.K.K.K.K.K.K.K.K.K.K.K.K.K.K.K.K.K.K.K.K.K.K.K.K.K.K.K.K.K.K.K.K.K.K.K.K.K.K.K.K.K.K.K.K.K.K.K.K.K.K.K.K.K.K.K.K.K.K.K.K.K.K.K.K.K.K.K.K.K.K.K.K.K.K.K.K.K.K.K.K.K.K.K.K.K.K.K.K.K.K.K.K.K.K.K.K.K.K.K.K.K.K.K.K.K.K.K.K.K.K.K.K.K.K.K.K.K.K.K.K.K.K.K.K.K.K.K.K.K.K.K.K.K.K.K.K.K.K.K.K.K.K.K.K.K.K.K.K.K.K.K.K.K.K.K.K.K.K.K.K.K.K.K.K.K.K.K.K.K.K.K.K.K.K.K.K.K.K.K.K.K.K.K.K.K.K.K.K.K.K.K.K.K.K.K.K.K.K.K.K.K.K.K.K.K.K.K.K.K.K.K.K.K.K.K.K.K.K.K.K.K.K.K.K.K.K.K.K.K.K.K.K.K.K.K.K.K.K.K.K.K.K.K.K.K.K.K.K.K.K.K.K.K.K.K.K.K.K.K.K.K.K.K.K.K.K.K.K.K.K.K.K.K.K.K.K.K.K.K.K.K.K.K.K.K.K.K.K.K.K.K.K.K.K.K.K.K.K.K.K.K.K.K.K.K.K.K.K.K.K.K.K.K.K.K.K.K.K.K.K.K.K.K.K.K.K.K.K.K.K.K.K.K.K.K.K.K.K.K.K.K.K.K.K.K.K.K.K.K.K.K.K.K.K.K.K.K.K.K.K.K.K.K.K.K.K.K.K.K.K.K.K.K.K.K.K.K.K.K.K.K."
};
