/* XPM */
static const char *enemy2_xpm[] = {
/* columns rows colors chars-per-pixel */
"400 83 242 2 ",
"   c #020302",
".  c #040A04",
"X  c #080B07",
"o  c #070C08",
"O  c #0A0D0A",
"+  c #030709",
"@  c #031303",
"#  c #081307",
"$  c #031B02",
"%  c #061409",
"&  c #0C120D",
"*  c #071809",
"=  c #09190A",
"-  c #081807",
";  c #10140F",
":  c #10190F",
">  c #0F1410",
",  c #0F1A11",
"<  c #09141A",
"1  c #111512",
"2  c #141A15",
"3  c #181C17",
"4  c #171D18",
"5  c #191E1A",
"6  c #060F14",
"7  c #042303",
"8  c #052B04",
"9  c #082D05",
"0  c #092A08",
"q  c #063304",
"w  c #093405",
"e  c #053A03",
"r  c #0A3B05",
"t  c #0B3509",
"y  c #0C3C09",
"u  c #063008",
"i  c #0F2212",
"p  c #132415",
"a  c #132916",
"s  c #162419",
"d  c #1B221C",
"f  c #162919",
"g  c #1B2C1D",
"h  c #192117",
"j  c #1B321E",
"k  c #1B3B17",
"l  c #12380D",
"z  c #20241F",
"x  c #091B27",
"c  c #1F2520",
"v  c #1D2D20",
"b  c #1D3420",
"n  c #1E3A22",
"m  c #0C2638",
"M  c #0E2533",
"N  c #212622",
"B  c #242B24",
"V  c #272D28",
"C  c #292E2A",
"Z  c #282B27",
"A  c #243225",
"S  c #213B23",
"D  c #273129",
"F  c #2B332D",
"G  c #293828",
"H  c #323632",
"J  c #343A35",
"K  c #393E3A",
"L  c #373C38",
"P  c #2F3631",
"I  c #0B4306",
"U  c #0C4B06",
"Y  c #0E4309",
"T  c #0D4B08",
"R  c #054302",
"E  c #124C0B",
"W  c #12460B",
"Q  c #0C5305",
"!  c #0F5607",
"~  c #125409",
"^  c #135C09",
"/  c #125807",
"(  c #184612",
")  c #195913",
"_  c #21461C",
"`  c #18680B",
"'  c #1C720F",
"]  c #27791B",
"[  c #246919",
"{  c #3B433D",
"}  c #39463C",
"|  c #2B7721",
" . c #0E2D43",
".. c #133755",
"X. c #103149",
"o. c #123E61",
"O. c #3E4541",
"+. c #3E4A42",
"@. c #3F5046",
"#. c #414642",
"$. c #434A44",
"%. c #464E49",
"&. c #494E4A",
"*. c #45554A",
"=. c #4B544D",
"-. c #465A4C",
";. c #4A5B4E",
":. c #415146",
">. c #4E5651",
",. c #4D5B51",
"<. c #515551",
"1. c #525B54",
"2. c #595E5B",
"3. c #4B6051",
"4. c #5B625D",
"5. c #5A6C5D",
"6. c #556759",
"7. c #566D5A",
"8. c #5E6560",
"9. c #5D6B61",
"0. c #5E7362",
"q. c #626B65",
"w. c #636A65",
"e. c #627465",
"r. c #637966",
"t. c #657469",
"y. c #69756C",
"u. c #66796A",
"i. c #697A6D",
"p. c #6D7871",
"a. c #727A75",
"s. c #767C78",
"d. c #1E860C",
"f. c #238C0E",
"g. c #22850E",
"h. c #25930D",
"j. c #289B0E",
"k. c #258B12",
"l. c #298E14",
"z. c #2C8D1B",
"x. c #29831A",
"c. c #269212",
"v. c #2B9514",
"b. c #2C9B15",
"n. c #2D941A",
"m. c #2E9C18",
"M. c #269911",
"N. c #329D1A",
"B. c #319918",
"V. c #2AA20E",
"C. c #2CAB0E",
"Z. c #2EA315",
"A. c #2EAA14",
"S. c #2FA218",
"D. c #2FAB18",
"F. c #31A416",
"G. c #31AC16",
"H. c #32A41A",
"J. c #34AC1A",
"K. c #39AD1E",
"L. c #33B316",
"P. c #36BA15",
"I. c #39BC16",
"U. c #35B319",
"Y. c #39B41C",
"T. c #36B919",
"R. c #3ABC1A",
"E. c #38B616",
"W. c #2FB30F",
"Q. c #2D8921",
"!. c #328E24",
"~. c #368C2A",
"^. c #2E9221",
"/. c #339324",
"(. c #349B23",
"). c #389828",
"_. c #3AAD23",
"`. c #38A624",
"'. c #3CB422",
"]. c #3DBB22",
"[. c #3EB42A",
"{. c #3AB524",
"}. c #3EB230",
"|. c #42BE1E",
" X c #41BC24",
".X c #42B52A",
"XX c #43BC2A",
"oX c #42B526",
"OX c #42B22D",
"+X c #3BC316",
"@X c #3DC21A",
"#X c #3CC716",
"$X c #3EC323",
"%X c #41C51C",
"&X c #44CA1C",
"*X c #4ACC1E",
"=X c #41C916",
"-X c #49D21D",
";X c #51D11E",
":X c #43C324",
">X c #45CA23",
",X c #4BCD22",
"<X c #45C329",
"1X c #49C52C",
"2X c #4BCC2B",
"3X c #48C728",
"4X c #51CE29",
"5X c #4DD222",
"6X c #4DD32A",
"7X c #4AD525",
"8X c #53D323",
"9X c #5BD625",
"0X c #5CD926",
"qX c #51D42C",
"wX c #53DB2C",
"eX c #5DDA29",
"rX c #57D826",
"tX c #4CCA32",
"yX c #55DA32",
"uX c #4FD132",
"iX c #64DC2A",
"pX c #6ADE2D",
"aX c #61DB27",
"sX c #6EDF30",
"dX c #56E22D",
"fX c #5AE333",
"gX c #6BE12E",
"hX c #66E12C",
"jX c #6EE231",
"kX c #64E736",
"lX c #74E533",
"zX c #79E636",
"xX c #76E835",
"cX c #79E836",
"vX c #7CEA39",
"bX c #79E738",
"nX c #70E02E",
"mX c #78827A",
"MX c #81EC3C",
"NX c #7E9284",
"BX c #000001",
"VX c #8CA092",
/* pixels */
"BXBXBXBXBXBXBXBXBXBXBXBXBXBXBXBXBXBXBXBXBXBXBXBXBXBXBXBXBXBXBXBXBXBXBXBXBXBXBXBXBXBXBXBXBXBXBXBXBXBXBXBXBXBXBXBXBXBXBXBXBXBXBXBXBXBXBXBXBXBXBXBXBXBXBXBXBXBXBXBXBXBXBXBXBXBXBXBXBXBXBXBXBXBXBXBXBXBXBXBXBXBXBXBXBXBXBXBXBXBXBXBXBXBXBXBXBXBXBXBXBXBXBXBXBXBXBXBXBXBXBXBXBXBXBXBXBXBXBXBXBXBXBXBXBXBXBXBXBXBXBXBXBXBXBXBXBXBXBXBXBXBXBXBXBXBXBXBXBXBXBXBXBXBXBXBXBXBXBXBXBXBXBXBXBXBXBXBXBXBXBXBXBXBXBXBXBXBXBXBXBXBXBXBXBXBXBXBXBXBXBXBXBXBXBXBXBXBXBXBXBXBXBXBXBXBXBXBXBXBXBXBXBXBXBXBXBXBXBXBXBXBXBXBXBXBXBXBXBXBXBXBXBXBXBXBXBXBXBXBXBXBXBXBXBXBXBXBXBXBXBXBXBXBXBXBXBXBXBXBXBXBXBXBXBXBXBXBXBXBXBXBXBXBXBXBXBXBXBXBXBXBXBXBXBXBXBXBXBXBXBXBXBXBXBXBXBXBXBXBXBXBXBXBXBXBXBXBXBXBXBXBXBXBXBXBXBXBXBXBXBXBXBXBXBXBXBXBXBXBXBXBXBXBXBXBX. .   X + . . . + . .   + . + . .   . X +   . . . .     . . .   BXBXBXBXBXBXBXBXBXBXBXBX",
"BXBXBXBXBXBXBXBXBXBXBXBXBXBXBXBXBXBXBXBXBXBXBXBXBXBXBXBXBXBXBXBXBXBXBXBXBXBXBXBXBXBXBXBXBXBXBXBXBXBXBXBXBXBXBXBXBXBXBXBXBXBXBXBXBXBXBXBXBXBXBXBXBXBXBXBXBXBXBXBXBXBXBXBXBXBXBXBXBXBXBXBXBXBXBXBXBXBXBXBXBXBXBXBXBXBXBXBXBXBXBXBXBXBXBXBXBXBXBXBXBXBXBXBXBXBXBXBXBXBXBXBXBXBXBXBXBXBXBXBXBXBXBXBXBXBXBXBXBXBXBXBXBXBXBXBXBXBXBXBXBXBXBXBXBXBXBXBXBXBXBXBXBXBXBXBXBXBXBXBXBXBXBXBXBXBXBXBXBXBXBXBXBXBXBXBXBXBXBXBXBXBXBXBXBXBXBXBXBXBXBXBXBXBXBXBXBXBXBXBXBXBXBXBXBXBXBXBXBXBXBXBXBXBXBXBXBXBXBXBXBXBXBXBXBXBXBXBXBXBXBXBXBXBXBXBXBXBXBXBXBXBXBXBXBXBXBXBXBXBXBXBXBXBXBXBXBXBXBXBXBXBXBXBXBXBXBXBXBXBXBXBXBXBXBXBXBXBXBXBXBXBXBXBXBXBXBXBXBXBXBXBXBXBXBXBXBXBXBXBXBXBXBXBXBXBXBXBXBXBXBXBXBXBXBXBXBXBXBXBXBXBXBXBXBXBXBXBXBXBXBXBXBXBXBX. .                                                           . . BXBXBXBXBXBXBXBXBXBXBXBX",
"BXBXBXBXBXBXBXBXBXBXBXBXBXBXBXBXBXBXBXBXBXBXBXBXBXBXBXBXBXBXBXBXBXBXBXBXBXBXBXBXBXBXBXBXBXBXBXBXBXBXBXBXBXBXBXBXBXBXBXBXBXBXBXBXBXBXBXBXBXBXBXBXBXBXBXBXBXBXBXBXBXBXBXBXBXBXBXBXBXBXBXBXBXBXBXBXBXBXBXBXBXBXBXBXBXBXBXBXBXBXBXBXBXBXBXBXBXBXBXBXBXBXBXBXBXBXBXBXBXBXBXBXBXBXBXBXBXBXBXBXBXBXBXBXBXBXBXBXBXBXBXBXBXBXBXBXBXBXBXBXBXBXBXBXBXBXBXBXBXBXBXBXBXBXBXBXBXBXBXBXBXBXBXBXBXBXBXBXBXBXBXBXBXBXBXBXBXBXBXBXBXBXBXBXBXBXBXBXBXBXBXBXBXBXBXBXBXBXBXBXBXBXBXBXBXBXBXBXBXBXBXBXBXBXBXBXBXBXBXBXBXBXBXBXBXBXBXBXBXBXBXBXBXBXBXBXBXBXBXBXBXBXBXBXBXBXBXBXBXBXBXBXBXBXBXBXBXBXBXBXBXBXBXBXBXBXBXBXBXBXBXBXBXBXBXBXBXBXBXBXBXBXBXBXBXBXBXBXBXBXBXBXBXBXBXBXBXBXBXBXBXBXBXBXBXBXBXBXBXBXBXBXBXBXBXBXBXBXBXBXBXBXBXBXBXBXBXBXBXBXBXBXBXBX. . . B V c N c 5 s d d d d c c c Z Z Z c N c c N V V Z B Z H H X   BXBXBXBXBXBXBXBXBXBXBXBX",
"BXBXBXBXBXBXBXBXBXBXBXBXBXBXBXBXBXBXBXBXBXBXBXBXBXBXBXBXBXBXBXBXBXBXBXBXBXBXBXBXBXBXBXBXBXBXBXBXBXBXBXBXBXBXBXBXBXBXBXBXBXBXBXBXBXBXBXBXBXBXBXBXBXBXBXBXBXBXBXBXBXBXBXBXBXBXBXBXBXBXBXBXBXBXBXBXBXBXBXBXBXBXBXBXBXBXBXBXBXBXBXBXBXBXBXBXBXBXBXBXBXBXBXBXBXBXBXBXBXBXBXBXBXBXBXBXBXBXBXBXBXBXBXBXBXBXBXBXBXBXBXBXBXBXBXBXBXBXBXBXBXBXBXBXBXBXBXBXBXBXBXBXBXBXBXBXBXBXBXBXBXBXBXBXBXBXBXBXBXBXBXBXBXBXBXBXBXBXBXBXBXBXBXBXBXBXBXBXBXBXBXBXBXBXBXBXBXBXBXBXBXBXBXBXBXBXBXBXBXBXBXBXBXBXBXBXBXBXBXBXBXBXBXBXBXBXBXBXBXBXBXBXBXBXBXBXBXBXBXBXBXBXBXBXBXBXBXBXBXBXBXBXBXBXBXBXBXBXBXBXBXBXBXBXBXBXBXBXBXBXBXBXBXBXBXBXBXBXBXBXBXBXBXBXBXBXBXBXBXBXBXBXBXBXBXBXBXBXBXBXBXBXBXBXBXBXBXBXBXBXBXBXBXBXBXBXBXBXBXBXBXBXBXBXBXBXBXBXBXBXBXBXBXBX. . c 8.a.6.4.,.6.2.1.,.1.,.1.=.=.%.%.%.%.>.>.>.&.%.>.=.%.%.%.%.H O BXBXBXBXBXBXBXBXBXBXBXBX",
"BXBXBXBXBXBXBXBXBXBXBXBXBXBXBXBXBXBXBXBXBXBXBXBXBXBXBXBXBXBXBXBXBXBXBXBXBXBXBXBXBXBXBXBXBXBXBXBXBXBXBXBXBXBXBXBXBXBXBXBXBXBXBXBXBXBXBXBXBXBXBXBXBXBXBXBXBXBXBXBXBXBXBXBXBXBXBXBXBXBXBXBXBXBXBXBXBXBXBXBXBXBXBXBXBXBXBXBXBXBXBXBXBXBXBXBXBXBXBXBXBXBXBXBXBXBXBXBXBXBXBXBXBXBXBXBXBXBXBXBXBXBXBXBXBXBXBXBXBXBXBXBXBXBXBXBXBXBXBXBXBXBXBXBXBXBXBXBXBXBXBXBXBXBXBXBXBXBXBXBXBXBXBXBXBXBXBXBXBXBXBXBXBXBXBXBXBXBXBXBXBXBXBXBXBXBXBXBXBXBXBXBXBXBXBXBXBXBXBXBXBXBXBXBXBXBXBXBXBXBXBXBXBXBXBXBXBXBXBXBXBXBXBXBXBXBXBXBXBXBXBXBXBXBXBXBXBXBXBXBXBXBXBXBXBXBXBXBXBXBXBXBXBXBXBXBXBXBXBXBXBXBXBXBXBXBXBXBXBXBXBXBXBXBXBXBXBXBXBXBXBXBXBXBXBXBXBXBXBXBXBXBXBXBXBXBXBXBXBXBXBXBXBXBXBXBXBXBXBXBXBXBXBXBXBXBXBXBXBXBXBXBXBXBXBXBXBXBXBXBXBXBXBXBX+ c 0.0.D c N B B N c 5 5 5 5 2 3 3 , 2 4 1 3 1 1 1 1 1 ; > 1 2 F H 6 X BXBXBXBXBXBXBXBXBXBX",
"BXBXBXBXBXBXBXBXBXBXBXBXBXBXBXBXBXBXBXBXBXBXBXBXBXBXBXBXBXBXBXBXBXBXBXBXBXBXBXBXBXBXBXBXBXBXBXBXBXBXBXBXBXBXBXBXBXBXBXBXBXBXBXBXBXBXBXBXBXBXBXBXBXBXBXBXBXBXBXBXBXBXBXBXBXBXBXBXBXBXBXBXBXBXBXBXBXBXBXBXBXBXBXBXBXBXBXBXBXBXBXBXBXBXBXBXBXBXBXBXBXBXBXBXBXBXBXBXBXBXBXBXBXBXBXBXBXBXBXBXBXBXBXBXBXBXBXBXBXBXBXBXBXBXBXBXBXBXBXBXBXBXBXBXBXBXBXBXBXBXBXBXBXBXBXBXBXBXBXBXBXBXBXBXBXBXBXBXBXBXBXBXBXBXBXBXBXBXBXBXBXBXBXBXBXBXBXBXBXBXBXBXBXBXBXBXBXBXBXBXBXBXBXBXBXBXBXBXBXBXBXBXBXBXBXBXBXBXBXBXBXBXBXBXBXBXBXBXBXBXBXBXBXBXBXBXBXBXBXBXBXBXBXBXBXBXBXBXBXBXBXBXBXBXBXBXBXBXBXBXBXBXBXBXBXBXBXBXBXBXBXBXBXBXBXBXBXBXBXBXBXBXBXBXBXBXBXBXBXBXBXBXBXBXBXBXBXBXBXBXBXBXBXBXBXBXBXBXBXBXBXBXBXBXBXBXBXBXBXBXBXBXBXBXBXBXBXBXBXBXBXBXBX  2 4.t.c 4 d 4 d 4 4 4 2 4 4 5 3 2 5 2 s 4 4 5 5 3 3 4 3 3 5 4 4 2 F O.O BXBXBXBXBXBXBXBXBXBX",
"BXBXBXBXBXBXBXBXBXBXBXBXBXBXBXBXBXBXBXBX                                                                                                          BXBXBXBXBXBXBXBXBXBXBXBXBXBXBXBXBXBXBXBXBXBXBXBXBXBXBXBXBXBXBXBXBXBXBXBXBXBXBXBXBXBXBXBXBXBXBXBXBXBXBXBXBXBXBXBXBXBXBXBXBXBXBXBXBXBXBXBXBXBXBXBXBXBXBXBXBXBXBXBXBXBXBXBXBXBXBXBXBXBXBXBXBXBXBXBXBXBXBXBXBXBXBXBXBXBXBXBXBXBXBXBXBXBXBXBXBXBXBXBXBXBXBXBXBXBXBXBXBXBXBXBXBXBXBXBXBXBXBXBXBXBXBXBXBXBXBXBXBXBXBXBXBXBXBXBXBXBXBXBXBXBXBXBXBXBXBXBXBXBXBXBXBXBXBXBXBXBXBXBXBXBXBXBXBXBXBXBXBXBXBXBXBXBXBXBXBXBXBXBXBXBXBXBXBXBXBXBXBXBXBXBXBXBXBXBXBXBXBXBXBXBXBXBXBXBXBXBXBXBXBXBXBXBXBXBXBXBXBXBXBXBXBXBXBXBXBXBXBXBXBXBXBXBXBXBXBXBXBXBXBXBXBXBXBXBXBXBXBXBXBXBXBXBXBXBXBXBXBX  2 9.i.c < 4 1 > + X + X + + . . O + + + . X + + + X + +   + + O 2 1 > Z #.O BXBXBXBXBXBXBXBXBX",
"BXBXBXBXBXBXBXBXBXBXBXBXBXBXBXBX1 J F H C H C H C F H J F J J L L K K L J L L K L K K K K #.#.K #.#.O.O.O.O.#.#.#.%.#.#.#.#.%.#.#.%.#.#.#.%.#.%.$.1 BXBXBXBXBXBXBXBXBXBXBXBXBXBXBXBXBXBXBXBXBXBXBXBXBXBXBXBXBXBXBXBXBXBXBXBXBXBXBXBXBXBXBXBXBXBXBXBXBXBXBXBXBXBXBXBXBXBXBXBXBXBXBXBXBXBXBXBXBXBXBX& & BXBX& BXBXBXBXBXBXBXBXBXBXBX& # BX# # BX& & - & # & # BX# # & * # & & % # & # % & * & % * # - & # & $ & = % * # % * # & - # & * # # % $ & & # = - & * & $ $ & & % # & * - # & - - BX& % % # BX% & % & & # & * @ & - # # = * # & * % # % % # * BX# # * # % # & # # # # BXBXBX# & # # # BX* * & # $ * % * # # # # BX# # % # BX# & % % & & % # # BX# # % % BX& & BXBX& BXBXBX& BXBXBXBX# BXBXBXBXBXBXBXBXBXBXBXBXBXBXBXBXBX  p mXmXd 1 4 1   2 >.<.>.=.&.<.<.<.&.&.<.<.=.>.>.=.=.<.<.&.=.&.<.H O 4 4 1 B #.; BXBXBXBXBXBXBXBX",
"BXBXBXBXBXBXBXBXBXBXBXBXBXBXBXO N H H J H F H J P F J H H J L L L L K K J L K L K K K K K K #.#.O.O.O.O.O.#.#.#.#.%.$.+.+.#.%.#.$.%.%.%.&.&.&.&.%.K 3 BXBXBXBXBXO O O O O O O O O O O & O O O O O O O O & O O & & ; & & O > O 6 & & & & O 6 O O O > > o & O O & O & O > & & & O O O > O > O > > & > > > O > O 1 & 1 > > > > & & > > > > > > < > > > > > > > > > & > > > > > > > > & > > < > 1 > > > > , > > > > 1 1 > > > 1 1 1 , > > > > > < , > > > , 1 1 > > 1 1 1 > > > > > > > > > , > > , > > > < > , > > & 1 > > > , > > = < > > > > > > 1 1 > > > > > > & & , > > > > > > > > > < > > > > > > & > > > 1 > > > > > > > > > > 1 1 > > > > > > > & > > > > & & & > & 1 O & 1 & > > & 1 > > O O & & O & & & > & O O BXBXBXZ y.u.4 > 2 2 s + >.a.a.a.a.p.a.s.a.s.s.s.a.s.a.a.p.a.p.p.p.p.y.p.w.c 1 3 4 > V K > BXBXBXBXBXBXBX",
"BXBXBXBXBXBXBXBXBXBXBXBXBXBXBX5 c > 1 1 1 1 & & 1 1 1 1 ; 1 ; 1 3 1 1 1 2 1 1 1 2 1 1 3 4 1 2 1 2 2 2 2 3 2 2 2 1 4 2 2 3 1 1 3 2 2 1 1 1 2 ; & > 5 N 2 1 d Z F F J F H P P J J J J L O.} } } } } } { { } { { { O.O.+.+.+.O.$.#.+.:.$.+.$.#.+.+.O.+.O.O.+.+.O.{ O.{ { +.+.:.$.+.+.+.+.$.@.@.@.+.@.+.%.:.*.*.*.*.*.*.*.*.=.*.*.=.*.*.=.-.=.,.=.-.,.-.>.-.,.;.*.-.-.;.,.,.,.3.,.;.-.-.;.,.;.;.,.-.-.3.;.@.;.;.;.-.;.;.3.,.3.3.,.,.-.-.;.3.;.;.;.;.3.3.;.@.,.3.3.3.3.3.3.;.;.;.,.3.3.3.-.-.-.-.-.3.;.-.,.;.3.3.,.;.3.;.;.;.3.3.3.,.3.3.-.,.,.;.-.-.3.,.-.-.-.;.-.;.;.;.;.;.3.-.3.3.,.3.3.,.-.-.,.,.3.3.-.-.,.,.3.3.-.-.-.-.;.-.-.-.-.-.*.-.-.=.-.-.*.-.*.-.*.-.*.-.-.*.*.:.-.*.$.:.+.$.$.+.@.:.$.} } } $.$.+.O.+.} +.{ } } 1 BXZ t.9.v > d p 2 2   P d 2 4 4 2 4 2 4 1 1 4 4 2 4 4 1 1 1 1 2 1 1 > 3 5 1 2 4 2 > Z J 1 . BXBXBXBXBX",
"BXBXBXBXBXBXBXBXBXBXBXBXBX. 5 z 3 2 3 5 4 3 3 3 3 3 3 3 5 5 5 5 5 5 3 5 5 5 5 5 5 d 5 d 5 d d d 5 z z d z d 5 N c N d N N c c N N d d 5 5 3 3 5 4 4 2 4 & & 1 1 2 1 2 1 2 2 2 4 2 4 4 4 5 3 5 h 5 3 3 h 5 5 d h 5 d c d d d c d d d d d 5 5 d d d d d c d d h d d h d d d d h h d d d g c d d g v d g d c d d g d v d g g d v v c v c g v v c v v v v v g v v g v v g v v g v v g v g v v v v v v v v v v v v v g b g v v v v g v v v b v v v v v v v v v v v v v v b g v v g g v g g g v f v v g g v b v v v b g v v v g v v g g g v v b g g g v g v g g g b g g g g g v g v v g g g g v s v v g g g g g g g d v g v d d g v d d g s v v d g v d g d g d f g s g d f d p f d d s d d g a p d d s 4 p p 3 2 2 p 2 3 1 & X P mX3.B 2 2 p 2 2 >   P c c d c d v N N c c c c 5 c 5 5 5 5 z 5 d 5 d 5 4 3 1 4 3 2 1 V K 1 + BXBXBXBX",
"BXBXBXBXBXBXBXBXBXBXBXBX  5 N 4 3 3 3 3 3 3 3 2 3 5 3 5 5 5 3 3 1 3 5 5 5 5 3 5 5 5 5 5 5 3 5 5 3 5 5 d 5 5 z d 5 d d 5 5 d 5 5 5 5 3 3 3 2 & O X X O & .   X O O O O . o . o O o o > o # O O & O O O & O & # & o O o o O O O O o & O O > O O O o % % O % o O o O % o % o & o O o O % o % % o o & % & & o % % % & * * & & 6 % % % % % # % % % % o % % % % * & = % = % = > % % = * % % * * % % % * * * * * * * * * = % % % = = * * * = = * * * = = = * = = % = = = * & * * % * * % * * % * % % % % $ * * * % % % = * = % % % % % % % % % % * % % % % % % $ * % 6 & % * * % % % 6 % % % % % % o % $ # % % % % % % o @ % % % % % % % @ % o o % % @ o @ @ o @ * @ . . @ # . . . @ . @ . . . . . . . . . . . . . . .     .   Z NX5.g 2 d s 2 2 2 >   F v 4 d c d d c c c d d c 5 c c N c 5 z c c c 5 5 3 4 3 1 < 2 2 1 d K 1 BXBXBXBX",
"BXBXBXBXBXBXBXBXBXBXBX  5 B 2 2 4 1 1 3 3 3 3 3 3 2 3 3 1 3 1 2 5 3 3 3 3 5 4 1 3 3 3 3 3 5 2 3 3 3 2 5 N 5 5 d h 5 5 5 d 5 d d 5 5 5 2 3 > X C L { O.K { #.#.#.#.#.O.O.O.#.O.{ O.O.#.#.#.#.{ #.#.O.$.#.$.$.} #.#.#.#.$.#.$.$.$.#.#.$.#.O.#.$.%.%.%.#.%.#.$.%.%.%.$.#.%.:.%.%.%.$.%.%.%.%.%.=.=.*.%.=.*.=.=.%.=.=.:.=.*.*.=.%.=.%.>.;.=.=.=.=.>.>.>.,.>.=.>.,.=.,.,.,.-.,.,.,.,.,.-.>.,.;.>.,.,.-.>.=.,.;.<.1.;.>.,.;.;.,.,.,.,.1.,.1.,.,.,.,.,.,.,.,.1.,.,.,.,.;.>.,.,.>.,.1.2.1.,.1.>.,.,.,.,.,.,.,.,.,.-.,.,.,.1.,.-.,.,.>.,.,.,.,.,.,.,.>.,.;.,.>.*.;.;.,.;.,.,.>.=.=.;.,.,.-.,.,.,.,.,.;.,.>.>.1.,.,.,.,.>.>.,.,.,.,.,.1.,.1.1.1.,.>.,.>.>.>.=.>.=.=.>.>.>.;.=.;.;.=.=.>.>.>.,.,.;.<.;.;.<.>.=.=.=.=.=.=.=.>.>.+.,.VX9.d 2 p d 4 2 2 2 & + F d p c 3 2 4 5 3 4 4 4 2 2 3 4 3 3 4 5 4 5 4 3 d d 3 2 3 3 2 1 2 1 5 O.1 BXBXBX",
"BXBXBXBXBXBXBXBXBXBXBX3 N 1 1 2 3 1 1 5 1 3 1 3 4 2 3 1 3 3 3 3 3 3 1 3 4 3 4 4 4 3 2 3 4 3 3 3 5 3 3 5 5 5 5 5 5 z z d 5 5 5 5 3 5 3 5 > 1 &.2.1.2.2.2.1.2.2.2.2.8.2.4.4.4.2.4.4.4.4.8.8.4.4.4.4.8.8.4.8.4.q.8.4.4.q.q.8.8.4.w.w.8.w.w.8.w.9.w.8.8.8.8.w.8.w.w.w.q.q.q.q.q.q.q.9.9.9.9.q.q.q.9.w.q.q.w.q.t.t.q.q.q.t.e.t.t.q.t.t.y.t.t.t.t.i.y.y.y.i.i.y.i.i.u.t.i.y.t.y.t.t.t.t.i.y.i.y.i.i.t.u.i.t.i.y.i.u.r.u.u.y.i.u.u.t.i.i.i.i.i.u.i.i.u.u.u.p.p.u.i.i.i.u.mXi.u.i.i.u.i.i.i.i.i.i.i.y.y.y.i.u.i.i.i.i.i.i.p.i.i.i.i.i.i.u.i.p.i.y.t.i.t.i.i.i.t.t.u.y.t.t.t.0.t.0.t.t.0.0.t.t.0.t.0.y.0.0.t.0.0.9.t.y.t.0.t.y.t.0.t.t.t.0.t.y.t.q.t.t.0.t.t.0.t.t.r.t.r.t.9.q.0.5.q.t.5.9.0.q.5.e.8.q.9.9.9.9.9.6.9.8.8.9.8.9.9.} v , d d d 2 2 1 > &   P d 4 ,                                           > 4 2 1 4 1 2 2 1 2 c H ; BXBX",
"BXBXBXBXBXBXBXBXBXBX1 c 1 3 2 1 1 2 3 3 3 2 1 3 3 3 4 3 3 3 3 1 1 3 3 3 3 1 3 3 2 2 3 2 1 3 2 2 3 3 5 2 3 2 3 5 5 z 5 5 5 d 5 d 5 5 3 1 1 H C 3 2 2 1 2 1 1 1 1 1 1 & 1 1 1 1 1 1 2 1 1 & 1 ; 1 1 1 1 > > 1 ; 1 1 1 1 ; ; ; 1 1 1 1 1 1 1 1 1 1 2 1 2 1 1 1 > > & 1 1 & 2 ; : & 2 2 > > , 2 2 2 1 2 2 1 1 2 2 2 3 2 1 2 2 2 p 2 2 p 2 2 , 2 2 p p , p 2 2 p p 2 p p p i i i , p p i p i p p 2 i i 2 p p p p p p p i p , i i i , , i p i i a a i i i i i i i i i i i i i p i i p p p 2 p p p i p p a p a p p p , p p i i i i i i i i i p i p i p i i i i i i i i i i p i s p , i p i i i , i i i p p < p i i i 2 p p p , i i p p , i i i p i p p p i p i i p p i i i 2 p p p p p p p 2 p p 2 p p p , , , , 2 i 2 , 2 , , , 2 d p 2 s s 2 2 , %   F 4 4 >     O O & O & O O O & O O O O O O O X X     O 3 1 4 3 1 2 2 2 > V C   BX",
"BXBXBXBXBXBXBXBXBXO 5 1 3 3 1 3 3 1 4 1 3 1 1 3 1 1 3 1 3 3 3 3 4 1 3 3 4 5 3 3 2 2 3 3 3 3 3 3 5 3 2 3 3 2 3 3 5 5 5 5 5 5 3 5 3 3 O 1 H N 2 3 3 5 5 2 3 2 3 2 4 4 2 3 4 4 4 3 5 5 5 5 5 5 3 3 h h 5 5 3 3 h h h d 3 d d d d d h h d h 4 d h d d d h 4 s 4 h h h h d s d h h h d d d d d s g d d g d g f d f d f d d g g g g v g g v g g g g g g b v g j g f j g v g v g b b b v b b v b b b g b b g b j g j j j g b g b b j b b j b n j b f b b b b b g b b b b j j j j g j j b j j j g b b j b b v b b b b b b b f b b b g b j b b j j j b b b b b v b b b b b b g b b b b b v b b v b v b v v g b v g j b b v b b b b f v b b b v g g b b g j g j v j g g f g j f f f f f g v g j f g f g g g g f f g g f g d g f d v s d p s 2 2 2 , , & + F s c >     > 1 1 1 2 2 1 1 2 1 1 1 > > > > & >       O 4 3 1 1 < 2 2 1 4 5   BX",
"BXBXBXBXBXBXBXBX        +   + + +     X   X   X X +     +     X     + + +   .     X   + +     . . .     . +   X + +   X     X + X   5 K 5 3 4 1 3 5 5 4 2 2 5 5 4 4 2 3 5 4 3 2 5 5 5 2 5 d 5 5 d 5 4 s 4 4 h h 5 h h h 5 d d d d c d h 5 d d h d d d h d h d d d h d h d h d h s d d h d d d d d d g g g g d d g d g g g g g g v g g g b g g g g g j b j g g j j g j j j j j j j j b j S j j j g j j b j j b b j j j j j j j j j n j n k j j b b n j j j k b b b b b b j j b n j b j b j n b b b b b b b j j j j n b n b n j b j k b b b j b j j b b b b b b k b b b k b b j j b b j j j j j j b f k n b b j j n j j b b j b j j n g j j j j j j j j j a j j j j f j j j f j j g j j j j j g j g g f j g g a j j f p h s d p p p p 2 , , 2 &   F s d >     1 4 1 1 4 1 1 2 2 1 3 2 2 1 1 > > 1 +       X 3 1 3 4 1 2 1 4 4   BX",
"BXBXBXBXBXBXBXBX<.w.w.y.y.w.w.w.w.8.w.w.w.w.w.w.w.w.p.p.p.a.p.p.s.p.p.y.p.y.a.a.s.s.s.p.p.a.s.s.s.a.a.s.s.s.s.s.s.mXs.s.s.s.s.mXmXw.#.1 2 3 4 3 5 c 5 5 5 5 h h 5 5 3 3 5 h 4 3 5 h 5 3 d h 5 2 4 4 3 3 h 5 d 4 5 2 5 h d h h h c h d h d c d d d h d d d d d h c d g d c v d p f d d d d g f s f g g g d g v v B g g g A g B b b j b B v g S j b b j A j j n j S S j j j b j j b S b j j j n j b b S n n n S n n n j n n n j j j j n S S S n n n j n n S n n n b n k k k j n k n k n k k n n k b n n n S k n n S n _ S n n n n n n n n n n b k j k k j k n n n n b n n n n k j b k n n n n n j b b j j b b n j j j n S b n b j b b j j j j b j j j j j f j j f j j j j f j j j j j j j j j j j j j g j f j j f f g S d d p d 4 d 2 2 2 2 , &   P s d >     2 2 2 2 1 2 4 1 4 4 2 2 2 2 1 1 1 1     +     X 5 1 1 3 1 1 1 ;   BX",
"BXBXBXBXBXBX1 C H Z Z B Z N N N z z N N Z N Z Z B B Z Z N Z Z Z Z Z Z Z Z B Z Z Z C Z Z Z C C C Z Z Z Z C Z C C C C Z Z Z Z Z N Z N 1 2 5 4 3 4                                                                                                                                                                                                                                                     .         .                 .       .   .     . . .           .       .       .               .   .         .             .       . .       .                 .           .   .   .       .   .                                                     .                                                           # g c p p p 2 2 2 , , , >   Z 4 s <     4 4 2 1 2 4 1 4 1 4 2 > 2 1 2 > > 4 . X 5 +     O 3 3 1 1 3 3   + BX",
"BXBXBXBXBXO N 5 1 1 3 2 1 3 3 ; 3 3 3 3 3 3 3 3 4 2 3 3 1 5 3 3 3 3 3 1 1 3 3 3 3 5 3 3 3 3 2 3 4 5 4 3 3 5 5 5 5 3 3 3 3 3 3 3 1 3 3 5 3 3 1 .                                                                                                                                                               .   . . . . @ . . . @ . . . @ . . @ @ . . @ . @ . . . @ . @ . @ . @ . @ @ @ @ . @ @ @ @ . @ @ . @ . @ @ @ @ @ @ @ @ @ @ @ @ @ @ @ @ @ @ @ $ @ @ @ @ @ @ @ @ @ . @ @ . . @ . @ . @ . . @ @ @ @ @ @ @ @ @ @ @ @ . @ @ @ @ @ @ @ @ @ @ @ @ @ @ . @ @ @ @ . @ @ @ . $ @ @ @ @ @ @ @ @ @ @ @ @ @ @ @ @ @ @ @ @ @ @ @ @ @ @ @ @ @ @ @ @ @ @ @ . @ . @ @ . @ . @ @ . @ . . @ . @ . . . . . . . . . . . . . .   & g f d 2 p 2 , 2 2 , &   D h 5 >     4 4 2 4 2 2 2 4 2 3 2 2 1 2 2 1 1 4     1 c O     + & O O O +     BX",
"BXBXBXBXO z 5 5 3 3 5 4 3 5 5 5 5 5 5 d 3 5 z 5 5 d d 5 3 z z 5 5 5 z 5 5 5 d 5 5 5 5 z d z z 5 3 c N 5 5 N d 5 5 d 5 5 5 5 5 5 d 5 3 3 5 1 .                                                                                                     .                 .     .           .   . .   . . . . . . . . . . @ @ @ @ $ $ $ $ $ $ $ @ $ $ $ @ $ $ $ $ $ $ $ @ $ @ $ @ @ $ $ $ $ $ $ $ $ $ $ $ $ $ $ $ $ $ $ $ $ $ $ $ @ $ $ $ $ $ $ $ $ $ $ $ - $ $ $ $ $ $ 7 $ $ $ $ $ 7 $ $ @ $ $ $ @ $ $ $ $ $ $ - $ $ $ * $ $ $ $ $ $ $ $ $ $ $ $ $ $ @ $ $ $ $ $ $ $ $ $ $ $ $ $ $ $ $ $ $ $ $ $ $ $ $ $ $ @ $ $ $ $ $ - $ $ $ $ $ $ $ $ $ $ $ $ $ $ $ $ $ $ $ @ $ $ $ $ $ $ $ $ $ $ $ $ $ $ $ $ $ $ $ $ $ $ @ @ @ @ @ . . . o g p 2 2 p 2 , > , &   D d d >     5 2 1 4 5 5 5 3 5 3 4 4 4 1 3 1 1 5 +   & 1 c                     BX",
"BXBXBX. N N N d N 5 5 d d z 5 5 d 5 5 5 5 z z z 5 d N 5 5 5 z z z z z z d d N N N N N N d z 5 z d c d d N N d d d d d 5 z 5 z 5 5 5 d z 5                                                     . . .   .                                             . . . . .                                             . @ @ @ . @ @ @ @ @ @ @ @ @ @ @ @ @ @ @ @ @ $ @ . @ @ $ 7 $ $ $ $ $ $ $ @ @ $ $ @ $ $ $ $ $ @ @ @ $ $ @ @ @ @ $ $ $ $ $ $ $ - $ @ $ 7 $ $ $ $ $ $ $ $ $ $ $ $ $ @ @ @ $ 7 $ $ $ 7 $ 7 $ $ $ $ $ $ @ $ $ $ $ $ $ @ $ $ @ @ @ @ $ $ $ $ 7 $ $ 7 $ @ $ $ $ $ $ $ $ $ $ $ $ @ @ $ $ $ @ @ $ 7 7 $ $ $ $ $ $ @ @ @ $ @ $ $ $ @ $ $ @ $ $ @ @ @ @ @ $ 7 $ $ $ $ $ $ @ $ $ $ $ $ $ $ $ $ $ $ $ $ @ @ @ @ @ . @ @ @ . . . v g p 2 , 2 2 , >   D 2 d 1   + 5 2 & o O X X X X X + + X O X & 1 5 .   O O N +                   BX",
"BXBXBXBX                                                                                                        .                                   . O & 1 1 3 4 4 2 2 4 4 2 3 4 3 1 5 4 3 .     . .     > 2 4 2 4 5 h 4 3 h d 4 s d 4 d h s 5 5 O . . . .   . . 4 g d d g v c c v d g v v v v g v v b g & @ @ @ @ $ $ 8 Q.!.!.~.~.Q.!././.!.^.n./.!.!./.!.z.!.) $ 7 7 $ $ - 7 T /.(././././.!./././.).).~././.Q./.!.Q.~ 7 7 7 7 7 7 7 ) /.(.(.(././.^./.(./.(.).).Q.!.!.!.^.!.) 7 7 7 7 7 7 7 I /.!.Q.Q./.^.^.^.z.(.^./.^.^./.!.Q.Q.!.) 8 7 7 7 7 7 7 ) ).(./.(.).(.(./././.!.!./.^.^.!./.~.Q.T - 7 7 7 7 7 7 ) )./.).n./././././.(.^.^.^.n././.!.~.!.E 7 7 7 7 7 8 8 ] /./.)././.^.Q./.n./.n.^.!.Q.!.!.Q.Q.| y @ @ @ @   + g s 4 2 , , , &   D s 4 >     4 ;     +       +             O 1 5 .   & O N X   O 3 N 5   & z   BX",
"BXBXBXBX                                                                                                                                          . O > ; O 1 1 1 1 1 1 > 2 > > 1 > > 1 1 > > +   .   u .X<X{. X<XXXXXXX].].].<X].$X<X$X].].Y..XH.I 7     . .   * ] tX{.].XXXX XXX<X].].<X$XXX$X$X<X$X{.'.<X` 7 $ $ $ 9 }.].K.'.{.{.'._.'.U.{.].'.Y.'.T.{.{.H._.].` 8 7 7 7 8 ^ <X].Y.].'.R.'.{.U.{.'.].{.'.U.J.{.U.J.`._.` 0 7 7 7 7 ` XXY.U.].].].].].].'.{.].].].{.R.{.T.{.K.{.) 8 7 7 8 9 [ 2X$X$X$X].R.].].].].T.'.R.{.R.].].{.U._.].' 9 7 7 8 w ' :XR.].].[.].{.U.Y.].'.].Y.].].'.Y.{.{._.`.U 7 8 7 8 8 ] tX:X X].]. X].'.'.].].].Y.].Y.].K.{.K._.H.E 7 8 8 7 w `.2X].].].].].Y. X'.Y.'.{.'.U.U.U._.G.m.H._.I @ $ . . . g g 2 p , 2 , &   D d 4 >     5 1 C 2.2.4.8.8.4.4.w.w.w.4.<.C 4 5 +   & & N X   O ; 5 N   1 Z & BX",
"BXBXBX.                                         +       +     +                           .                                 X .     O X           & X + +   . X . + . . O . . + X   X X . X O X   .   x.XXf.k.k.k.c.k.g.k.M.v.c.l.k.f.h.k.d.k.' Z.x.q     .   . t .Xh.k.k.k.l.l.g.k.c.c.n.k.l.f.f.c.f.d.g.d.[.Q 7 $ - ' tXd.v.c.c.v.n.k.c.v.n.v.c.c.v.M.c.k.k.k.f.`.R 7 0 8 u l.U.n.M.m.b.c.c.c.m.v.c.b.M.c.c.l.c.k.k.' b.}.8 7 8 8 7 `.U.c.M.M.M.b.m.M.b.b.c.c.m.v.b.M.b.M.g.k.Z.(.e 9 8 8 y ].D.v.h.b.b.b.b.v.b.b.M.M.b.c.b.b.b.c.n.k.f._.r 7 8 9 t H.G.b.b.b.Z.b.b.b.b.b.c.b.b.b.c.c.c.n.l.k.S.^.8 8 8 8 w 6XD.v.b.M.b.b.c.M.v.b.c.m.c.v.b.v.n.n.k.d.S.] 8 7 8 8 [ XXd.b.M.c.m.m.b.N.c.N.m.b.M.v.k.c.l.g.g.' m.] $ @ @ . . a s 2 , 2 , , &   D h 4 >   . c d N d c N N B d N B 5 z z 4 3 3 5 +   ; ; c +   . X O 3   & 5   BX",
"BXBXBXBX.               + + X +   X X X X X X X X X O O X O X X X X X X X   X X   . X .   . + . .   .   .     . .   .       O X X O O O     .     > X o O X O o O O X O O O O O O O o O o X > X . . . N.'.v.B.H.N.m.H.m.b.S.m.m.b.N.H.m.m.m.b.n.b.(.q     .   o l .Xc.N.m.S.m.S.m.b.b.S.m.S.b.H.S.m.n.b.^.d.tX` $ 7 - ] 1Xh.N.N.H.m.H.N.m.Z.S.S.m.S.S.S.m.n.m.b.g.OX~ 7 7 8 0 n.U.`.m.Z.H.Z.S.m.H.S.m.m.m.b.m.m.m.v.m.v.c.$Xe 7 8 7 $ [.Y.m.m.`.M.S.S.m.H.Z.m.H.H.S.b.H.m.m.l.b.b.`.e 8 8 8 r 1XV.`.A.Z.D.D.D.D.H.A.H.b.H.H.H.Z.S.m.m.v.l.].T 7 8 9 y _.H.H.Z.H.Z.J.H.K.Z.F.H.J.H.S.Z.H.b.m.b.c.`.`.7 8 9 8 I uXj.S.S.Z.S.Z.Z.H.S.H.b.J.b.b.H.b.N.b.v.n.G.Q.e 8 8 7 | [.h.H.b.H.H.Z.F.F.Z.G.Z.m.m.m.v.v.m.v.l.d.n.~.$ $ @ @ . g g 2 i , , , O   Z s 5 >   + 5 d 5 d h d d d h 5 3 < 1 1 3 1 1 3     & & N X   . + ; 5   1 5 + BX",
"BXBXBXBXBX.         . O O O O O X O O O O O O O & O & O O O O O O O O O O O O O O O O O O O O O & O O O O O O . O O O O     1 O O O 1 O           > X X O O O O O O O O X X O O X o X o > o > o   . . (.{.b.H.H.G.H.H.m.S.b.S.Z.H.S.H.S.H.m.b.v.S.H.q     .   X ( .Xb.H.H.J.S.J.m.Z.m.S.Z.Z.S.H.S.S.H.m.b.f.tX' $ 7 = ] <Xv.S.H.G.S.G.m.Z.m.H.b.H.S.H.b.S.H.b.v.k.[.! 7 8 9 0 N.R.H.b.J.J.G.H.G.K.H.H.G.J.S.S.S.b.S.Z.v.c.3XR 7 9 9 - ].L.S.S.J.A.D.S.J.S.D.S.D.G.S.J.S.G.b.m.b.Z.[.r 9 8 8 r 1XC.S.W.D.A.D.D.U.J.U.L.A.F.U.J.J.G.S.S.b.M.$XT 8 8 7 t _.Y.H.G.Z.U.J.G.S.J.S.H.Y.Z.A.J.Z.m.S.b.c._.}.7 9 8 8 E yXF.J.U.G.J.J.G.m.K.Z.F.H.H.D.b.S.S.b.b.n.K.Q.w w 9 9 |  Xc.J.J.J.A.J.U.Z.Z.A.D.S.D.S.S.Z.S.v.k.k.N.~.7 $ $ @ . g g p p 1 , , > + F d h 1   . d 5 3 d d d B d 5 5 4 4 2 3 3 3 2 5     & & N X   + O 1 z   & 5 . BX",
"BXBXBXBXBXO O O O   O O O O O O & O O O ; O ; ; & O O ; O ; O O O O & O X . X X O + X . O X X + X X X X X X X X . . X     X 1 O 1 O 2 1           & X O X O O O O . X O O O O O O O o O o o > X   .   `. Xm.H.G.H.G.Z.Z.A.S.S.Z.G.S.G.D.S.b.m.b.S.`.r   .     X ( .Xh.H.D.H.G.H.Z.G.Z.D.Z.S.G.H.S.D.S.M.S.h.6X' 7 7 7 x.uXM.H.G.A.H.H.Z.Z.D.G.Z.G.G.J.H.G.b.m.S.h.XX! 8 7 9 t n.R.U.Z.U.U.J.A.Y.D.D.A.J.D.S.U.Z.U.U.S.v.M.$XR 0 9 u 7 XXP.b.D.A.U.U.G.D.U.U.D.D.G.Z.U.J.J.A.S.b.b.[.I q 8 9 y <XW.K.L.J.J.G.T.L.U.D.Z.Z.G.G.G.Z.D.D.S.S.f.[.T 0 8 w l '.J.G.U.L.J.D.D.Z.D.G.H.U.G.D.S.D.G.Z.M.b.U._.8 q 9 9 U yXC.G.G.J.F.F.G.J.Z.b.G.J.G.J.U.D.S.S.A.v.H.z.w 0 8 9 ]  Xh.J.Z.A.D.G.D.D.J.Z.Z.Z.D.S.S.D.b.b.b.k.G.~.7 $ @ @   g f p 1 p , , %   D p d &     d d 3 3 5 5 3 4 4 5 2 3 2 3 1 3 < 5   + ; & N X   X . 1 3   & 5 . BX",
"BXBXBXBXBXJ L { J   X O O ; O ; & & ; 1 ; ; ; ; ; ; ; ; ; ; ; ; ; & & O                                                   X 1 O & O 4 1           > O o O o o X O o o O O O O O o O O O O O 1 .   o . S.<Xb.Z.U.Z.J.G.U.D.J.D.D.K.U.J.H.G.Z.m.Z.S._.r   . .   . l 1XV.Z.J.D.A.J.Z.U.A.D.G.D.U.J.D.H.A.Z.S.h.6X' - 7 7 x.uXj.F.J.A.G.G.D.J.J.D.L.J.U.J.G.H.D.Z.S.h.<X/ 8 8 q u n.$XJ.V.U.L.D.U.L.L.G.L.L.U.U.D.D.J.D.H.S.b.7XU 0 q 9 7 XX@XH.A.L.U.U.T.U.D.L.L.D.U.Y.D.Z.A.U.Z.D.b.'.I w u q Y :XW._.A.D.T.U.L.D.U.T.L.U.J.U.U.D.D.D.D.b.v.:XU 8 9 w y oXU.U.J.D.D.T.T.L.U.L.U.L.U.D.D.L.U.A.S.j.{.`.8 q 8 8 ~ uXA.G.G.G.Z.J.U.L.U.U.L.U.D.D.U.D.D.U.Z.b.G.^.q q q 9 ] :Xj.G.G.J.U.D.U.U.G.D.D.U.U.D.D.A.F.A.F.c.Y.~.7 7 $ @ . b f h 2 i , & O . D 4 d >     5 4 4 5 2 4 3 2 3 2 3 4 4 2 2 2 1 d X   & & z X   X O ; 5   & 5   BX",
"BXBXBXBXBX2 > 1 d   O O ; O O ; & & ; 1 1 1 ; ; ; 1 ; ; ; ; ; ; ; & 1 O         .     . .   .     .       X           +   O 1 1 & & 4 1     .     1 O O O . O O O & O o O O O O & O O & O O > O   . . `. XV.G.G.L.G.D.V.G.U.U.U.G.D.G.U.D.D.G.Z.J.J.e .   .   . ( XXj.A.D.J.G.U.D.D.J.U.T.G.G.L.{.A.G.D.D.j.uX' 7 7 7 x.tXj.G.G.L.D.J.G.D.D.U.U.G.L.J.{.A.G.G.H.j.:X/ 8 9 q t v.@XU.L.A.L.T.T.T.T.T.T.U.U.L.L.L.A.S.A.Z.S.7XR 8 w w 8 XXR.A.U.U.U.L.U.L.U.@XT.G.U.U.L.U.J.J.Z.S.F.{.I q w 8 r 1XW.U.A.L.U.L.T.U.T.R.U.U.T.P.L.U.J.U.D.Z.M.:XQ 9 q w y oXY.D.U.U.T.$XT.L.U.T.Y.D.U.T.T.G.U.Z.J.Z.{._.8 q q 8 ~ yXC.H.J.L.G.P.P.Y.T.U.U.T.T.L.L.T.U.L.A.Z.U.n.q u q 0 [ 3XV.K.U.G.U.L.T.G.L.P.T.T.U.L.U.D.G.G.N.M.Y./.7 7 $ $ . g f s , 2 1 , &   D 4 4 >   . d d 4 4 2 4 2 3 2 4 4 1 2 3 2 2 2 5     & & z X   X X 1 3   1 5 . BX",
"BXBXBXBXBX3 1 2 B   X ; O ; O ; ; ; ; X + + +   X + + X ; 3 ; ; 1 ; 1 O                                                   X 3 O & & 3 1           1 o O O O O O O O o & O O O O & O O & O & > O . . . H.:Xb.L.J.U.J.D.U.J.D.U.L.T.L.Y.D.L.D.F.G.U.K.e   . .   . ( <XV.F.U.U.U.G.L.D.D.U.U.U.U.U.U.J.J.Z.G.b.wX' 7 7 7 x.yXV.J.L.U.U.A.D.U.L.U.U.U.P.U.G.L.G.A.J.Z.3X^ 9 9 e t B.$XU.L.P.T.T.U.G.T.T.U.L.T.U.D.L.U.A.H.Z.S.7XU 8 q w 8 XX@XA.T.L.T.P.L.L.G.T.T.R.U.L.T.U.T.G.D.D.J.].U q u w I <XW.'.P.L.L.L.D.T.+XR.P.T.U.T.T.T.T.L.D.G.j.3X! q w t Y  X@XT.U.T.T.T.L.L.{.L.T.U.T.P.U.U.J.U.U.V.R._.q q 8 9 T yXC.Y.L.J.J.E.U.U.L.Y.U.T.U.L.U.T.D.L.G.Z.Y.(.e t q q ] 3XG.U.G.L.U.P.T.L.U.L.L.U.L.D.J.U.G.F.H.j.L./.7 7 $ $   z s p , 2 , , 6   F 2 d >   . 5 4 2 2 4 4 2 2 2 4 4 3 1 3 2 < 2 4 X   ; & N X   X + 1 2   & z   BX",
"BXBXBXBXBX2 1 2 N   O O ; O 1 1 ; X + O Z &.#.#.<.<.Z O + O 3 ; 1 > 2 H H H H H H H J J J L L L J J L L J J H H H J C 5 X O 3 1 & & 3 1     .     ; o o O O O O . O O O o O O O o O O o O & & X   o . `.3XA.P.G.U.U.L.L.U.R.@XU.T.D.G.U.U.G.Z.F.{.{.r   . .   O ( 1XA.G.U.L.U.G.L.U.U.@XR.A.T.D.J.U.U.A.F.A.uXg.7 0 7 x.yXj.L.L.U.L.L.U.U.T.@XT.L.D.D.U.U.J.Z.Z.Z.<X^ w w w t B.@XU.A.L.U.T.L.R.P.T.U.U.I.@XL.T.U.L.D.D.S.7XQ 7 q w 8  X@XA.L.L.G.T.P.T.P.T.T.T.U.R.T.U.R.U.D.H.J. XT r t r T 2XW.H.W.T.T.P.D.@X+XT.T.T.T.T.R.U.U.J.Z.U.V.$XQ q w y Y Y.+XU.D.L.D.T.L.+XP.@X+XT.T.T.U.U.J.U.U.j.R.[.8 q w e Q yXW.Y.L.P.P.U.R.R.L.R.R.T.T.T.T.U.U.D.Z.D.T.(.R t q w ] 3XA.U.L.L.T.@XL.I.I.T.U.T.P.T.U.D.J.G.G.m.Y.).8 7 $ $ . j s p p , , > %   F 4 4 >     d 4 2 2 1 4 4 2 2 4 3 3 1 3 2 2 1 4 +   ; O N +   X O ; 3   ; 5   BX",
"BXBXBXBXBX2 1 1 N   X & ; & ; & + O H O.H 5 2 3 5 N #.w.#.O O 1 1 > 1 5 5 3 5 3 3 3 3 3 5 5 3 1 3 3 1 1 3 3 1 3 3 1 3 1 O O 3 ; ; O 3 1     .     ; O & o o O O O O O O O O O O o o O O O & & O   . . `.3XG.Y.L.G.L.Y.@XU.T.@XR.R.D.A.P.U.A.G.G.Y.'.I     .   . W 3XZ.Y.Y.G.P.L.R.R.L.+X@XT.T.D.U.U.G.G.G.Z.qXd.0 7 7 z.qXZ.U.U.G.L.L.%XT.T.R.@XR.U.D.J.U.G.G.U.j.2X` q q e l B.+XU.T.P.R.R.$XP.R.T.T.+X@XR.E.P.P.T.A.D.G.7XQ 9 e t 8 $X#XD.P.T.T.@X+XP.&XP.T.P.I.+XT.L.L.G.D.D.T. XE y y q Y 2XW.'.P.L.T.R.#X#X@X@XP.@X@X@XI.T.L.Y.U.A.A.:X! q y y Y  XR.D.P.$XT.P.+X$X+X@X+XT.R.@XL.U.D.U.G.G.@X[.q r w q ~ yXP.L.T.P.@XT.+X%X@XP.I.P.+XU.L.T.A.G.Y.A.R.(.R y r t ] 2XW.U.R.T.R.@XT.@X@XU.T.T.U.R.L.U.U.A.A.A.L.).8 $ 7 @ . z f h p , , & &   F s s >   . 5 5 4 1 3 3 4 4 2 1 2 2 4 > 4 2 1 c   + ; & N X   X + 1 3   & 5   BX",
"BXBXBXBXBX3 1 2 N   X ; & ; O X 5 C N ; O 1 O ; ; O O O H <.Z O 1 1 1 O O O O O O O O O O O O O O O O > O O O O O 6 O O + O 3 O & ; 3 >   +       1 o o O O O O O . O O O O O O & O O O & O 1 O . . . K.:XV.L.Y.R.T.I.R.T.T.@XI.T.@XY.Y.G.L.K.J.Y.'.I . X .   . ( 3Xj.G.U.U.Y.E.@XI.T.@XT.R.T.@XU.R.C.U.J.A.yXf.0 7 7 z.qXV.U.U.T.R.R.R.T.I.@X+XT.+X@XT.T.A.U.J.Z.6X` q t e y B.@XY.L.T.T.I.@XI.@X@XT.@XR.@X@XU.U.U.U.G.G.wXQ w e t q 3X#XU.+X$X@XT.#X@X$X+X@X@X@X@XP.I.T.T.D.Z.L.$XQ Y q q I 3XP.R.I.@X@XR.@X#X#X>X@X@X@X@XT.#XT.U.U.Y.C.3X! q r w Y XX@XR.P.P.P.T.P.@XT.@X#X@XL.@X#XR.T.L.L.G.:X[.q q r q ~ fXW.J.Y.T.T.@X@XI.#X+X@X@X#XT.T.P.T.U.J.Z.R.`.e r r q ] 2XL.T.@XT.R.@X@X+X@X#XT.R.P.I.L.P.P.D.D.Z.P./.8 7 $ $ . g g p = 2 , & &   D d d &     5 4 1 1 4 4 4 4 4 2 4 4 4 2 1 1 1 4     O O c X   X O 1 5   & 5   BX",
"BXBXBXBXBX4 1 2 N   X ; ; O + 5 N 3 1 2 1 1 1 1 ; ; ; ; O 5 #.C O 1 ; O 1 O O O ; O 1 6 O O O ; > O > O ; ; O ; > > ; O + X 2 O ; & 3 3         . ; o & O O O O O X O O O O O O O O O & O & & .   . . _.:XG.R.R.L.R.%X@X#X#X%X+X@X@X&XR.T.T.L.G.E.].I   . X   O ( 2XV.Y.@XP.I.:X+XR.%X%X%XI.#X:X@XT.I.U.J.V.yXd.7 0 7 z.qXV.R.T.L.R.&X@X%X%X%X%X#X%X&X@XR.T.T.G.V.6X` w w e y B.@XP.P.I.I.@X@X@X@X&X%X@X+X%X&XR.:XP.@XU.P.wXQ w r y q 3X#XT.+XT.@XT.@X&X@X@X-X&X#X@X@X&X+XT.W.D.R.3XU e w q U 2X+X].P.+X+X&X=X-X7X&X@X&X%X%XT.@X@XT.P.U.A.,X^ t y r W |.#X].I.+X+X+X@X:X@X&X@X$X%X%X%X@XR.L.L.G.@X[.q e q q ~ fXP.P.R.I.@X@X@X%X@X@X&X%X$X+XI.I.L.T.L.A.@X`.e y q y Q.6XW.T.@XI.@X&X&X@X%X&XT.@X%XR.E.Y.L.U.G.j.R.`.q 7 $ $ . g f p p : 2 = O   D d d &     d 4 1 3 < 2 4 4 4 4 2 4 2 > 2 2 2 5 X   O & c +   O O O 3   & 5 . BX",
"BXBXBXBXBX3 1 1 N   X ; & + 3 z 1 1 1 2 2 2 ; ; ; ; 1 ; 1 > 1 L N + 1 ; > O O 1 O ; ; O > > 6 ; O ; O ; ; O ; O O > O > X O 3 > > O 3 1     .     ; o O O O O O O O O o O O & O O O # o O O & O   . . K.>XL.R.L.R.&X&X*X,X,X,X8X5X5X-X&X@XR.P.G.R. XY   . .   X W 3XC.@XT.E.|.&X&X*X;X,X8X-X5X5X5X%XR.P.L.C.fXf.8 8 8 n.qXC.|.E.I.%X*X;X;X8X5X9XqX8X8X5X@XI.L.U.C.5X` w y r y B.%XT.+X@XR.5X5X-X;XrXrX8X8X8X8X;X%XI.R.T.P.wXQ t I y q 2X7X@X@X+X@X&X-X;XdX8X0X0X6X8X5X-X@X+XT.U.R.3X~ e y e T 2X+XR.+X+X&XrXrX0X0X8XrXwX0X8X8X5X@XI.T.U.C.6X^ r I I T |.@X#X+X+X@X7XrX8XrX8XrXeX8X*X,X*X@XL.T.P.:X<Xq r r e ^ fXW.E.I.T.+X@X5X8XrXrX0X8X9X5X8X*XI.P.P.D.@X`.I y e y x.6XP.@X@XI.%XrX8X5XrX-X8X8X*X*X*X%XL.Y.Y.Z.R.).q 7 $ $ . f d p p & 1 > &   D 4 d >   . d 4 3 1 3 3 4 O O X + X 4 1 1 2 1 d +   O O z +   X O 1 3   & 3   BX",
"BXBXBXBXBX3 1 1 N   X ; + O z 1 3 1 3 3 X       + + O ; ; ; ; > #.X X ; > O O 1 ; O ; O O ; 1 O > O O 1 ; O 1 ; O ; O ; X X 2 O & & 3 3     .     1 # X O O O O O O o & O O O O o o & & O O & O . o o Y.>XL.R.R.%X8X9XaXiXiXaXaXhXhXrX-X%XI.I.Y.R.$XI   X .   O ( ,XL.R.|.=X*X9X9XiXiXaXeXaXhX0X;X*XI.I.T.A.fXf.7 0 8 v.qXG.I.%X%X4XiXiXhXnXaXaXhXhXaX;X&XR.R.R.C.6X` e y r y N.7XP.+X@X@X8XrXhXhXhXeXhXgXiXgXaX*X@XI.T.Y.dXQ w r t e 2X#X@X#X@X+X-XaXiXhXpXiXgXgXjXhX8X@X%XP.L.%X3X~ I y e U 4X#X+X#X#X5XdXhXjXgXgXjXgXgXgXiX0X&X@XT.E.G.6X^ e r y E :X*X%X+X@X;XdXhXhXhXhXgXgX0XiXhX8X*XY.P.L.>X<Xe r r e ^ kX+XI.%X+X=X9XaX0XhXhXiXgXlXaX0X8X&XR.E.L.@XD.I r r r Q.qXP.%X+X@X&X0XgXgXgXhXgXiX9X8X8X*XE.L.E.L.|.).q 7 7 $ . g f p , , , & O   D 4 4 1   + d 5 4 2 2 4 3   . X O   2 4 1 1 1 5 +   ; O 5 O   X O 1 3   ; 3   BX",
"BXBXBXBXBX2 1 1 N   X X   5 3 1 1 3 3   + O < < O +   X 1 ; ; O 5 H + ; ; > O 1 ; ; ; O ; 1 O 1 ; > ; 1 ; O O O ; ; ; ; + X 3 ; & O 3 1     .     1 o O O O O O & o O O O O O & & & O & O O 1 O   o . '.,XL.T.=X*X9XiXpXpXpXsXnXgXgXgX8X%XI.@XT.@X XU . . X   O ( 6XC.I.I.%X8XaXgXpXpXgXjXgXgXgXdX&X=XI.@XL.fXg.9 u 8 z.wXC.P.I.*X9XaXgXiXiXlXnXjXgXgX0X&X+X@XR.L.qX` r r y y N.&X@X@X@X=X0XgXlXjXcXlXlXxXlXgX9X-X%XT.P.P.dX! w e y e 2X-XT.@X#X&XhXgXgXvXlXlXlXxXjXgXhX5X@X%XT.I.,X~ r r e W qX#X$X#X#X*XiXlXlXlXlXlXlXxXxXjXhX5X@XI.I.P.7X! y r r U %X-X7X7X@X;XhXjXhXiXlXxXgXgXxXhXiX8XI.T.P.&XXXe r y e / fX=X=XI.@X8XaXjXlXgXlXxXgXgXlXiX8X%XI.I.U.>XH.R y I e x.wXI.@X@X+X-XgXgXgXjXhXjXiXpXpXaX,X%XR.E.C.*X).9 7 $ $ . g d p i , , , O   D 3 s >     d 4 3 4 2 2 5   O > > O 1 2 2 1 4 5     O ; 5 X   O . 1 4   & 5   BX",
"BXBXBXBXBX2 1 1 z   X + O 5 ; 1 3 1   + x m m  .X.M <   + 1 O 1 O H O X 1 1 1 O 6 ; ; O ; ; O 6 O ; O O ; O 1 1 O 1 & & X X 2 O ; & 3 1           1 & O O o & O o O O O O O O O o O O O O & & O   . . _.,XW.%X&X;X0XpXgXpXxXlXlXvXxXxXhX&X@XP.L.%X%X~   . .   . E 2XA.I.%X*X8XiXjXgXlXlXlXcXvXcXlXrX@X+XL.W.fXh.8 8 9 z.dXC.%X=X*XaXgXjXnXxXxXlXcXcXlXhX5X@XI.P.E.wX' w r r w N.7X@X+X+X&XeXgXlXgXcXxXlXcXlXxXjX8X+XR.I.T.dX/ t I r e qX&XP.#X@X-X0XgXjXbXlXvXlXlXjXlXgX5X&X@XR.%X3X/ r r r U qX#X-X#X#X;XhXxXxXxXvXMXvXlXbXlXaX-X%X+XI.L.8X^ r I y E :X-X#X@X>X-XgXxXxXxXcXvXMXnXlXjXgX8XP.I.I.7XXXe r e r / kX+X@X&X&X;XgXnXxXlXzXvXlXlXiXiXiX%XI.I.R.>XK.R y e e Q.eX+X&X-X&X8XgXgXgXgXlXlXgXnXjXaX8XI.I.|.G.%X).w 7 $ $ X j f h 2 , 2 = &   V s 5 1   + d 2 1 2 1 4 3   & 1 > O 1 4 1 > 1 d X   O O N X   + O 1 3   O 5 . BX",
"BXBXBXBXBX3 ; 1 z   X   1 2 1 1 3 + +  .X. .X.....X.m >   O 1 ; X N 3 + 1 O O 1 ; O ; O ; ; O ; > O > 1 O 1 O 1 ; ; & ; + + 3 ; ; O 3 2   . .     1 O O O & O O O O o O O O O O O O & O & O & O   . . J.8XI.%X+X8XgXlXcXzXzXzXzXxXlXiX0X*X%XI.R.|.:XU   . .   o ( 5X@X@X=X*XaXnXxXxXcXlXzXlXxXgXaX8X%X+XR.L.fXh.9 8 8 l.dXI.%X|.;XiXjXxXcXxXxXzXlXxXgXaX5X%X+XR.C.8X` r r r W N.>X@X+X+X&X9XgXcXcXvXcXxXlXxXlXjX0X&X@XP.+XdXQ y r r t 4X-X@X#X#X*XhXlXcXlXvXMXvXcXxXxXgX8X&X+X@X=X4X/ Y I r W ,X#X#X#X-X8XgXjXxXvXvXvXvXvXvXlXhX5X+XT.T.L.6X^ r I Y E  X-X#X-X#X0XgXjXvXcXvXcXMXvXcXxXgX8X#X%XI.5X$Xe r r e ` fX#X+X&X&X8XgXxXxXlXcXvXvXcXlXgX0X*X@XR.I.%X_.I y r r Q.yX+X=X=X&X8XgXgXcXzXlXcXzXpXsXpX8X&XI.E.C.,X`.8 7 7 $   z f p 2 , = , %   Z s d >   . d 3 4 2 3 1 4   & > > . 4 5 2 1 2 5 X   O ; z +   o o & 5   1 5   BX",
"BXBXBXBXBX1 1 1 z       3 1 1 2 1   x X.X........... .M X X ; ; O 2 5 + O ; & ; O ; ; O > ; O O ; ; > O O 1 O ; O ; > O O X 1 O ; & 3 1         . & o O O O O O O O & O o O O O O & & o > O & O   O . '.5XI.%X=X8XjXlXzXlXzXvXlXxXxXpXeX&X@X@XI.R.|.U   . X   O ( 8XE.=X%X*XiXnXlXxXxXvXcXlXxXnXgX,X+X@X@XW.fXg.8 9 9 n.wXE.%X%X-XgXlXlXlXzXvXlXxXxXgXgX&X%X@XT.W.qX` w y e Y N.>X@X+X#X&XrXjXlXvXvXMXvXlXzXvXiX0X&X#XR.@XfX/ r I r q qX-XI.#X&X*XhXgXcXcXMXvXvXvXcXlXgXrX&XI.@X@X2X/ U I e W qX#XR.#X=X-XgXxXzXMXvXzXMXMXvXlXgX-X%X@XL.P.6X^ r I Y E  X-X&X#X&X8XgXgXxXMXMXxXvXMXcXxXnX5X@X+XI.,XXXe r I e ^ kX=X@X-X&X8XgXlXvXMXvXMXzXlXMXlXiX,XR.R.I.,X_.I r r r Q.yX#X&X@X+X&XhXgXlXvXzXzXlXjXlXpX8X*XR.I.L.*X).w 7 $ $ . g s p p i , > o   D s d >   . 5 4 2 1 2 2 3   & 1 > o 4 4 1 1 > 4     O O z X   X O & 3   1 5   BX",
"BXBXBXBXBX2 1 1 d       3 1 2 3 ;    . .X...o...X.X. .X.6   O ; ; 1 5 + O ; ; ; ; > > > > > ; ; ; O 1 ; > O ; 1 1 ; > O X X 5 O ; & 1 ;     .     1 O & O O O O O O O O & O O O O O % O O O > O . . . K.5XI.%X%X*XiXgXzXlXxXvXlXcXxXlXiX*X+XI.Y.R.:XU   . .   X ( ,XP.|.&X&X9XiXxXxXlXvXlXzXxXxXgX8X&XI.I.G.fXh.0 8 8 l.dXE.%X&X&XeXiXlXzXlXMXlXcXcXxXgX;X+XI.R.W.yX` e t e y B.7X#X#X@X@X8XiXvXlXlXMXvXxXlXvXnX0X#X#XR.@XdX! r I y q uX&XL.@X#X&XaXxXxXgXvXvXvXxXvXcXgX8X&X#X+X&X6X~ I r r U ,X#X@X#X=X*XgXvXvXMXvXMXzXMXMXlXiX5X@X@XT.I.wX^ t e y ~ |.-X&X-X&X&XhXvXxXvXMXMXMXzXMXlXaX0X+X%XI.7X].R e R r ` fX=X#X+X#X;XhXxXvXzXzXzXzXzXzXsXiX*X@XI.R.@X_.T Y r r | wX#X@X&X5XrXhXgXzXxXvXlXlXnXlXaX9X%XY.E.P.-X`.8 7 7 $ . g s p , , & > O   V 2 5 &     d 2 2 2 1 3 5   1 1 1 X 2 4 2 2 1 c X   ; ; z     X O > 3   ; c . BX",
"BXBXBXBXBX1 O > 5     . 3 & 1 3 1   X.X. .X.........m X.<   & ; ; ; 5   O ; ; O O ; O O ; O O O ; O ; O ; O O ; O O ; ; X + 2 ; & O 3 1     .   . 1 & o O O & O O O O O o O O o O O O O > & > +   X . oX5XI.%XI.*X9XsXsXvXcXlXvXMXnXvXpX5X&X@XT.@X|.W   . .   O E qXP.%XI.%X8XpXnXlXvXzXnXMXzXzXlX0X&X@XR.W.dXg.8 8 q n.dXE.@XI.*X8XjXsXlXvXlXlXMXlXMXnX8X&X@X@XC.5X` w w r y N.-X%X+X@X&X0XjXxXcXcXMXzXvXvXlXgX5X#X@XR.R.fX/ Y Y y q 6X#XI.#X&X*XeXiXgXlXzXvXMXzXlXlXhX8X-X%X@X$X,XQ I I I E 2X#X>X&X&X-XaXlXzXMXMXzXMXxXxXlXxX8X@XI.I.R.wX^ r y r U :X-X-XrX-X-X0XlXvXMXcXMXMXvXzXzXpX8X*X%XI.5X<Xe r I e ^ kX#X%X&X&X5XhXxXvXMXvXzXMXMXzXpXaX*X@X@XT.-XK.R Y r q x.eXP.=X+X+X8XhXhXcXlXbXMXvXjXiXlXeX*X@XR.G.*X(.8 7 $ $ . g g p , , , = &   D 4 d <   . d 4 2 2 4 1 2 . & 1 1 o 2 4 2 1 1 d +   O O z X   X O 1 5   ; 5   BX",
"BXBXBXBXBX1 & 1 5       1 1 ; 1 1   m  . ..... .X.X.m m <   & & ; 1 3   O ; O & > > O > > > > O O ; O > > > 1 O ; ; ; O X O 3 O ; O 3 3           > O O O O O O O O O & O & o O & O O O O O & X   . . '.wXI.%X%X9XiXlXzXlXzXlXzXzXlXnXgX*X@X+X%X&X|.U   . X   X ( 6XE.&X%X,X9XnXzXzXlXlXxXzXzXlXlX8X&X@X@X@XdXg.9 0 9 n.dXW.%X%X8XiXlXbXlXbXbXlXzXlXnXnX;X&X@X@XI.8X` r e r W N.-XI.+X@X&X8XjXlXvXvXlXlXzXlXlXgXrX@X@XR.R.dX/ r T y q 2X-X@X+X@X8XiXlXcXMXcXvXvXvXvXxXjX8X%X%X@X&X7X^ I W r E 8X#XI.+X&X-XiXjXcXvXMXvXzXcXvXvXgX*X%XI.I.T.5X^ r r r E :X-X-X#X=X8XhXpXcXcXzXvXvXvXMXzXlX9X*XI.E.qXXXR I I r ~ kX#XI.#X-X8XhXlXjXMXvXbXzXlXbXlXpX*X%XT.L.>XH.I r e r Q.eX=X&X&X&X-XhXgXxXlXlXbXlXlXgXgX0X%X|.E.V.&X`.8 0 7 $ . g p p , , > , o   D s c ,     5 4 1 4 4 2 2   O 1 1 O 4 4 2 2 2 5     ; O 5 X   X + > 5   O 5 + BX",
"BXBXBXBXBX1 1 1 z       1 1 > 1 z + < m  . . . .m m M x + X 1 O & ; 1   O O & ; ; ; ; O ; O ; ; 6 O ; O O 1 O O O & X ; + X 3 O & O 3 1   .       1 O O O O O O O O O O > O O & O & & o O O & O   . o K.7XP.@X&X*XpXsXzXbXlXlXzXbXlXjXiX*X%X@X@X%X|.Y   . O   o E 6XP.@X=X%XaXsXsXbXlXlXlXlXzXlXnX9X+X%X%XE.kXf.7 8 0 l.dXW.=X%X%XpXsXlXbXbXbXbXlXlXlXpX8X%X@X@XW.qX` w y e y N.7XR.P.@X&X0XgXgXlXzXlXzXlXlXlXpXrX=X@XI.R.dX! w r y q 2X-X+X#X7X*X9XgXlXvXzXzXvXzXvXlXpX8X&X%X%X%X,X~ U I r Y 8X-X@X#X&X-XaXlXlXbXlXbXvXzXcXlXaX*X@XT.J.Y.5X^ r r Y U :X-X&X&X&X8XhXxXvXcXvXvXzXzXvXbXnX9X%XI.E.,X<Xe r y r ^ fX=X+X&X&X-XpXgXlXzXlXlXlXlXlXpXpX*X&XR.E.>XH.I y e r ] eX=X*X&X&X5XeXlXbXvXlXlXjXpXgXjXeX%X|.I.L.&X`.8 7 $ $ . j g i , 2 > & %   D 4 4 1   . 5 4 1 4 4 2 4 . & > 1 O 4 4 > 2 2 4 +   & O z X   O O & 4   ; 3   BX",
"BXBXBXBXBX2 O > z       O 1 > > B 1 + M m x m m M M M 6   O 1 ; X 3 ;   ; O X ; O ; ; ; ; ; ; O > ; ; 1 O 1 1 1 ; & ; & X X 3 O ; & 1 3     .     1 O O O # O # O O O O O O O O O O & O O & > X   . . oX5XI.I.%X4XaXpXlXlXsXlXsXsXjXpXiX*X@XR.T.|.%XW . . .   o ( qXI.I.+X*X9XpXsXlXlXlXzXnXnXpXiX9X%XT.I.C.fXf.8 9 0 n.wXP.I.=X*XiXiXlXsXsXsXsXsXsXiXpX8XT.R.T.C.qX' r r r Y H.7X@X@X+X%X9XpXpXpXjXcXcXnXnXpXiXhXI.@XT.I.dX/ y I Y q 2X-X+X@XT.&XaXgXlXlXzXlXlXlXzXlXgX0X%XR.R.%X2X^ U I I Y 2X#XI.+X+X&XhXgXlXzXlXgXlXlXlXlXgX8XT.I.Y.R.6X^ r r Y E |.-X&X@X&X5XhXvXlXMXMXcXlXzXzXzXnX,X%X%XE.7X$Xe e e q ~ fX#X@X@X&X*XaXlXlXsXzXlXnXnXnXpXaX%X@X%XY.&X_.T Y y q ] yX+X*X&X&X,XjXjXsXlXlXlXjXjXsXiX8X*XR.E.C.>X).8 7 7 $   g d i 2 , , > %   Z s d 1     5 4 2 1 4 1 4 . O 1 > O 4 1 2 > 2 5     & X 5 X   X O & 5   & 5   BX",
"BXBXBXBXBX1 1 1 5   +   + 3 1 ; ; J + + x M m m M x < +   3 ; O X 5 + + O O O ; 6 ; O 1 ; O 6 ; ; O ; ; O 1 ; 1 ; O & ; + X 3 O 1 O 1 1     .   . 1 & o O O O O O O & O O O O & O O O O & O > O . . . Y.5XE.I.I.*XaXsXsXsXsXpXpXjXiXpX9X%XI.P.Y.|. XE     .   O E qXP.I.E.|.4XpXlXsXpXpXpXsXsXpXiX8XI.L.Y.L.fXf.8 9 8 l.dXG.E.I.%X8XsXsXsXpXpXpXsXpXpX9X*XI.P.Y.E.qX' e y I Y N.-XI.P.@X&X8X9XpXlXgXnXpXsXjXlX9X5X%XT.P.I.dXQ t r y q 2X-XL.@X@X,X8XpXlXpXlXvXlXpXlXsXiX5X%XR.R.%X2X/ U I r E qX+X:X+X+X@X0XgXxXlXlXjXlXlXgXlX;X*XE.T.E.L.9X^ r W y E 3X-X@X%XI.*X0XjXnXcXlXpXzXbXlXnXaX8XI.R.P.,XXXe r y e ~ kX+XI.+X@X&X0XgXgXlXnXlXlXiXlXpXiX*XY.G.L.>XH.R y r r Q.qX+X@X+X&X*XgXpXsXbXiXjXiXpXiX8X;X|.L.J.C.,X`.8 7 7 $ . g s i , , > = %   D 2 d >   . 4 2 1 3 2 2 4   O 2 > O 2 2 1 2 2 5 +   & O 5 X   X O & 3   1 2   BX",
"BXBXBXBXBX1 1 1 z   +     ; 1 > O 4 %.+   6 x < < +     z 3 O O ; 1   + X O ; & ; ; ; O O ; 1 ; O ; ; O 1 O O O 1 ; X ; X + 3 & & O 2 1     .     1 o o O O O O O O O O O & O O & O & O O % & O   . o Y.,XG.R.I.3X4XeXaXsXaXiXaXiXiXiX*XR.T.G.U.R.:XU   . .   o ( ,XG.E.|.|.3XeXiXiXpXiXaX9XiXiX8X%XR.L.L.G.fXl.7 0 0 n.wXG.E.R. X8X9X9XpXeXiX9X9XiXiX*XR.T.L.U.V.qX` w y r y m.%XR.P.T.:X*X8XiXgXiXeXiXjXiXiX9X-XR.U.L.P.wX! u r r q 3X@XU.+XT.R.8X9XaX8XiXiX9XiXpXiX8X&XR.R.L.@X2XQ r r e T 3X+XY.I.I.R.8X0XhXgXiX9XgXaXiXiX9X%XU.P.Y.G.qX/ w w y E |.%XI.I.R.&X*X8XgXnXgXaXnXaXiXpX4X%XI.I.Y.6XXXe r y y ~ yXI.Y.I.P.%X;X0XaXgXiX9XaX9XiX8X8X@X@XJ.J.$X`.I y r r ] qXP.@XI.I.*X8XiXaXsXiXiX8XaX9X8X*XE.G.Y.A.%X).9 7 - $ . g g s , , > > &   D 2 2 >   + 5 4 4 1 4 1 3   O 1 , o 2 d 1 1 1 d +   O O c +   X O & 3   & 5 X BX",
"BXBXBXBXBX1 1 1 5     X     1 > ; O N #.N ; X   X O 3 Z 3 & & & 3 X   X O ; O ; ; ; O 1 ; ; ; ; > O ; O O ; ; ; O ; ; O O + 3 & ; O 1 1     .     1 O O O O O O O O & O O & O O O O O O o & > o   O . Y.,XT.U.U.|.*X*X*X9X=X*X8X8X*X,X%XE.Y.L.L.J. XY     X   X ( 3XT.R.L.R.*X*X*X8X*X*X8X*X*X*X,XG.R.Y.U.V.qXk.0 8 8 n.qXL.Y.L.|.*X*X&X4X%X*X;X*X*X*X&XL.Y.L.U.j.2X` w w e y B.:XU.T.G.P.R.8X*X*X5X,X*X8X,X>X%XI.L.T.U.U.dXQ t r y q 3X+XP.E.L.L.R.|.;X&X*X*X8X8X5X8X>XI.L.U.L.I.3X! y e r W 2XP.Y.+XT.T.&X&X*X8X*X&X*X,X&X*X%XT.Y.G.Y.G.7X! e e y E  X&XY.P.Y.I.&X*X8X*X8X8X8X*X5X*X%XT.E.E.C.%X$Xe q r q ~ yX+XR.I.I.E.&X*X%X5X8X&X;X,X8X&XR.|.L.Z.J.%X(.I y r e ] eXL.R.R.U.T.&X8X,X5X8X*X5X*X*XI.|.L.G.U.A.%X).8 7 $ $ . g p p 2 , , > %   D 2 2 >     d 2 2 2 1 2 3   O 1 1 O 4 2 1 1 1 5 +   ; O 5 X   O O & 1   & 5   BX",
"BXBXBXBXBX1 1 1 5   . +     O 1 ; ; O 5 L L L H H C Z 1 & & & 3 ;     O O ; O O ; O ; 6 ; O ; O ; ; ; 6 ; ; ; O ; O > ; X X 3 & ; & 3 1   X     . 1 O O O & O O O O O O O O O O O o & O o O > X   X . '.>XA.G.L.I.T.I.%XR.%X*X|.&X+X%XR.L.L.G.J.Y.R.Y   . .   O ( ,XA.L.G.E.P.Y.I.%X@X&X%X|.&X%X%XP.L.G.G.G.wXk.7 8 7 z.rXG.L.G.E.L.I.R.I.=X%X|.%X@X%X@XL.P.L.J.A.2X` w w e t B.&XP.I.P.U.L.R.&X@XR.%X+X@X+X@XT.Y.P.J.G.G.dX! u e y q <X@XU.P.G.E.I.R.@X@X@X%X&X+X@X@X@XR.U.P.G.R.3XU I r r Y >XP.U.E.P.T.@X%X@X&X%X@XI.&XR.R.I.U.U.L.L.L.3X~ q q y E  X@X|.P.L.I.@X&X%X%X%XR.%XI.@X@XI.Y.P.Y.G.:X[.e r e q ~ yXP.E.T.R.T.%X@X%X@X+X@X+X+X&X@XP.I.P.G.J.R.(.r r e w ] wXW.R.P.T.T.R.&X@X%X@X+X@X@XR.Y.R.P.G.G.A.R./.8 7 $ $ . g g 2 p , > = o   D s d >   . d 4 2 2 < 2 2 . O 1 1 O 2 2 2 1 1 5     O O c X   + O & 3   > 5 . BX",
"BXBXBXBXX 1 ; & N   . X .     & ; ; ; O O 3 3 N 5 1 ; ; 1 & 2 1     X X O O O 1 O ; O O O O O ; ; ; O ; O ; 6 O ; 1 O O + + 3 X & & 1 1     .     2 O . o O O O O O O O O O O O & o O O > o & X   . . _.>XL.U.L.Y.L.Y.R.R.R.R.I.@XR.R.R.T.T.G.G.Y. XW   . .   X W 3XL.L.L.E.P.Y.R.|.@X@XI.I.@XI.R.I.T.U.D.Z.yXf.0 0 7 z.6XA.L.L.E.E.E.R.@X|.|.P.R.%XR.R.T.T.G.G.Z.2X` q w w t B.3XY.P.U.U.U.P.+XR.I.I.%X@XT.T.R.P.P.U.G.A.wXQ y r t 8 3X@XY.T.P.R.T.I.@X+X@X@X@X@X@X@XT.I.P.P.U.T.:XU r y e I 3XP.K.L.P.R.I.@X@X@X@X@X@X+X@XR.@XW.L.U.J.G.,X~ q w u Y |.@XY.T.E.R.R.@X@XI.%X@X&X@X+X@XT.I.U.G.J.:X$Xe r r q ~ yXP.E.T.R.P.R.@X%X@XI.@X@XI.&XI.R.P.P.J.J.R.(.r w w q ] qXC.R.L.T.R.T.+X@X@X@X+X%X+XR.I.T.R.U.G.V.%X).9 7 7 @ . g f 2 , , , , &   V 2 d >     5 4 2 2 1 2 3 + O ; 1 O 4 4 1 > 1 d X   ; X 5 O   . + O 3   1 4 . BX",
"BXBXBXBXBX1 ; 1 N   X X +       & ; ; & O ; O O ; ; ; O & 1 &       X O O > O 1 ; ; ; O ; ; 1 6 O ; O O 1 O ; ; O 6 ; 1   + 3 & & & 3 1           & O O o & O O O O O O O O O O O O o & O & & O   O . K.:XV.J.U.L.E.I.I.T.%XI.I.T.@X@XT.Y.Y.L.G.Y.R.I   . .   . ( 3XV.D.K.L.E.J.T.R.R.R.I.I.R.%XI.Y.Y.L.G.Z.6Xk.7 0 7 z.6Xj.A.U.J.E.E.E.P.%XI.I.T.R.@XP.Y.U.U.J.j.3X` 8 y q t v.%XJ.W.R.T.L.R.Y.T.P.Y.T.T.P.U.U.T.Y.U.G.D.dXU 9 e r 8 1XR.G.Y.L.T.Y.I.R.R.T.R.R.I.T.R.W.P.Y.L.D.T.].U r w w y 3XP.H.L.U.R.T.T.R.R.+XR.@X+XR.T.R.L.P.D.D.J.>X~ y y w W |.R.J.P.L.R.R.T.I.R.I.@XL.%XR.T.R.T.T.L.G.3X[.q r y t Q yXW.G.E.Y.L.%X@XT.T.R.R.T.@X+XU.R.E.T.D.F. X`.e y w q ] 2XW.U.G.L.L.T.R.L.@X@XR.R.@XP.L.L.A.G.G.j.@X).8 7 7 $ X g p p i , = > o   D 2 d >     4 4 4 1 > 2 3 + O 1 > O 2 1 1 2 > 5     O X 5 X   X O ; 5   O 5   BX",
"BXBXBXBXBX1 1 2 5   X O X .       X 2 1 ; ; O & O ; & 1 3 O         O O O 6 1 O O ; ; O ; ; ; O O ; ; ; O ; O ; O X & ; X X 1 ; 1 O 2 1     .     1 O O O & O O O & . O & O O o O O & & & & & o   o . _.:XA.G.G.U.J.J.R.L.Y.R.R.P.R.T.L.G.G.G.F.U.'.I   . O   X ( :XA.U.G.G.L.G.Y.T.U.T.@XL.U.R.L.J.A.J.G.Z.6Xg.7 0 7 n.,XA.U.A.U.U.D.R.L.P.R.R.L.T.T.D.G.G.J.F.b.3X` q t q y v.R.G.A.U.G.U.P.U.T.R.U.T.U.P.R.Y.U.L.J.Z.D.6XQ q w r 8 1X|.U.P.U.Y.P.G.U.T.T.P.T.@XT.T.U.L.T.T.S.U.XXQ r r q Y 2XC.J.A.L.U.R.R.U.L.T.+XU.R.T.T.T.T.U.U.G.Z.2X^ w y y Y Y.R.R.J.E.L.R.Y.I.T.R.T.R.R.L.U.U.E.E.J.G.:X[.e q q 9 T yXL.Y.P.D.L.P.L.Y.R.R.R.@XT.P.L.U.T.Y.U.H.R.(.e t w w ] 6XC.Y.J.L.U.U.R.@XU.P.U.P.L.T.T.G.A.G.H.b.R.).8 7 7 @ . j g p , , , , %   B 2 d >   + 4 1 2 1 2 1 1   O 1 > O 2 2 1 2 1 4 +   X X 5 X   O O O 3   1 4 . BX",
"BXBXBXBXBX1 O 1 N   + O O + .         O O ; ; 1 ; ; ; &           X O O O O O 1 ; O O ; O ; ; O ; O ; O O ; ; ; ; ; & ; X X 3 O 1 & 1 1   . .     2 O O X O O X O O O O O O & o o O o . o & & o   o . _.:XV.G.U.G.L.U.L.Y.R.Y.U.U.U.J.A.E.L.F.F.F.Y.W   . .   . ( :XV.J.G.U.G.U.U.U.T.R.U.U.Y.U.J.A.R.G.A.h.6Xf.0 7 7 x.2Xj.G.J.J.G.U.J.J.T.Y.J.U.U.U.G.G.L.G.H.h.3X` q q w t v.].K.F.Z.T.U.U.R.P.U.U.R.U.U.G.T.U.L.J.Z.Z.6XQ t r r 8 1X|.J.L.J.U.L.U.U.L.T.P.T.T.T.L.P.L.D.G.G.U.].Q Y w e T 2XL.H.A.G.U.L.L.U.L.U.@XU.L.U.D.D.G.U.K.A.Z.3XQ w y e W |.|.Y.G.G.U.T.U.L.P.T.Y.I.I.L.U.U.L.G.Y.F.:X[.e e e q Q fXL.U.L.R.J.P.P.T.P.T.T.L.G.L.D.A.L.G.F.Z.T.(.r w w 8 | 2XC.Y.G.G.U.T.U.U.L.T.G.U.P.T.L.D.U.G.J.Z.Y.~.7 7 $ $ . g p 2 , , , > O   A 3 2 >     4 4 2 2 1 2 5 X O 1 > O 2 4 2 1 1 4     & O 5 X   X O > 4   O 5 . BX",
"BXBXBXBXBX1 O 2 z   X O X O X                 X + +             . O O O ; O ; O O ; ; O ; ; 1 O ; O O ; 6 ; ; O ; ; O ;   + 3 & 1 O 1 1     .   . 1 O O O O X O O O O & O O O o O O O O o O > + . o . H.:XZ.Z.J.U.D.U.D.J.G.L.A.U.J.J.G.U.J.F.J.J.Y.Y   . X   O W XXV.G.Z.U.G.U.G.J.G.U.G.Z.U.J.J.D.Y.G.J.j.uXg.7 7 $ x.2Xj.H.G.G.D.U.D.J.J.U.G.J.J.K.G.G.U.G.G.j.:X` 9 r w t v.R.J.L.G.J.G.J.L.J.G.L.L.U.L.J.J.U.A.K.D.b.6XU q q w 9 <XI.J.J.U.Y.U.U.U.T.U.U.D.U.T.J.L.D.Z.K.J.U.].T r w q I :XL.H.A.G.J.G.G.J.U.U.U.U.U.U.J.U.J.G.Z.Z.j.3X~ w w w W oXR.Y.A.U.E.Y.J.I.Y.I.Y.U.E.Y.J.P.E.L.F.F.].[.q e w q E yXC.J.U.U.G.U.Y.L.U.L.D.U.U.U.D.U.G.J.F.m.Y.(.q t q q [ ,XV.J.G.G.U.U.G.L.T.U.L.D.U.U.U.U.L.G.J.j.U.).8 7 $ $ . g a p , , > & o   D 4 4 >     4 4 1 2 1 2 3 X O 1 > & 2 2 > > 1 4 X   O O z +   X X > 3   > 4   BX",
"BXBXBXBXBX1 1 1 5     O O X O .                               X X O O O ; O ; ; ; 1 6 O O ; O 1 O ; 6 ; ; O ; ; 1 O ; ; X + 3 & O O 2 1   . .     2 O O O O O O O O O O O O O & o & o & & o & X   O . H. Xj.Z.F.G.U.H.G.J.J.J.L.J.H.U.F.J.G.F.H.H.Y.I     X   O ( XXj.H.Z.G.J.K.Z.G.J.U.G.U.G.J.J.Z.J.F.H.j.uXg.7 7 7 x.2Xj.Z.Z.G.U.J.A.J.J.U.J.U.H.G.G.F.J.H.H.h.3X` 8 y r t z.:XK.A.J.K.G.Y.J.H.F.J.G.J.F.A.G.U.S.H.S.b.6XU u q t 9 1XE.J.G.U.G.U.U.G.G.Z.D.D.G.D.G.Z.D.S.Z.H.J.[.T t w q y 3XW.H.A.G.F.G.L.G.J.U.U.A.J.U.U.Y.J.G.J.b.h.1XT w w y Y |.Y.K.G.G.U.L.G.Y.J.J.G.F.J.Y.J.J.G.F.F.V.Y.OX8 q q q E wXL.U.U.G.A.J.U.L.T.L.D.G.U.U.J.G.G.G.F.b.Y.(.e w w q ] 3Xj.F.G.L.T.L.U.L.G.U.Z.J.J.Y.G.J.G.A.H.b.R./.8 7 7 $ . g p 2 i , , > &   Z 2 4 >   . 4 2 1 2 1 1 4 + & 1 > o 2 4 1 1 1 5 X   O O 5 X   X O O 4   O 3 . BX",
"BXBXBXBXBX; ; 1 5   + X O X X X +                         + + X X O O O 1 O 1 O ; O ; ; O O O O O O O > O ; ; O ; O ; O O X 1 O ; & 3 1   +       1 O o O o O o O o O O O & O O O O O o O o > +   o o N. Xh.m.K.F.G.J.J.H.J.G.J.U.F.N.G.G.H.V.H.J.'.I   . .   o l  Xj.b.H.G.H.H.J.H.G.J.F.J.J.Z.F.G.K.Z.F.h.4Xg.7 - - x.2Xf.m.K.J.Z.G.J.H.G.H.F.E.H.F.H.J.J.b.H.j.3X` 8 w w t z.%XK.H.Z.H.Z.F.m.b.F.J.G.H.G.J.F.Z.K.m.c.b.6XU w q w 8 <XT.H.Z.G.J.F.F.G.F.K.G.J.G.G.Y.J.H.F.m.F.U.'.T 8 q q y 3XV.N.G.Z.J.G.U.J.U.J.J.G.U.H.F.L.J.J.H.N.h.1XU w w t l _.J.Y.J.H.J.G.J.J.U.U.Z.J.G.H.J.F.Z.J.J.N.Y.[.q r q q U uXG.H.J.L.F.K.L.J.L.G.Y.G.J.G.Z.J.D.D.S.m.J.(.e t q 8 [ ,XZ.F.J.L.J.L.A.Z.J.P.F.F.Z.J.G.S.A.Z.b.c.'./.7 0 - $ . g p p , , , & &   Z s d >     4 4 2 1 1 2 2 o & 2 1 O 1 4 1 2 > 4 X   O O 5 X   . O & 3   & 4 + BX",
"BXBXBXBXBX& & 1 3   O O O O O X X X X X X   X   X   X     X X X O O O 1 ; O O ; ; O ; O ; 1 > > 1 ; ; 1 ; O ; ; O ; O ; X O 3 ; & & 1 ;   + X   . > O O o & O O O & & O O O O O o o o > & O > o   o o (. Xj.J.G.b.m.H.F.N.H.N.J.G.m.F.m.m.H.v.N.H.Y.Y . . &   o ( XXc.F.U.m.b.H.G.H.H.N.F.Y.F.H.Z.m.F.b.B.v.2Xk.7 0 $ x.tXM.H.G.b.m.H.F.N.J.m.H.H.F.H.F.b.F.b.N.f.:X` w w I y l.R.m.Z.b.J.J.H.F.F.N.J.H.G.G.N.Z.S.b.v.c.v.yXQ 0 w w 8  XR.b.F.F.Y.U.F.F.G.G.K.G.G.S.K.J.G.F.F.N.J.[.Y q w q r 1XA.N.Z.H.J.K.Z.F.J.H.H.F.H.J.G.F.K.H.B.B.c.<X~ u w t W '.J.F.A.J.G.F.Z.F.H.K.F.H.J.F.H.Z.F.m.v.v.{.[.q r 8 q U wXC.N.H.G.G.F.J.G.L.J.H.Z.F.J.H.G.b.S.m.m.U.(.q 9 8 8 ] 3Xf.K.J.G.b.J.Z.F.H.F.G.H.Z.D.H.G.H.H.b.c.Y.~.8 $ 7 $ . g s i , > = & o   D 2 d >   . 5 4 1 2 > > 1 X O O O + ; 3 > 2 > 4     O O 3 +   X O & 1   ; 5   BX",
"BXBXBXBXBXBX  X O   X + X + + + + + + +               + X   + + + X O O O ; O ; O ; ; & O > > O O ; ; O 1 O ; O > O ; ; + O 2 ; & O 1 3     X   . > X O & o O O O o O o O O O O o > O & O & > X   O . (. Xv.N.N.H.H.J.J.F.F.H.m.F.F.F.H.N.H.m.H.N.Y.I   . . . o l XXh.N.N.F.J.J.K.F.F.H.F.b.F.N.H.H.m.H.H.l.2Xg.7 7 $ ] 1Xh.m.N.H.H.H.H.H.H.H.H.m.H.N.H.F.N.H.N.f.:X` 8 w q l v.].S.Z.H.H.J.N.G.H.m.N.J.F.N.`.N.b.H.n.c.v.uXU 8 e y 9 XXY.B.H.J.H.J.G.F.J.H.J.F.J.J.J.H.J.F.v.b.N.[.I q w 8 r :XA.N.F.Z.b.m.b.Z.H.J.F.J.H.H.H.B.H.m.b.n.k.<XT u w 9 l Y.G.J.U.Z.F.F.F.J.Z.J.G.H.Y.m.N.H.J.N.N.c.'.}.8 q w q I uXG.H.H.H.H.F.H.F.F.m.J.J.F.J.J.H.Z.S.M.v._.^.q 9 8 8 [ 1Xj.H.Z.F.H.J.F.F.G.J.m.J.F.H.H.H.N.m.B.h.Y./.9 7 7 $ . g p 2 2 , , & O   Z s d >     5 2 2 2 2 > 1 4 Z N N N Z > 2 > 2 4 +   O O 5 O   O O & 3 + 1 5 . BX",
"BXBXBXBXBXBXO 3 3 3 5 c z 5 z z z z z N N N N Z N Z N Z N Z Z C C Z C 5 X O O O ; O & O O > O > > O O O 1 O & O ; O O > X O 1 O & O 3 ;     .     1 & O o o . o o o o o o o o o X X X o O O > X . . X n.'.v.v.l.b.B.v.B.B.H.m.B.B.v.B.v.j.v.B.v.N.'.y   . .   o ( .Xc.B.l.n.B.b.B.B.N.B.B.B.b.B.B.b.v.c.b.l.uXg.7 - $ ' 1Xf.v.l.v.B.l.B.v.n.v.v.v.v.v.h.c.l.v.v.f.tX/ 8 9 w t x. Xc.v.N.n.b.H.m.F.N.b.N.f.N.H.b.l.n.l.l.N.uXR w q w 8 {.R.v.B.N.b.H.H.b.F.H.N.H.N.H.B.v.B.B.n.v.J.}.I q 8 w I |.P.B.b.B.b.H.b.m.b.N.b.H.H.N.b.B.B.v.n.k.M.OXR 0 w 8 t N.K.j.m.F.b.b.m.F.v.N.b.b.B.B.b.v.B.v.b.l.oX`.q u q 9 r 2XG.B.N.j.m.H.N.m.c.v.v.F.v.B.v.b.m.v.n.n.U.^.q w q 8 [ 2Xh.B.b.N.B.Z.b.B.m.B.b.N.H.n.n.B.N.B.l.'  X!.7 7 $ $ . g p p , , , > o   V 2 4 <     5 2 1 2 1 2 1 4 c c c c 4 > 1 2 1 4 +   & O 5 X   .   O &   O O . BX",
"BXBXBXBXBXBX1 C N z N N N N Z N N Z N Z Z N N Z Z Z N Z Z Z Z C H C H { 5 + & ; O 1 ; ; ; O ; > O O 1 O ; O ; ; ; ; & ; X + ; & ; & 1 ;       .   . > > > > 1 2 1 1 2 1 2 2 1 > 2 > , 1 1 3 1   . . . ` XXJ.N.K.H.H.F.H.H.H.H.J.F.H.H.F.F.N.b.H. Xz.w   . o .   0 `.K.N.H.H.H.N.H.H.H.F.J.H.N.J.m.G.H.m.H.K.tXQ 7 $ $ U [.].K._.K.K.K.K.'.'.Y.Y.|.J.Y.K.K.K.H.K.2X).e 9 9 8 w ^ XX'.'.Y.Y.Y.'.J.Y.Y.'.].K.'.'.'.]._.H.J.2Xn.q q q w 8 d.2X].].R.R.Y.Y.'.].Y.].R.Y.L.].Y.K.'.K._.tX] e q 9 q e ' qXR.].Y.].].Y.'.'.'.U.].Y. XY.Y.K.K.H.H.2Xx.q u 8 8 w ' :XU._.].U.'.'.{.Y.Y.Y.K.U.K.U.Y.Y.K._.'.<X` 8 t q q e N.2XY.Y.Y.|.R. XY.R.'.Y.'.K.'.K.'.Y.U._._.].` u w 8 9 I XX XJ.Y.Y.].Y.U.U.'.U.Y.Y.'.K.'.U._.K.`._.1X) 7 7 $ @ o j p 2 , > > % o   B 2 2 ,     5 2 2 2 1 1 1 2 2 > 1 > > 1 2 1 > 5 +   O O c +                   BX",
"BXBXBXBXBXBXBX& 4 O ; O & O O & > O O O O 1 O ; O ; & & O 1 O > O & & 1 #.N   + O O + X X X + X X X + O X X + + X   + X     X   + + +     . . .       O O & > > & > > O > > & > & > > > > &     . . . # - l k k k k k k k k k k k k _ k k k k k j - . . o . .   . p k ( S _ k ( _ _ _ _ _ _ ( _ _ _ _ ( ( l - $ $ = 7 7 U n.`._.`.OX_._.OX'.[..XoXoX.XoX.X.X[._.x.e 0 9 9 9 8 8 ~ `.OX X.X.X.X.XoX.XOX.X.X'.oX{.[..XXX[.n.e 9 9 q 8 9 e ' OX'.'..X.XXXXXXX].XXXX<XXXXXXXXX.X.XoX' q 8 8 q 8 8 q ' {.XXXXXXXXXXXXXXXXXX].XXXXXX.XXXXX.X.X] 8 0 9 9 8 0 q ` `..X[..X.X_._.OX_.'..X].[..X.X[.oXOX`.^ q 8 q 8 9 8 I k.{.[..XoXoXoXoX{.{..X.X.XoX.X{.[..XXX}.` q 8 8 8 8 9 Q `.oXoXXXXX XXX{..X'.}.'..X{.{.[..X[.{.`.U $ 7 7 @   } D , , , , , & &   Z p d >   + 5 2 2 2 4 2 1 2 1 1 1 1 1 4 1 1 2 5     O O 5 X               .   BX",
"BXBXBXBXBXBXBX  X 1 ; ; & & ; & 1 1 > 1 1 1 1 O O ; ; & ; O ; 1 1 > O & ; <.#.3 1 3 3 1 1 3 1 5 3 3 5 5 5 3 5 3 3 3 3 5 z 5 5 5 5 5 5 5 O .   .   .                                           . . . . .                                             . . . . . .                                           . @ @ # # # $ $ $ @ @ @ @ @ $ @ $ $ $ @ $ $ 7 $ $ $ $ @ 7 7 7 7 7 7 $ $ $ $ $ $ $ $ $ $ $ @ $ $ $ $ $ $ $ $ $ $ 7 7 8 7 8 8 8 $ $ $ $ $ $ 7 7 7 7 7 7 7 $ $ 7 7 $ $ 7 $ 7 7 8 7 7 8 7 $ $ 7 7 7 7 7 7 7 7 $ 7 $ 7 $ 7 7 $ 7 $ $ 7 7 7 8 7 7 7 7 $ $ $ $ $ $ 7 $ $ $ 7 $ $ 7 7 7 $ $ $ $ 7 7 7 7 8 7 7 $ 7 7 7 $ 7 $ 7 7 7 7 7 $ $ $ 7 $ 7 $ 7 7 7 7 7 7 7 7 7 @ $ $ 7 $ 7 7 7 $ $ $ $ $ $ $ $ $ $ 7 $ $ $ $ . . } } = i 2 , , & % o   D 2 d >     4 2 > 1 1 2 1 2 1 > 1 > 1 1 1 1 > 4 X   O O d X     c J N 2     . BX",
"BXBXBXBXBXBXBXBX  O 1 O & & & & O 1 O O O > 1 O 1 ; ; ; > 1 O O 1 O ; ; & ; K &.&.&.<.#.&.&.&.<.&.&.&.&.&.&.&.&.&.<.<.<.<.<.<.<.<.<.<.&.H 3 .   . .       .         . .               .     . .   . . . . .           .   . X   .     . .   . .   . . . . . . . .   .   . .       .   . . . . . . . . . . o @ . $ @ @ @ @ $ @ @ @ @ @ @ @ @ @ @ @ @ $ @ $ $ @ $ $ $ $ $ $ $ $ $ $ $ $ @ $ $ $ $ $ @ $ @ $ $ $ @ $ $ $ $ $ $ $ $ $ 7 $ $ $ $ $ $ $ $ $ @ @ $ @ $ @ $ $ @ $ $ $ @ $ $ $ $ $ $ $ $ $ $ $ # @ @ $ $ @ $ $ @ $ $ $ @ @ $ @ $ $ $ 7 7 * 7 7 $ $ $ $ $ @ $ @ $ $ $ $ @ @ $ @ @ $ $ $ $ $ $ $ $ $ $ $ $ $ $ $ $ $ $ $ @ $ @ @ @ $ $ $ $ $ $ $ $ $ $ $ $ $ $ $ $ $ $ $ $ $ @ @ @ @ $ @ @ @ @ @ @ @ @ @ @ @ @ . & } G # & 2 , , = = > o   D 2 d >     4 1 2 2 1 1 2 2 2 2 1 > > 2 1 1 1 4 +   O & 5 +   N >.%.K L 4 .   BX",
"BXBXBXBXBXBXBXBX    . O & O ; O ; O O > & & O O O 1 ; > O > O ; > & ; O > O O O > > > > O 1 ; & ; ; ; 1 O O 1 1 1 1 > > O 1 ; ; ; ; ; ; 1 N 3 .     . .       .     .     .     . . . . .   . . X   .   . . .   .   .       .   . .   .   . . .   . . . . . . . . . .   . . . o . . . . @ . . . . . . . . @ . @ @ @ @ @ @ @ @ @ @ $ @ $ @ @ $ $ @ @ $ @ @ $ @ $ $ $ $ $ $ $ $ $ $ @ $ $ $ @ $ $ $ $ $ $ @ $ $ $ $ @ $ @ $ $ $ $ $ $ $ $ $ $ $ @ $ $ $ @ $ $ @ @ $ $ $ $ $ $ $ $ $ $ $ $ $ $ $ $ @ $ $ @ @ $ $ @ $ $ $ $ @ @ $ @ @ $ $ $ $ $ $ $ 7 $ $ $ $ $ $ $ $ $ @ $ $ $ @ $ $ @ $ @ $ $ $ @ $ $ $ $ $ $ $ $ $ $ $ $ $ $ @ $ @ $ @ @ $ @ @ $ @ $ @ $ $ $ @ $ $ @ $ @ @ $ @ @ @ $ @ @ @ @ @ @ @ @ @ @ @ @ @ @ @ . & J D = , 2 2 , , > & & O   V 2 5 &     3 2 1 4 1 1 1 2 1 > 1 ; 1 2 1 1 & 3     & ; O X z K h & > 2 Z >   BX",
"BXBXBXBXBXBXBXBX        1 1 O ; O 1 > O & ; ; & O O O ; O ; > O O O O ; O > > > > O > > ; 1 ; 1 > > ; 1 1 1 1 1 1 1 1 1 1 1 2 1 1 2 2 3 1 1 N 3                                                                                                         . .   .   .     .       .           .   .   .   . . . . . . . . . @ . . . . . . @ . @ @ @ @ . @ @ . @ @ @ @ . @ @ . @ @ @ @ @ @ @ @ @ . . . @ . @ @ @ . . @ @ @ @ . @ @ @ @ @ @ @ @ @ @ @ . @ @ @ @ @ @ @ . . @ @ . @ @ . @ @ @ . @ @ @ @ @ @ @ @ @ @ @ @ @ . @ @ @ @ @ @ @ @ @ @ @ . @ @ . @ @ . @ @ @ @ @ @ @ . @ @ . @ . @ @ . @ @ @ @ @ @ @ @ @ @ @ @ @ @ @ @ . @ . @ . . @ . @ @ @ @ . . @ @ @ @ @ @ @ @ @ . . @ @ @ . @ . @ @ . . . . . . . . . . . o } b , 2 p 2 2 , , , , > o   V 2 4 >   + 4 2 1 1 4 1 1 4 1 1 1 1 ; 1 < > > 3 X   ; O   5 #.3 1 1 & > d d   BX",
"BXBXBXBXBXBXBXBX          O O O O O O O O O O O O O O O O O O O O O & ; O O > > ; O > > ; & ; 2 ; > > 1 ; ; ; 1 1 1 ; ; 1 ; 1 1 1 1 : 2 1 1 & N Z 3 5 3 5 3 3 3 5 5 5 5 3 3 4 3 5 5 5 5 5 5 3 5 5 5 5 5 5 5 z 3 5 5 5 5 5 5 5 5 5 5 z 3 5 3 5 d z z z d 5 z 5 5 d 5 c z 5 d d z h z N z d z c d d d N N d d z z d g d z g B B B z b z A B A B z z A z B g B B A B z A A B A A B B A z A g A A A A A A A A A A A S A A A A A A A b A A A A A A A A A B g z A A A A A A B A b A A A A A A S B A V V A B A A B A A B S V A A A A A A D A A A A D A G A S A S A A S A A A A A D A B A A A S S b A A A A A A D A A A A A A G S A S A S A A G A G A A A A A S S A A A V A A S A S A A v A A A A A B A j B B D A A Z D A ;.D , , p p , , , > , > & o   B 2 4 &     5 2 4 1 1 4 2 1 1 2 1 1 3 2 1 1 > 3     +   2 <.1 ; > 1 1 ; 2 1   BX",
"BXBXBXBXBXBXBXBXBX          O & O & O O ; & & 1 1 1 1 O 1 O > > ; & O O O 1 O 1 ; > 1 O O ; 2 ; ; > 1 > 1 2 1 1 1 ; 1 2 1 1 1 1 2 2 2 1 1 1 1 & 1 #.2.<.1.1.<.<.<.<.2.2.2.2.2.2.2.2.2.2.4.2.4.2.2.2.4.4.4.4.4.8.w.w.8.4.2.w.4.4.4.8.w.w.w.w.8.w.8.w.8.8.4.4.w.4.8.q.w.q.w.q.q.q.q.q.q.q.t.y.y.q.q.t.w.t.t.t.q.e.q.t.t.q.t.t.t.q.r.y.t.e.e.t.t.r.t.u.t.r.y.r.u.r.r.u.i.u.u.r.u.t.u.t.t.t.r.r.u.u.t.r.u.i.u.u.u.u.r.u.i.u.r.t.r.r.u.i.u.u.i.i.u.u.r.i.i.u.u.u.r.t.r.r.r.r.r.r.0.r.r.u.r.u.r.r.r.r.r.r.r.e.u.u.r.u.r.r.r.r.t.0.0.0.0.r.r.u.u.r.t.r.u.t.e.0.0.r.0.0.0.r.0.0.0.0.0.0.0.5.e.r.e.e.r.e.0.0.r.e.0.r.0.0.5.0.0.e.9.0.5.5.0.0.0.9.5.0.5.5.5.5.6.7.7.0.5.5.5.5.7.6.5.6.7.6.7.0.6.6.6.7.5.6.6.6.7.9.5.7.6.6.6.A , 2 p 2 , 2 , , , = & & o . V < 5 O   . 5 1 1 4 2 2 4 > 1 2 2 1 1 1 1 1 ; 3 X     5 <.; ; 1 1 ; 1 1 1 +   BX",
"BXBXBXBXBXBXBXBXBXBX            .                   .   +     +                       +             X   +   +     X     +           . O 1 > 1 1 & & O . X . X . X X . X X . O o o O O o X O X + X X . O . o o # X . o o o . . O O X X O X O X . X O X X . O o O o o o o o o # # O o # o o o o & & O O O O O O o O O % & O & # o O O X # # # # & # & & # & & # & & - & * & # = & # - # & & * * & & # * % % & % % * * % % # & # # = & $ & & * * * - = * & * * * * & $ & - - & = - * * * * * * $ & * & % = = % = * * = $ & * = * = = & * = = = = = = * * * * * = = = = = - = * * = - - & & * & * # - # * # * # % & & = - $ = - - # - & * * % # # # & $ # - # & - # # * % % # # o & & o # % # O # * # % & o o % o o o & p 2 p 2 , , , > > , > = O   B 1 4 1   . 3 4 1 1 2 2 1 1 2 1 1 2 1 1 1 1 1 3   + 5 K 1 O 1 1 1 1 1 1 .   BXBX",
"BXBXBXBXBXBXBXBXBXBX                                                                                                                    X > 1 1 : 1 1 1 ; ; 1 ; 1 1 1 ; 1 1 & 3 : 1 : 1 1 1 1 1 2 1 1 1 1 2 & 1 2 1 2 2 2 1 2 2 : : : 2 1 1 1 1 2 p : 3 2 p 1 s 1 3 2 2 , 2 1 2 2 3 2 2 p 2 p 3 2 p 2 p p p 2 p 2 p 2 p p p p p p p p i p p f d h p a p p s a p p p p p f p s f f h p p s s s f f p f p p p p g f p i a p a a p a p s p a s f p a f f s f p a a a a a a p a f a i a p i p s f a a a a a a a a i p f f a p p s f a a f f f a a a f s a a a a a a p p a f f a p a p p p p a p a a a p p a a p p a a p p p p p p p a a p p p p a p p s i a p p p p p i p 2 p a p p i i p p p p 2 i p i i i 2 i i p p 2 p , , 2 , , 2 , > > & & o   B 2 4 >     ; 1 1 > > > > 1 > 1 1 > > 1 1 & O O + c K 4 O 1 1 1 1 4 1 X     BXBX",
"BXBXBXBXBXBXBXBXBXBX                . .                           . .   .   . . X .       .         .   .     X   .   .   X + . X .       . 1 1 1 1 1 ; & ; & ; ; & ; ; > 1 & , & , 1 1 1 1 1 1 : : , & 1 : 1 1 1 ; : & & & , , : & : : , & 1 1 , , : , 1 2 & = & : = p 2 2 , 2 2 p i , 2 2 2 2 p 2 , 2 i = i 2 , , i 2 p p p p p h h p p h h p p p p p p p p p i p p p p p a h p p a p p p p a a s p p a a a a p p a a a a a i a a p i p a a a a a a a p a a f a a g a a f a a a a a p p a a a a a a f f p a a a a p a a a a a a a a a p a a a a a a a p a a a a a p a a a a i a a a p p p p a i i a a i a a i i i a p a p p p p p i p p p a p p i i i i i i p p i p i p p p , p i , i p p i i , p i p , p i i p 1 2 p , 2 & 2 , , , , > & O   c , 4 1 .   +   .               .   .     X     2 K 4 & ; ; 1 > 2 1       BXBXBX",
"BXBXBXBXBXBXBXBXBXBXBX                  X . . . X X X X   . . X X . . + X X   . . + . X X   X X X X   . X . . X . . X X   X . X . . .       . > 1 2 & & & & & & & ; ; & & & 1 : : : , : 1 1 1 1 : 2 2 2 2 1 1 1 2 1 1 3 p 2 2 p p 2 : 2 p 1 2 p 2 : p 2 p , 2 1 2 2 p 2 p 3 p i 2 2 2 p p p p 2 p 2 p p 2 2 p p p 2 p p p d s p p p a p p p a a p p d p p p p p p p s p p p f f f a f p a p f s f f f a p f a a g p a p p f a a a a a a a a a p f a p f p g f f a f a f a a a a a a a f p a p a a a f g g a g a a f f a a a f g k a g g a j f p f a a p a a a a f a f f a f f f f f a a f p p p a a p a p p a a a a f p a a g f f f a p p p p p p p p i p p p p p p p p p p s p p 2 p p p p p , p p p 2 p 2 p 2 3 p 2 p s p , 1 > , > 2 > > % + c c > 4 %.%.%.%.%.#.O.#.O.O.#.%.#.#.$.#.$.%.&.&.<.5 > 1 > 1 ; 3 1         BXBXBX",
"BXBXBXBXBXBXBXBXBXBXBX                    X   .   X . X . O . X X X . . X X . X . . o +   . X X X   X X . + X X . . . + X X . O . + . + .                                                                                                                                                                                                                                                                                                                                                                                                                                                                                                                                                                               . 2 , , , > , & , & &   c 2 2 > 1 2 2 2 4 1 1 2 1 2 2 2 2 2 > 2 < 1 1 3 O > 1 > > > 2 1 X     BXBXBXBXBX",
"BXBXBXBXBXBXBXBXBXBXBXBX                  X O O O . . O X + X X + X + X X + . O X o o X o + X X X X X X X O X X X O X O X O o o X X O X + .                                                                                                                                                                                 .       . .           .     .   . . .   . .   . .     .   . .   .   . .   . . .   .   . . .   . .   .     . .     . .   . .   . . . . . . .   . . .   .   . . .   .   . .     .   . . . .   . . .   . .   . . . . . . . . . . . . . . . . . . . . .   . . . . . . .   . . .   . . . . .       . .     . .   .     .   .       .   . .   . .   . .     . . . .       .   . .     .               1 , , , 1 , , & &   c 2 2 2 < 2 2 2 1 4 2 2 1 2 3 1 1 2 > 1 1 1 1 1 1 3 1 < 2 1 1 .       BXBXBXBXBX",
"BXBXBXBXBXBXBXBXBXBXBXBXBX                  + & O O O O O O X O O & O O O O O O O O o O & O & O O O O O O O O O & O O O O & > & & O O O O O O O X .     . + . .   . . . . . . . . . o . . . . . . . o o . . . . . . o o . . o . . O . o o . @ o o # . o @ . o o # # . @ o @ o o # . o # # # # # # # # # * # # # # # * # # # # # # # # # # # # # # # $ # # # # % # # * # * * # $ * # * * # * $ * # $ * = # $ * # $ # $ # $ * # $ # * * # $ $ # * $ $ * # $ * * # $ * # $ $ = - * - * # $ $ & * * # $ * * * $ & $ $ * = $ & $ $ = $ = = $ @ $ * = # $ $ = - * $ & $ = @ $ # $ = $ * $ $ # # * = * $ & $ * $ * $ & $ * # $ # # # $ * # $ # $ # $ # $ # $ # # $ # $ @ # $ * & $ # # # $ $ = # $ % * # # @ # # @ # @ & # # # o   . > > > , & > & o   v 2 2 2 2 2 2 , 1 1 2 1 2 1 1 > 1 2 1 1 1 1 1 1 1 1 1 1 1 1           BXBXBXBXBX",
"BXBXBXBXBXBXBXBXBXBXBXBXBXBXBX          BX    O O O O O & O O O O & & > O 1 > > O & > O & O O & & 1 O & & & & 1 ; 1 O ; & & & & & & > > & & & O O O .     . . . . .   . . . . .   . . . X . . . . . . .   . . .   . . . . . X . . . . . X . X X . . . . o . o . o . o . o o . . o o o o . o . O o o o o . o o . o o o o o o % o o o # o # o o % o & o o @ o # . # o # % o # o % o # o % @ # O % o % % o % & # & % O & # & o % % # % o # o o # % o & # o % o # # O % o % o # & & & # O % O % # o o % # % o & % % o % % O # o # & & # & o o # o # # % O % # * o # O % o % % o % O o o # # % o % O o # o # o o O % o o # . @ o # o % o o # o . o % o # # o o o o o . o O o # o o @ o o O o o # . O o . o o . . o o . . . o .   BX. & , & & & & o   c 4 4 4 4 3 4 4 4 4 2 5 4 2 2 4 4 4 2 2 3 4 3 4 1 1 2 3 1         BXBXBXBXBXBXBX",
"BXBXBXBXBXBXBXBXBXBXBXBXBXBXBX  BXBXBXBXBXBXBXBXBXBXBXBXBXBXBXBXBXBXBXBXBXBXBXBXBXBXBXBXBXBXBXBXBXBXBXBXBXBXBXBXBXBXBXBXBXBXBXBXBXBXBXBXBXBXBXBXBXBXBXBXBXBXBXBXBXBXBXBXBXBXBXBXBXBXBXBXBXBXBXBXBXBXBXBXBXBXBXBXBXBXBXBXBXBXBXBXBXBXBXBXBXBXBXBXBXBXBXBXBXBXBXBXBXBXBXBXBXBXBXBXBXBXBXBXBXBXBXBXBXBXBXBXBXBXBXBXBXBXBXBXBXBXBXBXBXBXBXBXBXBXBXBXBXBXBXBXBXBXBXBXBXBXBXBXBXBXBXBXBXBXBXBXBXBXBXBXBXBXBXBXBXBXBXBXBXBXBXBXBXBXBXBXBXBXBXBXBXBXBXBXBXBXBXBXBXBXBXBXBXBXBXBXBXBXBXBXBXBXBXBXBXBXBXBXBXBXBXBXBXBXBXBXBXBXBXBXBXBXBXBXBXBXBXBXBXBXBXBXBXBXBXBXBXBXBXBXBXBXBXBXBXBXBXBXBXBXBXBXBXBXBXBXBXBXBXBXBXBXBXBXBXBXBXBXBXBXBXBXBXBXBXBXBXBXBXBXBXBXBXBXBXBXBXBXBXBXBXBXBXBXBXBXBXBXBXBXBXBXBXBXBXBXBXBXBXBXBXBXBXBXBXBXBXBXBXBXBX& 2 & & * o   1 4 > > 1 1 1 1 1 & ; 1 > > 1 1 > 1 1 1 1 & 1 & 1 1 1 O           BXBXBXBXBXBXBX",
"BXBXBXBXBXBXBXBXBXBXBXBXBXBXBXBXBXBXBXBXBXBXBXBXBXBXBXBXBXBXBXBXBXBXBXBXBXBXBXBXBXBXBXBXBXBXBXBXBXBXBXBXBXBXBXBXBXBXBXBXBXBXBXBXBXBXBXBXBXBXBXBXBXBXBXBXBXBXBXBXBXBXBXBXBXBXBXBXBXBXBXBXBXBXBXBXBXBXBXBXBXBXBXBXBXBXBXBXBXBXBXBXBXBXBXBXBXBXBXBXBXBXBXBXBXBXBXBXBXBXBXBXBXBXBXBXBXBXBXBXBXBXBXBXBXBXBXBXBXBXBXBXBXBXBXBXBXBXBXBXBXBXBXBXBXBXBXBXBXBXBXBXBXBXBXBXBXBXBXBXBXBXBXBXBXBXBXBXBXBXBXBXBXBXBXBXBXBXBXBXBXBXBXBXBXBXBXBXBXBXBXBXBXBXBXBXBXBXBXBXBXBXBXBXBXBXBXBXBXBXBXBXBXBXBXBXBXBXBXBXBXBXBXBXBXBXBXBXBXBXBXBXBXBXBXBXBXBXBXBXBXBXBXBXBXBXBXBXBXBXBXBXBXBXBXBXBXBXBXBXBXBXBXBXBXBXBXBXBXBXBXBXBXBXBXBXBXBXBXBXBXBXBXBXBXBXBXBXBXBXBXBXBXBXBXBXBXBXBXBXBXBXBXBXBXBXBXBXBXBXBXBXBXBXBXBXBXBXBXBXBXBXBXBXBXBXBXBXBXBXBXBXBXBX& 1 & & &                                                               BXBXBXBXBXBXBXBXBXBX",
"BXBXBXBXBXBXBXBXBXBXBXBXBXBXBXBXBXBXBXBXBXBXBXBXBXBXBXBXBXBXBXBXBXBXBXBXBXBXBXBXBXBXBXBXBXBXBXBXBXBXBXBXBXBXBXBXBXBXBXBXBXBXBXBXBXBXBXBXBXBXBXBXBXBXBXBXBXBXBXBXBXBXBXBXBXBXBXBXBXBXBXBXBXBXBXBXBXBXBXBXBXBXBXBXBXBXBXBXBXBXBXBXBXBXBXBXBXBXBXBXBXBXBXBXBXBXBXBXBXBXBXBXBXBXBXBXBXBXBXBXBXBXBXBXBXBXBXBXBXBXBXBXBXBXBXBXBXBXBXBXBXBXBXBXBXBXBXBXBXBXBXBXBXBXBXBXBXBXBXBXBXBXBXBXBXBXBXBXBXBXBXBXBXBXBXBXBXBXBXBXBXBXBXBXBXBXBXBXBXBXBXBXBXBXBXBXBXBXBXBXBXBXBXBXBXBXBXBXBXBXBXBXBXBXBXBXBXBXBXBXBXBXBXBXBXBXBXBXBXBXBXBXBXBXBXBXBXBXBXBXBXBXBXBXBXBXBXBXBXBXBXBXBXBXBXBXBXBXBXBXBXBXBXBXBXBXBXBXBXBXBXBXBXBXBXBXBXBXBXBXBXBXBXBXBXBXBXBXBXBXBXBXBXBXBXBXBXBXBXBXBXBXBXBXBXBXBXBXBXBXBXBXBXBXBXBXBXBXBXBXBXBXBXBXBXBXBXBXBXBXBXBXBXBXBXO & & & % X X X . . . . . .   . . . . + . . . . X .   . . X         BXBXBXBXBXBXBXBXBXBXBX",
"BXBXBXBXBXBXBXBXBXBXBXBXBXBXBXBXBXBXBXBXBXBXBXBXBXBXBXBXBXBXBXBXBXBXBXBXBXBXBXBXBXBXBXBXBXBXBXBXBXBXBXBXBXBXBXBXBXBXBXBXBXBXBXBXBXBXBXBXBXBXBXBXBXBXBXBXBXBXBXBXBXBXBXBXBXBXBXBXBXBXBXBXBXBXBXBXBXBXBXBXBXBXBXBXBXBXBXBXBXBXBXBXBXBXBXBXBXBXBXBXBXBXBXBXBXBXBXBXBXBXBXBXBXBXBXBXBXBXBXBXBXBXBXBXBXBXBXBXBXBXBXBXBXBXBXBXBXBXBXBXBXBXBXBXBXBXBXBXBXBXBXBXBXBXBXBXBXBXBXBXBXBXBXBXBXBXBXBXBXBXBXBXBXBXBXBXBXBXBXBXBXBXBXBXBXBXBXBXBXBXBXBXBXBXBXBXBXBXBXBXBXBXBXBXBXBXBXBXBXBXBXBXBXBXBXBXBXBXBXBXBXBXBXBXBXBXBXBXBXBXBXBXBXBXBXBXBXBXBXBXBXBXBXBXBXBXBXBXBXBXBXBXBXBXBXBXBXBXBXBXBXBXBXBXBXBXBXBXBXBXBXBXBXBXBXBXBXBXBXBXBXBXBXBXBXBXBXBXBXBXBXBXBXBXBXBXBXBXBXBXBXBXBXBXBXBXBXBXBXBXBXBXBXBXBXBXBXBXBXBXBXBXBXBXBXBXBXBXBXBXBXBXBXBXBX  % o o o X X X . O . X o . X o . . o .   . . . . . . . .   .   BXBXBXBXBXBXBXBXBXBXBXBXBX",
"BXBXBXBXBXBXBXBXBXBXBXBXBXBXBXBXBXBXBXBXBXBXBXBXBXBXBXBXBXBXBXBXBXBXBXBXBXBXBXBXBXBXBXBXBXBXBXBXBXBXBXBXBXBXBXBXBXBXBXBXBXBXBXBXBXBXBXBXBXBXBXBXBXBXBXBXBXBXBXBXBXBXBXBXBXBXBXBXBXBXBXBXBXBXBXBXBXBXBXBXBXBXBXBXBXBXBXBXBXBXBXBXBXBXBXBXBXBXBXBXBXBXBXBXBXBXBXBXBXBXBXBXBXBXBXBXBXBXBXBXBXBXBXBXBXBXBXBXBXBXBXBXBXBXBXBXBXBXBXBXBXBXBXBXBXBXBXBXBXBXBXBXBXBXBXBXBXBXBXBXBXBXBXBXBXBXBXBXBXBXBXBXBXBXBXBXBXBXBXBXBXBXBXBXBXBXBXBXBXBXBXBXBXBXBXBXBXBXBXBXBXBXBXBXBXBXBXBXBXBXBXBXBXBXBXBXBXBXBXBXBXBXBXBXBXBXBXBXBXBXBXBXBXBXBXBXBXBXBXBXBXBXBXBXBXBXBXBXBXBXBXBXBXBXBXBXBXBXBXBXBXBXBXBXBXBXBXBXBXBXBXBXBXBXBXBXBXBXBXBXBXBXBXBXBXBXBXBXBXBXBXBXBXBXBXBXBXBXBXBXBXBXBXBXBXBXBXBXBXBXBXBXBXBXBXBXBXBXBXBXBXBXBXBXBXBXBXBXBXBXBXBXBXBXBXBXBXBXBXBXBXBXBXBXBXBXBXBXBXBXBXBXBXBXBXBXBXBXBXBXBXBXBXBXBXBXBXBXBXBXBXBXBXBXBXBXBXBXBXBX",
"BXBXBXBXBXBXBXBXBXBXBXBXBXBXBXBXBXBXBXBXBXBXBXBXBXBXBXBXBXBXBXBXBXBXBXBXBXBXBXBXBXBXBXBXBXBXBXBXBXBXBXBXBXBXBXBXBXBXBXBXBXBXBXBXBXBXBXBXBXBXBXBXBXBXBXBXBXBXBXBXBXBXBXBXBXBXBXBXBXBXBXBXBXBXBXBXBXBXBXBXBXBXBXBXBXBXBXBXBXBXBXBXBXBXBXBXBXBXBXBXBXBXBXBXBXBXBXBXBXBXBXBXBXBXBXBXBXBXBXBXBXBXBXBXBXBXBXBXBXBXBXBXBXBXBXBXBXBXBXBXBXBXBXBXBXBXBXBXBXBXBXBXBXBXBXBXBXBXBXBXBXBXBXBXBXBXBXBXBXBXBXBXBXBXBXBXBXBXBXBXBXBXBXBXBXBXBXBXBXBXBXBXBXBXBXBXBXBXBXBXBXBXBXBXBXBXBXBXBXBXBXBXBXBXBXBXBXBXBXBXBXBXBXBXBXBXBXBXBXBXBXBXBXBXBXBXBXBXBXBXBXBXBXBXBXBXBXBXBXBXBXBXBXBXBXBXBXBXBXBXBXBXBXBXBXBXBXBXBXBXBXBXBXBXBXBXBXBXBXBXBXBXBXBXBXBXBXBXBXBXBXBXBXBXBXBXBXBXBXBXBXBXBXBXBXBXBXBXBXBXBXBXBXBXBXBXBXBXBXBXBXBXBXBXBXBXBXBXBXBXBXBXBXBXBXBXBXBXBXBXBXBXBXBXBXBXBXBXBXBXBXBXBXBXBXBXBXBXBXBXBXBXBXBXBXBXBXBXBXBXBXBXBXBXBXBXBXBXBXBX",
"BXBXBXBXBXBXBXBXBXBXBXBXBXBXBXBXBXBXBXBXBXBXBXBXBXBXBXBXBXBXBXBXBXBXBXBXBXBXBXBXBXBXBXBXBXBXBXBXBXBXBXBXBXBXBXBXBXBXBXBXBXBXBXBXBXBXBXBXBXBXBXBXBXBXBXBXBXBXBXBXBXBXBXBXBXBXBXBXBXBXBXBXBXBXBXBXBXBXBXBXBXBXBXBXBXBXBXBXBXBXBXBXBXBXBXBXBXBXBXBXBXBXBXBXBXBXBXBXBXBXBXBXBXBXBXBXBXBXBXBXBXBXBXBXBXBXBXBXBXBXBXBXBXBXBXBXBXBXBXBXBXBXBXBXBXBXBXBXBXBXBXBXBXBXBXBXBXBXBXBXBXBXBXBXBXBXBXBXBXBXBXBXBXBXBXBXBXBXBXBXBXBXBXBXBXBXBXBXBXBXBXBXBXBXBXBXBXBXBXBXBXBXBXBXBXBXBXBXBXBXBXBXBXBXBXBXBXBXBXBXBXBXBXBXBXBXBXBXBXBXBXBXBXBXBXBXBXBXBXBXBXBXBXBXBXBXBXBXBXBXBXBXBXBXBXBXBXBXBXBXBXBXBXBXBXBXBXBXBXBXBXBXBXBXBXBXBXBXBXBXBXBXBXBXBXBXBXBXBXBXBXBXBXBXBXBXBXBXBXBXBXBXBXBXBXBXBXBXBXBXBXBXBXBXBXBXBXBXBXBXBXBXBXBXBXBXBXBXBXBXBXBXBXBXBXBXBXBXBXBXBXBXBXBXBXBXBXBXBXBXBXBXBXBXBXBXBXBXBXBXBXBXBXBXBXBXBXBXBXBXBXBXBXBXBXBXBXBXBXBX"
};
