/* XPM */
static const char *enemy3_xpm[] = {
/* columns rows colors chars-per-pixel */
"397 82 239 2 ",
"   c #020402",
".  c #040A04",
"X  c #080B07",
"o  c #070B08",
"O  c #0A0E0A",
"+  c #031403",
"@  c #031B03",
"#  c #0D120D",
"$  c #0C1B0D",
"%  c #081308",
"&  c #10140F",
"*  c #11180F",
"=  c #0F1410",
"-  c #0F1B11",
";  c #08141A",
":  c #111612",
">  c #141B15",
",  c #181C17",
"<  c #171D18",
"1  c #191E19",
"2  c #050D12",
"3  c #052303",
"4  c #052B04",
"5  c #092C06",
"6  c #0D210D",
"7  c #0B2E08",
"8  c #082207",
"9  c #053303",
"0  c #093406",
"q  c #053A03",
"w  c #0A3B05",
"e  c #0C3408",
"r  c #0C3B09",
"t  c #0F2211",
"y  c #122314",
"u  c #132916",
"i  c #152319",
"p  c #1B221C",
"a  c #162B1A",
"s  c #1A2D1C",
"d  c #1B321E",
"f  c #173619",
"g  c #113C0D",
"h  c #20241F",
"j  c #0B1C27",
"k  c #1E2420",
"l  c #1E2C21",
"z  c #1C3420",
"x  c #1D3921",
"c  c #0D2739",
"v  c #0D2230",
"b  c #222622",
"n  c #242B25",
"m  c #262D29",
"M  c #292E2A",
"N  c #282C26",
"B  c #273129",
"V  c #2B332D",
"C  c #2D3A2F",
"Z  c #223523",
"A  c #2E3530",
"S  c #2E3B31",
"D  c #313632",
"F  c #333C35",
"G  c #363D38",
"H  c #393D3A",
"J  c #383B37",
"K  c #0B4306",
"L  c #0C4C05",
"P  c #0E4309",
"I  c #0D4B08",
"U  c #054302",
"Y  c #12430C",
"T  c #124B0B",
"R  c #124C09",
"E  c #0D5405",
"W  c #0E5806",
"Q  c #115409",
"!  c #135C0A",
"~  c #115707",
"^  c #174810",
"/  c #1A5911",
"(  c #265C1F",
")  c #1A6B0A",
"_  c #16650A",
"`  c #1A780C",
"'  c #1B6612",
"]  c #1F7613",
"[  c #2A7D1B",
"{  c #267619",
"}  c #26691C",
"|  c #344236",
" . c #364339",
".. c #3B433D",
"X. c #364A3B",
"o. c #3A4C3E",
"O. c #3C513F",
"+. c #295923",
"@. c #296522",
"#. c #40463F",
"$. c #0D2D44",
"%. c #11314A",
"&. c #133856",
"*. c #0F3048",
"=. c #3E4440",
"-. c #3D4D41",
";. c #3D5242",
":. c #414641",
">. c #434B44",
",. c #484E49",
"<. c #425243",
"1. c #4C524D",
"2. c #455449",
"3. c #4E5751",
"4. c #535B55",
"5. c #575D58",
"6. c #50524F",
"7. c #5A635C",
"8. c #59675D",
"9. c #5E6C62",
"0. c #5C6760",
"q. c #616E65",
"w. c #676C68",
"e. c #637166",
"r. c #647268",
"t. c #6B7D71",
"y. c #1E890B",
"u. c #248C0D",
"i. c #23860D",
"p. c #24930D",
"a. c #299C0E",
"s. c #26990D",
"d. c #258C12",
"f. c #298D14",
"g. c #2C831C",
"h. c #2C8A1B",
"j. c #258415",
"k. c #269212",
"l. c #2B9414",
"z. c #2C9C15",
"x. c #2E931A",
"c. c #2E9C19",
"v. c #269C10",
"b. c #319C17",
"n. c #329D1A",
"m. c #32931D",
"M. c #338B1F",
"N. c #2AA20E",
"B. c #2CAA0E",
"V. c #2EB20E",
"C. c #2EA315",
"Z. c #2EAA14",
"A. c #2FA319",
"S. c #2FAA18",
"D. c #31A517",
"F. c #31AC16",
"G. c #32A41A",
"H. c #34AC1A",
"J. c #39AC1D",
"K. c #2EB311",
"L. c #34B316",
"P. c #36BA15",
"I. c #39BC16",
"U. c #35B319",
"Y. c #39B51B",
"T. c #37B919",
"R. c #3ABC1A",
"E. c #38B716",
"W. c #30B40F",
"Q. c #328923",
"!. c #359323",
"~. c #349C23",
"^. c #389827",
"/. c #2E8D21",
"(. c #36A423",
"). c #39A425",
"_. c #3AAB24",
"`. c #3AA826",
"'. c #3CB423",
"]. c #3DBC22",
"[. c #3EB62B",
"{. c #41BD1E",
"}. c #41BC24",
"|. c #43BD2A",
" X c #41B529",
".X c #44B12F",
"XX c #3BC315",
"oX c #3DC21A",
"OX c #3FC91A",
"+X c #3AC614",
"@X c #3AC00F",
"#X c #3FC222",
"$X c #41C51C",
"%X c #44CA1C",
"&X c #4ACC1E",
"*X c #41CA16",
"=X c #48D21E",
"-X c #55D41F",
";X c #43C324",
":X c #44CA23",
">X c #4BCD23",
",X c #45C32A",
"<X c #4BCC2A",
"1X c #48C62A",
"2X c #4CD222",
"3X c #4DD32B",
"4X c #4BD729",
"5X c #54D423",
"6X c #5AD525",
"7X c #5CDA26",
"8X c #52D42C",
"9X c #54DC2C",
"0X c #5EDA29",
"qX c #59D826",
"wX c #4CCB32",
"eX c #54DA32",
"rX c #55D833",
"tX c #50CF2E",
"yX c #64DD2A",
"uX c #6ADE2D",
"iX c #61DA27",
"pX c #6EDF31",
"aX c #57E22D",
"sX c #5AE333",
"dX c #66E12C",
"fX c #6CE12E",
"gX c #6EE331",
"hX c #61E636",
"jX c #74E533",
"kX c #79E736",
"lX c #7AE936",
"zX c #7CEA39",
"xX c #78E737",
"cX c #71E12F",
"vX c #708276",
"bX c #81EC3C",
"nX c #85EF41",
"mX c #839A8B",
"MX c #000001",
/* pixels */
"MXMXMXMXMXMXMXMXMXMXMXMXMXMXMXMXMXMXMXMXMXMXMXMXMXMXMXMXMXMXMXMXMXMXMXMXMXMXMXMXMXMXMXMXMXMXMXMXMXMXMXMXMXMXMXMXMXMXMXMXMXMXMXMXMXMXMXMXMXMXMXMXMXMXMXMXMXMXMXMXMXMXMXMXMXMXMXMXMXMXMXMXMXMXMXMXMXMXMXMXMXMXMXMXMXMXMXMXMXMXMXMXMXMXMXMXMXMXMXMXMXMXMXMXMXMXMXMXMXMXMXMXMXMXMXMXMXMXMXMXMXMXMXMXMXMXMXMXMXMXMXMXMXMXMXMXMXMXMXMXMXMXMXMXMXMXMXMXMXMXMXMXMXMXMXMXMXMXMXMXMXMXMXMXMXMXMXMXMXMXMXMXMXMXMXMXMXMXMXMXMXMXMXMXMXMXMXMXMXMXMXMXMXMXMXMXMXMXMXMXMXMXMXMXMXMXMXMXMXMXMXMXMXMXMXMXMXMXMXMXMXMXMXMXMXMXMXMXMXMXMXMXMXMXMXMXMXMXMXMXMXMXMXMXMXMXMXMXMXMXMXMXMXMXMXMXMXMXMXMXMXMXMXMXMXMXMXMXMXMXMXMXMXMXMXMXMXMXMXMXMXMXMXMXMXMXMXMXMXMXMXMXMXMXMXMXMXMXMXMXMXMXMXMXMXMXMXMXMXMXMXMXMXMXMXMXMXMXMXMXMXMXMXMXMXMXMXMXMXMXMXMXMXMXMXMXMXMXMXMXMXMXMXMXMXMXMXMXMXMXMXMXMXMXMXMXMXMXMXMXMXMXMXMXMXMXMXMXMXMXMXMXMXMXMXMXMX",
"MXMXMXMXMXMXMXMXMXMXMXMXMXMXMXMXMXMXMXMXMXMXMXMXMXMXMXMXMXMXMXMXMXMXMXMXMXMXMXMXMXMXMXMXMXMXMXMXMXMXMXMXMXMXMXMXMXMXMXMXMXMXMXMXMXMXMXMXMXMXMXMXMXMXMXMXMXMXMXMXMXMXMXMXMXMXMXMXMXMXMXMXMXMXMXMXMXMXMXMXMXMXMXMXMXMXMXMXMXMXMXMXMXMXMXMXMXMXMXMXMXMXMXMXMXMXMXMXMXMXMXMXMXMXMXMXMXMXMXMXMXMXMXMXMXMXMXMXMXMXMXMXMXMXMXMXMXMXMXMXMXMXMXMXMXMXMXMXMXMXMXMXMXMXMXMXMXMXMXMXMXMXMXMXMXMXMXMXMXMXMXMXMXMXMXMXMXMXMXMXMXMXMXMXMXMXMXMXMXMXMXMXMXMXMXMXMXMXMXMXMXMXMXMXMXMXMXMXMXMXMXMXMXMXMXMXMXMXMXMXMXMXMXMXMXMXMXMXMXMXMXMXMXMXMXMXMXMXMXMXMXMXMXMXMXMXMXMXMXMXMXMXMXMXMXMXMXMXMXMXMXMXMXMXMXMXMXMXMXMXMXMXMXMXMXMXMXMXMXMXMXMXMXMXMXMXMXMXMXMXMXMXMXMXMXMXMXMXMXMXMXMXMXMXMXMXMXMXMXMXMXMXMXMXMXMXMXMXMXMXMXMXMXMXMXMXMXMXMXMXMXMXMXMX=.,.=.=. .G G F F G G H G G  .G G F G  .G H J =...G  .=.=.< MXMXMXMXMXMXMXMXMXMXMXMXMX",
"MXMXMXMXMXMXMXMXMXMXMXMXMXMXMXMXMXMXMXMXMXMXMXMXMXMXMXMXMXMXMXMXMXMXMXMXMXMXMXMXMXMXMXMXMXMXMXMXMXMXMXMXMXMXMXMXMXMXMXMXMXMXMXMXMXMXMXMXMXMXMXMXMXMXMXMXMXMXMXMXMXMXMXMXMXMXMXMXMXMXMXMXMXMXMXMXMXMXMXMXMXMXMXMXMXMXMXMXMXMXMXMXMXMXMXMXMXMXMXMXMXMXMXMXMXMXMXMXMXMXMXMXMXMXMXMXMXMXMXMXMXMXMXMXMXMXMXMXMXMXMXMXMXMXMXMXMXMXMXMXMXMXMXMXMXMXMXMXMXMXMXMXMXMXMXMXMXMXMXMXMXMXMXMXMXMXMXMXMXMXMXMXMXMXMXMXMXMXMXMXMXMXMXMXMXMXMXMXMXMXMXMXMXMXMXMXMXMXMXMXMXMXMXMXMXMXMXMXMXMXMXMXMXMXMXMXMXMXMXMXMXMXMXMXMXMXMXMXMXMXMXMXMXMXMXMXMXMXMXMXMXMXMXMXMXMXMXMXMXMXMXMXMXMXMXMXMXMXMXMXMXMXMXMXMXMXMXMXMXMXMXMXMXMXMXMXMXMXMXMXMXMXMXMXMXMXMXMXMXMXMXMXMXMXMXMXMXMXMXMXMXMXMXMXMXMXMXMXMXMXMXMXMXMXMXMXMXMXMXMXMXMXMXMXMXMXMXMXMXMXMXMXMXG t.4.-.=.=.=.>.=...G H H F D A C V D D F C A m D A M V M A G < MXMXMXMXMXMXMXMXMXMXMXMX",
"MXMXMXMXMXMXMXMXMXMXMXMXMXMXMXMXMXMXMXMXMXMXMXMXMXMXMXMXMXMXMXMXMXMXMXMXMXMXMXMXMXMXMXMXMXMXMXMXMXMXMXMXMXMXMXMXMXMXMXMXMXMXMXMXMXMXMXMXMXMXMXMXMXMXMXMXMXMXMXMXMXMXMXMXMXMXMXMXMXMXMXMXMXMXMXMXMXMXMXMXMXMXMXMXMXMXMXMXMXMXMXMXMXMXMXMXMXMXMXMXMXMXMXMXMXMXMXMXMXMXMXMXMXMXMXMXMXMXMXMXMXMXMXMXMXMXMXMXMXMXMXMXMXMXMXMXMXMXMXMXMXMXMXMXMXMXMXMXMXMXMXMXMXMXMXMXMXMXMXMXMXMXMXMXMXMXMXMXMXMXMXMXMXMXMXMXMXMXMXMXMXMXMXMXMXMXMXMXMXMXMXMXMXMXMXMXMXMXMXMXMXMXMXMXMXMXMXMXMXMXMXMXMXMXMXMXMXMXMXMXMXMXMXMXMXMXMXMXMXMXMXMXMXMXMXMXMXMXMXMXMXMXMXMXMXMXMXMXMXMXMXMXMXMXMXMXMXMXMXMXMXMXMXMXMXMXMXMXMXMXMXMXMXMXMXMXMXMXMXMXMXMXMXMXMXMXMXMXMXMXMXMXMXMXMXMXMXMXMXMXMXMXMXMXMXMXMXMXMXMXMXMXMXMXMXMXMXMXMXMXMXMXMXMXMXMXMXMXMXMXMX. F vX2.> < < k < > : - = : > ; : , = : : : : : : : : : : : > > p :.,   MXMXMXMXMXMXMXMXMXMX",
"MXMXMXMXMXMXMXMXMXMXMXMXMXMXMXMXMXMXMXMXMXMXMXMXMXMXMXMXMXMXMXMXMXMXMXMXMXMXMXMXMXMXMXMXMXMXMXMXMXMXMXMXMXMXMXMXMXMXMXMXMXMXMXMXMXMXMXMXMXMXMXMXMXMXMXMXMXMXMXMXMXMXMXMXMXMXMXMXMXMXMXMXMXMXMXMXMXMXMXMXMXMXMXMXMXMXMXMXMXMXMXMXMXMXMXMXMXMXMXMXMXMXMXMXMXMXMXMXMXMXMXMXMXMXMXMXMXMXMXMXMXMXMXMXMXMXMXMXMXMXMXMXMXMXMXMXMXMXMXMXMXMXMXMXMXMXMXMXMXMXMXMXMXMXMXMXMXMXMXMXMXMXMXMXMXMXMXMXMXMXMXMXMXMXMXMXMXMXMXMXMXMXMXMXMXMXMXMXMXMXMXMXMXMXMXMXMXMXMXMXMXMXMXMXMXMXMXMXMXMXMXMXMXMXMXMXMXMXMXMXMXMXMXMXMXMXMXMXMXMXMXMXMXMXMXMXMXMXMXMXMXMXMXMXMXMXMXMXMXMXMXMXMXMXMXMXMXMXMXMXMXMXMXMXMXMXMXMXMXMXMXMXMXMXMXMXMXMXMXMXMXMXMXMXMXMXMXMXMXMXMXMXMXMXMXMXMXMXMXMXMXMXMXMXMXMXMXMXMXMXMXMXMXMXMXMXMXMXMXMXMXMXMXMXMXMXMXMXMXMX  b vX3.$ k k k l k k l p k p k k p k 1 k 1 k k k i 1 1 h 1 p 1 p : 1 5.>   MXMXMXMXMXMXMXMXMX",
"MXMXMXMXMXMXMXMXMXMXMXMXMXMXMXMXMXMXMXMXMXMXMXMXMXMXMXMXMXMXMXMXMXMXMXMXMXMXMXMXMXMXMXMXMXMXMXMXMXMXMXMXMXMXMXMXMXMXMXMXMXMXMXMXMXMXMXMXMXMXMXMXMXMXMXMXMXMXMXMXMXMXMXMXMXMXMXMXMXMXMXMXMXMXMXMXMXMXMXMXMXMXMXMXMXMXMXMXMXMXMXMXMXMXMXMXMXMXMXMXMXMXMXMXMXMXMXMXMXMXMXMXMXMXMXMXMXMXMXMXMXMXMXMXMXMXMXMXMXMXMXMXMXMXMXMXMXMXMXMXMXMXMXMXMXMXMXMXMXMXMXMXMXMXMXMXMXMXMXMXMXMXMXMXMXMXMXMXMXMXMXMXMXMXMXMXMXMXMXMXMXMXMXMXMXMXMXMXMXMXMXMXMXMXMXMXMXMXMXMXMXMXMXMXMXMXMXMXMXMXMXMXMXMXMXMXMXMXMXMXMXMXMXMXMXMXMXMXMXMXMXMXMXMXMXMXMXMXMXMXMXMXMXMXMXMXMXMXMXMXMXMXMXMXMXMXMXMXMXMXMXMXMXMXMXMXMXMXMXMXMXMXMXMXMXMXMXMXMXMXMXMXMXMXMXMXMXMXMXMXMXMXMXMXMXMXMXMXMXMXMXMXMXMXMXMXMXMXMXMXMXMXMXMXMXMXMXMXMXMXMXMXMXMXMXMXMXMXMXMXD t.8.> > > O # : : # # & O = = = = & : 2 & = # = # & O 2 : : : ; : : i >.1 MXMXMXMXMXMXMXMXMX",
"MXMXMXMXMXMXMXMXMXMXMXMXMX, G F D D D D H D D J G D H H H H :.=...H H ....H :.=.=.=.=.:.,.,.,.:.,.:.>.,.,.,.1.,.>.,.,.1.,.,.1.1.,.1.1.6.3.6.b MXMXMXMXMXMXMXMXMXMXMXMXMXMXMXMXMXMXMXMXMXMXMXMXMXMXMXMXMXMXMXMXMXMXMXMXMXMXMXMXMXMXMXMXMXMXMXMXMXMXMXMXMXMXMXMXMXMXMXMXMXMXMXMXMXMXMXMXMXMXMXMXMXMXMXMXMXMXMXMXMXMXMXMXMXMXMXMXMXMXMXMXMXMXMXMXMXMXMXMXMXMXMXMXMXMXMXMXMXMXMXMXMXMXMXMXMXMXMXMXMXMXMXMXMXMXMXMXMXMXMXMXMXMXMXMXMXMXMXMXMXMXMXMXMXMXMXMXMXMXMXMXMXMXMXMXMXMXMXMXMXMXMXMXMXMXMXMXMXMXMXMXMXMXMXMXMXMXMXMXMXMXMXMXMXMXMXMXMXMXMXMXMXMXMXMXMXMXMXMXMXMXMXMXMXMXMXMXMXMXMXMXMXMXMXMXMXMXMXMXMXMXMXMXMXMXMXMXMXMXMXMXMXMXMXMXMXMXMXMXMXMXMXMXMXMXMXMXMXMXMXMXMXMXMXMXMXMXMXMXMXMXMXMXMXMXMXMXMXMXMXMXMXMXMXMXMXMX .vX4.> = > <   A w.w.w.w.q.w.w.w.w.w.w.w.w.w.w.w.w.w.w.q.w.q.w.1.= : < : 1 =.k MXMXMXMXMXMXMXMX",
"MXMXMXMXMXMXMXMXMXMXMXMX: N 1 p h h h 1 h h 1 b k p b b b b b b b b b b b b b n n b n n m n n M n m m m m m M n m m n M N N M m M M M m M n M k MXMX< 1 k k m b b b b n b b m m M M m m m M m n m m m m M M M V A M M V M M V V M V V B M M V M M M V m M m V m M V V V V M V V V V C C V S V A A A S A D S F F F S F F S S D F F F F F G F F F F F | S F F F G G  .G | | S F F F  .G G S  .F S F F F | F  . . .G  . . . .F | F  .F F | G  .G | |  .X.F | G  .F F  .F F  . .| F F S G S  .G |  . .G  .F  .F F  .F F  .G | G | G F F  .F F  . .| F | F | F | | G F  .G  . .F  . . . .G G  . .| S G |  . . .F G  .F  .| F F G | F S  .G S  .G S G G F F F F F G S S F F A S A A S S A F A C B m S D V V S A C V B m # MXMX=.vX2.: > < < <   =.-.=.=.=.=.=.=.=.=.:.:.:.:.=.:.=.H H =.H J H H H h : > < > 1 H 1 MXMXMXMXMXMXMX",
"MXMXMXMXMXMXMXMXMXMXMXMXh 1 , , : , , , : 1 1 ; : 1 < , 1 1 1 , , 1 1 1 , 1 1 k 1 1 1 k 1 h 1 1 1 n 1 h h h b h 1 k p h p h p p 1 1 1 1 > > < 1 > # < b n b M m m m B B V B V V S A S S D F C S S F S F | F |  .G  . . .=. .-. . .H  .F |  .|  . .|  .| F | | |  . ... .| | |  .X. .-.=.X.X.X.o.o. .o.X.-.o.o.o.-.=.X.-.-.;.-.;.<.-.<.o.;.;.;.;.;.<.;.;.;.;.;.;.;.;.;.;.;.O.o.;.;.;.;.;.;.;.;.;.-.;.;.;.;.;.;.;.o.;.;.;.;.;.;.;.;.;.;.;.;.;.;.;.o.;.;.;.;.2.2.;.O.;.;.;.<.;.;.O.o.;.O.;.;.;.;.;.;.;.;.;.;.;.;.;.;.<.;.;.;.;.;.;.;.2.;.;.;.;.;.;.;.;.;.o.;.O.o.;.;.;.O.O.;.;.;.;.;.X.O.;.;.;.;.-.X.o.-.;.;.O.o.-.o.o.o.-.X.X.X.;.X.o.o.o.o.X.X.X.X.X.X.o.X.X.X.X.X. . .| F | | |  .| | | S V C S S C S S C D C V n -   ,.vX2.> y > y > -   A k l k k k k k k p k b b k k h p 1 1 k 1 k 1 p p < > : , , : < =.h   MXMXMXMXMX",
"MXMXMXMXMXMXMXMXMXMX  n p , , , 1 , , , : , 1 , 1 1 1 1 1 : , , 1 , 1 1 1 1 1 < 1 , < 1 1 1 h 1 1 p 1 1 1 1 1 1 b p p h h 1 1 1 , , > , 1 < < < > # o O O # # O O O O O # # # # % # O O O O O # # O X # O # O O O O # O O # O O # O O # # O # O O # O X O % O # # % O O X # O o % % + o # # # # # # O # # # & # % % # # # # # % % % # # # # # O % % # # % % # $ % # $ % % $ % % $ # $ = # # @ $ # @ $ $ % $ 6 % $ % # - % % % $ $ % % $ # $ $ % % $ % $ 6 % % $ $ % % % * @ % $ $ % $ @ % % $ % $ $ $ % $ $ ; % % % % # % $ @ $ % # % @ # % % $ % % + $ % % $ % % # % $ % % $ % % # % % % $ % $ $ $ % o % $ # # $ # # - # % % % % # % - # % % $ + % $ # + % $ % % O % # $ # # % # % # O $ # % # % X # X % X . . +   4.mX=.> i < > > > =   S p p i k 1 p h p p < 1 1 < , < , < < p 1 1 1 1 : < > < < : > : : ,.1 . MXMXMXMX",
"MXMXMXMXMXMXMXMXMXMXb p : , , : : 1 1 : 1 1 , , 1 , 1 < , : , , 1 1 1 , < , 1 1 > 1 < < 1 , 1 1 p 1 h 1 1 1 h 1 1 p p 1 p 1 1 1 , : > O O & : : > : # : : > : : = : - : : : > , < : < > > > : , , , , * , > * , > > > < > , < > > , , * > , , , , , > , , > > : > , > > - > , , > > < > , < < 1 y , < , y y y y i i < i < < < y i i i < i i i i i i y i i y y i i i i i i i i y i a y i u a i u a y u i u i y i i i u a i a u a i a u p i a i i i a y i a a a i i y a i a p y p y i y i t i y i i u i i u a a i a i i y y i i i y y i y i i t u i y i i u i i i i y y i u j u t y ; y y u y t j y y i i t > y y y i i t i i y t < < i - t < y > > y u - > > , > - - - t > - y : > - - - : : - = - - & & & : # & > ,.mX;.: i p , < > - =   A k < p k p h k k h p h h 1 k k h p k k h k k h h , > < : > > > : ; =.h MXMXMXMX",
"MXMXMXMXMXMXMXMXMXh p > > , , : , 1 : , , , , , , : , , , 1 1 : , , 1 , , , , , 1 < 1 < 1 1 1 : 1 b 1 1 1 h h 1 1 p 1 p 1 1 1 1 , > & n :.6.6.6.6.1.3.4.4.5.4.3.4.4.4.3.3.4.3.5.5.5.5.3.5.4.4.5.7.4.7.4.5.5.7.7.7.4.5.5.5.5.5.5.5.4.7.7.7.5.5.5.7.5.7.7.7.7.7.7.7.8.8.8.7.7.7.7.0.0.0.0.0.8.8.8.0.8.0.q.0.0.7.q.0.9.9.0.0.9.9.9.0.9.0.q.q.9.9.r.r.e.q.e.e.e.e.q.q.e.e.e.e.q.q.q.r.9.r.9.q.q.r.9.r.9.e.e.9.q.e.e.e.e.e.9.r.r.r.r.e.e.e.e.e.e.r.r.r.e.e.e.r.r.e.r.e.r.r.r.r.r.r.w.9.r.e.e.r.e.r.9.e.e.9.r.e.e.r.e.e.r.q.r.r.r.r.9.e.e.q.q.q.q.e.q.9.9.e.r.9.9.q.9.0.9.9.e.9.9.9.9.e.e.9.e.9.9.q.9.9.9.9.e.q.9.9.9.9.q.9.e.q.e.9.r.e.9.9.9.9.9.9.9.9.9.q.9.e.8.0.0.9.8.0.9.9.8.9.q.8.0.0.0.q.0.0.0.8.8.7.q.8.8.7.7.q.t.>.> p i p > > > = #   A p < < # = # # # = # O # O = # # # O # # # # O : , < : < < > : > : < D h MXMXMX",
"MXMXMXMXMXMXMXMX1 1 , : > > > : 1 , , , , ; , , > 1 1 1 : , , , , , , , : 1 , , : 1 , , , 1 1 1 , , 1 , 1 1 h 1 h 1 1 1 1 , , , 1 O b :.F A D D D V D D D D D D S D F A D D D D D A D D D D D F C D D F D D D D D D D D F F D D D D F D F D F J D F D D D F F D D F D F F F | F S S  .G F F F J J F G  .| F F J F H H  . . .G G  .G G  . .X. .X. .H  . . .X.....X. . . . . .o. . . . . . . . . . . .X. . . .X.| | X. .X. .X. .X.X. .X.X. .X. .X. .X. .X. . .X.X.X.X.X. .X.X.X.X.-.=.X. .X. .-. .-.-.X. .| X.-. .| -.X. . .X.X.X. . .X.X. .X.X. .X.X. . .|  . .|  . .|  .| |  . .| | | | | |  .S | | | |  . . . . . . . . . . . .| | |  . . .| |  . . . .|  .F |  .S F | | F | F | | F F | F F S F A F F F F F F S n p y i p , > > - - O   V i p :         o                                 X > < : < : : : < < < A h MXMX",
"MXMXMXMXMXMXMX1 1 : , : : > > < : 1 : : : , , 1 , : 1 : , : : 1 < > > , , : : , , , : , , , 1 1 < , > < 1 1 1 1 1 1 1 1 p p p , . k D k 1 1 p 1 1 < , , 1 1 > , < < < 1 p 1 p 1 1 , , , , p < i > , , , i , p , y p p p 1 < p p p p p p p p p p i < < p , p p p , p p p , i p p i < p p p p s i p i i p p i s p p s s s l a s l l p a s s p s l s s s s s l d s s s d s d s s d l z d l s z l s z z s z s s a d s s s s s l s z d d d d d d s z z s s s s z z s a s s s s a s s z l z a l l z d a z z a z z a a a a z f l a z a z d a d d d z s a d d d a d z d s d z z z a a l z a l z z l z a l s a l s d l d a a d l s l s a l a l z s d s s s d s s a s a a a s a s s s s a s s s s s s a i y s a p s i i p i i i , y , , i < > - =   A p < =     X : : : : : : = = = : = = # # # # 2     . < : : < < : : : : 1 m   MX",
"MXMXMXMXMXX & 1 ; 1 : , : : > > : : , : , : : : : , > , , , , , , , 1 > , : , , , ; , , , , , : , 1 < < 1 1 1 1 1 1 1 1 , , :   b H : , < , < , < : : > > > > : , , : > : , , , < < , , , > , , , > > , , , i , 1 1 p p p , , 1 i > p p , , 1 , : , , i , , 1 y , i , 1 p y > p i i < i i p i p s p p i p p p i p s i i s p i l s s s p p s l s s s p a s y s a a a s s s a l z a l s s s a s s s d s s z s a a s d d s a d a z z d f a d a z a d a s d d s d d s d a z s d s d a u a z a f s a z a a f a a z a z l z a a a z s a d a s s s a z s d s z a d d a d d a a l a z z a a u a u a a z f a z u a d z d z d s a d s z s u a a d a a s a a a a a a a s a a a y a a s a s a a a a s u s a i a a a d a i s i p i i y < > - > - - $   V < p =     : < : : 1 : < : < : = : : = > : # :         1 > : > : < < < < =   X ",
"MXMXMXMXO : : : , , , , , , : , , 1 : 1 : , , , , , , , , , , , < , < 1 1 , 1 1 , , 1 1 , 1 1 , , 1 1 , 1 1 1 1 1 1 1 1 1 1 , N J : > < < , 1 1 < , , 1 < 1 1 > 1 1 1 < , p 1 , < 1 p 1 p p p , , p y p p p , p p , p p p l p p p p p p p p s p i p p p s p p p i p s p p p i p k i k p s p p s s s b s l s s b s s l s d z l s z b s Z s s l z l z z d z z d d d d s z d z z z z z z z z d z z z d z z x d x d d d x z d z x x x f x z z z x x f d x x z z d f d f f x x d d d x f x x x x z x x z z x z z x x x x x x x z z x x x x d f d f z z z f x x x f d f z x z z z x f x x x x z z a x z z z z z z f z z z z z f d z d z z d z x d d d d f d d f d d d d d d d d d d z z z z s s d s a Z s s a s s s a i i i i , i i > > - - O   A i 1 :     : 1 : : : < : : < < < > > : : : = >           < < : < : : : : <   o ",
"MXMXMXMX, >.6.1.6.3.6.1.1.,.,.1.1.1.6.6.1.6.3.4.6.4.4.4.4.4.6.4.4.4.3.5.5.5.5.7.5.4.5.5.5.5.5.4.5.7.5.7.5.5.7.5.5.5.4.4.5.7.1.A : , , , < : # = O : & & = # # # : O # O & O : O O & = O # O # O # & O = O O # & O # : # # : # : = : # : & : # & # # : # : : # : - = : # # = # # : & & $ # # = - : : : : = : > - > > > - y > - y > t - > - y y > $ t $ y - y y t $ y t - y - y - y $ y > 6 > y y y i t y y y y > t y t $ y t 6 y y y y t y y t y u t y t y u 6 t t t 6 t y y t t y 6 y y y 6 y t t t t u t u u y y y 6 y y t y t t y u 6 y y 6 6 t 6 u y t t y y y t t 6 y 6 6 y y t y t - t t t t t t - y 6 y y y y > t t > t - y - $ y $ $ 6 - $ $ - 6 $ > 6 - $ $ > 6 $ $ > $ > $ > $ t > - - : $ $ : % $ > i s i i p , < > > > - - =   M < i =     < > : > < > < : < : < : < : : : : , o   &       : < > > : : , O   X ",
"MXMXMX, n 1 1 h 1 , 1 , , , 1 1 1 1 1 1 1 p 1 1 h 1 h 1 h 1 h 1 1 1 p 1 1 h k b p 1 h 1 b h 1 h 1 1 1 h h p h h 1 h h 1 1 1 1 , , , , < #                                                                                                                                                                         .         .     . .     .     .   . . .   .   .   .     . . . . . . . . . . . . . . . .   . . . . . . .   . . . . . . . . + . . . . . . . . . . . .   . . . .   . .   . . . . . . . . . . . . . . . . . . . . . . . . . . . . . .   . . . . . . . . . . . . . . . . . . . . . . . .   . . .   . . . . . . .   . . . . . . . . . . . . . .     . . .   . . . . .   .           .     .   . . o p s y i y > i - > - - =   M < k =     < 1 > > : < : < : < < : : : : : : ,     1 <       : > : > > :       ",
"MXMX, b , , 1 1 < < , , < 1 , , 1 1 1 , p 1 1 k 1 1 h 1 1 1 1 1 1 1 1 1 1 h 1 1 1 1 1 p 1 1 k 1 h 1 h h p 1 1 1 1 h 1 p 1 1 , , 1 , 1 O                                                                                                                                                     .         . . . . . . . + + . + + + + + . + + + + + + + + + . + + + + + + + + + + + + + + @ + + + @ + + + + + + + + + + + + + + + + @ + + @ + + @ + + + @ + @ + + + @ @ @ + @ + + + + + + + + + + + + @ + + + + + + @ + + + + @ + @ + + + + + + + + + + + + + + + + + + + + @ + + + + @ + @ @ + @ + + + + + + + + + + + + + @ + + + + + + + @ + + @ + . + + + + + + + + + + + + @ + + + + + + + + + + . + . . . . . . y s u > > > - - > - O   B p 1 =     < > > > < > > > 1 1 < : : > > : : 1     2 1 :                     X ",
"MX: b 1 , , , , , , 1 < 1 1 , , 1 1 h h k 1 1 1 1 > p 1 1 1 h h k 1 < k 1 1 1 1 p h h b 1 , h 1 1 1 k 1 p 1 1 < 1 1 1 1 1 1 , , 1 1 :                               .         .                                                       . .       .               .     . .   . . . . . . . + . o . + . . . + . + @ + + @ @ @ @ @ @ @ @ @ @ @ @ @ @ @ @ @ @ @ @ @ + + + + @ @ @ 8 @ @ @ @ 3 @ @ @ 3 @ @ @ 3 3 @ @ @ @ @ @ @ @ + @ @ @ @ @ 8 @ @ 3 8 @ @ 3 3 3 3 @ @ @ @ @ 3 @ @ @ @ @ @ @ @ @ @ 8 3 @ 8 @ 8 8 @ @ 8 @ 3 @ @ @ @ @ @ @ @ @ @ @ @ @ @ @ @ 3 @ 8 3 8 3 3 8 8 @ 3 @ @ @ @ @ @ @ @ @ @ @ @ @ @ @ @ @ @ 8 @ 8 @ @ @ 3 @ 8 @ 3 @ @ @ @ @ @ @ @ + @ @ + @ @ @ @ 8 @ @ $ @ @ @ @ 3 @ @ @ @ @ @ + @ + + + . .   y b y u > > - - - O   m < i :     1 > > , 1 1 1 1 < < < 1 1 1 > > > 1     O # n o                     ",
"  , , , 1 1 , > > , , > > , , , > > < , , > , , , , , , , 1 1 1 , , , , , 1 1 , 1 , , , > , 1 , 1 1 , < , < , , > > > < , : , , , :                     o     o     o     . .   .   .     .   .       o .   . o o   o o o . o   . o o o   .   . . .   .       . o o o . o o o o . X X X o o o o + o O + + . + + @ % 8 e e 7 7 7 7 e 7 7 e e 7 7 7 7 7 5 e 4 3 @ @ @ @ @ @ 4 7 0 e 0 e e e e e e e e e e 0 5 e 7 7 3 3 @ @ 3 3 3 3 5 e 0 w r e e e r e e e e e e 0 e 7 5 7 3 3 @ @ 3 @ 3 3 3 e e e 0 e e e 0 0 0 0 e e e 0 0 7 7 7 5 @ 3 3 @ 3 @ 3 4 e e r e e e 0 e e e e e e 0 0 0 e e 7 3 3 3 @ 3 @ 3 3 4 e 7 e e e e e e e e e 0 0 e e e 7 7 7 8 3 3 3 @ @ 3 3 5 e e e e e e w 0 e r e r e 0 5 5 5 5 8 @ + + + .   i s < < - > - - =   V < p :     1 > X   .                     O : 1 o   O O b O     o o             ",
"o                                                                                                                                             O # : & > 1 1 , , , , > < , , > > , < < O   . .   . X : < , > < < i < < 1 < < < < < 1 < i p i #   . o .     % u ( ( ( ( ( ( @.+.( ( ( ( @.@.@.+.@.( ( ^ @ + @ + @ @ ' ).(.).)..X~.(.).(.).(.).(.(.(.).(.(.^.g.9 8 3 3 @ 3 0 [ _._.`._.)._.(.).`.`.`.).).(.(.(.(.(.~.{ 9 3 3 3 3 8 0 g.`._._._._._.`.(.)._._.[.`.(.).).).(.(.g.e 3 3 3 4 3 r [ _._.).(.(._.(.(.(._._.).(.(.`.).(.~.~.h.P 3 3 3 4 4 K h._._._._.`.`.(._.`.`.).).`.`.)._.).(.^.] 4 3 3 3 3 3 w !._..X_._._.`._._._.`._.(.).(.(.(.~.).^.{ 9 3 3 4 3 4 / )._.`._.`._.`.).).J.).(.(.(.~.(.(.~.!.!.} 3 + + . . . s i i > - > - =   B i < #   . < : : A D D D D A D D D D A M 1 : 1     : # k X   & : b b   & n o O ",
".                                                                                                                                           O O X X X O o O O O O O O O O O o O O O O O o   .     = O O O O O X # O % O O O % O O O O O # O O X     .     7 m.'.G.J.J._.J.G._.H.H.'.H.J.H.H._.H.S.G._.h.9 3 @ @ ^ 1XC.l.c.c.n.n.c.c.A.A.G.G.c.C.C.A.l.l.x.A.g.9 3 3 3 4 ] ].C.C.G.G.D.z.z.A.c.A.G.G.z.z.z.c.z.l.k.S.g.3 3 3 3 8 j.'.C.A.A.C.D.H.H.G.G.A.A.G.A.H.D.C.C.c.l.S.{ 5 3 4 4 4 x.#XS.C.G.C.G.A.G.G.H.C.C.C.C.G.J.G.A.z.l.A.x.9 3 4 5 9 g.Y.C.A.G.H.H.H.C.C.C.C.G.A.G.G.z.A.G.c.c.(.' 3 4 4 4 4 (.#XG.G.D.G.G.D.C.G.G.G.G.C.G.A.n.c.A.n.k.A.! 4 4 4 5 ^ |.S.G.G.G.G.D.D.G.G.G.G.C.c.A.l.c.n.l.d.i.G./ + + . . . s i y > > - - #   V i < =     1 , n J H =.:.>.=.:.:.=.,.:.J n : 1 o   O : b X   O O : h   & b   O ",
".                                   . .   o   .   .   X   .   X               .             .   o                     X . . . X .           O o o . X X o o o o O O O o X o O O O O O # o   .     = O X O X o o O o O O O O O o O O O % O O % #         . g  Xp.x.l.k.l.x.d.k.k.c.l.z.k.l.v.z.f.k.f.y.|.W @ @ @ { ,Xu.n.l.c.c.x.l.k.A.c.l.l.x.A.c.l.k.c.x.y.`.I 3 4 4 5 f.'.n.z.n.A.A.z.c.A.z.l.n.n.l.n.l.n.k.f.d.k.[.9 8 4 4 3 '.H.l.A.l.z.c.G.z.z.A.l.c.(.A.l.z.c.c.u.l.C.(.w 4 4 4 r ].N.~.C.C.G.C.H.C.z.D.n.l.G.D.z.z.c.l.c.f.f.'.U 3 4 7 e J.H.G.A.G.A.z.z.z.n.G.G.c.z.G.C.c.l.c.l.k.~.(.3 4 4 4 q 3XC.n.C.z.b.c.s.c.c.z.z.D.k.c.G.l.c.n.l.f.A.g.9 4 3 9 @. Xy.b.z.G.G.G.b.G.c.G.G.G.z.c.l.k.l.f.d.j.k.Q.+ @ + . . i i i - - - = O   m < i =     k 1 h 1 1 p 1 < < h 1 : : : : , : 1 o   = O k O       & 1   & h   O ",
"o   o           . o . X X X X X X X X X X O O X X O X O O O X X o o X .   X X   o   X   o   X     o . .   . o   .     & X O X & O           = O O o o O O O o . o X O o O O o X O O X # O   . .   = O O + X O X # O O O o 2 % O O 2 O # O O O =     .   X g |.k.n.n.G.G.G.G.A.c.A.c.G.z.G.A.c.c.l.c.y.,X` @ 4 % [ 1Xk.n.G.H.z.H.G.A.z.A.A.G.C.G.G.c.c.z.c.y.|.E 3 3 4 5 m.R.G.A.A.H.v.G.A.G.A.A.A.c.v.l.l.l.v.c.l.k.:XU 3 4 3 @  XY.A.C.H.z.S.C.l.H.A.G.A.C.G.z.G.C.z.l.c.z._.q 4 5 4 K 1XC.(.Z.Z.C.U.Z.S.S.S.S.C.G.G.G.C.C.A.l.l.k.].P 5 4 4 e '.H.G.D.A.S.U.H._.C.A.H.H.G.C.G.C.z.c.A.k.J.`.3 5 4 4 L eXs.z.D.F.H.C.G.G.G.G.A.G.z.c.z.A.G.k.l.c._./.9 4 4 4 @.}.u.G.c.D.D.a.G.G.C.C.C.l.A.c.l.l.n.x.k.` n.Q.@ @ + + o s a y , - - - #   M k < O   o 1 p 1 p p k p n p p , , > : 1 : : 1     : = b X   X o & 1   O h   o ",
".             o X O O X O O O O O O O O O O O & O O O O O O O O X X O O O O O O O # O O O O O O O X O O O O X O o     : O O O > O           # o O o O O O o O O O X O O o o O O O O O # O   o     # O # O O O O O O O O o o # O O O O % % # O =   .     O g  Xb.c.G.H.C.H.z.z.C.A.C.C.A.A.C.C.G.A.l.k.wX) @ 8 @ [ 1Xk.G.G.H.A.G.z.C.C.G.C.C.C.H.C.C.G.z.l.d.|.Q 3 4 4 7 x.R.H.C.H.U.H.A.H.J.S.A.H.H.S.H.C.c.H.A.l.k.#XU 3 4 9 $  XL.z.H.S.S.H.S.U.S.H.S.A.S.C.U.C.H.C.A.z.C.[.K 5 4 4 w 1XV.G.K.S.H.S.H.U.U.S.L.S.F.U.S.H.H.A.H.c.k.#XI 4 5 5 e J.Y.H.F.S.U.S.A.C.H.C.S.U.A.S.G.C.C.A.l.k.J.[.4 5 5 4 R eXZ.H.F.J.F.H.F.C.H.A.A.H.J.F.C.A.C.c.C.l.G./.9 7 9 5 { }.s.H.F.G.D.U.U.C.S.C.H.S.S.A.A.C.A.v.d.k.c.^.3 @ @ +   p a y > > - - =   B i < :   . k 1 , 1 1 k p p < , , > , < < 1 < 1     O O b X   X o : 1   & 1   o ",
"o   b n n h   o & O O O O & O O O O & : & & & O 2 & & & & & & O X   .   X                 o                         . : O # O > :           # O O O O O O O O O = O O O O O o O O O # # o   o .   # X % O O O O o O O O % O O O O % O # # % o >     .   X g |.s.H.H.S.D.G.C.S.S.S.A.S.S.H.H.H.C.v.A.p.wX` 3 8 @ [ wXv.H.F.S.H.D.S.S.S.S.S.H.H.F.G.H.C.z.A.p.|.~ 4 4 4 e x.R.J.N.Y.U.H.Z.U.Z.L.Z.U.S.H.H.Z.U.U.G.c.k.:XL 6 9 9 3  XT.C.S.S.U.U.U.U.S.H.Z.H.U.S.U.S.F.H.A.A.z.'.K e 5 5 r 1XV.J.K.F.U.U.Y.S.U.S.S.C.F.F.U.S.S.S.A.c.p.;XI 4 5 9 r '.H.H.H.F.H.U.U.L.S.H.H.U.Z.F.C.H.U.A.c.v.Y._.4 9 4 4 L 8XZ.F.F.H.C.F.U.U.F.C.L.H.C.F.U.S.C.H.G.l.H.x.9 7 4 7 { ;Xv.D.S.S.F.H.H.S.S.Z.A.S.S.S.C.S.C.C.c.k.H.!.3 @ @ + . s a y > - - - O   B i p :   . 1 p , < < 1 < , < < > , < < : < : 1 o   = O b     o o : 1   O h   o ",
"  o b k n M   X O O O # & 2 & & : & & : : : : : : O & & & 2 & & O                                                   X > O & O > :     .     : X O o . o O O O O o O O O O O O # O O O = o   o   . # O O O O O O % O O O = O O # O O O O 2 O o <   . .   X Y |.D.A.S.F.S.U.Z.H.F.H.U.S.U.H.H.C.H.A.A.v.wX` 3 4 8 j.wXa.C.F.F.Z.U.Z.S.H.U.U.F.H.F.J.S.S.S.C.k.;X~ 4 4 9 9 x.oXS.Z.S.K.U.Y.R.U.U.U.K.T.U.L.Z.H.C.S.A.C.4XU 7 9 7 3 ;XR.H.L.L.U.U.T.L.L.R.U.S.U.Y.S.F.F.H.C.S.v.[.K 9 9 5 P ;XV._.B.F.U.K.L.U.T.XXU.L.U.L.U.L.S.U.S.C.k.#XI 4 5 e r  XU.U.F.U.U.T.T.L.U.T.T.U.U.U.U.S.U.C.S.C.Y._.4 0 4 4 Q eXB.G.D.F.C.Z.L.U.Y.Y.L.T.U.U.H.U.Y.L.C.A.S.m.9 9 9 7 @.,Xv.H.L.F.U.L.U.L.U.U.U.U.L.L.U.S.S.S.A.l.U.Q.3 3 @ + . l a i - - - - #   M < i #   . p 1 1 < < < < > < < > > > , , : : 1     = = b X     o & 1   # p   O ",
"  o 1 : : n   X # & & & O & & & > : : & & & : : : : : & & & & & O   X   . o X X 2 X X X o X   o X X X X X o   X o   o : : = O 1 :           = O O O O o O O # o O O O # o O O O # O O - o   o .   # O O O O O O O % # % # O O O # O O O O O O -   . .   . Y |.a.C.H.L.H.H.H.S.Z.L.U.S.K.H.U.F.H.S.H.v.wX` 3 5 3 j.tXa.D.H.U.F.H.L.S.S.L.K.U.L.Y.L.S.S.H.D.v.,X! 4 5 0 e l.oXU.L.F.L.T.T.U.R.T.T.Y.U.L.L.U.C.S.G.S.C.4XU 4 9 e 4 }.oXC.U.K.U.U.U.K.U.R.K.U.L.L.U.U.U.S.A.A.F.'.K 9 9 5 K :XV._.L.T.K.Y.Y.T.T.T.U.T.T.R.L.Y.U.U.S.C.p.;XQ 9 w e P {.E.H.L.T.T.].U.L.L.L.T.S.U.T.T.L.U.S.H.Z.Y._.9 4 0 4 Q eXB.H.Y.U.Y.T.Y.U.T.F.U.U.T.K.U.Y.L.L.F.N.'.x.w 0 9 7 { :XC.J.U.S.L.P.Y.K.U.U.U.U.T.Z.S.S.Z.C.C.k.U.!.3 3 @ + X d a y y - > - O   B , < :   . 1 1 < : < < > < < , > < < < : < < 1     # O b X   o o : 1   # 1   o ",
"  o 1 : : n   O : O & 2 O & : &         o   X   X & : & & : & : :                                                   o , O & # > :     .     = O . O o O O o o O O O O O O # O # O # O # X   o     # O # O O O % O O 2 O O O # O O O O O O # O =   X o   o ^ 1XC.F.U.U.U.Z.Z.U.U.U.T.L.].Y.U.F.U.C.S.S.3X` 8 3 8 g.eXN.U.U.U.U.Z.S.T.U.T.Y.T.Y.U.Z.U.H.C.F.D.1X_ 4 9 0 g n.;XU.L.T.T.R.T.F.L.L.U.Z.T.T.Z.S.].Z.S.C.C.2XL 5 9 e 4 ].OXS.].U.T.K.L.U.K.T.oX#XU.L.T.Z.T.U.H.S.H.].I e e 9 K #XK.'.U.U.U.L.Z.T.T.oXT.T.L.L.R.T.U.Z.Z.U.z.:XE 5 9 0 Y }.oXR.U.T.L.T.K.K.#XT.T.T.L.L.U.Y.S.U.U.N.Y.'.9 0 4 4 T rXV.Y.L.L.F.L.U.L.L.].T.T.U.T.T.U.S.U.H.S.L.~.q 0 9 0 { :XF.U.K.L.T.T.T.T.I.K.K.T.Z.L.U.U.H.C.G.a.U.^.4 3 @ +   s p y : > - = %   V i p O   X 1 < : < < > > > > > < > > 1 > : : h     # = b o   o o & ,   & h   o ",
"  o , : : k   O # # # & : & X O 1 D :.=.=.6.6.J b : O & : : : , A J D A A D D D D J J J J D J J J D J D A A J M h o o 1 # & # > >     .     = O O o O O O o o O O O O O o O O O O O # # X   X .   = # O O O O O O O O O O O O O # O # # O % O -   . .   . ^ ,XC.F.L.L.L.U.U.U.T.oX].Z.U.C.L.L.U.S.C.z.rX` 4 4 4 j.rXN.U.L.U.L.U.T.U.T.oXR.U.F.C.U.U.F.S.D.N.1X_ 9 e q e c.oXH.L.L.T.T.T.R.T.R.T.U.R.oXL.T.L.U.S.Z.C.4XE 4 9 e 4 ;XoXZ.K.U.L.XXT.R.XXR.U.K.T.oXT.T.Y.K.S.H.Y.].I q r q K <XK.H.K.T.T.T.T.#XXX+XT.oXT.T.R.L.U.U.S.H.N.1XE 9 0 r P '.R.H.K.U.U.U.T.#XP.oXT.T.R.R.L.Z.L.U.U.C.Y.'.9 0 w 0 E rXW.U.L.L.R.Y.R.oXU.T.R.T.P.T.U.T.L.S.S.S.Y.~.w 0 q e { :XS.Y.T.U.P.oXL.R.R.L.T.T.T.T.T.Z.L.Z.F.C.E.^.4 8 @ @ . d i y y - = # O   V i 1 O   . 1 < > > : > 1 < : < < : > < : > : 1     : O b X   o X & 1   # 1   o ",
"o   : : > b   O # # & & X O h M M k , : : , ; N :.:.D & & : : : : : : : : : : & : : = = : : & # = = : : : : : : :   o , & # # > :           = O O O o o O O o O O O O O O O O O O O O : O   .     = O O O O # O O O O $ % O # % O O % O % # O >   . .   o Y 1XC.Y.T.F.L.L.oXR.T.XXoXP.T.U.Z.T.Z.F.H.C.3Xy.8 4 3 h.tXa.U.E.U.U.L.oXT.T.T.oXR.T.U.L.T.Z.F.F.C.:X_ 0 0 w e n.R.T.L.T.R.R.oXP.R.R.T.XXoXR.R.P.K.T.S.Z.S.4XE 7 q 0 4 1XOXK.T.oXI.XXoXR.#XXXT.oXT.oXL.T.T.U.S.A.Y.].Q K e q I ,XP.'.XXT.oXT.oX+X+X#XT.oXoXoXT.R.L.T.U.U.C.:XE 9 w r P ].oXU.T.U.XXT.T.oX+XoXXXoXT.oXR.T.L.U.U.Z.#X[.9 w 0 9 Q sXL.F.E.T.R.R.XXoX$XT.oXI.oXP.U.T.L.S.U.C.R.A.U w r 9 [ >XL.U.R.P.R.oXoXoXR.R.I.T.L.R.L.U.U.S.F.F.L.!.4 3 @ + X s p y y - - $ #   V p 1 =   o 1 1 < : 1 > 1 < < : : < < > > : : h     # O k X   X o : ,   # 1   o ",
"o   : : : k   X & : : X # N h , : & : # & & O & & 1 H :.: O , : # # O O O & O O & O O O & X O O & & O & O & 2 O & o o , O & # , :     X     : X O O O O O O o O O o o O O O O O O O O - o   . . . O % O O O O O O O O O O O O O O O O # O # # >   . .   # Y 1XN.F.T.T.T.R.XXR.R.oXXXT.R.oXT.R.F.U.U.C.eXy.4 8 3 h.eXN.U.R.L.T.$XR.R.oX$XI.I.oX$XI.T.L.U.H.N.3X_ 0 0 q r x.$XU.K.R.T.T.oXR.oXOXoXOXI.$X$XT.#XE.L.U.K.4XE e q w 9 ,XOXL.XXXXR.I.oXoXoXoX*XOXoXI.R.XXT.P.Z.C.T.;XI w 0 q P 1X@X].P.oXXXoXoX*X%XOXoXoXXXOXL.$XR.Y.U.U.B.:X~ 0 w 0 P }.oXT.P.R.R.I.R.#XXXOXR.oXT.oXoXR.I.L.L.Z.$X[.9 0 w 0 Q sXW.Y.T.R.R.OXR.XXoXXX%XXXoXI.T.L.L.L.F.S.oX~.U r q r [ 3XK.T.oXT.oXoX:XI.oXoXL.oXR.R.L.E.U.F.F.z.T.^.4 3 @ @ . s u i * > * & #   B k p =   . 1 < < : < < > > < > > < > : > > : 1 o   # O h O   X O : 1   # 1   X ",
"o   1 : > b   o # :   O n > : , : : , 1 : : & O : : & M =.X O : & 2 O O : O O & & 2 2 & O & & O & 2 & O O & & & :   o , 2 : # , :           & O O O # O # o o O O O O O # O O # O O O = O   o o   = O # O % # O # O # O # O # O O # # O % # X ,   . .   X Y 1XB.{.R.Y.R.:XXX$X$X%X%XOX%X%X%XR.R.T.Z.C.aXu.3 4 3 h.3XZ.oXT.I.$X%X$X$X%X%X=X*X%X&X:XR.R.P.K.C.3X_ 9 0 w w n.$XP.P.oXR.$XOXOXOX%X>XXXoX>X%X$X$XP.;XT.P.9XE e w r 9 3X:XT.oXT.oXoXOX%X*X$X=X%X%XOXOXOXoXR.L.K.R.,XI w 0 w K 3X@XR.I.P.oX2X%X=X=X=XOX&X:X%XI.OXoXR.T.U.F.3X! w K K T }.*XoXR.P.oXoX*XOXOX=XOX>X%X%X%X%XI.U.T.F.$X[.9 w 0 q ~ sXW.E.R.T.oXI.*X:X&X$X*X%X%XXXOXR.T.E.L.S.oX(.r g q r g.4XB.oXoXP.oX2X*XOX%XOXOX$X$X$XT.T.L.E.H.a.R.).9 3 3 @   s a y * - - # %   m i i #   . p < : : > > h 1 1 , > < < : > > > 1     : O b X   X O 2 :   # ,   X ",
"    1 : > k   o & O   1 , : , : : 1 : O O & & , & O : O D D   : & O # : & & & & O & & & & O & & & O O & & O & & O   X , O : # , :     .     : O X O O o # o O O O O O # O # O O # O % = o   o .   = # O O O O O O $ O = # O # O # X X + O # X >   o X   X T >XZ.R.E.E.$X&X-X-X-X5X6X6X5X5X5X%XoXP.U.Z.sXu.3 5 4 l.3XZ.T.E.E.$X&X-X6X6X5X6XiX7X-X5X%XI.T.U.Z.3X_ w g q g n.:XE.XXOXI.2XqX5XqX7X0X7XyX5XiX6X&XP.L.T.T.aXE e r r q <X%XR.XXP.OX%X5X7XdX7XdXdXyX7X0X2XOXoXT.R.R.:XW w w q I <X+XR.+XOX=X9X7XdXdXiXdXdX7XdXyXqX*XP.T.L.B.2X! w K w I ].OXoXoXoX*XqXdX7X7X7XdXyXqX5X6X&X{.L.T.L.%X,X9 w w q ~ hXXXR.oXI.XX*X6X6XdX7XdXyXyX6X7X5XoXT.T.K.oXS.U r q w g.9XI.oXoXR.%X7X7XqX7XqX0X7X5X-X>X&XE.T.Y.Z.E.).4 3 @ @   a p y t : # # %   M < k =     1 < > : < 1 > o         : > : : : 1 o   # O h     X o = 1   O ,   O ",
"o o 1 : : b   o #   : h : : : , :             X & & O : O H ,   & & & O & 2 & O O & O & & O O & & & O & O & & & : X X , O & O , ,           : X O O O O O O O O O # O O O O o # O # O = O   o     = # O O O # O O O O % # O O O O % O O # O % p   o X   # ^ 1XE.T.$X$X&XyXyXdXcXyXyXiXfXyX-X%XI.R.R.K.aXu.4 5 4 f.9XV.R.$X%X5XyXuXuXuXuXfXdXdXdX-X*XI.R.R.K.3X) q w w w n.2XI.XXoX$XqX6XdXfXfXdXfXfXfXuX7X>XOXT.T.T.9XW e q q q 3XOXR.OXOXoX-XdXdXgXfXfXfXgXjXuXqX%XoXT.L.oX1X~ K w q I 4X+XoX+X$X=X7XfXjXjXfXgXfXfXfXyXyX%XoXT.E.L.4X! e w w Q ;X2X%XoXOX5X0XdXgXdXfXfXfX0XfXyX6X2XL.P.L.&X|.q w w q ~ sXXXR.*XOX&X6XyXdXdXfXuXfXjXdX6X5X%XXXL.U.oX(.K P q r g.9XI.oXoXXX=X7XfXgXfXdXfXyXiX6X6X>XT.L.E.L.oX^.9 3 @ @ X a a p - - - $ #   B < < =   . k 1 > < > > 1   o O O   : < > : : 1 X   # O 1 o   X O = 1   # 1   X ",
"  o : : : b   X X   1 , : : 1 O   2 ; j j j :     & : & O : J   O & O & & & 2 & & & & O O & & 2 O & & O & & & 2 # o o , # O O 1 :     .     # O O X O O O O O O O O O O O # O O O O O # O   X     = O # O # # # O O 2 # % # O # # O # # O # O > . X .   O Y 3XV.E.I.&X-XiXfXdXfXjXjXgXjXfXdX=XoXI.R.L.sXp.4 5 4 m.9XB.E.$X&X7XyXfXuXfXjXgXjXjXjXyX%XoXoXT.L.4X) q w w r c.4XXXXXoX$X7XfXjXfXlXjXjXjXjXgXyX5XoXR.P.T.aXW e q r q 8X=XT.OXOX%X7XfXgXlXjXjXjXjXgXgXdX2X$XoXT.oX>X~ w w q R 9X*X%X+XOX&XdXjXgXjXkXlXkXjXjXgXdX2X*XR.R.P.3X~ r P r I $X=X2XOXOX&XdXjXgXfXxXlXjXgXjXfXdX5XI.T.T.:X[.q r w w ~ sX+X*XI.XX5XyXjXkXcXjXkXfXgXfXyX7X$XE.I.U.%X(.U P w w g.9XP.%X%XOX-XfXfXuXuXpXjXyXuXfXiX&X$XE.Y.F.$X^.4 3 3 @   s s y - - > - O   m < i =   o p < > < > > >   O = : o > , : : > 1     # O 1 O   o o : 1   # 1   X ",
"o   : : : h   o   : 1 : : > #   j c $.$.%.%.$.j o   & & : X A & O & & & O & O & & 2 2 & & O & & 2 & O & & 2 & O : o   , : & O 1 :   .     . : O # O % # O O O O O O O O O o O O O O # = X   o .   = O O O O # % O O # # # # O O O # O O # O O >   . .   O ^ <XE.I.%X&X6XfXjXgXjXjXjXkXlXjXfX5XOXXXT.L.sXu.5 4 4 h.aXE.$X*X&XiXfXjXjXjXkXkXlXjXfXiX5XOXI.R.K.8X` w 0 r w A.:XoX+XXX%X7XfXjXjXlXlXjXjXlXjXjX5XOXI.P.I.aXW r w r q 8X%XT.XXOX&XyXfXjXjXlXzXxXjXjXjXdX5X%XOXR.$X<XQ P w w R >X*X:XOX%X-XfXjXlXlXbXbXlXkXzXjX7X&XOXI.I.L.3X! q K P T ;X=XoX*X%X5XgXjXlXlXzXlXzXxXxXjXfX5XXXXXI.3X,Xq w w w ! hX+X$X*X%X&XfXjXjXcXkXzXlXjXgXyX0X%XoXI.R.:X(.L r q w g.aX@X%X%X=X5XgXfXjXjXjXjXjXfXuXyX6XR.I.T.W.$X.X4 3 @ @   s a p - > $ # %   Z i i :     p > > > > > >   & = : o > < : : : 1 o   # O h O   o O # 1   # 1   O ",
"o   : : : h   o   : : : : ,   2 %.*.$.*.&.&.%.%.j   o & : O 1 1 o 2 & & & & & & O : & O & O O & & & O O & & & & O   o , O # & 1 :   .       : O O O O O O O O O O O O O O O O # O # O : X   .     # % O # O O O O # % O # # O O O O O # # # O >   . o   X T 5XI.$XXX&XyXfXjXlXkXlXzXcXjXcXyX5XXXXXR.L.sXu.4 5 4 l.aXL.$XI.-XcXjXjXkXkXzXzXjXkXfXfX2XoXI.R.B.8X_ 9 w q Y n.:XP.+XXX$X6XfXjXzXlXzXkXkXkXjXuXyX=XOXP.P.aXW r K w e <X=XoXOX*X&XyXjXlXjXzXbXzXzXjXjXjX5X%XXXoX$X3X~ R P q K 8X+XR.XX%X5XfXcXlXbXlXcXlXnXzXjXfX2XXXI.L.W.4XW r K P R }.=X%XOX%XqXdXfXlXzXzXlXzXzXlXxXfXqXI.XXI.2X#XU r K K ! hXOXXX*X=X5XfXjXzXbXjXzXzXzXkXcXyX>XoXR.T.%X_.U 9 K r g.9XXX%XOXOX2XiXgXxXlXjXlXlXuXjXfX-X&XI.E.L.&X).5 3 3 @ X s u y y - - # O   M i k =     h 1 1 : : > <   # : = o > 1 : : > 1     2 O 1     O O # 1   : 1   O ",
"  o : : : h       , : : , :   c *.&.&.&.&.%.&.$.c 2   2 # # , 1   & 2 & O O & & & & & & O & & & & & & & & & & O # o   > # & & : :           = O X O X O O O O O o O O O O O # O O # O # X   o o   = O O O O O O O O O O O O O # # O # O O O O >     o   O ^ >XI.{.%X&XiXfXkXkXjXzXjXjXlXjXuX&XOXOXT.L.9Xu.4 5 5 m.5XI.$X*X&XfXfXkXjXjXzXjXjXkXcXyX%XOXOXE.L.4X) 9 w w r b.&X#X+X%X%XqXfXxXlXzXbXbXjXzXzXyXqX*X%XI.OXaXW e w K q 8X%XT.XXOX>XdXgXlXzXnXzXkXbXzXjXfX7X%XI.R.$X>X~ K w w L 4XOXR.+XOX%XdXzXlXbXbXbXzXbXxXjXgX&XOXoXE.T.9X! r q P T $X&X>XXX=X5XdXjXlXzXbXlXzXzXzXxXjX&XOX*XE.>X].q w w q _ sX%XoXOXOX5XuXjXkXbXbXbXjXjXbXkXdX%XoXR.R.2X_.L r 0 q g.eX*X$XOXXX*XdXyXjXzXxXxXjXjXjXuX6X*X$X{.L.$X(.9 3 8 @   s p y - - - $ O   M < p =     1 , > : 1 > <   # : : O 1 < : > : h     & O h O   o o & ,   : k   X ",
"o   , & : 1       1 & : > &   *.$.$.&.&.&.&.*.$.%.;   O & & & 1   O & & : & & & & & O & & & O & & & & X : : O & &   o : & & O : :     X     : O O O # O O O O O O O O O O O O O O # O = X . o     = O # X O O O O O $ O 2 # O # # O O O # # % -   X .   X ^ 2XE.{.%X$X5XiXjXxXjXzXjXzXjXkXcX6X%XI.E.L.sXp.4 4 5 l.9XE.*X$X$XqXyXjXxXkXkXjXzXkXxXgX5XOXI.T.F.4X) 9 w q g b.=X#X+X$XOXqXdXlXjXxXbXzXlXjXlXfX5XOXXXI.oXaXW w K r q tX%XL.OXOX%X7XjXgXfXkXbXzXkXkXjXfX5X%X%XI.:X>XQ K w w R <X+X;X+X*X=XfXlXzXbXzXbXzXzXbXjXdX2XOXI.I.R.8X! r q P T %X=X=X=X%X%XyXlXlXlXzXbXbXkXbXjXiX6XoX$XE.2X|.U w U w ! hX*XOX*XOX2XfXkXzXzXkXzXzXbXkXuXiX&XR.R.R.OX_.L P w e g.9XXX*X%X=X7XyXfXxXjXxXxXjXjXgXyX6X&XY.E.L.>X~.4 3 3 @ . s a i - = $ # %   m < i :   o p > > , : > 1   # : : o > < > : : h     # & 1     o X & 1   : 1   O ",
"  o : O & 1       , & & : :   %.*.c &.&.*.&.$.$.$.;   & O & & 1   O & & O : O 2 & & & O O & 2 & & & 2 & & O & & : X o : & # # 1 :           : O O O X # O O O O O O O O O O O O O = O = X   o     = O # % O O # # O O O O # O % # # # O # # = >   . .   % ^ 4XP.*XI.&X5XpXpXjXzXjXjXbXkXjXjX7X%X$XR.E.9Xu.5 4 5 m.aXE.$X$X>X6XgXjXkXxXjXkXzXjXxXgX5X%XoXoXE.3X) 0 q w P n.=XXX@X$XOXqXgXjXlXzXlXjXkXkXjXfX5XoXOXR.I.sXW r R K 9 <X=XI.XXXX5XyXdXjXlXxXzXzXzXjXjXfX5X%XOXoX%X4XQ U Y U R 5X+X$XOX%X&X7XjXkXbXbXzXlXlXlXlXjX3XOXI.I.R.qX~ w r w R }.=X%X=X&X2X0XuXlXzXlXbXbXbXbXkXpX5X>XR.E.5X;Xq w K w ! hX%XoX*X%X5XdXjXkXbXzXzXkXzXkXcXiX&XoXI.T.:XH.K r q e g.0XXX%X*XoX2XyXfXlXjXxXzXxXgXuXgX6X&XR.E.B.%X~.4 3 @ $ . s i i - - - # O   B < p =     p < : > < : >   = : : o < < : > > 1     # O b X   X O = 1   # 1   X ",
"    , & : 1       , # : > ,   v c $.*.*.$.$.$.v c 2   : & & & 1   O O O : O O # & & & O O & & O O & & & O O & O # o X , # # O , :     .     & O O O O O O # O O = O O O O # O O O O # = X   o     = # # O O O # O O O O # O O O O # O O O # O >   . X   X ^ 8XP.$X$X&X0XpXjXkXjXkXjXkXzXjXfX5X$XOXoXI.sXu.5 5 4 f.sXW.$X$X&XuXjXjXjXjXkXjXkXjXpXfX2X*XoX$XP.8X) q w w g n.&XE.@X$X*X5XgXjXzXzXjXjXlXjXkXuX8X$XoXI.oXaXW e K K e <X*XoXXX&X2X7XxXkXbXkXbXzXzXzXjXgX2X%X%X$XoX3X! L K w R 5X*X{.+X*X2XyXjXkXzXzXlXlXlXzXjXyX5X$XT.I.R.3X! w w w R 1X&X%XOXOX5XfXjXlXlXzXzXkXzXbXkXjXyX%XR.E.4X[.U w K w ~ sXOXR.XX&X5XuXfXfXzXzXjXjXjXkXjXuX5X$XR.L.%X(.K w q w g.0X%X%X%X*X5XyXjXjXxXxXjXjXjXgXgX6X$X$XY.F.%X(.4 3 3 @ . a y y - - = - O   B < i :     1 < > < < > ,   # : : O < < : > : 1     # O p X   X 2 # 1   = > o O ",
"  o : # : k       : : : : b   2 $.c c c $.c c v j     : O O : :   O O & O & : : O & & 2 & & O O & O 2 O & & & # # X X , O : 2 , :   .       & O O # O O O O O # O O O O % O # # O O % # o   . .   = O O O # O O # O O O O # O O # % O O # # O >   X .   X ^ 3XI.R.$X;XqXpXjXkXkXjXkXcXjXjXuX7X$XoXoXL.sXu.5 3 5 m.9XE.I.$X&XiXuXjXkXkXjXkXcXjXjXyX6X$XoXI.Z.8X) w w w w G.2X;XP.R.&X0XfXiXfXjXlXlXcXkXfXyX7XOXoXI.XXaXW 0 w w 9 3X=XOX$X%X*X6XyXjXkXkXjXxXxXbXkXyXqX%XXXoX%X<XE L K w R 3X*X{.XX$X2X6XjXpXkXjXxXlXjXxXjXyX&XI.L.F.E.3X! 9 K P I $X-X*X%X%X&XyXlXzXzXzXzXkXkXkXkXgX&X*X{.L.4X,Xq w w w ~ sXOXoX%X*X&XyXjXzXcXkXkXcXjXcXuXyX%X%XoXT.=X_.K P w 9 [ 9XI.>X%XOX2XyXjXlXzXjXjXjXyXyXgX6X%X$XE.Z.$X.X3 3 @ + . d s u > - - = O   B i < =   . 1 > = > > > 1   O # : O > > : > : h     # O k X   X o # 1   # ,   X ",
"X   : O : k       O , : & b b   j c v c c c j v 2   O : # O , #   O O O & & & # & & & & X & & & & O & & & & & : :     , & & O , :     X     = % O X O # O # O O O O O O O O O O O O # = O   o .   = O O O # O # o O % O O O % O O O # O O # % >   o .   % ^ 2XE.R.XX&X6XuXpXjXuXpXpXpXuXyXyX6XR.E.E.L.sXd.4 4 4 m.aXL.I.I.&XyXuXpXpXuXpXuXpXuXiXfX>XE.L.R.W.tX) w w q P G.=XI.OXoX%X5XyXjXgXuXjXjXjXuXuXiXdXI.R.R.I.aXW r K g 9 >X=XR.oXR.&XyXgXcXjXzXjXjXuXjXjXfXqX$XR.oX$X>X~ L K U T <XXXT.OXXX$XfXfXjXxXjXuXjXjXjXkXfX5XE.R.R.R.8X! r w P R }.=X=X*X%X5XdXlXjXbXkXjXjXjXjXjXfX>X*X%XY.>X#Xq w w q Q hX@XOXOX%X&XiXfXuXcXjXcXjXuXcXuX6X$XR.$XU.OX_.I r P 0 [ 9X*X%X%X*X&XfXcXuXpXgXjXyXjXgX6X6X$XE.H.F.%X).4 5 3 @   s i y - - = # O   B i p =   o 1 < : < < : ,   & : : O > : : : > h     # O 1 o   X O & 1   = >   O ",
"    , : : 1         : : & & D 1   ; v v j j j 2   O 1 # O o 1     O O O & & 2 & : O & 2 : O & & O & & 2 2 & O O # o X , O & O , :           - O O O O O O O O O O O O # O O # O # 2 O # O   . o . # # O # O O O O O O O O O O O O # O O O 2 # >     .   X Y 3XL.E.E.{.&XuXpXuXuXuXyXuXuXuXiX>XI.F.E.U.aXd.5 8 4 l.9XZ.E.E.$X-XuXuXpXyXuXyXuXuXuX5X%XI.L.Y.L.qX) w w K g b.%XI.P.oX%X>X6XyXgXfXuXuXgXgXpX7X&XOXR.L.U.aXE e w w 9 1X%XL.XXoX$X5XyXuXuXcXjXuXuXjXuX0X&XR.$XE.$X>X~ K r w P 5XXX].XXI.oX5XdXjXjXdXdXjXuXfXfX-X%XE.T.L.F.qX~ 9 r P I }.&X$XI.I.&X6XyXfXlXjXyXjXjXjXpXiX&XXXR.L.>X#Xq w w w Q hXI.I.I.XX$X7XdXfXcXfXfXfXyXfXyXiX;XR.D.H.$XG.K r w r [ 8XI.$XXX{.>XyXuXpXjXyXuXyXyX0XqX>XR.U.E.F.&X^.4 3 @ @ o z i > - - = = %   m < 1 =     1 < > > > > >   # > : X , < : : : 1     # # 1 o   X o & >   = 1   X ",
"o   > & : h         O : 2 : : H m o o 2 2 2     , h : O # : &   X O O & O # & & O & & & & 2 & X & O & & : & # O # X X , # O O : :   . .     : O O O O O O O O O O O # O O # O O # # O = o   o .   = O # # O O O O O O O O O # % O # O % # # % >   . . . X ^ >XL.E.{.{.&X6X6XiXiX0X6X6XiX0X&XoXT.U.U.F.eXd.5 3 5 x.8XL.I.R.{.-X5X5XiXtX6X6X6X6X6X&XE.R.U.L.N.3X) 0 w K r m.%XE.T.Y.R.&X5X6X7X0X6X6XyX7X6X5X%XL.T.U.U.aXE e w w 9 1XOXE.R.E.E.>X&X6X>X6X6X6XiXiX0X2X%XL.T.L.{.1XQ K r q R 1XXXY.I.T.E.5X5X0XyXiX>XiX6X6X6X>XoXT.L.U.F.3X~ 9 r r I ].%XY.P.R.$X%X5XdXdXiXiXyX6XiXiX5X$XE.L.U.>X|.q e q w Q 0XXXR.I.T.R.>X5X6XiXiX6X6X6XiX5X&X$XR.F.U.#X(.K w q q [ 9XW.R.R.E.$X>XiX6XiXiX6X5X6X6X:X%XU.F.Y.B.$X^.4 3 @ @   s a y - - = # #   B > < =     p , > > > > >   O : : 2 , 1 : : : 1 X   O O h o   o o # :   # 1   O ",
"  o : # : 1   X       : : # 2 = J =.b O X O k V b O & # : 1     X O & O # # # O : O O & O & & & & & O & O : O : # X   > # : O , :         . = O O O O O O O O O O O O O O O O O O X # # o   o     : % O O O O O % O O O % O O # O O O # # # O >   . X   X ^ 1XW.E.H.E.$X$X{.>X&X&X>X>X&X%X%XE.Y.U.U.N.9Xd.3 4 4 x.qXB.F.F.R.I.$X$X%X$X>X;X&X%X%X$XL.L.Z.U.C.<X' 0 e q r m.%XU.T.U.Y.E.$X>X$X$X&X$X&X$X$XR.T.L.U.K.U.aXE 7 w r 9 ;XOXL.Y.L.L.R.R.&X$X%X&X>X%X&X%X$XR.Y.U.U.T.;X~ w w w K >XI.Y.R.E.T.OX$XoX&X&X&XoX%X$X$X$XU.U.U.Y.U.<XW 9 q r T }.%XR.E.L.E.$X%X-X%X%X%X&XI.%X$XR.E.T.Y.F.%X[.q 0 w q Q eXI.Y.E.R.E.%X%X*X%X$X$X$X&X>X$XE.I.L.C.H.#X~.K r w 7 [ 9XL.R.T.E.R.%X&X$X:X*X$X$X*X{.U.R.L.F.F.B.oX!.4 3 @ @ . s i y > - $ # %   B < 1 #     p > > > : > ,   X = : o > < < : : 1 X   O o h o   o O O 1   # 1   X ",
"    , : : 1   X X     . : : O & X 1 >.6.4.,.J : O & # # , X     X O O 2 & & O & O & & 2 & O & & O O & O & & O O O O X , # & O : :           : X O O O O O O O O O O O O O O O O O % O = O   . .   = # O O O $ O O O # O O O O O O O O = O $ O >     X   . ^ >XE.Y.F.L.E.L.R.{.XX%XR.R.$XXX$XT.Y.U.F.C.eXu.3 5 8 h.4XT.T.L.U.L.L.R.I.oX$XE.oXI.XXoXT.R.U.H.C.<X) 9 9 0 w l.%XY.E.U.T.L.oX%XoXoX$X$XoXR.oXR.R.T.Z.Z.Z.4X_ 9 w e 4 ,X$XU.E.L.R.T.R.oXoXOXXXOX$XR.oXI.T.L.L.K.R.#XI K w w P %XW.J.E.L.R.R.$X%XOXoXOXR.oXoXT.oXT.K.Z.U.L.1X~ 0 9 r T }.$XY.U.R.oXoXOXoX$X$XoX%XOXoXI.I.R.L.F.L.:X].q w w 9 R sXP.L.L.oXR.E.OXoXoXoX$XXXR.oXoXP.T.T.D.U.R.~.w q w 9 [ 9XV.R.U.R.T.I.:XoXR.oXoXoXoXoXR.T.R.U.H.F.oX!.4 3 3 @ . s a y - - - = 2   Z < < #     , < > > : > >   O > : 2 , < : : : 1     & O h     o O # :   : 1   O ",
"o   : & : 1   X O       X : O & & O     O .   O : & O , O     . O O & & & 2 & O & O & O 2 O & O O & 2 & & & & & 2 o X : O : # , &     .     : O O X O O o O O O O O O O % O O O O # O # o   o .   : O # O O O O 2 O O O # + # O % O O O 2 O # >   . .   X ^ ;XF.F.Y.Y.E.R.I.$X{.oXT.E.$XoXT.T.T.L.F.C.rXu.5 4 3 f.3XC.Z.Y.Y.Y.E.I.{.$XR.I.I.$XR.T.R.T.F.F.C.<X) 9 0 q r m.:XY.P.L.U.U.L.E.R.T.E.oX$XP.U.R.K.U.].S.Z.4XE r q q 4 <XOXU.T.Y.R.T.E.oXE.oXoXoXI.oXOXT.R.T.U.Y.T.,XI w w q P 1XP.H.L.T.R.T.R.R.OXOXoXoXoXXXR.].V.L.T.H.F.>XE 0 w e P {.R.U.R.E.R.E.R.XXI.oXOXoXoXoX$XT.E.Y.F.F.#X[.9 r r 0 Q 9XW.U.R.R.K.oXOX$XI.R.oXI.XXOXT.R.P.U.H.D.{.(.w 0 9 9 [ 8XV.R.L.U.oXL.I.oXOXoXXX%XoXoXE.T.R.U.F.a.:X^.4 3 3 + . s i y $ - - $ O   m < < =   . 1 < < > : : < o o : : o , < : ; > 1 X   O o h o     o # ,   : 1   O ",
"  o : & : h   O O X       X : : O O : O O & & # & & , O       X X O & O O & & O & O & & & & & & O & & & & 2 & O : X X , : O O , :     .     : X O O # O O O O X O O O O O O # O O # O # o   X .   = # O O # O O # O O O O O O # # # O O # # O -   . .   X ^ 1Xa.F.F.F.F.U.T.L.R.R.oXT.T.R.T.U.U.U.H.C.3Xi.8 4 4 f.<XN.H.F.L.F.U.R.U.R.I.oXU.R.oXL.U.U.F.F.a.1X_ 9 r 9 e l.{.D.L.R.U.U.R.T.T.U.U.L.U.L.T.L.Y.U.U.S.H.9XL 5 w r 4 1XR.F.E.U.T.Y.L.I.R.T.T.R.oXP.R.K.T.T.L.Z.U.#XI w 0 9 P 1XW.H.U.Y.T.T.E.R.T.I.I.R.XXT.T.R.U.U.Z.F.F.1XQ w w r Y }.{.U.L.U.E.R.Y.R.R.R.oXL.oXE.L.T.T.L.U.F.:X[.q w w 9 E eXL.U.E.U.U.R.R.R.R.T.R.R.oXT.U.T.T.T.L.D.{.~.q e e 9 { <XB.E.F.U.L.T.R.T.R.oXY.T.I.T.L.U.S.C.F.v.R.^.4 3 @ @ X s a > > - - # %   m > i =   . < > < : : : < . O : = O , : : : : 1     O o 1 o   o O 2 ,   & ,   O ",
"    = & : h   o O o o       . O : & : : & & & & : &           O O O O & O & & & & & & & O O 2 & & & O & & O O & : X X : O & # : :   .       > O O O O O O O % O O O O O o O O O O O # = o   X o   = O # O O O O # O O % # O O O % 2 # # # # % :   . %   X ^ ;XZ.U.F.U.U.F.Y.T.L.R.R.L.T.R.H.F.L.F.F.a.3Xi.4 8 @ f.3XN.H.F.U.U.F.Y.U.Y.T.T.U.T.Y.F.F.F.F.D.a.1X_ 9 0 0 0 x.R.F.Z.H.U.T.L.T.L.T.T.R.U.T.U.Y.L.L.H.C.S.4XE e q e 4 1X$XJ.L.U.U.L.U.U.T.L.T.T.R.P.T.T.U.H.U.S.U.].Q P w w P >XW.G.Z.F.Y.T.T.U.L.T.$XL.T.U.U.U.U.U.U.H.C.:X~ 0 w w T Y.R.Y.F.U.U.E.T.L.T.R.L.R.T.U.U.U.L.U.Y.F.;X[.q 0 0 9 R eXE.Y.L.L.U.U.L.I.R.R.R.I.U.L.U.L.U.U.F.C.T.(.q e e 5 { <XB.Y.F.L.U.L.T.R.U.L.L.U.L.T.L.F.U.F.H.C.R.!.4 3 @ @   s a y - = - $ O   m < i :     < : < : : > <   O : : O > : < : : ,     O o 1 o   o o & ,   # ,   o ",
"o   : # : 1   X O o O             X X O & O O X           . o O & O O & & & & O O & & & O & & & O & & & & O & O & o   < & & O , :     .     : O O X O O O O O O # O # O O O O O O # O # .   O     = % O # O # O o O O # O O O # O O O # # # # >   o .   X Y ;XN.H.F.U.F.U.L.H.U.T.H.Z.Y.U.H.F.Y.S.S.l.3Xd.3 8 @ j.3Xv.F.H.F.L.U.U.F.U.Y.F.H.U.U.F.F.E.F.H.s.1X_ 0 0 9 e l.].H.U.C.U.U.U.U.U.U.E.T.U.U.F.L.U.L.J.S.A.4XL e 9 e 9 1XR.D.U.H.T.F.L.L.T.U.T.U.U.T.L.U.U.C.H.F.H.].I P 0 9 P ;XE.D.S.F.F.Z.L.U.F.U.L.U.U.U.F.H.S.U.S.F.z.1XE e q 0 P }.R.J.B.F.Y.E.L.U.Y.T.Y.T.E.U.F.U.U.L.H.D.{.[.9 q 0 9 R eXL.F.U.R.K.L.T.T.Y.U.U.H.S.Y.K.F.H.F.z.G.U.~.q e q 5 { <XZ.H.Z.Z.U.Y.U.L.U.T.L.H.U.U.U.U.U.F.J.v.U.^.4 3 3 @ X s u i - - - # O   m < i =     < < : : : : 1 o O : : O > : : : = 1 o   O O p o   o o : 1   # <   X ",
"o   : # 1 1   o O O X o .                               .   O O O & & 2 2 & O & 2 & & O & & O O 2 & O & & & & & # o o : 2 & & : &   . .   . : O O O O X X O O O O O O O O O O O O O O # O   . .   = O # O O O O O O % % # O O O O # # # O O O =     o   X ^ |.a.H.D.F.F.H.C.U.F.H.F.L.H.H.H.F.Y.F.H.v.tXi.3 4 3 [ <Xa.A.S.F.F.J.C.H.H.H.F.F.H.U.J.D.J.F.G.s.1X_ 9 r q r f.;XH.F.H.H.F.F.F.F.C.F.F.U.U.F.U.U.C.H.Z.v.4XL 5 e e 9 ,XE.H.H.U.Y.U.U.U.U.L.U.Z.U.T.H.S.S.C.S.F.H.|.I 9 r 9 P 1XW.D.Z.F.Y.D.F.U.U.T.}.F.U.E.F.Y.H.S.C.A.v.1XE 0 r r ^  XY.Y.F.Y.U.F.F.T.U.U.U.F.U.Y.Y.U.U.U.A.C.}.[.4 q 0 9 R eXW.H.Y.H.S.U.U.K.U.K.Z.U.R.U.S.U.F.F.H.c.U.~.0 e 9 9 ] 1XN.H.H.L.U.H.K.U.U.U.K.Z.U.T.F.L.F.S.F.s.U.!.4 3 @ @   s i i > - $ # O   m > , =     < , : , > : ,   O = : O : < : : : 1 o   O o h o   o o O 1   = < . X ",
"    & # , 1     O O X o X .                             . X X O O & & & & O O & O 2 & O & O 2 & & O & & & & & & O X o , = # O > :   .       : X O O O O O O O O # O O O 2 % O O O O O # O   X .   = O O O O # O O O O 2 O o O O O O # # # # # >   . o   o ^ |.a.z.C.D.Y.H.D.H.H.U.H.R.S.D.D.D.H.C.D.s.<Xi.3 8 @ j.tXa.z.D.F.Y.D.S.H.Y.H.F.Y.A.G.D.D.J.N.G.p.,X_ 9 0 w e x.1XH.F.F.H.G.H.J.A.D.J.F.J.C.C.H.J.G.z.A.c.4XL 7 q e 9 1X{.G.F.U.S.H.U.F.D.C.C.S.S.C.F.S.C.F.z.H.J.[.K 9 e 9 w ;XZ.G.F.H.D.F.Y.S.F.Y.F.F.J.H.H.Y.F.H.J.c.p.;XI 9 9 r P }.Y.H.F.D.Y.U.J.Y.H.F.H.D.H.Y.D.H.D.S.D.z.Y._.9 0 9 9 L 9XE.J.H.H.S.U.U.U.T.J.U.F.K.U.S.Z.H.H.C.c.U.^.q e 9 9 { >Xv.A.F.U.R.U.H.K.H.U.C.J.S.U.F.H.D.F.G.z.].Q.4 8 @ @   s u - t - - $ #   B < i =   . p > : : > : < o O > : O : < : : : 1     O O p o   o o # >   # <   O ",
"  o & 2 : 1   X O o O X X . .                       . X X X O O O & O & O & O & & & & O O & & O & O & 2 O O 2 & 2 X   1 O # & : :     .   . : O O O O O O O O O O # # 2 O O O O O % O # X   X . . = # O O O O O O O O O o % O # O O # O % # # -   o o   o g  Xs.c.J.H.C.G.U.D.G.D.G.H.J.C.G.G.H.z.b.l.<Xd.3 8 @ [ 1Xp.z.J.D.z.H.H.D.G.C.H.H.G.D.H.D.D.b.b.l.,X) 9 0 w e f.R.G.D.C.H.C.D.C.C.D.H.D.F.H.G.D.C.G.z.k.l.3XL 7 9 7 4 ,XR.z.F.D.H.S.C.H.F.J.H.U.S.F.J.H.H.D.z.G.H.].L 4 9 9 P 1XN.n.D.A.H.H.H.F.H.H.G.F.H.H.D.F.H.G.A.n.k.,XI e 9 0 g J.E.J.H.D.Y.D.F.H.U.H.D.G.H.D.H.C.D.G.D.z.'.[.9 w 9 5 L 8XD.D.H.F.S.H.H.H.U.S.H.C.H.H.C.H.S.S.A.z.U.~.9 9 9 5 } 1XN.G.U.H.S.Z.C.Z.H.S.H.C.C.H.D.F.C.S.l.k.'.!.4 4 @ @ o a y > y - # # O   m < < =   . 1 < : > : > : o O = = O : < > : : 1     O O 1     o o # >   # < . o ",
"MX  O O & :   O O O o o X o o .     X X   X   o   o o O O O O 2 & & # O # & O & & & & O & O O & & & & & & O O O & X X , # # # , :     .     : X O O O O O O O O O O O O O O O O O O O # o   X .   = O O O O O O O O O O # O O O O # # O # O O >   o X   O g |.a.z.H.b.z.D.G.b.G.b.G.J.b.G.n.b.D.D.b.k.<Xi.8 8 3 [ wXp.A.D.D.D.G.G.D.G.b.D.D.D.D.b.b.D.b.G.u.;X_ 9 0 w r f.R.G.C.c.G.J.b.D.G.z.D.G.D.G.A.n.G.G.l.k.l.eXE 4 q 0 9 ;XY.c.G.H.H.H.H.C.J.D.H.D.F.S.J.F.G.D.n.c.D. XK 0 0 9 w 1XB.n.D.C.G.G.z.A.H.C.G.G.F.G.H.b.G.D.l.c.k.,XI 9 e 7 Y Y.F.D.F.F.C.S.C.H.C.H.H.G.J.z.D.C.H.z.l.l.'.[.4 0 0 9 K 8XF.G.D.F.G.D.G.F.G.F.H.D.D.H.D.D.D.G.l.v._.!.9 9 9 4 { :Xp.G.D.C.C.H.z.G.H.D.F.A.C.G.H.G.G.D.n.p.Y.Q.4 @ @ @ . s i y - - - # o   m < < =     1 > > : : = > = : = = = 1 > : > : 1     O O 1 o   o O & 1   # , . o ",
"MX                                                            o   X # O O : O & 2 & O & & & & & O & 2 O O & & & & X   , # O # : :   . .     : X O O O X O O O O O O # O O O O O # # # = o   X   o # O # # O # O O # O O # O # # # # O # O = # =   . X   O ^  Xk.n.z.G.G.D.G.D.G.G.G.b.D.b.G.D.b.n.G.f.<Xu.3 @ @ { ;Xk.z.l.b.G.b.n.G.G.G.G.b.b.G.D.b.b.n.z.d.1X_ 4 9 9 g f.}.c.D.G.G.G.G.J.G.G.n.G.c.G._.n.l.G.l.l.x.3XL 5 0 r 4 }.U.n.G.G.G.J.H.C.G.H.D.H.H.J.G.G.G.D.b.x.D. XT 0 4 9 K ;XB.G.C.A.A.C.G.C.G.J.F.J.G.G.G.D.G.n.n.l.d.|.I 5 9 4 g _.J.G.U.C.H.D.G.D.D.D.H.H.J.b.G.n.G.G.G.b. X[.4 9 9 4 K 8XD.G.G.C.G.G.C.G.z.b.G.G.G.J.G.D.D.A.c.c.S.m.9 5 4 4 } 1Xz.G.D.G.J.H.G.H.D.H.n.J.G.G.c.n.G.b.l.j.'.^.4 3 @ @ . s i - - = = # %   B i i :   . < > > > : > : 1 A A A D b = : : > 1 o   # O 1 o   o O # 1   : 1 o o ",
"MX    : M D M D J J J J H H =.H =.=.H =.:.:.:.=.:.:.:.:.6.6.,.6.J   o # X & O & & X & & & O & O O & O & & O O & & X   , O O O , :     o o   O = O . . . o .   o   . . . . . . . . O O : o   o o   : # o o . . o . . o . o . . . o . X X o O % >   . o   . g  Xk.m.f.l.l.f.l.l.k.l.x.l.f.l.p.k.p.u.l.u.rX` 8 @ @ ] wXu.f.f.f.f.u.f.f.f.d.u.d.f.d.y.p.u.u.h.y.wXE 4 0 4 0 g.}.y.d.l.l.k.n.k.s.c.k.n.u.l.l.l.f.d.j.i.A.wXU 9 e 9 3 _.oXp.k.l.l.C.z.z.z.G.n.n.c.c.l.d.l.l.m.d._.).w 9 5 9 q '.R.k.c.k.l.(.k.l.l.l.k.n.c.c.k.x.f.f.h.` A..Xq 9 7 4 0 n.J.u.d.z.k.k.x.l.k.n.d.u.d.l.l.k.f.k.d.` |.n.4 e r 9 q tXC.l.n.k.c.b.z.v.p.s.k.c.u.p.k.f.l.f.f.h.'.h.9 0 0 4 ' >Xi.m.k.v.k.z.u.l.l.k.l.c.x.f.x.l.f.x.h.` 1Xh.4 4 @ @ o s > i - - $ # %   n < < #   o < > > > : = : : = O O O = < : : : 1     O O h o                     ",
"MX.   O n 1 > < 1 1 < < , > , > , , , , > , , , < < 1 1 1 h 1 b J M o X & 2 & & & O & 2 O O & O O & O & O & & 2 O X   : 2 & O : #       .     # = - > < > < > < < < < , < < > < > > < #   o . .   o y > < , p < < i < , < < i < y i > < i i i o   X o .   6 { ~.M.m.!.M.m.m.^.!.m.m.n.m.!.m.^.!.!.Q..XQ.5 @ @ @ 9 (.,X'.}. X].].}.;X}.|.;X;X}.}.].;X X'.'.rXj.9 5 5 4 5 R _.,X].;X].}.}.].}.}.;X;X}.;X;X;X;X].'.[.3X] 4 5 9 e 4 _ ,X1X;X:X;X#X#X|.;XR.;X;X;XY.;X;X}. XR.}.1X' 9 9 4 9 4 _ 8X;X;X;X;X;X#X}.;X#X;X;X}.;X].R.].}.Y.'.wX' 4 9 5 5 9 ~  X].].1X].#X|.]. X].;X].].].}.}.;X}.].1X XL 9 9 5 9 9 h.1X].].1X;X;X;X;X;X;X}.;X'.|.].}.].].].].'.~ 5 9 4 4 w ).<XY.;X;X;X;X;X].;XR.;X].].].].}.].]._.1X`.w 3 8 @ . = Z y - - = # # O   m > < =   . < > > : : : , : < > : > = : > : : 1     O O 1                       ",
"MXMXMXMXX > # O O O O # # # # # O O : O # # 2 O O O # O & & X O & J J : X X X X O X X O X X X O O O X X O X X O X X X X X X X X o     o . .     o o o O o X O O O o O o o o O O O O X     o . .       # O O O X X O O O O O O # O O O O O # .   . X . . .   o # & & # # # # # $ * * & # * : $ # # # . . + + @ @ @ 9 ' { { { { { { [ [ g.g.g.[ g.[ g.[ g.{ / 4 3 4 4 4 8 3 w { g.g.g.g.g.g.g.[ [ [ g.[ g.[ j.g.g.g.' 9 4 4 4 4 4 9 E [ [ [ [ g.h.h.h.h.h.f.h.h.h.h.h.g.g.[ Q 4 4 4 4 4 4 4 Q j.h./.h.M.g.h.h.h.g.h.g.h.h.h.h.Q.[ g.Q 4 4 5 5 4 3 5 R { [ j.g.g.[ [ j.{ [ h.[ g.h.g.g.g.[ { K 4 4 4 4 4 3 9 _ g.j.[ h.g.j.g.j.g.g.g.g.g.g.g.g.g.h.g.I 4 3 4 4 3 3 w { j.g.g.g.j.g.g.g.j.{ [ g.j.[ g.g.[ j.{ 9 @ 3 + . : X.s : - $ - # % 2   Z < i #     1 < : > > > : : : : = : > : : : : < o   O O p o     O # o     .     ",
"MXMXMXMXMXo : : : : # O # # & # & & & & & & : : = : # : O & & & O 2 J 6.H H :.:.H H =.H :.H :.:.:.H :.:.=.=.:.:.,.:.:.,.:.,.,.:.=.n o       .                                           .   o . .                                             . . . . . .                     .         .           . + + + + + @ @ @ + + + + + + @ + @ + @ @ @ @ @ @ @ @ @ @ 3 3 @ 3 @ @ @ @ @ @ @ @ @ @ @ @ @ @ @ @ @ @ @ @ @ @ @ @ 3 3 3 3 4 3 @ @ @ @ @ @ @ @ @ @ @ @ @ @ @ @ @ @ @ @ @ 3 @ 3 @ 3 @ @ @ @ @ @ @ 3 @ @ @ @ @ @ @ @ @ @ @ @ @ @ @ @ 3 3 3 3 3 3 3 @ @ @ @ + @ @ @ @ @ @ @ + @ @ @ @ @ @ @ @ @ 3 @ 3 3 3 @ @ 3 @ @ @ @ @ @ @ @ @ @ @ @ @ @ 3 @ 3 @ @ 3 3 @ 3 3 @ + @ @ 3 @ @ @ @ @ @ @ @ + @ @ @ + @ @ + + @ + . < X.l $ , > # # $ # o   B < i =     < : > : : : > > > > : = : : : : : <     O O h o   2 =.6.J M X       ",
"MXMXMXMXMXMXMX: & O : & O # # O & & O & O # & # & # # # & & & O & O 2 1 b b b b M b b b b b b M b b b b b M b M b b M N N b b N b k k o   . . . .         . .         .     .   .     . . .   o .   . .   . .   . . .   . .     . . .   . . . . . . . + . . . . . . . . . . . . . . . . . + . + . . + + . + + + + + + + . + + + + + + + + + + + + + + + + @ @ + @ @ @ @ @ @ + + + + + + + + @ + @ + + + + @ @ + + @ + @ @ @ @ @ @ @ @ @ @ + + + + + + + + + @ @ + + + @ @ @ @ + @ @ @ @ @ + + @ + + + @ + @ + + + @ + + + + + + + @ @ @ @ 3 3 @ @ @ @ + @ + + + @ + + @ + + + @ + @ + @ + @ @ @ @ @ @ @ @ @ + @ @ @ + + + + + + + + @ + @ + + + + @ @ @ @ @ @ @ @ + + @ + + + + + + + + + + . + + . + + + + + . i -.y - > - $ - - # # o   m , < #     < , < < : > > > : : : = : < : : : 1     O : 1   X J J k 1 n b   . . ",
"MXMXMXMXMXMXMXMXO # O O & & # O 2 O & O : # # # & O & # & 2 & : O & & & & : & : : : : : : : : : : : : : , : : : , : : : : , : , < = 1 k o     .   . .   .   . . .   .     . . . .   . .   . . . . . . .   . . . .   .   . . . . .   . . . . . o . . . . . . . o . . . . . . . . . + . + . . . . + + . + + + + + + + + + + @ + + + + + @ @ + @ + + @ @ @ @ @ @ @ @ @ + @ @ @ @ + @ @ @ @ @ + @ + @ + @ @ @ + @ @ + @ @ @ 3 @ @ @ @ @ @ @ @ @ @ @ @ @ @ @ @ + @ @ @ @ @ @ @ @ @ @ @ @ @ @ @ @ + @ @ @ @ @ @ @ @ @ @ @ @ @ @ @ @ @ @ 3 @ @ @ @ @ @ @ @ 3 @ @ @ @ @ + @ @ + @ @ @ @ @ @ @ @ @ @ @ @ @ @ @ @ @ @ @ @ @ @ @ @ @ @ @ @ @ @ + @ @ @ @ + @ @ @ @ $ + @ @ @ + + + + @ @ + @ + + + + + + + + + + + + +   , o.: > - > > > - - # # %   m > < #     < : : : < = : > : = = = : : : : = <     : :     D D : > : : m <   MX",
"MXMXMXMXMXMXMXMX  O : O : O # O = # # # O # O O & O O # O O 2 & : O O : = O O : = # : # & & & & : & : : = = : : : : : : > : > : > : & 1 b .       .                 X   .   .               o   . .                     . .   . X   . X . X   X   X o . o   o   X X . . X   o o . . . . . o   o . o . o o + . X + . X + . + . . % . % + + . + % + . . + + % + % % X % % % + % % % + + + # + X + + + % + + % + % % + + % % + + O % % % % % + + + + + O % + % % + % % % % % % + % + % + % % + + # + + % + @ % + + % + + + # + + # @ % % + % % % % % + + + @ + % + # + + X + + + # + + % % + % % % + % % @ + + # + % + % % + + % . + % % % + X + + O % % % % + % + + + % + % + + + . % % + X X + X + X O + X o 1 X.i > i t > > > - - - = .   m > < :     < : : : : : : < : : : : : : : : : 1     #     M H & : = & # < p MXMX",
"MXMXMXMXMXMXMXMXMX  X O # # O O O # # O # # & # O & # # # O # # O O O : = # = : = # = : : : : : : : : : : : : : : & * : : > , : : & : : 1 n N J J D J D D D D J H J J J J D J J J H J J H J J H J J H H H H H J H H H H G H H H H H H H H H H H H H H H H H ....H H H =...=.....:.=.:.>.#.#...>.:.:.#.o...=.=.=...>.>.>.>.<.>.<.<.>.<.<.<.<.<.>.>.<.<.<.>.<.>.<.<.<.<.<.>.<.<.<.<.>.<.2.<.<.<.2.2.<.2.2.;.<.2.2.<.<.<.<.<.<.<.<.<.2.<.<.<.<.<.<.>.<.<.<.;.<.<.<.<.<.O.<.;.<.<.<.<.<.<.<.>.2.<.<.>.<.2.<.<.;.<.2.<.<.-.;.<.<.<.<.<.2.<.2.2.<.<.<.<.<.<.<.<.;.<.;.;.<.<.;.>.<.o.O.<.-.<.<.<.<.<.<.<.<.<.<.O.;.;.<.<.<.O.;.<.O.<.<.<.;.<.o.o.o.O.o.O.O.O.O.-.o.>.O.o.<.o.O.-.-.-.o.o.o.-.O.o.X.X.o.>.>.o.o.o.-.<.p t - > > - - = = = # # O   l > < O     < < 1 > > , > ; : < , : : : : : : 1       X D :.2 : : : : = , O MXMX",
"MXMXMXMXMXMXMXMXMXMXMX. X X O X X X o O X X O X O O o O X X X o . X X X O X O X O O O O O O O O O O # O O X O # O O O O & O & O > : & : & : n M M M V M M M M D A D A M V D V D A D D A M A A A D V D D D D D D A A D D D D D D D D D D D D J D D D D D D D D F J D F F F J F F D J | J F J F F F F F F F F G | F | J F J J | | J J | J J J | F J | |  . .F | | | | | |  . .| F | | | |  .| |  . . .| | |  . . . .| | | |  . . .|  .| X.| X. . .|  . .| | | | | | | | | | |  .| X.F |  .| | |  .| | X.| X. .|  .| | | | | | | | | | | | | X.| | | | | | | | | | | | | | | | F | | | | | | | | | | | | S | S | S | | S S | S | | F S | C F S S | | | | S C S S S F S C S S S | C C C D C C C S S S S S C C V i - > y > - - - = - - # = o   m > < :     h : : > > > : : : : : : : : : : : >     X V J O : : : : = : # MXMXMX",
"MXMXMXMXMXMXMXMXMXMXMXMXMXMXMX                                                                                                    : : : : & : : & # # & & & & O O # & & : & & & : & # # : : : # = = : # : : : : : : : : : : # : : : : : : : > : : $ > # > & # : : : : * & & - : : : > : > > : > , : > - > > - - > > y > - t > > * $ > y y y > y > y > y > y t > y i y i i i y y t > t > u > t > t - t > t u t - y y y y t y y y > y y y t t u y y y y y y u t y t y y y u t t t t t - y y t y y y y y y t t t t y y t y u y y u y u u t t y y y 6 u t t y t t y u y y t t t y y y y t y t t 6 $ 6 y y t i t t t t y 6 y 6 t y t t y - y y t y - 6 * y 6 y t y $ $ - - t > - - > $ > t - t > - > $ - $ > $ : > y > y > - - > - - # # = 2   l > > =     1 1 1 : > > > : < < : : , > > : : :   X D V O : : = : : > :   MXMXMX",
"MXMXMXMXMXMXMXMXMXMXMXMXMXMXMX                                                                                                      : , : & : : = & & & & : # : : # : : > - : : # : : # : : & & > : * $ = & : : : : : : > $ : # : : = $ & * > * : > > $ - > > > > : > - - > > $ > : $ > > > > t t - > - : y > > t > 6 y y y y y 6 y y i y y y y t i y y y y y u i u y y y y y > y y y y u u i u y a i i a u - u t u t t y y u y t u u u u u a u y u u u u y t a y u y u u 6 u u t i u u u u u u y y y y y u u i y y u i u u u i y y u u y u t u u t u u u t y u u u y 6 y t t u t u y y u u t t y u y u u y i u t y t t y y u t y y t y y u y t 6 y t y y t t t t y y y $ t - t y t t 6 - t t $ - - t - y > t $ - - > - - = : = - - # O   n < < =     o # O O O O O # O O # O O O O O O .   M D O = O = : : , O MXMXMXMXMX",
"MXMXMXMXMXMXMXMXMXMXMXMXMXMXMX. o . .     . .   o     o . . . X   . . o o o   . . . .     X   . o o .   o . . . . . . o X   .         O : : : & # # # # # & # & & : # & - # $ # : - , : & : : : : : * : : : $ $ : = # - - : $ * > $ * : : > > - - : $ > # - $ > > y t > > > y > y y > y y > $ > > t y t y 6 t t y y y y y y y i i u y y y u y p y y y y u t t u y 6 y u a u y a a y a y u u a y u t u u u u u u u u u a u u u y t u u y u u u a u u u u u u u a a u u a u u u u t u u u t u a u a a a u u u u u u u y u a u u a a u u u a u u u u u t u u u u u a u u a u y u u u u y y u u t u u t y u t y t u u y u u y u u t y t u y t t t u t t t y y y y y y u y y y y t - y y y y t u y y u > y t y > > > i - > - - > : - - # # %   k > > : : = O # # O O O O O O # 2 O & 2 & & & O m H : : : : : : > = MXMXMXMXMXMX",
"MXMXMXMXMXMXMXMXMXMXMXMXMXMXMXMX  . .   X   X . . .     o X . .   X o   o .   o .   . . X . . .   o . o . X . X o o . o o . . .         X O O O X X o o O X o X O O O X O O O O # # X O O O O O O O O O # # # O O O = O # # # O # % O O # # % # # # O # # # # # # # # # O # # # # # $ # # # # # # # # # # # # # # # > $ # $ # # * # * * # # : $ # $ * $ # # $ $ * & * * $ = $ $ $ # $ : $ - - $ $ $ * $ $ # $ $ $ $ $ $ - * $ $ $ $ $ $ # - % $ * # > $ - - - $ $ - $ $ * $ $ $ $ $ $ $ t - $ - 6 > $ $ $ $ $ - $ $ $ $ > $ $ t t $ y $ $ - $ $ $ $ $ $ 6 $ $ $ * $ $ - $ $ * * $ - $ # $ $ $ # $ # $ $ $ $ # $ $ - - - - - * * # $ $ $ - # $ % $ # $ # $ # $ # $ % $ * # $ % # $ # * # % # % # # # # = # # = # $ > > - - = = - - - # O   k < > < H H H J G F D D D D J J D J D D D J J H G < = = : : : , : MXMXMXMXMXMXMX",
"MXMXMXMXMXMXMXMXMXMXMXMXMXMXMXMXMX. X o   X . X . X o X X X X   o o . o o o o o X o o X X X X X o o X X X . X X X X X X X o o o o o                                                                                                                                                                                                                                                         .                                                 .                                                     .                   .                     .         .                     .                                                                                             .                                       2 - # - - - = = = %   k > , ; : : : < : < : , : : , : < : : : : : : : = = = = : : > O   MXMXMXMXMXMXMX",
"MXMXMXMXMXMXMXMXMXMXMXMXMXMXMXMXMXMX  O X o o o . X o o o o o o o o . . . X o . . o o X o o o o   o X   X X o o o o o O O o o o o . .                                                                                                             .   .       .       .       .     . .   . . . . . . .   . . . . . . . . . . . . . . . . . . . . . . . . . . . . . + . . . . . . . . . . . . . . + . . . . . . . . . . + . . . . . . . + . . . . . . . + . + . . . . . . . + + . . + . . . + . . . . . . . . . . . . + . . + . + . . . + . . . . + + . . . + . . . + . . . + . . . + . . . . + . . . . . . . . . . . . . . . . . . . . . . . . . . . . . . . . . . . . . . . + . . . . . + . . . . . . . . .         # - # = : = = $ O   n > < > : > > = > > > : : : > : : < : : : , > : : > = : = > =   MXMXMXMXMXMXMXMX",
"MXMXMXMXMXMXMXMXMXMXMXMXMXMXMXMXMXMXMXMX= O O = # O O = O = = O = : : = # # = = # = # # = O = = # & # & : : : # # = # : : : # : # # # # # O O .   o X X O O X + X O + X X O + X % X # O X % # + # O + O X + # % + # % # % # + # % % % % % # % % % % % + # # % % % % % # % $ % % $ # % $ $ % $ % $ % $ # % $ $ % $ = % $ $ @ $ $ $ $ $ $ % 6 $ @ $ $ $ $ $ 8 $ $ 6 8 $ $ 8 $ $ 8 6 8 8 6 6 8 $ 6 6 6 6 $ 8 6 8 $ $ 8 6 $ $ 8 6 8 $ $ 8 6 $ 8 8 $ 8 6 8 8 $ $ 6 6 8 6 8 6 6 $ $ $ 8 $ $ 8 $ $ 8 $ 6 t 8 6 6 6 8 6 6 8 $ 6 6 6 6 8 $ $ 8 6 $ 8 8 6 6 6 6 $ 8 8 $ $ 8 $ 6 8 6 6 8 6 8 6 6 8 6 $ 8 6 8 $ 8 $ 8 6 8 $ $ @ $ $ 8 $ 8 8 $ $ 8 $ $ 8 @ $ 8 $ @ $ @ $ $ $ $ 6 $ $ 8 $ @ $ $ $ 8 $ $ % $ % $ @ $ % % $ $ % % % .   # > $ : $ # 2 %   k > - - - > > > = : : < : : : : : : : > = : : : : : = = < = MXMXMXMXMXMXMXMXMXMX",
"MXMXMXMXMXMXMXMXMXMXMXMXMXMXMXMXMXMXMXMXo X O X X X O O O O O O O O O O O O O O X O O O X O O O O O # O O O O O O O O # # O O O O O O O X O O X                     .     .   .   .   . .       .         .       . . .     . .   o .   . . . . . . . . . . . . . . . . . . . o . . . o . o   o o . . . . .   o o . . . o . . . . .   o . o o . o     o . o . o . . o o . o . . o . X X o o . o . . o o o o o . . X . o o o . o . . . o X o . o . . o . . . X . . o X o o o o o . o o . o . . o . . X . . . o o o o . o o o o o o . . o o o . o . . o o . . o . . o . . o     o . o   o o .   o . . o o . . o   o . o o   o . o o     o . o   o . . o   .   . . . o   o o . .   o .   o o . . . .   . .   .               % : # O # O o   k < < > , > , < < < < < > > < < < < : : > > > , < > > , O MXMXMXMXMXMXMXMXMXMXMX",
"MXMXMXMXMXMXMXMXMXMXMXMXMXMXMXMXMXMXMXMXMXMXMXMXMXMXMXMXMXMXMXMXMXMXMXMXMXMXMXMXMXMXMXMXMXMXMXMXMXMXMXMXMXMXMXMXMXMXMXMXMXMXMXMXMXMXMXMXMXMXMXMXMXMXMXMXMXMXMXMXMXMXMXMXMXMXMXMXMXMXMXMXMXMXMXMXMXMXMXMXMXMXMXMXMXMXMXMXMXMXMXMXMXMXMXMXMXMXMXMXMXMXMXMXMXMXMXMXMXMXMXMXMXMXMXMXMXMXMXMXMXMXMXMXMXMXMXMXMXMXMXMXMXMXMXMXMXMXMXMXMXMXMXMXMXMXMXMXMXMXMXMXMXMXMXMXMXMXMXMXMXMXMXMXMXMXMXMXMXMXMXMXMXMXMXMXMXMXMXMXMXMXMXMXMXMXMXMXMXMXMXMXMXMXMXMXMXMXMXMXMXMXMXMXMXMXMXMXMXMXMXMXMXMXMXMXMXMXMXMXMXMXMXMXMXMXMXMXMXMXMXMXMXMXMXMXMXMXMXMXMXMXMXMXMXMXMXMXMXMXMXMXMXMXMXMXMXMXMXMXMXMXMXMXMXMXMXMXMXMXMXMXMXMXMXMXMXMXMXMXMXMXMXMXMXMXMXMXMXMXMXMXMXMXMXMXMXMXMXMXMXMXMXMXMXMXMXMXMXMXMXMXMXMXMXMXMXMXMXMXMXMXMXMXMXMXMXMXMX  # : - # # %   O # O O # O # O O X O O 2 O O O O O # # O O O O O O O o MXMXMXMXMXMXMXMXMXMXMXMX",
"MXMXMXMXMXMXMXMXMXMXMXMXMXMXMXMXMXMXMXMXMXMXMXMXMXMXMXMXMXMXMXMXMXMXMXMXMXMXMXMXMXMXMXMXMXMXMXMXMXMXMXMXMXMXMXMXMXMXMXMXMXMXMXMXMXMXMXMXMXMXMXMXMXMXMXMXMXMXMXMXMXMXMXMXMXMXMXMXMXMXMXMXMXMXMXMXMXMXMXMXMXMXMXMXMXMXMXMXMXMXMXMXMXMXMXMXMXMXMXMXMXMXMXMXMXMXMXMXMXMXMXMXMXMXMXMXMXMXMXMXMXMXMXMXMXMXMXMXMXMXMXMXMXMXMXMXMXMXMXMXMXMXMXMXMXMXMXMXMXMXMXMXMXMXMXMXMXMXMXMXMXMXMXMXMXMXMXMXMXMXMXMXMXMXMXMXMXMXMXMXMXMXMXMXMXMXMXMXMXMXMXMXMXMXMXMXMXMXMXMXMXMXMXMXMXMXMXMXMXMXMXMXMXMXMXMXMXMXMXMXMXMXMXMXMXMXMXMXMXMXMXMXMXMXMXMXMXMXMXMXMXMXMXMXMXMXMXMXMXMXMXMXMXMXMXMXMXMXMXMXMXMXMXMXMXMXMXMXMXMXMXMXMXMXMXMXMXMXMXMXMXMXMXMXMXMXMXMXMXMXMXMXMXMXMXMXMXMXMXMXMXMXMXMXMXMXMXMXMXMXMXMXMXMXMXMXMXMXMXMXMXMXMXMXMXMXMXMXMXMXMXO = # % # o       .         .                                   MXMXMXMXMXMXMXMXMXMXMXMXMXMX",
"MXMXMXMXMXMXMXMXMXMXMXMXMXMXMXMXMXMXMXMXMXMXMXMXMXMXMXMXMXMXMXMXMXMXMXMXMXMXMXMXMXMXMXMXMXMXMXMXMXMXMXMXMXMXMXMXMXMXMXMXMXMXMXMXMXMXMXMXMXMXMXMXMXMXMXMXMXMXMXMXMXMXMXMXMXMXMXMXMXMXMXMXMXMXMXMXMXMXMXMXMXMXMXMXMXMXMXMXMXMXMXMXMXMXMXMXMXMXMXMXMXMXMXMXMXMXMXMXMXMXMXMXMXMXMXMXMXMXMXMXMXMXMXMXMXMXMXMXMXMXMXMXMXMXMXMXMXMXMXMXMXMXMXMXMXMXMXMXMXMXMXMXMXMXMXMXMXMXMXMXMXMXMXMXMXMXMXMXMXMXMXMXMXMXMXMXMXMXMXMXMXMXMXMXMXMXMXMXMXMXMXMXMXMXMXMXMXMXMXMXMXMXMXMXMXMXMXMXMXMXMXMXMXMXMXMXMXMXMXMXMXMXMXMXMXMXMXMXMXMXMXMXMXMXMXMXMXMXMXMXMXMXMXMXMXMXMXMXMXMXMXMXMXMXMXMXMXMXMXMXMXMXMXMXMXMXMXMXMXMXMXMXMXMXMXMXMXMXMXMXMXMXMXMXMXMXMXMXMXMXMXMXMXMXMXMXMXMXMXMXMXMXMXMXMXMXMXMXMXMXMXMXMXMXMXMXMXMXMXMXMXMXMXMXMXMXMXMXMXMXMXMXX # O # O o O O X X . X X . X X . . X o . . o o o o . . o . MXMXMXMXMXMXMXMXMXMXMXMXMXMXMX",
"MXMXMXMXMXMXMXMXMXMXMXMXMXMXMXMXMXMXMXMXMXMXMXMXMXMXMXMXMXMXMXMXMXMXMXMXMXMXMXMXMXMXMXMXMXMXMXMXMXMXMXMXMXMXMXMXMXMXMXMXMXMXMXMXMXMXMXMXMXMXMXMXMXMXMXMXMXMXMXMXMXMXMXMXMXMXMXMXMXMXMXMXMXMXMXMXMXMXMXMXMXMXMXMXMXMXMXMXMXMXMXMXMXMXMXMXMXMXMXMXMXMXMXMXMXMXMXMXMXMXMXMXMXMXMXMXMXMXMXMXMXMXMXMXMXMXMXMXMXMXMXMXMXMXMXMXMXMXMXMXMXMXMXMXMXMXMXMXMXMXMXMXMXMXMXMXMXMXMXMXMXMXMXMXMXMXMXMXMXMXMXMXMXMXMXMXMXMXMXMXMXMXMXMXMXMXMXMXMXMXMXMXMXMXMXMXMXMXMXMXMXMXMXMXMXMXMXMXMXMXMXMXMXMXMXMXMXMXMXMXMXMXMXMXMXMXMXMXMXMXMXMXMXMXMXMXMXMXMXMXMXMXMXMXMXMXMXMXMXMXMXMXMXMXMXMXMXMXMXMXMXMXMXMXMXMXMXMXMXMXMXMXMXMXMXMXMXMXMXMXMXMXMXMXMXMXMXMXMXMXMXMXMXMXMXMXMXMXMXMXMXMXMXMXMXMXMXMXMXMXMXMXMXMXMXMXMXMXMXMXMXMXMXMXMXMXMXMXMXMXMXMXMXMXMXMXMXMXMXMXMXMXMXMXMXMXMXMXMXMXMXMXMXMXMXMXMXMXMXMXMXMXMXMXMXMXMXMXMXMXMXMXMXMXMXMXMX",
"MXMXMXMXMXMXMXMXMXMXMXMXMXMXMXMXMXMXMXMXMXMXMXMXMXMXMXMXMXMXMXMXMXMXMXMXMXMXMXMXMXMXMXMXMXMXMXMXMXMXMXMXMXMXMXMXMXMXMXMXMXMXMXMXMXMXMXMXMXMXMXMXMXMXMXMXMXMXMXMXMXMXMXMXMXMXMXMXMXMXMXMXMXMXMXMXMXMXMXMXMXMXMXMXMXMXMXMXMXMXMXMXMXMXMXMXMXMXMXMXMXMXMXMXMXMXMXMXMXMXMXMXMXMXMXMXMXMXMXMXMXMXMXMXMXMXMXMXMXMXMXMXMXMXMXMXMXMXMXMXMXMXMXMXMXMXMXMXMXMXMXMXMXMXMXMXMXMXMXMXMXMXMXMXMXMXMXMXMXMXMXMXMXMXMXMXMXMXMXMXMXMXMXMXMXMXMXMXMXMXMXMXMXMXMXMXMXMXMXMXMXMXMXMXMXMXMXMXMXMXMXMXMXMXMXMXMXMXMXMXMXMXMXMXMXMXMXMXMXMXMXMXMXMXMXMXMXMXMXMXMXMXMXMXMXMXMXMXMXMXMXMXMXMXMXMXMXMXMXMXMXMXMXMXMXMXMXMXMXMXMXMXMXMXMXMXMXMXMXMXMXMXMXMXMXMXMXMXMXMXMXMXMXMXMXMXMXMXMXMXMXMXMXMXMXMXMXMXMXMXMXMXMXMXMXMXMXMXMXMXMXMXMXMXMXMXMXMXMXMXMXMXMXMXMXMXMXMXMXMXMXMXMXMXMXMXMXMXMXMXMXMXMXMXMXMXMXMXMXMXMXMXMXMXMXMXMXMXMXMXMXMXMXMXMXMXMX",
"MXMXMXMXMXMXMXMXMXMXMXMXMXMXMXMXMXMXMXMXMXMXMXMXMXMXMXMXMXMXMXMXMXMXMXMXMXMXMXMXMXMXMXMXMXMXMXMXMXMXMXMXMXMXMXMXMXMXMXMXMXMXMXMXMXMXMXMXMXMXMXMXMXMXMXMXMXMXMXMXMXMXMXMXMXMXMXMXMXMXMXMXMXMXMXMXMXMXMXMXMXMXMXMXMXMXMXMXMXMXMXMXMXMXMXMXMXMXMXMXMXMXMXMXMXMXMXMXMXMXMXMXMXMXMXMXMXMXMXMXMXMXMXMXMXMXMXMXMXMXMXMXMXMXMXMXMXMXMXMXMXMXMXMXMXMXMXMXMXMXMXMXMXMXMXMXMXMXMXMXMXMXMXMXMXMXMXMXMXMXMXMXMXMXMXMXMXMXMXMXMXMXMXMXMXMXMXMXMXMXMXMXMXMXMXMXMXMXMXMXMXMXMXMXMXMXMXMXMXMXMXMXMXMXMXMXMXMXMXMXMXMXMXMXMXMXMXMXMXMXMXMXMXMXMXMXMXMXMXMXMXMXMXMXMXMXMXMXMXMXMXMXMXMXMXMXMXMXMXMXMXMXMXMXMXMXMXMXMXMXMXMXMXMXMXMXMXMXMXMXMXMXMXMXMXMXMXMXMXMXMXMXMXMXMXMXMXMXMXMXMXMXMXMXMXMXMXMXMXMXMXMXMXMXMXMXMXMXMXMXMXMXMXMXMXMXMXMXMXMXMXMXMXMXMXMXMXMXMXMXMXMXMXMXMXMXMXMXMXMXMXMXMXMXMXMXMXMXMXMXMXMXMXMXMXMXMXMXMXMXMXMXMXMXMXMXMX",
"MXMXMXMXMXMXMXMXMXMXMXMXMXMXMXMXMXMXMXMXMXMXMXMXMXMXMXMXMXMXMXMXMXMXMXMXMXMXMXMXMXMXMXMXMXMXMXMXMXMXMXMXMXMXMXMXMXMXMXMXMXMXMXMXMXMXMXMXMXMXMXMXMXMXMXMXMXMXMXMXMXMXMXMXMXMXMXMXMXMXMXMXMXMXMXMXMXMXMXMXMXMXMXMXMXMXMXMXMXMXMXMXMXMXMXMXMXMXMXMXMXMXMXMXMXMXMXMXMXMXMXMXMXMXMXMXMXMXMXMXMXMXMXMXMXMXMXMXMXMXMXMXMXMXMXMXMXMXMXMXMXMXMXMXMXMXMXMXMXMXMXMXMXMXMXMXMXMXMXMXMXMXMXMXMXMXMXMXMXMXMXMXMXMXMXMXMXMXMXMXMXMXMXMXMXMXMXMXMXMXMXMXMXMXMXMXMXMXMXMXMXMXMXMXMXMXMXMXMXMXMXMXMXMXMXMXMXMXMXMXMXMXMXMXMXMXMXMXMXMXMXMXMXMXMXMXMXMXMXMXMXMXMXMXMXMXMXMXMXMXMXMXMXMXMXMXMXMXMXMXMXMXMXMXMXMXMXMXMXMXMXMXMXMXMXMXMXMXMXMXMXMXMXMXMXMXMXMXMXMXMXMXMXMXMXMXMXMXMXMXMXMXMXMXMXMXMXMXMXMXMXMXMXMXMXMXMXMXMXMXMXMXMXMXMXMXMXMXMXMXMXMXMXMXMXMXMXMXMXMXMXMXMXMXMXMXMXMXMXMXMXMXMXMXMXMXMXMXMXMXMXMXMXMXMXMXMXMXMXMXMXMXMXMXMXMXMX"
};
