/* XPM */
static const char *enemy4_xpm[] = {
/* columns rows colors chars-per-pixel */
"396 81 240 2 ",
"   c #020402",
".  c #040A04",
"X  c #080B07",
"o  c #070B08",
"O  c #0A0D0A",
"+  c #020708",
"@  c #021502",
"#  c #031B03",
"$  c #071409",
"%  c #0C120C",
"&  c #0C1B0D",
"*  c #081A07",
"=  c #10130F",
"-  c #101D0F",
";  c #0F1410",
":  c #0E1A11",
">  c #081419",
",  c #111612",
"<  c #141A15",
"1  c #181C17",
"2  c #171D18",
"3  c #191E19",
"4  c #060E13",
"5  c #042303",
"6  c #052C03",
"7  c #092D06",
"8  c #0A240A",
"9  c #0B2C0A",
"0  c #082406",
"q  c #063303",
"w  c #093406",
"e  c #063B03",
"r  c #0A3B05",
"t  c #0B340A",
"y  c #0C3B09",
"u  c #0F2311",
"i  c #132415",
"p  c #132916",
"a  c #162419",
"s  c #1B231B",
"d  c #162A19",
"f  c #1A2B1C",
"g  c #182617",
"h  c #1B321E",
"j  c #163419",
"k  c #103B0E",
"l  c #20241F",
"z  c #0A1C27",
"x  c #1F2420",
"c  c #1E2D20",
"v  c #1D3421",
"b  c #1D3921",
"n  c #0C2537",
"m  c #0F2634",
"M  c #212622",
"N  c #242B25",
"B  c #262D28",
"V  c #292E2A",
"C  c #282B27",
"Z  c #223324",
"A  c #26342A",
"S  c #2A332C",
"D  c #2A392D",
"F  c #213924",
"G  c #2E3C32",
"H  c #2E3530",
"J  c #313632",
"K  c #343B35",
"L  c #393E3A",
"P  c #373C38",
"I  c #0B4306",
"U  c #0C4A06",
"Y  c #0D4209",
"T  c #084705",
"R  c #124A0C",
"E  c #0E5308",
"W  c #14540C",
"Q  c #155A0C",
"!  c #184E12",
"~  c #195311",
"^  c #1C5D12",
"/  c #185511",
"(  c #146509",
")  c #166D09",
"_  c #1A6C0C",
"`  c #16640B",
"'  c #1B730B",
"]  c #1B780C",
"[  c #1D6212",
"{  c #1C6B12",
"}  c #1D7410",
"|  c #0D6006",
" . c #216C16",
".. c #237913",
"X. c #217A0F",
"o. c #2E4233",
"O. c #324536",
"+. c #344639",
"@. c #3B433D",
"#. c #344A39",
"$. c #344938",
"%. c #0D2D44",
"&. c #11314B",
"*. c #133857",
"=. c #0F3148",
"-. c #3D4640",
";. c #3E4B42",
":. c #424642",
">. c #434B45",
",. c #464D49",
"<. c #494E4A",
"1. c #46544A",
"2. c #4B534D",
"3. c #4A5B4E",
"4. c #45564A",
"5. c #4C5D51",
"6. c #4F5550",
"7. c #535B55",
"8. c #545955",
"9. c #4E6251",
"0. c #536555",
"q. c #566558",
"w. c #59665B",
"e. c #4D614F",
"r. c #5E6762",
"t. c #636B65",
"y. c #666E69",
"u. c #66726A",
"i. c #69746C",
"p. c #6A796E",
"a. c #647067",
"s. c #6D7C72",
"d. c #6B7771",
"f. c #727D75",
"g. c #747C77",
"h. c #1F8B0C",
"j. c #248C0E",
"k. c #22850D",
"l. c #25940E",
"z. c #28990E",
"x. c #258C11",
"c. c #288815",
"v. c #269311",
"b. c #2A9514",
"n. c #2C9B15",
"m. c #2E9C19",
"M. c #2B9716",
"N. c #319C16",
"B. c #329D1B",
"V. c #30951A",
"C. c #2BA80D",
"Z. c #2EA415",
"A. c #2EAA14",
"S. c #2FA218",
"D. c #2CA715",
"F. c #31A516",
"G. c #31AC16",
"H. c #32A41A",
"J. c #33AC19",
"K. c #3AAB1E",
"L. c #39A51E",
"P. c #34B316",
"I. c #36BA16",
"U. c #39BC16",
"Y. c #35B319",
"T. c #39B51B",
"R. c #36B919",
"E. c #3ABC1A",
"W. c #38B616",
"Q. c #2FB60F",
"!. c #369B23",
"~. c #348E24",
"^. c #39A523",
"/. c #3BAD23",
"(. c #3AA726",
"). c #3CB425",
"_. c #3EBA24",
"`. c #3EB428",
"'. c #3FA231",
"]. c #41A92C",
"[. c #41BC26",
"{. c #43B42B",
"}. c #43BB29",
"|. c #42B526",
" X c #45B231",
".X c #40B324",
"XX c #3BC216",
"oX c #3DC31A",
"OX c #3EC91A",
"+X c #39C514",
"@X c #39C710",
"#X c #3FC223",
"$X c #41C51B",
"%X c #44CA1C",
"&X c #49CC1E",
"*X c #41CA16",
"=X c #44D31C",
"-X c #4AD51E",
";X c #53D01F",
":X c #43C324",
">X c #45CC22",
",X c #4BCD22",
"<X c #45C22A",
"1X c #4BCC2A",
"2X c #49C72A",
"3X c #51CF23",
"4X c #4CD223",
"5X c #4CD727",
"6X c #54D323",
"7X c #5AD625",
"8X c #5CD926",
"9X c #52D42C",
"0X c #5EDA28",
"qX c #53DB27",
"wX c #56D834",
"eX c #4DCC32",
"rX c #64DD2A",
"tX c #6ADE2D",
"yX c #61DB27",
"uX c #69DF33",
"iX c #53E22C",
"pX c #5AE532",
"aX c #57E92C",
"sX c #66E02C",
"dX c #6CE12E",
"fX c #6EE330",
"gX c #60E139",
"hX c #74E533",
"jX c #79E636",
"kX c #7AE936",
"lX c #7DEA39",
"zX c #78E837",
"xX c #69EB33",
"cX c #6F8174",
"vX c #718175",
"bX c #76847A",
"nX c #81EC3C",
"mX c #85EF41",
"MX c #7B9083",
"NX c #000001",
/* pixels */
"NXNXNXNXNXNXNXNXNXNXNXNXNXNXNXNXNXNXNXNXNXNXNXNXNXNXNXNXNXNXNXNXNXNXNXNXNXNXNXNXNXNXNXNXNXNXNXNXNXNXNXNXNXNXNXNXNXNXNXNXNXNXNXNXNXNXNXNXNXNXNXNXNXNXNXNXNXNXNXNXNXNXNXNXNXNXNXNXNXNXNXNXNXNXNXNXNXNXNXNXNXNXNXNXNXNXNXNXNXNXNXNXNXNXNXNXNXNXNXNXNXNXNXNXNXNXNXNXNXNXNXNXNXNXNXNXNXNXNXNXNXNXNXNXNXNXNXNXNXNXNXNXNXNXNXNXNXNXNXNXNXNXNXNXNXNXNXNXNXNXNXNXNXNXNXNXNXNXNXNXNXNXNXNXNXNXNXNXNXNXNXNXNXNXNXNXNXNXNXNXNXNXNXNXNXNXNXNXNXNXNXNXNXNXNXNXNXNXNXNXNXNXNXNXNXNXNXNXNXNXNXNXNXNXNXNXNXNXNXNXNXNXNXNXNXNXNXNXNXNXNXNXNXNXNXNXNXNXNXNXNXNXNXNXNXNXNXNXNXNXNXNXNXNXNXNXNXNXNXNXNXNXNXNXNXNXNXNXNXNXNXNXNXNXNXNXNXNXNXNXNXNXNXNXNXNXNXNXNXNXNXNXNXNXNXNXNXNXNXNXNXNXNXNXNXNXNXNXNXNXNXNXNXNXNXNXNXNXNXNXNXNXNXNXNXNXNXNXNXNXNXNXNXNX;.r.2.5.,.1.1.<.,.,.>.1.;.>.,.;.>.-.,.1.>.>.:.<.<.:.>.<.1.N NXNXNXNXNXNXNXNXNXNXNXNX",
"NXNXNXNXNXNXNXNXNXNXNXNXNXNXNXNXNXNXNXNXNXNXNXNXNXNXNXNXNXNXNXNXNXNXNXNXNXNXNXNXNXNXNXNXNXNXNXNXNXNXNXNXNXNXNXNXNXNXNXNXNXNXNXNXNXNXNXNXNXNXNXNXNXNXNXNXNXNXNXNXNXNXNXNXNXNXNXNXNXNXNXNXNXNXNXNXNXNXNXNXNXNXNXNXNXNXNXNXNXNXNXNXNXNXNXNXNXNXNXNXNXNXNXNXNXNXNXNXNXNXNXNXNXNXNXNXNXNXNXNXNXNXNXNXNXNXNXNXNXNXNXNXNXNXNXNXNXNXNXNXNXNXNXNXNXNXNXNXNXNXNXNXNXNXNXNXNXNXNXNXNXNXNXNXNXNXNXNXNXNXNXNXNXNXNXNXNXNXNXNXNXNXNXNXNXNXNXNXNXNXNXNXNXNXNXNXNXNXNXNXNXNXNXNXNXNXNXNXNXNXNXNXNXNXNXNXNXNXNXNXNXNXNXNXNXNXNXNXNXNXNXNXNXNXNXNXNXNXNXNXNXNXNXNXNXNXNXNXNXNXNXNXNXNXNXNXNXNXNXNXNXNXNXNXNXNXNXNXNXNXNXNXNXNXNXNXNXNXNXNXNXNXNXNXNXNXNXNXNXNXNXNXNXNXNXNXNXNXNXNXNXNXNXNXNXNXNXNXNXNXNXNXNXNXNXNXNXNXNXNXNXNXNXNXNXNXNXNXNXNXNXNXNX+.vX2.K K K K J S S B B V N M x x x M x x x x 1 3 x 2 2 2 2 P M o NXNXNXNXNXNXNXNXNXNX",
"NXNXNXNXNXNXNXNXNXNXNXNXNXNXNXNXNXNXNXNXNXNXNXNXNXNXNXNXNXNXNXNXNXNXNXNXNXNXNXNXNXNXNXNXNXNXNXNXNXNXNXNXNXNXNXNXNXNXNXNXNXNXNXNXNXNXNXNXNXNXNXNXNXNXNXNXNXNXNXNXNXNXNXNXNXNXNXNXNXNXNXNXNXNXNXNXNXNXNXNXNXNXNXNXNXNXNXNXNXNXNXNXNXNXNXNXNXNXNXNXNXNXNXNXNXNXNXNXNXNXNXNXNXNXNXNXNXNXNXNXNXNXNXNXNXNXNXNXNXNXNXNXNXNXNXNXNXNXNXNXNXNXNXNXNXNXNXNXNXNXNXNXNXNXNXNXNXNXNXNXNXNXNXNXNXNXNXNXNXNXNXNXNXNXNXNXNXNXNXNXNXNXNXNXNXNXNXNXNXNXNXNXNXNXNXNXNXNXNXNXNXNXNXNXNXNXNXNXNXNXNXNXNXNXNXNXNXNXNXNXNXNXNXNXNXNXNXNXNXNXNXNXNXNXNXNXNXNXNXNXNXNXNXNXNXNXNXNXNXNXNXNXNXNXNXNXNXNXNXNXNXNXNXNXNXNXNXNXNXNXNXNXNXNXNXNXNXNXNXNXNXNXNXNXNXNXNXNXNXNXNXNXNXNXNXNXNXNXNXNXNXNXNXNXNXNXNXNXNXNXNXNXNXNXNXNXNXNXNXNXNXNXNXNXNXNXNXNXNXNXNXNXK MX1.; < < < < & ; % & ; ; ; , ; ; : ; ; ; ; < , , , , , < 2 2 >.M   NXNXNXNXNXNXNXNXNX",
"NXNXNXNXNXNXNXNXNXNXNXNXNXNXNXNXNXNXNXNXNXNXNXNXNXNXNXNXNXNXNXNXNXNXNXNXNXNXNXNXNXNXNXNXNXNXNXNXNXNXNXNXNXNXNXNXNXNXNXNXNXNXNXNXNXNXNXNXNXNXNXNXNXNXNXNXNXNXNXNXNXNXNXNXNXNXNXNXNXNXNXNXNXNXNXNXNXNXNXNXNXNXNXNXNXNXNXNXNXNXNXNXNXNXNXNXNXNXNXNXNXNXNXNXNXNXNXNXNXNXNXNXNXNXNXNXNXNXNXNXNXNXNXNXNXNXNXNXNXNXNXNXNXNXNXNXNXNXNXNXNXNXNXNXNXNXNXNXNXNXNXNXNXNXNXNXNXNXNXNXNXNXNXNXNXNXNXNXNXNXNXNXNXNXNXNXNXNXNXNXNXNXNXNXNXNXNXNXNXNXNXNXNXNXNXNXNXNXNXNXNXNXNXNXNXNXNXNXNXNXNXNXNXNXNXNXNXNXNXNXNXNXNXNXNXNXNXNXNXNXNXNXNXNXNXNXNXNXNXNXNXNXNXNXNXNXNXNXNXNXNXNXNXNXNXNXNXNXNXNXNXNXNXNXNXNXNXNXNXNXNXNXNXNXNXNXNXNXNXNXNXNXNXNXNXNXNXNXNXNXNXNXNXNXNXNXNXNXNXNXNXNXNXNXNXNXNXNXNXNXNXNXNXNXNXNXNXNXNXNXNXNXNXNXNXNXNXNXNXNXNXJ cX2.; a 2 2 z 2 2 3 , < 2 2 2 < 2 2 : 2 2 , 2 2 2 , 2 , 2 < 2 ; 2 >.V NXNXNXNXNXNXNXNXNX",
"NXNXNXNXNXNXNXNXNXNXNXNXNXNX, 1 , 1 , , 1 , , 1 l 1 1 1 1 3 3 3 3 1 1 1 x 1 3 3 3 3 l l 3 x x M x x 3 l M l x M l 3 l l x l x M x x M x x M , NXNXNXNXNXNXNXNXNXNXNXNXNXNXNXNXNXNXNXNXNXNXNXNXNXNXNXNXNXNXNXNXNXNXNXNXNXNXNXNXNXNXNXNXNXNXNXNXNXNXNXNXNXNXNXNXNXNXNXNXNXNXNXNXNXNXNXNXNXNXNXNXNXNXNXNXNXNXNXNXNXNXNXNXNXNXNXNXNXNXNXNXNXNXNXNXNXNXNXNXNXNXNXNXNXNXNXNXNXNXNXNXNXNXNXNXNXNXNXNXNXNXNXNXNXNXNXNXNXNXNXNXNXNXNXNXNXNXNXNXNXNXNXNXNXNXNXNXNXNXNXNXNXNXNXNXNXNXNXNXNXNXNXNXNXNXNXNXNXNXNXNXNXNXNXNXNXNXNXNXNXNXNXNXNXNXNXNXNXNXNXNXNXNXNXNXNXNXNXNXNXNXNXNXNXNXNXNXNXNXNXNXNXNXNXNXNXNXNXNXNXNXNXNXNXNXNXNXNXNXNXNXNXNXNXNXNXNXNXNXNXNXNXNXNXNXNXNXNXNXNXNXNXNXNXNXNXNXNXNXNXNXNXNXNXNXNXNXNXNXNXNXNXNXNXNXNXNXNX-.cX1., < < o 4 N C M M M C M N V M C V M C M N N C M M M M C 3 4 < ; 2 L V NXNXNXNXNXNXNXNX",
"NXNXNXNXNXNXNXNXNXNXNXNXNX% J L L L P J L P J P L P L L L :.:.:.:.:.L :.:.-.:.:.:.:.:.:.<.:.<.<.,.,.,.<.<.<.<.<.<.<.<.6.6.2.6.2.6.8.8.6.6.8.-.1 + +                 +                                         .     +                     +   .   +               +     X               +   . . X   . +   +         +   .     . + .       X   . .   .   .   .   X   NXNX  . X   . NXNX.   . . .   + . . . . . . +   . +   . .   + .   . .   . . . .   . . . . X .   . + .   .   . .   . . . . + .     .   . + .   + . . .   X   . .     .   .     . . .   . . . .     .       .   .   . .   + . .     .   . .       . .       .   + +   .         .           .     . .   X     + .           .             .     X NXNXNX,.cX;.& < < 2   P bXg.g.g.d.g.g.g.g.g.g.g.g.g.g.g.g.g.g.d.g.g.g.y.1 < 2 < < P H NXNXNXNXNXNXNX",
"NXNXNXNXNXNXNXNXNXNXNXNXNXC 3 = = , , = = , 4 , , , , , , , , = = , 4 < , = 2 , , 1 , , 2 > , , < < 1 < < 2 1 2 1 1 < < < < < < , , 2 , , , 3 V 3 O 3 C V S J K H J K K K K K P @.@.@.@.L @.L L L @.@.@.-.@.@.@.@.-.-.-.-.-.:.;.-.;.;.@.@.@.@.@.@.@.@.@.@.+.@.@.@.-.:.>.;.@.;.@.;.;.;.>.@.>.;.>.;.>.1.>.,.1.,.1.1.1.1.1.1.1.1.1.4.4.3.4.2.3.2.1.3.3.3.1.1.1.2.3.5.3.5.5.3.4.4.4.4.5.5.3.4.3.3.4.4.3.2.3.4.5.5.9.3.5.9.5.3.e.3.3.e.4.3.5.5.5.3.5.3.3.9.5.3.5.5.9.4.3.5.3.5.5.3.3.4.4.3.4.3.3.;.9.3.3.9.3.5.5.3.5.3.3.9.9.3.5.3.4.5.3.3.4.3.5.9.5.4.3.3.3.3.3.3.e.4.9.3.9.9.5.5.5.5.5.3.3.5.5.e.3.3.3.7.9.5.3.3.5.3.5.3.3.3.2.3.3.3.3.4.5.3.1.3.3.1.1.3.3.3.3.1.1.1.4.3.;.,.;.,.,.;.4.4.,.;.@.@.>.1.:.;.;.;.>.;.@.@.2 NXX 1.vX$., 2 a 2 <   L N x M x M x M x l x M x x l l l 3 3 3 l 3 2 1 l 3 < < 2 < , K V   NXNXNXNXNX",
"NXNXNXNXNXNXNXNXNXNXNXNXM s 1 3 3 1 3 3 3 1 l 3 1 3 l 1 x l M 3 3 3 x x 3 3 x x l l M M M M x x l M M x M x M M M M M l M M M l x 3 x 3 l 3 1 , x ; , 3 x x x x x x x c B c N B B B A S S S S A S S A S H H G H G H G G K O.K O.G G G G H G G K G H G G D H D D G o.O.G D D G K G O.O.O.o.O.G K O.G O.G O.O.O.O.O.O.G O.O.+.+.+.+.$.@.@.#.#.$.#.+.+.#.+.O.#.$.#.+.+.#.#.$.O.O.+.+.@.+.+.$.o.#.#.#.#.$.#.$.O.O.O.O.O.#.O.O.#.O.O.#.O.+.$.$.O.+.O.o.O.$.$.#.#.#.#.$.#.#.#.#.$.$.O.O.#.O.O.#.+.o.#.#.#.#.$.$.#.#.#.#.#.#.#.O.#.$.$.#.#.#.O.O.+.O.$.O.O.O.O.O.O.o.O.#.+.O.O.O.#.O.+.o.O.o.O.O.+.O.o.o.o.o.O.#.O.o.o.o.o.o.o.D o.o.O.o.G o.o.O.o.o.o.o.o.D o.o.G D o.D G D D D A D D D D A D A Z N A A Z A A A N A N s & X 7.bX;.< 3 < 2 < ,   J B x M N x C C C x x M M x M x M M x M M x x l M 2 < < < < , ; -.V + NXNXNXNX",
"NXNXNXNXNXNXNXNXNXNXNXl M < 1 1 1 1 1 , 1 1 3 3 1 2 1 3 3 1 1 1 3 3 3 3 2 3 3 3 1 1 2 3 3 1 3 x 3 3 3 3 l 3 3 3 x 3 l 3 x l l < 1 1 < < , < = = , = + O O O O o o $ O o o O O O O O O O O o O O % $ X O O O % O % O O O O % O o % % % % O X O O O $ % X O $ O = % % $ o o % X $ % $ o $ $ % $ & % % $ X & $ % $ % % % % $ $ % % X & X $ $ & $ % $ $ % % $ $ & $ % $ $ $ & % & $ $ $ $ & & $ $ * * * $ & $ & & $ & $ & & $ $ * & & $ & * & & $ & $ & $ & & $ $ & $ $ & $ % & $ $ & & $ & $ $ * & $ $ $ $ $ & * $ $ $ $ $ $ $ $ $ $ & $ * $ $ $ $ $ * $ & $ & & $ $ $ $ & $ $ $ $ $ $ $ 4 $ $ * & & % $ $ $ X % $ % & % & $ $ $ $ o % $ $ $ $ X $ $ $ % $ $ $ * X $ $ $ $ X % $ % . X $ X X % X @ @ o X . X X   . X % q.MX#.< a 2 < i < &   H f 3 s s a l s l x 3 l l 2 3 3 3 3 3 M x 3 3 3 3 1 1 2 2 , 2 , , P V NXNXNXNX",
"NXNXNXNXNXNXNXNXNXNX3 s < < < < , 1 1 1 , 1 2 2 2 1 1 2 1 , 1 1 1 3 1 1 2 1 3 3 1 3 3 1 1 1 3 3 3 l 3 3 3 3 l l 3 3 3 l 3 3 3 1 1 < < o = 3 l M M l l M M M M M M x M M l M M C C N N M M l M C N N C N N C M C N C M C C N N M N M M C C N N C C C C C C N N M N N N N N C N B N N N B C A B V A N S C A B B A A A S S N S A A A S A A A S S A D D A D S A D D D D D S D D A A A D A A A D D A D A A S A F D D A D A D A D D D A D A A A A D D A A D A D D A D D A A D D D D A A A A A D S A S D D A A D S D S A A A D A A A D D S S A A A A D A A A S A A A A A A A A A A D b S A D A A A A A D A A A D A A A A A A A A S A A A A S A A S A S A A A A A N A A A N Z N Z Z A A Z C N A A N A N N N Z N M N C M C q.bX@.< a 2 a < < < %   H x 2 s x 3 3 s s s s 3 3 3 3 3 3 s 3 s 3 s s 3 l 3 < 2 , 2 < < , , J S NXNXNX",
"NXNXNXNXNXNXNXNXNX3 s < 1 , < , 1 1 , 1 2 2 , 2 1 , 1 2 1 , 1 < , 1 3 1 3 2 1 1 1 1 2 2 1 2 1 1 3 3 l 1 3 l l 3 l 3 l 3 3 3 1 3 1 1 X M 6.8.r.r.8.8.8.t.t.t.t.r.r.t.t.w.r.r.w.r.t.t.t.w.t.t.t.t.t.r.t.t.t.t.t.t.t.t.t.y.t.y.t.t.t.t.t.t.u.y.y.t.t.t.t.y.i.u.i.u.y.u.i.u.i.y.t.i.y.u.i.u.u.u.i.i.i.u.i.p.i.i.a.p.i.i.i.p.p.d.p.d.p.p.d.f.f.d.f.f.vXs.f.s.cXs.vXd.s.s.s.s.s.p.cXp.vXs.cXcXp.s.vXs.s.s.vXvXp.p.f.cXs.cXcXs.vXvXcXvXvXvXvXvXvXf.s.vXvXvXvXcXcXvXvXbXcXvXvXvXvXvXvXvXvXvXcXs.s.s.vXcXcXcXs.cXcXcXvXvXvXvXf.f.vXs.cXs.f.s.s.s.s.s.vXvXp.s.s.f.s.p.s.s.p.p.s.s.s.p.p.p.p.s.p.p.d.d.p.p.p.p.p.d.p.p.s.d.p.s.s.s.s.s.d.vXs.s.s.d.i.p.p.d.p.p.d.d.i.p.i.i.u.u.u.i.i.i.i.i.a.i.i.i.i.i.a.a.u.t.t.u.u.u.u.t.a.a.#.2 s g a < 2 < : %   S s 3 2 X X + o o o o X X 4 + X X o X X X o X X X < 1 , , 2 , , 2 , , S V NXNX",
"NXNXNXNXNXNXNX+ 2 x < < < < < < , 1 1 < 1 1 1 , 1 2 2 1 3 , , 1 3 1 1 1 , 2 1 1 2 , 2 1 1 1 1 1 3 3 3 1 3 3 3 3 3 1 3 3 3 3 3 3 1 X 1 <.C 1 1 3 3 3 < 1 < < 1 1 , < 1 2 1 3 1 1 1 < < 1 1 1 < 3 1 1 1 < 1 1 , 1 < 2 2 < 3 < 3 < 1 1 3 1 3 < 1 3 1 < 1 < < 1 < 1 1 3 < 1 < 3 3 a 2 < a a 3 a 2 2 3 3 3 s 3 3 g < 2 s a a 3 a a 3 3 a 2 a 2 a a a a a a s g g f s a a a a g g f a s a a d a a a p g a a f a d g g a a i a a d a a g p g h f p f a g g a a d a a a a a a a g f g g s a g a d s c f d c c d i x d a g a d a a a d d g g g f a f s d a a a d i a a s a a a a a i d i a a d a a d d > i a a a a a g f a a a d s a g g a a a g g g a a s g g g a g a a g a a g a a a a g s i a a 3 a a 2 2 a 3 2 a 3 3 < : 2 a a 2 a 2 < < : %   S s 3 ,       X X   +   X   +   + + +     + +       , 2 , 2 2 , , < 2 , H V NX",
"NXNXNXNXNXNXX , M , 1 , , < , 1 < 1 3 , , 1 < 1 1 , 1 1 < 1 < 1 1 2 1 1 1 , < 1 1 < , 1 1 1 3 1 1 1 , 1 1 3 3 3 1 l 3 3 3 3 3 3 O 3 -.1 2 M 3 l M 3 3 3 3 3 3 3 3 3 3 s l 3 l l l 3 l 3 3 3 s s 3 s s s s s s s s l s l s s s l l s s s s s l l s a s s s s s s s s s s s s M s s s M M f M c M s c l f c c N s c Z c c N f Z N N c f Z c Z v Z c v v c h Z Z h Z h v h Z F Z F v F F Z v Z Z Z F F v Z v c h F h b h Z v v v v F b F h F h h b v v h v v v b v h h h h v Z v Z b F b v v v F h v b b v v v v v v v v b v v b v F b h b b v b b h h b b h h F v v v v v v v v v v v v v v v v v f h h Z Z Z Z h v h h v v v v v h h v Z v v v c h h F h h h h f f v h h h Z Z h f c h h Z c f f p f f f c f f f s d a a 2 < 2 a 2 : : %   H s 2 ,     o , 2 , , 1 , = , < , , ; , , ; ; =       , 2 , < < , < = < < M NX",
"NXNXNXNXNXNXNX1 4 = , = = = = = O = = = = = = = 4 = = = = = = = , , , , = = O = , = , , = = = = = = = = = = , , , , , , , = , O 3 P 1 < < 1 1 1 < < 1 < 2 < 2 < 1 1 < 1 < 1 3 1 < 1 3 1 3 3 1 3 1 < - 1 3 3 3 s s 1 3 s s s s 3 s 3 s s s s s s 2 2 3 s 3 3 s 2 3 s < s s g 3 a a a a s a g s s f s f s g s s s s s f f f f f f f f f f f g c f c c c d j f f f f f f h h f f h f c v f f f f h f h f h h h h d h h h h d v c v h h j h j h v h h h h h h h h v h h h h h h h h h d h h h h h h v c j c h h v d h v v v h d v v d h h f v d j h h h h v h h h j h h h h c j v c v d d v d h d v h h h h j h h h v h f h f h v f f h f h h d h j f d f d f p h d d f d d d f f h h h h f f p d d f d f f f d f g d a a a < a < < < : : ;   G s 2 ,     , 2 < , 2 , 1 < < , < < , , , , O ,       + , 2 , < < < 2 < < , + ",
"NXNXNXNXNX1 J V J J J J J J J V J J J J J J J J J J P P P P P J P P J J P L L L P P P P L P P P P L L L L L L :.L L L P L :.L V V 3 < 1 1 1 3 3 3 3 1 3 3 3 3 1 3 3 3 3 3 3 3 3 3 l 3 3 1 3 3 3 3 3 3 s 3 3 3 s g 1 3 s s l l s s s l s s s l s s s s s s x s a s s f l g a s s s s f s s g s f f f l f c c f f f c f f Z h f h h c f f c h h f v h v h h h v h h h h h h h b F v v v v h v v Z b v v b b v b h h b v h h h b b F h b b v v b h v b b b h b h h h h h h h b h h h h b h h b b h b b v b v b b b b b b b b b b b v b b h h h h h h b v b h b h h b h b b v v b b v v b v v v c b h h h h v b h b v v h b v h v h h h h h h h h h j h h h h h h j h j f h h h h v h h h h h h h f h f h f f h d c a a a a < a a < : < : %   S s a ,     ; 3 , , < < < < 2 < 2 < , < < , = , +         , 2 , < < < , < <   ",
"NXNXNXNX= J :.L :.:.L :.L L L L L :.L L :.L :.:.:.:.:.:.:.:.:.:.:.:.:.:.:.:.<.<.<.:.:.:.<.<.:.:.:.<.>.>.<.<.:.>.>.>.>.:.:.>.,.V 1 1 1 < 3 , O O X X o o O o o   o X o o X X X X o o X + X X o o X X X X X X X   X X X X X O X . O X X O X X O X X X O X o O O X O X O O X X X O O O O O O o O O O O X % O O % O O % % O O % O % % % % % O % % % O $ % o % % % $ % % $ $ % X % $ % $ $ $ $ $ % $ % & % $ * % % % $ % % $ $ % $ % % $ & % $ % & % $ & % $ $ & & $ $ % * & & * % $ $ % & & & $ $ % $ $ $ $ $ : : * % $ $ $ $ % $ $ % & & $ $ & & $ $ $ % $ $ $ & $ $ % % $ $ $ $ $ $ $ $ $ $ $ $ $ & $ % $ $ $ $ % % % % $ % $ % O % $ $ % $ X $ % $ X $ X o O $ $ O % o % % X X $ X X % X % % X % X o O % o o $ < x d a a a < 2 : < < ; ;   S 2 2 ;     , 1 , < < 1 , < < < < , 2 , , , , <   + , X   + 4 < < < < , 1 o + ",
"NXNXNXNXC 3 = < < < < , = , < , , < 1 , 1 , , 1 1 , 1 1 , 1 , < , = , < < < 1 1 < 1 , < < < 1 1 , < 1 1 1 < 1 1 , 1 1 , < , , 3 1 1 < 1 < +                                                                                                                                                                       .   .   . .   . . . .   . .   . . . . . . . .   . .   . . . . . . . . . . . . . . . . . . . . . . . . . . . . . @ . . @ . @ . . . @ . . . . . @ . . . . . . . . . . . . . . . @ . . . . . . . . . . . . . . . . @ . . . . . @ . . . . o . @ . . . . . @ . @ . . @ . . @ . @ . . @ . . @ . . . . . . . . . . . . @ . . . . . . . . . . . . . . . . . . . . . . .   . . .   .   .   . .     . . & f a a a i < < ; < : %   S a s ,     , 3 < < < 2 , < , < < , , , , , , , + + < 3       O < , < 1 O     ",
"NXNXO C 3 3 3 s 3 1 1 3 3 3 3 3 3 l 3 3 3 l M 3 M 3 3 l l 3 l l M l 3 1 l l l s 3 l 3 l M 3 M M l l l l M 3 3 l 3 3 3 l l 3 3 3 3 1 3 <                                                                                                                           .                               . .   . .   . . @ @ @ @ @ @ @ @ @ @ @ @ @ @ @ @ @ @ @ @ @ @ @ @ @ @ @ @ @ @ @ # @ # # # # # # # # @ @ # # # @ # @ # # @ @ @ # # @ # # # @ # # # # # # # # # @ # # # @ # # @ # @ @ @ @ @ @ @ # @ # @ # # @ # # # # # @ @ # @ # # @ @ # @ # @ # # @ @ # @ # @ # # # # # @ @ @ @ @ # # @ # @ # @ @ @ @ @ @ @ # # # @ # # # # @ # # @ @ # # # @ # @ @ @ @ @ # @ @ # @ @ @ # @ # # @ @ @ # @ @ @ @ @ @ . @ @ . . .   < f i < < < : : 2 : ;   S s 3 ,     2 3 , 2 < 2 2 2 3 1 1 1 < < < , , 1 X   X 1 3                     ",
"NXNXC 3 3 3 3 3 1 1 3 1 3 3 3 1 l 1 3 l l 3 3 3 3 1 3 l 3 3 l l 3 l l l 3 3 3 3 l l l 3 3 3 3 s l 3 l 3 3 s 3 3 3 3 3 3 3 3 3 3 1 3 <                         +     +                         .                                                 .   .               +         .         . . . . . . . . . @ . @ @ @ @ $ * @ # # @ * # @ # $ # # # * # # # # # # # @ # @ # # # * # # # # # # # # # # * @ # # # # $ # # # # # # # # # # # # # # # # # # # # 5 # # # # * # # 5 # # # # # # # 5 # # # # # # # * # # 5 # # # # # # # # # # # # # # # # # # # # # # 0 # # # # # # * # # # * # # # 0 # # # # # # # # # * # # # # # # # # # # # # # # # # @ # # # # # # # # * # # # # # # # # # # 5 # # # @ @ @ @ @ @ . . . $ c < i i < ; : : $   S 2 3 ,     2 1 = - 1 , , < , < , , , , , , 1 3 X   O O M X                   ",
"NX= , , , , , = = = , = = = = = = = = = = = , , = , , = = = = = = = = , , , , ; , , = = = , , % = , , = , , , % , = , = , O = = , =             + X X + O O O O o o O O o o O o O o O X             . O O O O o O O % % o O % O o O % % % % o     . . .     o & % % % % ; % % & % & & ; ; & : : & & X @ . @ @ @ # # Y ! ~ ! ! ! ! ~ ! / / W ! ! ! ! ! W ! k 0 # 5 # # # # 6 R / / W ~ / / / / / / ~ ~ ~ / ! W ! ! y 5 5 5 5 5 # 5 6 ~ / ^ ^ / / / / / / / ^ ^ / / ! ! / / y 5 # # 5 5 # 5 6 ! / / ! / / / / / W W / / ~ ~ ~ ! R ! k 5 # 5 5 5 5 5 w / / ~ ^ ~ ~ / ^ / ~ ~ / ~ ~ / W / ! ! t 5 5 # # 5 5 5 w ! ~ ~ / ~ / W / ~ ~ W / ~ / ~ ! ! / ~ t 5 5 5 5 # 5 5 Y ~ / / / / / / / / / ~ W / ! ! ! ! R R 0 @ @ . .   - c i a < : < : ;   V 2 a ,     < 1 X     +                   X , 3     O O M O     X , X     =   ",
"NX                                      +                                                       +                                             O O , , 1 < 1 1 1 1 < 2 < < 2 2 < 2 < 1 ,     X .   X < 3 2 < 3 2 2 a 2 2 3 a a 2 2 s a s a 3 < . +   .   +   a a a a < a s a a a a a a s f c f f d f d $ @ @ @ # 5 ^ /././.{.{././.`././.).).).).).`././.^.(.Q 5 5 5 5 5 6 c.}._.|.).).).`.)./.`.`.`.`././.).K.).(.!.Q 6 5 5 5 5 q !.).)._.).)._._.).).)._._._.`.).).).)./.(.W 5 5 5 5 6 y ~.#X#X_.).).).`._.).).).).).)._.`.)./.(.(.Q 6 5 5 6 6 I V.`._._._._.`./.).).).{.).).).).).)./.(.~.T 5 6 5 5 5 I ].}.}.{._._._.).).).).).).).).)././././.~.T 9 5 6 5 5  .{.)._.|._.)./.|.).K.|.).`.(./.K./.^.B.(.~.t @ @ . .   f f < i : < : %   S a 2 ,   + , , s ,.<.<.2.2.<.<.6.<.6.6.:.C < 1 +   = % M X   = < l C   = C = ",
"NX                                      +                                 +                                                                 X O o     X   +   X   X o     X   X   X X X %   X     X %     o + X X . . +     + . X X   + + X X O   .   .   & X . X   X O o + o o X o o O + + o o o o $ & . @ # # y (.Z.c.x.x.b.b.k.j.b.b.M.v.b.x.v.v.x.j.x.h.(.T 5 6 5 0 E #Xn.x.n.N.v.v.x.b.b.x.n.v.j.l.x.j.j.j.] l.^.e 8 6 5 5 ..:Xh.z.n.v.n.M.n.M.m.b.x.v.v.M.v.b.l.j.k.l.^.I 6 6 6 7 c.#Xv.l.b.b.z.M.v.M.n.l.z.l.l.b.n.b.b.v.x.l.#XT 5 5 6 0 c._.z.v.v.m.n.n.n.l.M.l.b.v.b.n.v.v.V.v.c.S.c.9 6 6 6 q ).E.v.n.v.v.m.b.v.b.n.b.m.l.v.n.b.b.b.x.] Z.} 6 6 6 9 ! `.n.M.n.b.n.M.n.n.v.N.n.z.v.v.h.V.b.k.k.' S. .@ # @ .   a a i : < : : %   S a 2 ;     3 M M N C S J K V J P J J V C 3 < l X   O , 3 X     o = 3   O 3   ",
"NXNX                        +       X   X X X X X   X X X X +       +         X         X                               X X   o o           O X o X o o O O o X O O O O o O O O O $ o o &   .     X % O X % X o O o % % O % % O O O O % % % o %     .     ; % % O % $ o $ % % $ & % % % % $ : : $ % : u @ @ # * ! ).l.B.m.B.V.B.M.m.S.S.M.n.M.F.m.m.b.M.m.k.}.) 5 6 6 # _ :XB.H.S.J.S.m.M.D.S.m.S.H.M.S.H.m.v.V.v.c.).E * 6 6 5 !.E.V.S.m.n.Z.Z.m.m.S.m.m.^.S.m.n.H.n.x.m.v.`.Q 6 0 6 w B.A.!.D.F.F.J.J.J.H.S.^.n.J.B.H.S.H.M.m.m.c.1XE 0 6 q # V.R.^.J.F.D.F.S.H.F.J.F.H.H.H.n.S.m.m.b.V.M.'.q 0 w 7 e 1XC.^.Z.H.B.n.M.F.H.S.M.F.n.m.H.M.m.H.V.V.v.!.e 6 5 6 ^ {.l.F.M.Z.H.^.S.H.H.F.H.H.m.S.m.v.m.v.c.k.x.'.# @ @ .   d d < : : < & %   B s 2 ,     1 s 3 3 1 3 1 3 < 3 < < = = = , < 3   + O % x X +   + = 3   O l   ",
"NX+             X X X X X X O + o O X X X X X X X X X O X X O O o X X o X X o o o X X X X o o X X X X     X X X X     O O O O O =           = o O O o O O O o X O o O O O O O o o O O o =   + X   o % X % X O X % o X O O o O O O O O $ o O O &     .   . < o $ $ $ O % O % $ $ % % % $ % $ $ $ % & * u $ # 5 8 ! `.M.B.B.J.F.H.H.S.n.S.S.H.S.S.S.S.H.M.M.x.eX} # 0 7 #  .>XH.D.S.J.Z.S.D./.S.H.m.Z.M.S.n.M.n.n.M.v.).( # 6 0 # !.#Xm.S.J.Z.H.Z.D.J.S.D.J.D.S.Z.H.F.F.n.m.l.`.` 6 7 6 w ^.R.^.D.G.D.J.G.A.G.G.G.S.S.G.G.S.F.S.S.M.v.5XE 0 6 6 * !.oXS.S.S.G.J.J.J.S.G.S.J.G.S.F.S.Z.n.n.M.S.`.q 6 0 7 Y eXC.m.F.G.G.G.F.H.H.H.Z.F.H.n.S.S.H.M.v.V.D.'.e 7 6 8 ^ }.n.H.Z.F.F.D.F.H.Z.A.S.m.S.S.M.M.S.b.b.k.M.'.# # # @ + s d a a : < ; %   V s a ,   + 1 l 3 l s l c M 3 3 < 1 < 1 3 < < 3     = % M X   o X = l   = 3 X ",
"NX+   NXNX      = O O O O O O O O o O O = = O O = O 4 O O O O O O O o X O X X X = O X X X X X X X o o X o o X X o     = O O O = ,       X   O o O O o % % O % X % O O O O o O O O O O o ,   .     X % O O O O O O O X O O o % o o % O O % O o ;     .   + - O % $ O % % o % % $ $ ; $ ; $ % ; $ $ < * p $ # 5 8 / {.z.H.G.G.F.G.D.D.D.S.D.D.J.S.D.S.S.M.M.v.eX] 5 6 7 8 _ >XJ.S.J.Y.J.G.J.Y.J.D.F.J.S.J.H.S.J.S.n.v.R.( 8 6 7 9 !.+XM.D.A.J.Y.A.Y.J.J.D.J.D.D.Y.G.G.D.S.m.l.}.` 6 6 6 w !.oXJ.Q.J.G.G.Y.D.Y.D.Y.A.A.J.J.A.J.J.S.n.v.5XQ 5 q 6 * !.E.S.J.D./.A.D.S.J.J.S.Y.S.D.J.D.S.S.z.M.J.`.q q 6 6 I wXQ.F.J.J.F.J.G.A.F.D.A.J.F.J.J.D.S.S.S.M.n.!.I 7 6 7 [ }.n.H.J.J.F.Y.Y.D.G.D.D.S.J.S.S.D.Z.M.v.x.D.'.5 # # @   g f a < : : : %   S a 2 ,   . 3 x < 3 2 s s s 3 3 1 < 2 1 < 2 2 1 +   X % M X   + o , M   = 1 X ",
"NX  M L J P =   = O O O = O O = = = = , = = = = = = = = 4 = = = ,       +     +     +                   +             = % = O ; , X         = o o o o O o o O o O O O O O O O O O O O % ,   + .   o & O O % O O X % o % O O % $ $ O O % O o $ < . + .     < o % O ; $ % % $ % $ $ ; ; $ ; $ $ : & & * p @ # 5 8 W }.n.F.G.J.F.J.S.J.S.G.A.J.Y.J.J.J.D.D.D.l.2X] 5 6 6 9 ` >XY.Z.T.Y.J.A.Y.G.G.G.P.Y.G.Y.G.G.Y.^.D.M._.( 8 q w 5 ^.OXS.A.A.Y.Y.Y.Y.A.Y.A.G.J./.Y.F.D.Y.S.J.h.`.{ q 7 q t B.XX^.C.D.Y.Y.Y.P.Y.R.D.G.A.J.Y.G.D.G.S.D.v.9X` 6 6 q 5 ^.oXJ.Y.A.Y.Y.Y.Y.J.Y.Y.G.Y.G.D.J.Y.J.D.n.G./.q w 7 6 I 1XC.G.G.G.Z.J.Y.Y.J.F.G.J.A.G.Y.A.D.G.D.m.Z.^.e 6 q 7 [ :Xz.F.D.G.P.J.J.A.Y.D.A.A.Y.A.D.G.Z.D.m.v.J.'.5 # # @   f f i < i < ; %   S a 2 ,     3 s 2 3 2 1 1 < < 1 < 2 3 2 < < , 1 +   = % x     + X = 3   X 3 + ",
"NX  2 , , l O   = O = O = O O = , , = , , , 1 = = = = = = = = = ,                                                   + = ; ; = % 1           = o o % o X o O O O o O % o O O o O O O o $ ,   X .   o % o O X O O o % O % % O % $ $ O $ O % % O < .   .   . & o % % O o 4 $ % % $ $ ; % ; % : $ $ & : & p X # 5 8 Q }.Z.D.J.A.J.Y.D.D.Y.Y.).A.Y.A./.A.G.J.D.M.2X] 5 6 q 5 ( 4XG.G.D.A.Y.T.R.R.Y.R.P.R.Y.A.A.G.D.S.A.n.#X| 8 q q 0 ^.OXH.Y.Y.R.P.Y.Y.P._.R.A.Y.R.D.Y.J.J.D.G.h.}.{ 6 9 q t !.R./.A.Y.Y.P.Y.Y.R.oXR.T.R.P.P.P.C.Y.Y.D.v.5X| 0 t q 0 (.oXD.Y.Y.R.+XR.P.Y.R.R.Y.Y.Y.Y.Y.G.Z.S.D.J.`.q w 6 6 U wXQ.H.Z.Y.A.A.Y.Y.R.T.T.R.R.J.Y.Y.R.Y.J.S.D.(.e 0 q 9 ^ <XZ.J.Y.Y.Y.P.Y.A.Y.Y.R.).R.Y.Y.S.J.J.F.M.Y.!.6 5 # #   f f a & : : : %   B 2 2 ,     3 s 3 2 , 3 2 < 2 1 1 < , 1 , < < 3 +   = ; x X   X X = l   X 3 X ",
"NX  1 < , l O + = O = = O = = = = , = O O O = O , , , O = = = = ,           X X + X O + X X X +   X X X X   + + X     = , , O , 1 X         = X O o O O o O O O O O O O % % O O % O o % ;     X   + ; O O O O % o % % X % % O o 4 O o ; O O O : X   o     < O % % % ; $ % % $ % ; $ ; $ $ : : ; & : & u $ # 5 5 / }.C.Z.J.Y.J.J.Y.J.A.A.A.Y.P.Y.Y.A.J.D.D.D.eXk.5 6 q 9 ) 5XY.P.Y.R.R.R.Y.R.U.R.R.Y.P.Y.Y.A.A.^.A.Z.#X) 8 q t 7 (.OXn.Y.P.P.Y.R.P.P._.Q.R.R.A.R.Y.Y.G.A.G.n._.` q q 6 r H.oXT.W.Y.P.Y.Y.Y.+XR.P.Y.Y.R.R.R.).Y.J.D.z.iX( 6 e t 6 H.>XA.Y.Y.R._.R.P.R.A.R.A.Y.R.R.Y.Y.J.Y.J.G.).e q w w R wXC.H.W.Y.R.T.Y.Y.Y.Y.Y.Y.Y.P.Y._.Y.A.G.Z.G.(.T w q t ^ :XJ.T.Y.D.P.R.T.P.A.I.Y.P.R.D.Q.J.A.D.Z.v.Y.(.5 5 # #   f f a i : < % %   S a 2 ;     3 s < 2 2 < < < 3 2 < < 2 < 1 < < 1 +   O O l X   + O = 3   = 3 + ",
"NX  1 , , s O   = O = O = = = = + X 1 3 2 3 M 1 O O = , = = , = M , , , , , , , , , 1 , , 1 , < < , , , = , , , O X   , % % O , 1 +         % % O X O o % O X o O O O O O % O O % O % % ,   . .   o & X O O O O $ O % O % o % o O O O % O O % %     X   X - % O O % O $ $ % $ % ; % % : > : $ & & : : p @ * 5 0 / 2XF.G.R.P.Y.A.Y.Y.Y.R.R.P.R.Y.Y.Y.Y.S.D.F.9Xk.5 w w 9 _ 5XY.J.W.R.R.W.P.P.R.Y.Y.P.U.Y.Y.R.Y.J.D.S.#X( 9 q w 7 ^.OXC.R.Y.R.R.Y.R.A.R.oXR.R.P.oXA.R.Y.G.J.D.<X_ q t e y S.#XY.Q.R.Y.Y.D.P.oXR.R.oXP.P.R.R.Y.G.D.Y.D.qX| q q q 9 /.>XY.Y.Y.P.Y.P.R.oXR.R.R.R.R.Y.Y.G.Y.Y.D.Y.`.e w 7 q U wXQ.J.W.Y.G.W.Y.R.P.R.R.Y.R.R.R.P.A.Y.G.S.A./.T w q t [ <XY.Y.P.P.P.oXP.R.U.Y.P.R.Y.G.Y.Y.Y.D.S.n.P.].6 5 # @   p f i < < : ; %   H a 3 ,     < 3 , 2 2 < < < < 2 2 < < 1 < , , 3     = = x X   X X = 3   = 3   ",
"NX  < , , 3 X   = = = = = = X = M J J J J P :.L L J = O , , , = M J V C C C C V V V V J V V V V V V V V C N V C 3 <   , , = O , < X         % X % o O O o O O O o O O O O o O O O O O O ,     .   X = O O O O % % O O O O % O % % % % % % X O ;   . .   + & % O $ $ ; % % O % % $ $ ; $ % $ : & $ : * p $ # 6 0 Q <XG.Y.Y.P.P.G.R.R.R.oX#XY.Y.J.G.Y.Y.A.F.C.9Xk.6 w r 9 _ 4XP.P.P.R.R.U.E.R.R.R.R.U.oXR.Y.Y.R.D.Z.G.OX' 9 q w 6 ).OXD.A.R.P.R.XXR.XXR.R.P.R._.R.Y.R.Y.A.D.A.<X_ e t e y (.+X(.D.R.+XR.oXoXoXoXR.oXoXR.oXY.P.Y.Y.F.C.wX) 7 w y q L.%XA.P.R.R.P.R.oXI.oXoXR.oXR.R.Y.Y.Y.Y.D.R.`.e w r w U 9XQ.K.W.R.T.R.U.oXE.I.oXR.R.R.Y.R.P.A.J.G.P.`.U e q t  .<XY.Y.R.R.R.oXI.R.oXR.R.R.R.U.R.Y.Y.A.A.Z.W.].6 5 # #   f f < i : & & O   S s 3 ;     < 3 < < < 1 3 < < < 2 < < < < < , 3 +   O ; 3 X   X X , 3   X 3   ",
"NX  , , < x o   = = = = +   M V l 3 , = 4 , = 1 l L <.M O = , , 4 = = = = O = O O = 4 = 4 = = O O O = = = = = = O =   , , % , , 1     . +   % X O o O o O O X O O o % O % o O O % O O % ,     X   X O O O O % O O O O O % O % O O O % O o % % < +   .     & O % O ; ; % % % $ ; ; % % $ : * $ : * : & p $ # 5 7 ^ <XC.J.W.Y.R.W.U.R.R.oXoXR.R.R.Y.R.C.Y.J.Z.9Xh.q r r 9 _ >XY.P.R.U.E.oXI.oXoXE.U.oXU.oXP.P.R.G.D.F.>X) 9 e w 6 ).=XY.XXoXR.oX+XoXOXoXR.oXoXoXR.R.R.Y.P.J.A.2X} y e e y S.oX).+X#XR.+XoXOXOX#XoX#X+XoXR.oXY.Y.R.Y.D.wX) q t w 7 /.>XY.I.Y.R.R.R.oXR.oXoXoXR.oXoXR.Y.P.Y.G.R._.I w w q E wXQ.J.P.R.R.XXE.oXoXXXoX+XoXR.Y.R.Y.P.Y.D.P.`.T y e t [ <XR.Y.oXR.R.U.OXoXR.R.U.R.R.R.P.Y.Y.A.J.F.W.].6 5 # #   f f i < : ; & O   S s a %     3 3 2 , 2 3 2 1 2 , 2 < 2 < , , < 3 X   = O s o   X o , 3   X 3   ",
"NX  < < , 3 o + = 4 = + + V C , , , , = = = 4 , = O 1 r.J O , , = = O = O = = O = O = O = O O = = = = O O = = O , O   % , = % , < X         % o % O O O O O O O O O o O O O O O X O % O ,   . .   o = O O O O O O O % $ % o O % O O O % % O O <   X X   X % X % O $ $ $ $ % % $ $ $ ; ; $ ; : : : : & 9 $ * 5 7 Q <XD.J.oXW.R.:XXXoXoXoXoXQ.E.OXoXR.Y.R.P.D.wXj.6 w q t _ 5XY.Q.R.R.R.R.oXoXOXXXoXI.>XoXoX#XP.R.I.P.5X' 9 e y w ).OXA.XXR.oXR.R.oXoXoXoXOXOXR.+X+XoXQ.A.D.P.2X} q t e Y S.OX_.Q.oX+XR.oXOXOXOXoXoX+XoXR.oXoXY.Y.Y.C.iX) q r y q J.OXP.I.oXoXXXR.OXI.oXoXR.XXR.oXU.U.P.A.P.R.<Xe r w e U wXI.T.$XE.E.$XoXU.oXI.>X+XoXoXR.R.P.P.A.D.U.`.T r q y { 1XR.R.oXE.E.OX>XXX:XOXR.OXR.E.Y.W.Y.T.A.z.Y.{.q 0 5 #   d f i & < < % O   B s 3 ,   + 2 3 , < < 2 2 1 1 < < 2 < , < < , 3     = O x o + + O = 1   = 3 + ",
"NX  , , = 3 =   = = X + C 3 = 1 , , , 1 1 , = = = < = + :.C O , = O O O 4 O O = = 4 O O O = = O = = = O O = 4 O = O + = = , , , 1 +         = X O O % O O O O O o O O 4 O = O O O O % o <   . +   O ; % % % O % % O % O o % % % % % % % % % o <   . . . X : % % % O O ; $ $ % : $ % $ ; $ : * : : & & u # # 6 0 ` <XG.$XE.W.E.&X$X$X&X&X;X&X&X-X&XoXoXR.P.C.pXj.6 r r w ' 5XW.U.XXoXoX&X%X%X&X6X&X%X&X4X$X%XU.#XR.Y.>X' 9 I y q |.-XR.oXE.oXXXOX*X&X%X6X4X&X>XOXOXOXoXP.Y.Q.1X} e w r r K.*XE.oXI.oX4X&X6X-X;X%X&X4X&X%X*XOXE.U.P.A.aX' w Y T w /.4XoXoXU.U.%X&X*X&X4X%X4X&X&X&X&XoXW.P.W.U.}.e r e q W pXQ.W.U.R.$XXXoX4X&X&X&X&X&X%X$XXXU.Y.P.F.R._.T y e Y  .1XI.oXOXI.oX;X&X%X%X%X%X*X%X%XE.U.P.Y.J.C.W. Xq 5 # #   a f i : : < & O   B a s ;     a s < < < 1 3 2 < , , , < < < < , 3 +   O O 3 X   o o = 3 + O 1 o ",
"NX+ 1 1 , l X   = =   3 s = < , 3 , = X + X X = = = O = = P < X , O O = , = O = O = , = 4 = = O O = O O = O = = = O   , = 4 O , 1 X         % % O O O X O O O O O O O O O O O O % O O o ,   X +   o ; O O O O O O % O % % O % O X X o X O $ X < X   X     : o % % $ O $ % % % % $ ; ; * ; : ; $ * : & p $ 0 6 7 [ >XY.R.U.U.$X6X7XyXyX7X7XyX8X8X6X%XU.R.Y.A.iXj.q y r 9 _ 5XE.I.oXoX&XqXqX7X8X8XyXrX6XrXyX4XXXP.E.R.5X' 9 I r e |.-XE.XXXXXX%X6X0XsXyXrXrXtXyXrX9XOXoXU.R.P.1X} r y e I K.=XE.@XoX=X8X8XtXtXrXsXsXsX8XsX7X&XU.R.R.A.pX' q I y q J.4XXXoX$X$X6XsXsXyX8XsXdX8XqX7X6X$XW.W.R.oX<XT r r e E 0X+XT.oXU.XX%X8X7XyXyXyXsXtX0X7X6X$XR.W.Y.U._.T r e r  .9XXX$XoXU.$X6X8X8XsX8XrXyX6X;X3X&XU.Y.W.J.W.{.q 5 # #   f f i < & : % %   V 3 2 ,     2 s < < < < 2 o +   +   , < , , , 3 +   = = l     o X = 3   O 3   ",
"NX  1 , = 3 X   =   X l , < , 1 =     + O + + + o = = = = 3 V + = = = O = = = = = = = , O O = = = = = = O = O = = =   ; , = % = 1     X     = O O O O O O O O O = O O O O O % O % O % X ,     X   o & O O O o % % O % O O % O O % % % X O % % <   X . + o < $ O % $ % % % % 4 O ; % ; ; $ : : * & & : u # 5 9 0 ^ ,XP.U.U.%X;XyXtXtXtXtXdXdXdXdX8X&XXXU.E.G.wXv.q r r 7 } iXXXXX$XXX6X8XfXdXhXfXdXfXfXdXyX3X%XR.I.R.4X' t e r e |.-XE.XXOXoX6XsXdXfXfXdXdXhXhXfXrX6XXXoXR.P.1X..r y r I K.=X$XOX$X=X8XdXfXhXfXfXdXhXhXdXrX,XOXR.U.Y.aX) w e y e Y.5XOXOX$X-XiXsXsXsXfXfXfXrXdXdX8X;XE.R.W.oX<XT r y r U pXXXE.XX*X&X7XsXdXdXfXtXdXhXdXyX7X&XXXU.W.U._.E r r y  .9XXX$XoX$X&X8XdXdXdXdXdXrXrXyXyX4XU.W.W.P.oX].q 0 # # . d f i & : ; : %   B a 2 ,   + 3 l < < < < 1 + O = O X , < < < < 3 X   = O 3 o + X o = 3   O 3   ",
"NX  , = = l =   O + = < < , , = + + z m m m z , + + = = = = C = + , = = O = = 4 O O ; O = = O O = = = O = = = = = O   ; O = % , 1 X         = O O O X % O = O O O O O O O O % O o % O % -   X .   o ; o O O ; O % O O % O % O % O % O % % O O <     X   X : % % ; % o % % & % $ % $ $ ; ; & ; : & : & p $ # 6 9 ^ 1XQ.W.XX&X7XrXfXtXfXhXhXhXkXhXxX;XoXXXR.Q.pXl.r r r w _ qX$XXXoXoX7XdXfXrXhXkXhXkXhXhXdX7XoX#XI.R.9X] t e y r }.=XR.XXoX%X8XtXdXzXhXkXhXfXhXuXdX6X%X$XU.I.5X..r w r U |.-X:X@XOX&XrXhXhXhXjXnXkXhXkXhXdX4XOXoXU.R.aX) y Y Y q K.iXOXOX*X&XrXhXhXdXkXzXkXdXhXhXtX6XXXI.E.&X}.T y r r E gX+XoXoX$X&XdXdXkXfXhXnXfXfXdXrXrX$XU.U.R.oX_.E y I I  .9XXX%X%X*X-XsXfXdXtXdXfXtXtXtXyX;XoXU.T.P.oX X6 5 5 #   a f i i : , & $   V a 2 ,     2 3 , < < 1 1   O = , o < 1 , , , 3     O O 3 O   X O 4 l   O 3   ",
"NX  1 , = 3 +   X + 3 , , , , + > %.%.%.&.&.%.%.>   X , O O l l   = = = = 4 = O = = O , 4 = O = = 4 = O = = = 4 = ,   , , , = = 1 +         = O O X % O = O O O X X O % % O O % % O % O ,   . X   X % o O O % $ O O O % % % O % X % % O % % % < X X o   . < % % o $ ; $ % % $ ; % % % $ & * : & & : & 9 # 5 6 9 Q ,X$X$X$X$X8XfXkXhXkXhXkXhXhXdXyX6X%XXXE.P.iXl.q r r w ' qXoX+XoXXX6XdXhXhXkXlXhXhXkXhXhXyX&XoXU.I.5X' t I r w |.qXU.+XOX&XiXdXhXkXzXnXnXjXhXjXdX7X=XoXoXU.6X] I r r I L.=X%X*X*X;XdXdXhXkXjXnXzXhXzXjXrX;XXXU.R.P.aX] e r Y q /.-XoX%XOX;XdXzXkXkXkXlXnXlXzXzXfX7XXXOXoX>X>XT r r r E sX@X%XOX&X&XdXhXhXhXjXjXlXjXdXrX8X,X$XU.E.U.[.E r e r  .9XOX,X*X&XqXfXsXzXhXhXjXjXfXfXrX7X$XU.E.G.$X{.q 0 5 #   g h < < < : & O   A a s ,   + 2 3 < < < < <   O , , o < 1 , , ; s +   O = s X + X O = 3   O 3 X ",
"NX+ , , = 3 O     O 1 , = 1 O 4 %.&.&.&.*.*.*.%.m 4 + , = = , N   O O = = = = = O = , O O = = O = O = , O = = = O O   % , O O , 1 X         % O O O O O O o O % O O O X O O O O O % o % =   +     o , O O % % O O % % O % $ O O % O $ % % X % <     o   . < o % % % % O O $ $ ; : % 4 : 4 & $ $ & & 8 p $ 5 0 6 [ 4XU.E.U.&XrXdXhXkXkXkXnXhXhXhXdX6XXX$XoXG.wXj.6 r r t } 5XR.I.XXOX4XdXhXnXnXkXkXkXhXkXdXrX;XOXXXP.5X' t I r y |.-XE.OXOX&XyXhXzXhXlXlXlXnXjXhXkX8X%XXXoXU.5X..I R r r K.-XT.+XOX4XsXhXzXnXnXfXkXmXnXhXdX8X+XXXR.Q.xX) t I Y q K.qX%X%XOX4XsXdXkXlXnXkXlXlXkXzXhX7XXXXXU.%X2XT y I r Q gX*XoXOX%X6XdXfXjXnXjXnXkXlXkXhXrX,XoXE.E.$X}.U q y r  .wXOX>XXXOX&X8XdXkXlXhXjXkXtXfXhX6X,XU.W.W.&X{.q 5 5 #   g f i u : & ; $   A a s ,     1 3 1 < < < < X = , , o < 3 , , < 3 +   = O 3 X   o O = 3   = 3 + ",
"NX  1 , = 3 O     O 1 = = 1 + z %.n *.*.*.&.*.%.n z   O = 4 = M   + = O = O = = , , , O = O = , = = = O , , = O % O   , % = = = <     .     % O O O O O O O O O O O O O O O O % O O O O ,   . X   O % O O O O O O O O O % X O O % % O O % O X < X   o .   : O $ $ % % $ % $ ; O % $ $ ; : $ : : & % 8 p $ 0 6 7 [ >XU.$X&X$X8XtXhXkXhXkXhXhXhXhXdX&XoXXXU.P.pXl.6 r r t ' qXOXXX%X%X;XrXhXhXkXlXnXhXhXnXfX7X%X%XXXU.qX] t r y r [.qXP.+XOX*XrXdXzXjXnXnXjXjXlXhXhX0X&XoXXXXX9X..I r r I K.=XE.XX*X*XrXkXkXnXnXnXlXnXlXjXfX4XOXoXR.I.xX) t e Y w T.iX&X%X%X;X0XhXhXkXnXlXlXlXlXzXhX6X$X$XU.$X<XT r r r Q wX*XOXOXOX&XdXhXjXnXjXnXjXhXkXkXdX6XoXE.E.XX<XW y r r  .9X%X$X*XXX&XyXdXfXlXjXjXfXjXhXtX7X&XE.E.P.%X{.6 5 5 #   d f i < : : ; o   B a 3 ,   + 1 3 , < < < 1   % ; , X 1 3 , 2 , 3 o + O X 3     X X = 3   = 3 X ",
"NX  , = = 3       = , , = 3   z &.n *.*.*.*.*.%.%.m + X = = = M   + = = = = 4 = O , = , O , O = = O 4 X = O = = % =   = , % % = <       X   = O O % O O O O O O O O % O O O o % O % % O ,   . X   O = O o % O % O % O % X % O % O % O % O % % <     .   X : O $ O ; $ O $ % $ % % % $ ; ; $ & : & & & p $ 0 6 6 [ 4XU.$X$X*X;XtXfXhXkXkXhXnXjXjXhX7X&XU.U.P.iXj.q r w w ' qXOXOX$XXX4XrXjXhXkXkXnXkXkXkXfX7X%XoXoXU.iX] k I r q |.-XP.XX%X*X7XdXdXhXzXlXnXjXhXhXdX7X%X&XXXoX5X..r I I I L.=X$X*X*X4X0XzXlXlXnXnXlXkXkXjXfX6XOXE.R.XXxX) y e y e K.-X*X-X-X%X7XhXkXnXnXnXnXkXlXzXrX7X*X$XE.&X<XU I I r E gXOXOX%X*X;XrXhXjXnXlXjXkXnXjXtXyX&XoXoXE.XX[.E Y e w  .9XXX%X%X%XqXrXdXjXjXjXnXjXtXtXtXyX&XU.W.P.%X{.6 0 # # . g h i & : ; : $   B 2 a ,   + 3 3 < < < < < X % , ; o < 2 , , , 3     O = l X   X o = 3   = 3   ",
"NX  < O = 1 X     = , , O l + z &.n %.*.&.*.&.%.n m +   , = = l     = = = = = O = 4 , = 4 O , O = , O 4 = , = , O ,   = , O = , 1     X     = O O X X O O O O O O O O O O O % O O % O O =     o   X = % O % O O % O % O % % % O % O % o % % % <   X X   X & % % $ % % % % % $ % % & & : % ; : : & : u p # # 6 9 [ 9XU.$XE.&X7XfXhXjXjXhXjXjXjXhXhX6X&XoXoXU.iXj.q r r t ' qXU.I.%XoX,XfXhXzXnXzXhXjXhXhXhX7X$XoXoXU.5XX.t R Y r |.=XR.XXXX4XrXdXhXlXjXlXjXnXjXhXzXqX%XoX$XoX5XX.r Y U Y K.-XE.*XOX&X8XhXkXlXnXlXkXkXkXlXzX6XoXoXR.E.xX) q I r r K.qX%X=X%X4XyXrXkXkXkXkXnXnXnXjXhX8X4XE.R.,X2XT r I r W sX@XoXOX=X6XrXjXhXlXlXjXjXjXnXhXtX&XE.U.W.oX_.U y e y  .wX*X&X*XoX&X0XfXhXjXhXlXzXhXuXfXyX&XU.W.G.%X{.q 5 5 #   d d 2 i : : % $   S a a ,     < 3 , 3 < < <   O , , O 2 1 < < < 3     = = 3 X   X X , 3   O 3 X ",
"NX  , , = 3 X     = , = = 3 = 4 z %.&.%.&.%.%.n z z + X , X = 3     O X = O O = = O , O = = O = O O = = O O O O O =   = = = = O 1           = O o O % % O % O O % % O O O O % O O O % O ,   X     X = % O O O % o % o O O O o O % % O % O ; % <     X     < o % O % o O % % ; % $ % $ $ * : & * & 8 & p # * 6 9 ^ 3XW.$X$X$XyXfXuXjXhXhXhXjXjXhXfX6XoXOXOXR.pXx.q r r t ' iXXXU.%X$X6XrXjXzXzXjXhXkXfXjXfX7X>XoXoXR.5X] 7 I y y .X=XU.XX&X&X;XzXkXkXjXnXnXjXnXjXzX6X&X&X$XI.9Xk.T Y I y K.-X[.*XoX;X8XdXhXlXlXzXkXkXkXhXrX5X&XE.R.R.aX' y r r q T.qXoX*XU.4XfXkXkXkXkXkXjXjXlXjXfXtX&XR.E.$X2XT r r r E wXOXoX+X%X;XrXdXdXkXjXhXjXhXfXhXtX7X%XE.W.$X_.U r e t  .wX&X&X%X*X6X0XhXhXjXjXhXfXhXfXtXrX$XE.E.A.$X|.6 0 5 #   d p i : ; ; & O   S 3 3 ,   o < s < < 3 < < + = , < O < 1 , , < 1 +   X O 3 X   X o = l   = 1   ",
"NX  , % O 1 o       , , , < M + n %.n n %.n n n z o + < , O = 1     = O = = 4 = = O = O = O = O ; = = = = = % % O = + , , O , , 1     .     = O O O O O O O O % ; O O O % % O % O % O O %     X   X % O O O O O X % % X O % O O O % O O % % O :   X o   X : O % % % ; $ $ $ : $ & % $ % ; $ $ : & & u 9 * # 6 9 [ ,XXXU.E.&X7XtXhXhXnXjXjXtXhXfXdX7X%XoXE.G.wXl.r r r w ' iX$XI.U.oX7XtXyXtXhXzXkXfXjXhXrX0X$X$XU.U.5X] 9 I y q .XqX@X%X$X$X6XrXfXjXkXfXjXjXzXjXdX7X%XXXoXE.9X] U I I I L.-XE.+XOX&X8XfXhXjXhXhXkXhXkXhXdX6XI.R.G.W.aX) q e Y e K.qXOXoX&X%XyXhXkXkXnXlXjXjXnXjXhX;X%XE.R.>X2XT r r r E wX*X$X%X$X*XrXfXkXhXhXlXtXhXfXtXrX;X$XE.T.oX}.E y r e  .9X*X>X&X%X>XyXhXjXlXhXhXhXrXtXfX8X:X$XY.P.*X X6 0 # # + f c a : < : % $   B a < ,   + < 1 , < < 1 1 X O , = o 1 < , , < 3 X   = O s X   o O O 3   O 1 X ",
"NX  < , = 1 X +   + = , , O C , 4 n z n n n z z > + X 1 = O , ,   X = O O , O = = = = = = O = = O = O = = = 4 = , O   = , = = O 1 X     .   = O % O O % O O O O O O O O O O O % O O O % ,   . .   o % O O % % O % o % X % O o % O O % O O o % < .   X   . : o O O % O $ ; ; % $ % % : % : : $ : : : & p $ 0 5 9 [ 4XW.E.U.$X3XtXhXuXtXtXuXtXtXrXrX6XE.P.R.Y.0Xl.q r y t ' qXXXoXoX%X&X0XtXhXtXhXhXhXtXtXrX7X%XT.E.U.5X] t r y r |.-XU.XXU.%XqXdXhXfXjXkXhXfXhXfXsX7X$XoXoXU.9X..I I I r L.=X_.+XXX*X8XtXhXhXjXtXzXfXhXhXsX6XI.E.E.R.xX' t r Y r W.qX%XOXoX;X0XhXhXnXkXhXfXjXhXhXtX6X&X$XT.OX2XT w r r E gX@XE.XX%X&X8XdXfXfXhXfXjXtXfXtXyX&XU._.Y.oX[.E y I r { 9X$X$X%X%X&XtXfXrXhXfXfXrXfXfX8X3X%XW.Y.C.&X].6 5 5 *   d d u < : : % %   N a a ,     < 3 < < 2 , 3 + O , , O < < , , 1 3   + O O 3 X   + o = 3   O 1   ",
"NX  , , = 2 + + X   o , = = 1 V = + z z z z z 4 + O 3 O = O , X   o O O = = = = 4 = = = = 4 = = = O = = = = O O = O   = O O = = < +         % O o % o O O O O O O O O O 4 O O O % O O O ; + . X   O ; O % O % O % O O % % X o O O O O O % O % < X   . . X : O $ % ; O % $ % % % % $ & & & $ : ; : & * p $ * 6 0 ` >XW.W.U.E.3XyXtXtXtXtXyXrXtXtX7X%XE.P.Y.F.pXj.q r y t _ 5XXXI.R.>X&X6XrXhXdXrXrXfXfXrXsX;X$XE.P.W.>X' 9 e y w |.-XP.U.oXoX3X8XtXyXtXhXtXrXfXtXrX&XoXE.U.W.9XX.I y I r K.%XT.XXU.oX3X8XfXfXdXrXhXtXrXdX7X&XU.W.R.G.xX) q y Y q K.-XXXoXU.&X;X8XdXhXjXyXhXtXtXfXyX3XU.I.R.%X<XT r r r U gXQ.E.XXU.oX6XsXdXdXdXdXtXyXtXyXyX,XT.J.J.E.{.U w r y { 3XU.$XE.$X&X7XtXrXhXtXrX8XrXyX7X,XE.P.W.G.$X`.6 0 5 #   d d < : : ; % $   B 2 2 ,   + < 3 < , < < <   O < , O , 2 , , , 3 X   O O 3 +   o o , 1   = 1 + ",
"NX+ , , = 2   + X     , O = = l :.=   + + +     = l , O = , ,   + o O O = O = O O O O = = O O = = 4 O = = O = = O =   , , , = O < X         = O O o O O O O O % O O O % O % O O O O % % ;   + .   O , O O O O O o O o O O o % % % % O % % % % ; .   .   + : O % $ O $ % % % $ ; % : % % % & $ & & : : p * 0 6 0 [ 2XR.T.W.E.&X;X}.7X;X;X7X3X3X3X,XU.E.R.W.C.wXv.6 r r t _ 5XR.P.W.P.$X3X6X6X6X7X6XrX0X6X3X$XP._.Y.Y.5X' t r y q K.*XY.U.W.P.&X$X6X6X6X6X6X0X7X0X6XoXR.Y.P.Y.1XX.e r r r K.*X).XXE.Y.&X;X6X7XqX;X6X7X6X6X&XE.Y.P.W.D.pX) q e y q K.&XY.W.E.U.&X&X8XyXyX8XyX3X6X7X3XE.R.W.J.$X#XI w w r E wX@X.XU.U.W.,X&X6X7X0X;X6X7X7X3X$X$XW.G.Y.W.{.U y r e  .9XU.E.oXR.E.&XyX6X7X7X6X3X3X6X:X$XR.G.T.D.oX].6 5 5 #   f f a : ; ; ; $   A 2 < ;     < 3 2 2 , < 2 X o ; , O 2 1 , , , 3 X   O = 3 X   + O = <   X 1 + ",
"NX  , , = 3 X   O     X < 4 = = 3 8.:.3 = = 2 P J = = = O < X   X X = = O O = , , = O = O , O O = = = = = = O , , O   O % , , O 1     + X   , O O O % O O O % O O O O O O O O O O O ; O %   X X   o , o O % O % o O O % % o O % % O O % % O O < +   X     < % o o % O ; % % % ; $ % : : % $ : $ & u * p * # 6 7 [ 2XC.Y.G.Y.U.U.$X$X$X$X%X$X&X$X$XP.G.G.A.G.9Xx.7 r w t ( 5XW.R.P.T.Y.U.&XOXXX%XoXoXI.oXXXW.R.Y.P.G.5X] 9 e y w K.=XJ.P.Y.Y.R.E.$XXX$X$X,X$XOX$X$XoXR.P.W.P.2X} r r r y L.OXY.U.W.U.E.oXXX%X%X&XI.%XoXE.XXR.Y.Y.Y.Y.aX| t q y q J.>XE.E.Y.G.OX&X&X$X$X$X$XU.$X%XU.R.R.W.J.E.:XT r w r U 9X@XW.W.U.R.:X%XOXXXXXU.oX$X&XoXP.W.W.D.T.R.{.I r r t [ 1XU.E.W.W.R.E.%XE.%X$XXX$X*XU.G.T.W.P.F.Z.U.].6 0 # #   d d < i : % % $   B a 3 ,   + 2 3 < < < , < o o ; ; O < 2 2 , , 3     = O 3 X   o o O 3   = 1 + ",
"NX  , = = 3 O   O     + = , = = O + V ,.<.<.P 3 O = O = , ,     X X O O = = O O O , = O = O , = O O = O , O = % = O   , , , O , <           & X O O O O O O O O O O O O O O O % % O o O ;     X   o & % O O O % % O O O O $ O O O % % % O $ % <     X X   & O % % % $ o O % $ $ & % % $ : : : : & : & p * * 6 0 Q 2XE.W.P.Y.Y.Y.W.E.U.$XR.U.XXU.oXR.E.Y.Y.Z.9Xv.6 w w t ` 5XR.R.P.R.P.Y.oXXXE.oX$XoXE.U.U.R.R.J.G.J.>X] 8 e y 6 /.%XJ.U.P.E.U.U.E.oXoXoXoX$XoXOXR.R.W.W.Q.A.>X{ r e r I B.XX/.U.Y.R.E.$XoX%XoXoXoXoXoXR.oXR.Y.A.P.P.pX( t q y t K.4XW.W.R.oXE.oXXXoX$XoX$XoXoXU.R.R.Y.G.J.$X<XI r r w R wXQ.W.W.E.E.U.XXoXOXU.$XoXU.*XU.I.U.U.J.H.P.{.T w e 9  .9XQ._.W.E.U.U.>X$XE.$X$X$XoX$XE.R.E.P.Y.G.oX(.6 6 # *   d f i : : : ; %   B 2 < ;     2 s < < , < < + O < ; O , 2 , , , 3     X O l X   X O O 2   = 1 X ",
"NX  , , = 3 +   =         = = = = O X X X   + O = = = , ,       + O O O O = = = O = 4 = = O O = = O O , = = = = O =   = O = = ; ,           = X O O X O O O O O O O O O O % O o % O O O ;   X +   o , O O % O O % O O O % % % % O % O % ; $ O : +   X   X & O % % % % % X % % $ % & % ; & & * $ ; : : p # 5 6 8 ` :XF.G.W.W.W.W.W.$XoXE.E.R.oXoXE.R.R.P.A.Z.9Xx.6 r e 9 ( 5XT.P.Y.R.Y.W.U.E.R.Y.E.oXP.R.R.I.Y.R.Y.D.>X' t y y 7 /.>XF.E.U.R.R.W.oXU.oXR.oXE.oXoXI.R.Y.W.Y.Q.#X} q r r e L.oXH.Q.Y.R.R.U.oXoXOXoXoXI.oXU.R.P.Y.P.Y.J.iX| t e q 7 K.%XY.R.Y.U.U.E.oXU.oXoXoXoXoXoXE.R.R.J.Y._.#Xe r y r U 9XQ.Y.R.R.G.OXoXE.oXE.oXI.oXOXP.oXR.W.Y.F.W.{.I t q q { 1XP.T.W.Y.U.W.U.U.oXoXoXOXE.U.W.W.R.J.G.Z.oX'.q 5 5 #   f f : u : : ; $   B 2 a ,     < a 2 , ; 2 2 o X , , O < < , , , 3 +   = o 3 o   X o = 1 + = 1 + ",
"NX  , = = 3 X + = O X       O = = O O = O % = = = = , =         O O = = = O = = = O = = = = O = 4 = , O = 4 O = = =   = , O = % 1   X +     = O O O O % O O O O o % O O o O O % O O % % ;   . X + o , O O % O O O O $ o O O O O O ; O O ; O % , +   . +   - % O O $ O $ $ $ O & % % : $ % $ : % : u 8 p $ * 5 8 ^ :XC.J.H.G.Y.G.T.W.W.E.oXW.R.E.Y.Y.G.Y.G.Z.1Xx.6 y q 9 ( 4XF.A.T.Y.Y.R.W.R.R.Y.R.Y.W.E.Y.Y.Y.G.Y.S.>X) 8 e r 6 /.%XF.R.W.T.Y.Y.W.U.U.R.E.E.I.U.P.W.R.R.G.D.<X{ e r q y L.XXK.P.T.R.E.R.E.P.R.E.R.oXR.R.R.R.Y.Y.G.D.pX( t Y y 7 H.>XJ.Y.Y.W.E.W.I.E.E.E.W.E.R.Y.R.Y.R.P.J._.}.T r w w I wXQ.Y.W.P.Y.E.R.R.E.E.E.oXE.R.P.R.R.R.W.S.Y.`.T t w q [ 1XP.W.J.G.W.Y.E.U.R.U.R.R.Y.R.R.Y.A.D.J.z.U.'.6 5 5 #   g f i < : : % %   B 2 2 ;   + , 1 < < ; ; < + O < , O < , , < , 1 +   X o 3 X   o X = 1   X 1 + ",
"NX  , = = 3 O   O X             = , , = , , , , , O +         X = O O = = O = O = O O = O = O = O O O = = O = O 4 % + = , O , % , X X   X   = O O o O O O O % O O O % O O o O O O O O O &   . X + O = % O O % O O O % O O % o % O O O % O O % : .   o .   < % % % % % % % % % & $ % & % $ : $ & : : * p $ # 5 5 ^ :XC.Y.Y.G.Y.G.T.W.Y.E.T.P.W.Y.G.A.Y.G.F.z.1Xh.6 e q 9 ( 4XY.A.Z.Y.R.W.R.P.T.P.U.Y.R.P.T.Y.A.).D.Z.:X' t e t q /.4XH.W.Y.Y.W.Y.Y.Y.R.R.R.R.R.W.R.Y.J.G.D.D.2X} y t e Y H.E.H.D.A.Y.W.Y.Y.Y.Y.OXP.P.R.Y.J.Y.P.Y.A.S.iX( w r y q H.%XY.Y.J.Y.R.Y.W.Y.E.R.R.R.G.Y.Y.Y.G.T.G.E.}.I w w w I wXU.T.P.W.W.P.P.R.R.R.E.P.R.A.Y.P.Y.J.G.F.G./.I q e 7 [ 2XP..XQ.J.T.Y.P.R.Y.Y.P.Y.P.R.Y.A.Y.A.J.Z.T.(.7 5 # #   d f < : : : : %   B 2 2 ,   + < 1 , , < 2 2 o o , , O < < < , , 1 +   X O 1 X   o o , 1   O 1 X ",
"NX  = = = 3 +   = + = +               X = X O X           X o o O O O = 4 = O 4 = = = = = 4 O = = = = = = O = = , O   = , , ; % , X         , X O O O X O O o O % O O % O O O O O O O o ;   X X   o & O % O % O o O o % O O % O $ O O % O ; % ;     . .   - % % $ 4 % % % % O O ; % % : : % : & * : : p # # 5 8 W [.Z.J.G.Y.G.Y.J.J.G.Y.A.D.T.J.J.A._.G.G.n.9Xj.6 q q t ( 1XH.Y.D.Y.Y.Y.T.R.Y.Y.T.P.Y.J.P.Y.P.Y.G.Z.:X) 9 q 7 q /.oXF.Y.G.Y.P.A.Q.R.R.Y.Y.P.W.Y.A.R.D.J.J.D.<X} r y q y B.oXH.A.J.F.A.Y.T.G.G.P.Y.Y.Y.A.Y.D.Y.D.D.n.pX( q y t 6 /.&XG.F.Y.R.T.W.Y.R.R.T.E.R.P.Y.P.Y.Y.G.G.T.`.T r r w U wXC.H.P.R.G.Y.R.R.T.P.Y.P.D.R.G.A.J.F.Z.H.A./.Y t q t [ 2XG.J.A.P.Y.R.Y.P.Y.R.Y.J.P.R.Y.T.Y.J.G.H.J.(.6 5 5 #   d d i & : % $ $   A a 2 ,     < 3 < 2 , ; 2 o o ; , O < 2 , , ; 2 +   X O 3 +   o o % 3   = 1   ",
"NX  = O , 1 O   O X X X X                                 X o O O O = = = O = = O O O = = = O 4 = = O , , O = O O = + = % % , ; , X         = O % O O o X O o O O O O O O O O % O O O o ;         X & O O o O O O O O O O O O O % O % % % O % ;   X o .   < o $ % % $ O $ % $ % % ; % $ $ * % : & & & p $ # 5 0 W [.n.F.F.G.G.T.Z.J.J.J.Y.J.J.J.J.F.Y.F.F.z.1Xk.6 y y 9 ( 1XY.G.J.J.F.J.J.J.Z.J.G.Y.J.G.Y.Y.F.^.F.M.[.) 9 w t w /.XXF.Y.Y.).Y.E.Y.J.P.Y.D.J.Y.Y.G.A.A.S.H.C.<X_ q t q r B.$XL.Z.G.Y.G.F.J.Y.T.E.J.Y.W.Y.Y.Y.S.Z.S.v.pX| q r r w ^.:XJ.P.T.J.Y.G.Y.Y.K.Y.F.J.T.W.Y.Y.Y.Z.F.K.{.e r w q U wXQ.H.U.J.A.Y.W.Y.Y.P.A.Y.T.R.D.J.G.G.J.m.D.`.y q w q ^ :XZ.F.J.G.Y.P.A.Y.Y.R.A.A.J.T.Y.P.Y.F.F.z.R.].6 5 # #   d c i u < & & O   B 2 < ,     , 2 , < < , 1 O O , ; O < 2 , , , 1 X   = O s X   + o 4 1   = < X ",
"NX  = O , 1 O   O O O O X X X                             X O O O = O = = O = O 4 = O = O = = = 4 O O 4 O , = = = O   = , O O ; ,     X X   = O % O O O O X % O O O O % O O O O O % o $ &   o X   o = O O O % O % O O % $ o O O O O % % % % % <     o   . < X % O % 4 $ % % % % % $ $ ; ; % % $ & u * i $ * 5 0 W }.n.n.F.J.H.J.F.J.J.H.A.T.J.S.F.F.J.H.H.M.1Xx.6 w e 9 ( 1XY.F.F.Y.F.G.J.D.F.H.G.J.S.G.F.G.G.M.F.M.#X) 9 w q q ].%XN.F.G.G.G.J.D.J.F.D.G.J.F.J.J.S.J.S.F.Z.}.[ q q q w B.R.B.G.G.D.F.T.G.G.Y.Y.G.J.J.J.J.J.G.J.B.l.wX| 9 q t 7 L.OXY.H.F.Y.Y.J.Y.Y.Y.F.H.J.K.H.J.F.G.F.F.J.{.e r 6 6 I 9XP.L.Y.Y.A.J.Y.Y.Y.J.J.G.P.Y.J.J.J.G.D.B.D.`.Y q q q / <XD.H.G.Y.T.Y.G.A.J.Y.D.J.J.J.J.G.F.A.H.n.T.'.6 5 5 5   a d : < : , % %   B a 2 ;     2 2 < = < , 1 + O < ; % , 2 , , , 3     X O 3 +   o O = 3   % 1   ",
"NX  O = , 1 +   = o O X o o X   .   X         X       X O O O O O = = O O = O = 4 = = = = O O = O = O = , = O = = O   , , ; , ; < + X       , o O O O O O O O O O O O O % O O o O O O O ; + X . + X , O O % O O O O O O O O O % o % % % % O % :     X . X - O O O % O $ $ % $ ; % % % $ ; % : : & & & p $ @ # 0 W {.n.N.H.G.n.F.J.F.H.F.F.H.G.S.N.F.F.N.N.b.eXx.6 q y t Q 4XF.F.n.F.F.F.F.Z.F.H.J.F.J.F.H.Z.H.n.b.b.<X) 8 e 9 q (.%Xn.F.D.K.J.D.S.G.G.).G.J.F.Y.J.G.Z.S.H.D.}.` 6 w q w B.W.B.Z.H.H.Y.G.G.Y.H.H.G.H.H.G.F./.F.L.B.v.pXQ 9 q t 8 !.E.S.F.H.J.F.F.F.G.T.F.G.J.F.H.D.F.H.N.m.J.`.I r 7 q I 9XC.B.H.F.A.J.J.J.Y.G.J.F.F.J.S.J.S.D.F.m.D./.Y t q 7 ^ <XF.H.G.G.D.G.D.S.J.G.G.F.S.G.F.F.S.G.m.b.T.!.0 0 # #   d d u : : & % O   B 2 2 ,     2 2 , , , , < X o O O o ; 1 , , , < +   X O 3 X   X o = 1   O 3 X ",
"NX  o X O =     = O O X X o   X X       X         X X o X X O O = O = = O = = O = O = = = O = O O , = = O = = O = =   ; , % ; O <     X     O X O O O o o % O O O % O O O O O % O O % O ;     X   X = O O % O O % X O O O O % O % O % % O % % ; X   X X . < O $ $ % O % % ; % $ $ & % ; : $ $ : % % * p $ $ 5 0 W }.z.N.H.H.F.F.K.F.H.F.F.F.F.H.H.H.Z.N.H.v.<Xx.6 w e k ( >XF.Z.F.H.H.H.F.F.n.n.H.H.H.H.m.H.H.V.l.M.<X' 8 r t q ^.E.m.F.F.J.J.G.J.S.D.K.A.F.G.J.J.F.F.m.B.v.<X_ w r q w B.R.!.C.H.n.F.n.n.H.F.H.F.F.G.F.Z.H.n.n.M.v.wX| 7 q q 0 ^.U.D.Y.F.A.G.F.J.D.K.H.F.T.z.F.F.H.n.n.v.^.`.e r w w I eXP.H.F.F.G.H.D.S.S.Z.J.H.S.G.F.G.S.S.M.M.D.(.y 0 q 6 ^ }.C.L.D.S.D.J.n.H.F.J.F.G.D.F.F.F.F.n.N.x.J.(.q 5 # #   c d < : ; ; & o   S 2 2 ,     < 3 < < ; , < , 1 1 < , M , < , , 1 +   X O 3 X   o o O 1   O 3   ",
"NX                                          +                     + O = O = = O = O O = = = = = = = = = O = O = = X + = = X = = 3   + X     , X O O O O O O O o O % O O O O O O O % % X ,   . X + o % % % % O % O % % % O % % O & O % % % & % ;   + X . X a % % O O % % $ ; ; % ; % $ : : & : : : & & u @ @ # * W /.M.B.b.V.N.N.B.B.L.H.H.N.B.N.N.N.N.N.B.x.eXx.6 6 q t Q 3XB.n.^.H.B.H.K.K.H.H.B.n.H./.L.M.B.V.b.b.}.) 9 y q 7 (.E.B.^.H.n./.K.F.H.H.F.J.H.K.F.B.B.F.N.N.x. X{ q 6 q r B.R.L.Z.S.S.S.H.F.N./.G.K.K.H.B.H.L.B.V.V.k.eXE 9 q 6 8 N.T.N.J.D.J.F.F.F.F.F.F.K.K.H.B.N.B.L.H.^./.`.e q q 6 r 1XA.^.F.S.F.H.F.H.N.F.H.F.L.L.H.F.Z.m.m.B.n.^.r 6 6 6 ^ }.N.L.N.L.K.H.H.H.H.K.H.H.).H.B.L.^.N.V.c./.'.6 5 5 #   f d < < ; : % $   B a s ,     < 2 < < < < , 3 L P P P C % < , , 1 +   = O 3 X   X o , 3 + , 3 o ",
"NX    + M H V S K J K K K P L P L L P L L L @.@.@.-.-.@.:.<.<.<.8.1   = O = O = = = = O 4 O O O O O O O = O = = O =   = O = O = ,       X   X , % O O o O O o X o O o O O o O O O O O < O   . X   X < O o O o O O o O O O o O o o o O % O o % <     X +   < $ o o $ o o O O o $ $ $ $ $ % $ $ ; % % u i $ * * # y /.Z.V.b.b.V.v.b.N.v.b.b.n.b.M.x.n.l.l.b.z.wX` 5 q 7 9 U }.D.b.n.m.n.B.M.z.L.b.m.b.N.m.m.V.b.j.b.N.<XE 7 q q 7 c.5Xb.n.n.Z.F.Z.F.F.H.H.H.H.H.B.v.m.V.m.b.F. XW q 6 7 w x.$XZ.F.n.n.^.z.B.n.n.M.H.H.B.m.m.M.M.b.x.S.eXy 9 t 6 8 ..[.n.l.H.n.b.m.B.b.B.n.l.b.N.V.n.M.b.v.c.).B.q t t q q }.W.V.F.n.H.H.F.N.n.z.b.n.n.z.n.b.B.b.V.c.Y.!.e q w w R }.F.V.F.n.N.Z.b.n.N.n.n.m.m.b.V.m.b.B.c.k.[.~.5 5 5 @   f i : u & ; % o   N 2 < ;     2 2 , < % , , , O o O $ O < , < , 1 +   X O 3 X                   ",
"NXNX    , 3 , < < < < < 1 < , < , 1 , < < < < < < , < < 2 2 1 1 l P l   O = = X O O = O O O O O = O O O O O O O X X + X O O O O = +           X % , < < < < , < < < 2 < < < 2 ; < , 1 , +   o X     % < < < < < < 2 < < 2 < 2 < 2 < < < 2 2 < %   o X .   X : 2 s a g a 3 s g g d s s d g s f f f f d $ o # # # 6 _ /./..X|.|.)..X|.}.}.}.[.[.[.}.}.|.|.).}.c.q 7 q 7 7 q ..{.}.[.[.[.[.[.[.[.[.[.[._._._.#X[._.`.}.c.q q q q 7 T H.}.:X:X:X[.[.}.:X_.:X<X:X_.:X<X}.[.[.[.}._ q 6 6 q 6 T L._.<X<X<X<X:X[.<X:X_._.:X:X:X[._.}.|.)._.Q 6 q 6 6 q r b.|.|.<X[.}.}.).[.)._.[._._._.[._._.|.|.L.E q w 0 w q ` |._._.}.<X[.[.}.[.:X[.}.[.}._.[._._._.}./.E 6 7 6 6 w ..|.W.|.:X:X:X_._._.E.|._._._._._.}.).).|.!.r 5 5 # . a A i < : ; & % $   B a 2 ;     < 2 < < , , < 2 < < < 2 , , < , , 1 X + O O 3         +           ",
"NXNX      = , % O = O = O O % % = O , = = O = = = O , O O = = 4 + 3 L J =   O + X O O O O X O O O O O O O O O + X = X X O X = O O X     .   .         + o   X X   +   X +   + o X X         X . X       + X X X X   X   X o o o o X   X X +     . . . .       X o o O o o O O o O O O O O % O o O o X . @ @ @ * # 6 Y ~ ! ~ ~ ~ W ~ ^ ^ ^ ^ ^ ^ [ ^ ^ ^ / R 5 5 6 0 5 5 5 6 R ^ [ ^ ^ ^ ^ ^ ^ ^ ^ ^ ^ ^ ^ ^ ^ ^ ^ / q 5 0 6 0 6 q e / ^ ^ ^ ^ ^ [ [ [ [ [ [ [ ` [ [ [ ^ [ R 6 5 6 6 5 6 0 e / [ [ [ [ [ [ [ [ [ [ [ [ [ [ [ ^ ^ ^ R 6 5 6 6 0 5 0 w W ^ ^ ^ ^ Q ^ ^ Q ^ ` ^ ^ ^ [ [ ^ ^ / y 6 5 6 6 6 5 7 I ^ ` ^ [ ^ [ [ ` [ [ ^ ^ ^ [ ^ [ [ [ [ Y 6 5 5 6 5 6 w W ^ [ ^ [ ` ^ [ ^ ^ ^ ^ ^ ^ Q ^ [ ^ ^ / 7 # 5 @ . a ;.d : : ; : : % o   B a 2 ;     2 2 , < < < , < , ; ; ; < 2 , , , 1     O = 3 X   + O 3 , X       ",
"NXNX        X , , O O = , O = O = = = , = = = , = = 4 % = = = , = O 3 :.6.6.8.8.6.6.8.8.8.8.8.8.8.6.8.8.8.8.8.r.8.r.8.r.8.8.r.r.8.,.,         X     +                                     . X X .           .       .                     . .   . . . . + .           .       . +   . .   . . . . . . @ . @ @ @ @ $ @ @ @ $ @ @ @ # @ @ @ # # @ # # # # @ * # # # 0 0 # # # # # # @ # # # * @ # # # # @ # # # # # # # # 5 5 5 5 5 # # # # # # # # # # # # # # # # # # # # # # # # # 5 # 5 # # # # @ # # # # # # # # # # # # # # # # # 5 5 8 0 5 5 5 # # # # # # # # # # # # @ # # # # # # # # # # 5 5 # # # 5 # 5 # # # # # # # # # # # # # 0 # # # # 5 5 # 5 # * # # # # # # # # # @ @ @ @ @ # @ @ # @ @ @ @ @   s #.a : < : : & % % $   S < 2 ,   + , < , , , , < < , < ; , ; , , , , 2     X O 3 o   O 2.8.<.L O   + ",
"NXNXNXNXNX    + < ; O , O = , ; = O 4 O 4 O = % = = O = = O O O = = = + X = O = 4 = = O = = 4 = , = = = = , , = = = = = = , O = O , H =   . +     . .       . .   .   X   .   .   X .   . .       . . .   X   . .   . X   .   . .   . . .   . . . . . $ . . . . . X . .   . . . . . . . . . . . . . @ . @ @ $ @ @ @ @ @ @ @ @ @ @ @ @ @ @ @ @ @ . @ @ @ @ @ # # @ # # @ @ # # @ # @ @ @ @ @ @ @ @ # @ @ @ @ @ @ @ @ # * # # # # # # # @ # @ @ @ @ @ @ # @ @ @ # # @ @ # @ # # # # # # # @ @ @ @ @ @ @ # @ @ # @ @ # @ @ @ @ @ @ @ # # # # # # # # # # # @ @ @ @ # @ # @ @ @ @ # @ @ # # # # # # # # # # # # # # @ # @ @ @ @ @ @ @ @ @ @ @ @ @ @ # # @ # # # @ # @ @ @ @ @ @ @ @ . @ @ @ . @ . @ @ @ @ . . @ @ . g >.: : < : : ; ; & % o   B a 2 ;   + < 1 1 2 , , , < < < ; ; , , , , , 1 o   O , < + X :.S O O 1 C X X ",
"NXNXNXNXNX      + = O O , O O O = O O = = O O , ; O O , O = = 4 O = O = , = = = , , , , = , , , , , = , , , , , , , , , , , 1 , < , ; C ,     X           .     .       X   .           X   X   .   . .       X .       .   . . X +   . .   X . . . . . . . . X . X . . . . . . . . . . . . . . @ . . . . @ . . @ . @ @ @ @ @ @ @ @ @ @ @ @ @ @ @ @ # @ # # # @ # # @ # # # # @ # @ # # # @ @ # # # # # # # # # # @ @ # # # # # # # # # # @ @ # # # # # @ # # # # # # @ # # # # # # # # # # # # # # # # # # # # @ # # @ # # # # # # # # # # * # # # # # # # # @ @ # @ @ @ # @ # # @ @ # # # # # # # # @ # # # # # # # @ @ # @ @ # @ @ # # @ # @ # # # # # @ # # # @ @ @ @ @ @ @ @ @ @ @ @ @ @ . . @ @ . @ @ . 3 @.i : < : : : : ; ; % $   V < 2 =     , 2 , , 2 , < < , ; ; ; ; < , , ; 2 +   , ,     P H ; < , , M 3   ",
"NXNXNXNXNX          , O O , O O O O = O = O , O O = O % = O O = O = = = 4 O = = = = , 4 = = = , = = = = = , , , , , , , , , 1 , < , , = M 3 X O O o O O O O O X O O O O o O O O O = O O O O O O O O O O O O O O o O O o O O O O O O O O O % O O O % O % % O O O O O O O % % O % % O % % % % % % % % $ & % % % & % & & = & = & = = - - - - - = - & & & - & & & & & < & & & & - & & - & - & & - < < : : : & & & < - & - - - & & & & < - & & & - - & & & & & & & < & & - & & & : : i & : : & & - - & & & & < - - - & & & & - - & & u & : : : : 8 < & : & & & i & & & & < & - - & & u & & i & & - - - & i & < & : < 8 & u & & < & : & < - : & & & : & : : : < - - & - - < - & & - - & & - - & & & % : : & & & , M +.a : a : i < : < : : ; +   N < < =     < < , , 2 2 , , , , , 2 ; , , , ; <     X   X J K ; ; ; , , , 3   ",
"NXNXNXNXNXNX          X O % % % O O , O % = O = = 4 % = % O O % % O , = , % = , = % , , , , , , , , , , < , , < , , , , < < , 1 , , , , , 3 V :.:.:.>.:.:.:.:.<.<.<.<.<.>.,.,.>.<.<.<.<.<.<.<.<.<.<.<.<.2.<.2.2.<.<.<.<.2.<.<.2.6.6.6.2.6.2.6.6.2.2.6.6.<.6.2.6.6.6.6.7.6.7.8.6.8.8.7.7.8.5.7.7.7.7.7.7.8.8.7.7.7.7.q.7.q.7.0.0.0.0.7.0.q.7.q.q.q.q.q.0.q.q.0.w.q.w.q.w.q.q.q.q.0.0.0.q.q.q.q.q.q.q.q.q.0.q.q.q.q.0.q.q.0.0.w.0.w.w.w.q.0.q.q.q.q.0.0.0.0.q.0.q.0.0.0.0.0.0.q.0.0.q.0.q.0.q.q.q.q.0.q.q.0.0.0.q.0.0.0.9.0.0.0.0.0.q.q.0.q.q.w.0.9.0.q.9.0.0.0.0.0.0.0.q.9.7.5.0.0.0.0.0.0.0.0.0.0.0.0.0.5.0.9.0.0.0.3.0.e.9.0.9.0.3.0.3.3.e.3.e.e.e.e.e.3.e.9.3.e.3.3.3.3.3.9.3.4.3.3.3.3.3.1.3.9.7.3.3.3.3.;.g < : i < < < ; : : % % +   V < < O   + 2 2 < , 2 < < , , , 2 , , , , , , < +     = L H = = = , , , < O   ",
"NXNXNXNXNXNX            o       X o X o o   X X X X +   X X X X       o X X o   o X X X o   X X o o o X X X o o O   X o X X o o = , O , < , 1 1 1 < , < 1 , , 1 < < 1 , 1 < 1 1 < 1 1 < < , 1 1 2 < 1 1 1 1 1 1 1 1 3 3 < 2 1 1 1 1 1 3 2 1 1 1 < 1 1 1 1 1 2 2 3 3 3 3 3 1 3 a s 3 g 3 3 3 3 2 a 3 3 a a a s a s 3 s 3 3 3 3 s 3 s s s s s 3 a 3 s a g a a g g f s g s s s s a a s g a d s a s f g g g a f f f g f a d g f f g a a f f f d f g s f g f g f s g d a g d f g f d s d a f g a s f a d g d f d d f f a g p d s s f f f f f g f s g d d d d g f d g p a a d d d a a g a s a g a a a a p g g a d a a a a a a g a g a s a a a s g i a g s a a a a a 2 i a a i a a a 2 g i s a a 3 a a 2 2 a 2 < < < & < a : : : : ; ; : % & O   c < 2 <     1 2 , , , , , , < = , , , , , = , <     X P V 4 , , , , = < % +   ",
"NXNXNXNXNXNXNX                                                                                                                    X < , , = , , < , , < = , , , , , = , < < , < < 1 , < , 2 1 , < < , < < 2 < < 2 2 1 2 2 < < < 1 < 2 2 < 2 2 1 2 < 2 2 2 2 < < 2 < < a < 2 2 a 2 a a 3 s a a s s a a a 2 i a < a a g g a i i a g g g g f s a p a g a a g g a d a f g f f f g d a a a d f d p d p a f a d d d i d p a p a d f d d f f d p p f f s d f f d d p f f d d d d d p p i p d d d d f d d d d f d p d d f p d d d d d d d g d g d j d p d p p d d p a p d d d d d p p d d d d d d p p u d d p a d d p p p p p p p p d d p f a p g a a i g i i p a a i i i u a a a a a i i g a a i i a a u i i i i 2 a < u < < : : < : ; & % ; O   N 2 < ,     2 s < , 2 2 < 3 < 2 < < 1 1 1 , , = + X L V X , = , , , < , NXNXNX",
"NXNXNXNXNXNXNX                                                                                                        +             o < < , , , % % = = = = , = , = , , , , & , , , , , = = = = < , , & 4 , , , ; ; , , < ; % & , , % ; & ; < , : < & : , , < < : < < & < < 2 & : < - < < < i : : < < : & < i : < - u u < i i a - - i i i i i i i i a i i a i u i a i i i i i i i i i a i a a p u a p p a i i i i p p u i i i i 8 p i a a p p p p p i i i p i p i i p p i u u p p a p i p p i u p i i i i u p p u i i a p p d d p p d p p i a p p p p p p u p p p p p u i i i i u p i i p i u p p i i p u u a i i i 8 i i i i i u i i u i i u i u u i i i i u u u i i a : 8 : 8 - - - u - u 8 & u : : u < i i & < : < : : : : ; ; ; ; O   M 2 2 ,       O O o X o o O o o o o + O X X X   + V J = = = = ; , 2 O NXNXNXNX",
"NXNXNXNXNXNXNX                    X X     X   . X   .     X . . . + . X X . X X   . . . .     X . X . .     X X   o o o X . X         X , , , , , & % = = , & % = = % = , & & , < , < , , , , < , ; < : < < , & , ; < & < - & , - < & ; , < - < < < & : , - - < i < i < < : i < < i < i < i < < i < u < < i & i i i d p a i a p i i a i i i i a a i i u i i u p i 8 a p p a p i i i i a i p d i a p p p i p p p i p p i p i p a i p p p i p p p p a i p d p p d d i p p p p p p p i p p i p p p d d a p p p p i i p p i d j p d d p p d d p i p p u p u p d i p d i p i i p p p i p i i p i u i p u i p i i i i p i i p p a i i u i i i i u i u u i 8 i i i u i i i i i i i < i u i i u u i i i i < u < < i < < a u : : ; < ; : < & ; O   x 2 : , M x x M x 3 3 3 3 3 3 x 3 3 x l l l x M J K = ; , , , , 1 O NXNXNXNXNX",
"NXNXNXNXNXNXNX                      o       + X X   X X X   o   + X X   X   X     X   + X X X X X   X + X X   X o . X   X X X             X X X     X     X     X + X   o   o   X X o   + o X X X X X X X o o X X O o X o o X X o o X X o O X X X X X O O X o o o X X o X X o X o % O o o X o O O o o o o X O o o X O % O o o X X % % X o $ % X O % % X O o X % % o o % $ % % % % $ $ % % $ % % $ $ $ $ $ % o $ $ o % $ $ % % $ $ $ $ X % $ % $ $ $ $ % $ % $ $ X % $ $ $ % % $ o $ $ o % $ $ % % % $ $ % $ $ % % % % $ % % $ $ % $ $ $ % $ X $ $ % % $ % $ $ % $ % % $ % % $ X % $ % o O $ % $ % $ o $ $ $ $ $ % % $ % % % % X o $ $ % X o o $ X X $ o o X $ o X X X X o $ o $ O O O X o o o o O o O $ X $ o % o % a < & < ; : : ; % $   x 2 2 , V S V V V V V V C C V V V V C C C C C V C , , ; ; , , < O NXNXNXNXNXNX",
"NXNXNXNXNXNXNX                        o X X X X   O o o o X o o o o X + X X X X X X   X o o X o X X o X X X X X X o O O o X o o o X                                                                                                                                                                                                                                               .         .       . .                                                         .     .         .   .           .     .   .                   . .         . .       .             .       . .   .   .     .           .                     .   .       .   .   . .   .   .   .     . .           .                                 + < ; : & < ; ; ; %   x 2 , , , 2 < 2 , < < < > , 2 , , < = > , , , , < < , , , ; 2 = NXNXNXNXNXNXNX",
"NXNXNXNXNXNXNX                          O X X     X +   X X + X   X X X .   o X X X o X X     o   + X   . X X X o . X o + . X X . X X                                                                       . .                     .             .           .     . . .         . .     . . . . . . . . .   . . . . . . . . . @ . . . . . . . . . . . @ . . . . @ . @ . . @ . . . . . @ . . . . . . . . . . @ . . @ . . @ . . . @ . . . @ . @ . @ . @ @ . @ . @ . . @ . @ . . . @ . . @ . @ . . @ . . . . . @ . @ @ . @ . @ . . . @ @ @ . . @ @ . @ . . @ @ . @ . @ . @ . . @ . @ . . @ . . @ . @ . . . @ . . . . . @ . . . @ . . . . @ . . . . . . . . . . . . @ . . . @ . . @ . @ . . @ . . . . . . . .           o < % & ; % ; & O   c 2 2 2 ; 2 , , , < < < < , , , , 2 < < , , 2 , , < , ; ; 3 O NXNXNXNXNXNXNXNX",
"NXNXNXNXNXNXNX                          O O O = % % % % O = = O % = , % , O = % % % % % ; % , % % % % , , = = = = % ; , , = & , ; % % ; % O % O     o o X X X X o % X O . $ o o o o % o X X $ X O X X $ o . X X $ $ O $ X % X % X % X $ % % X $ X X $ $ $ % $ % $ X X $ & % $ % & % % % & $ % & $ $ & & $ & % % & & & & $ % & $ $ & $ & & & & $ & & * & $ & & & * * & & * & & * & * & * : & & * 8 & & & & & & & 0 & & & & & * & & & $ * & * & & & & * & & & & & * & & & & & & & * & & & & & * & & & 8 & & & & u * & & & 8 & & 8 & & $ & * & & * 8 & u * & * & & & * * & & * & & * * & & & & * & 8 $ & & * & & & * $ * & & & & & & & * & * & & * & $ & & $ $ & & * & & & & $ & & & & & & $ & & $ * $ $ % & $ % $ % o . NXO : ; , ; ; % $   x < < < < < < < < , < , < , , < , < , , % , , < < , , , < O NXNXNXNXNXNXNXNXNX",
"NXNXNXNXNXNXNXNXNX                        X o o   X o o o o X o o o X X o o X o o X o X o X X o o X o o X X o o o X   o X O o o o o X o X X o X   NX                                          .                         .                   .   .                   +               .       X   X             +     +       X       X       X   X         +   . + . X   . +       + X . . . . +     . X . . X   .     + . . + .   . . .   X   .   + . .   + . o . + . .   X X   . X   . + . X   X   +   . X     . .   +   X X   X   . .   X X       + X .   .     . . .   + X   . + + .   + X   +   X   . +       .   + .   .     .           +   .               +   .           X                                   NXNXX = & % % % o   2 2 < < < < < < 2 < < 2 < , 1 1 , 1 < < < < < < < , , , o NXNXNXNXNXNXNXNXNXNX",
"NXNXNXNXNXNXNXNXNXNX                                                    +                               .                   X       +   .     . NXNXNXNXNXNXNXNXNXNXNXNXNXNXNXNXNXNXNXNXNXNXNXNXNXNXNXNXNXNXNXNXNXNXNXNXNXNXNXNXNXNXNXNXNXNXNXNXNXNXNXNXNXNXNXNXNXNXNXNXNXNXNXNXNXNXNXNXNXNXNXNXNXNXNXNXNXNXNXNXNXNXNXNXNXNXNXNXNXNXNXNXNXNXNXNXNXNXNXNXNXNXNXNXNXNXNXNXNXNXNXNXNXNXNXNXNXNXNXNXNXNXNXNXNXNXNXNXNXNXNXNXNXNXNXNXNXNXNXNXNXNXNXNXNXNXNXNXNXNXNXNXNXNXNXNXNXNXNXNXNXNXNXNXNXNXNXNXNXNXNXNXNXNXNXNXNXNXNXNXNXNXNXNXNXNXNXNXNXNXNXNXNXNXNXNXNXNXNXNXNXNXNXNXNXNXNXNXNXNXNXNXNXNXNXNXNXNXNXNXNXNXNXNXNXNXNXNXNXNXNXNXNXNXNXNXNXNXNXNXNXNXNXNXNXNXNXNXNXNXNXNXNXNXNXNXNXNXNXNXNXNXNXNXNXNXNXNXNXNXNXNXNXNXNXNXNXNXX < & & O %   X o o X o X X X o   o + X   X X o X   X X + X   o X X   NXNXNXNXNXNXNXNXNXNXNX",
"NXNXNXNXNXNXNXNXNXNXNXNXNX  NX  NXNXNXNXNXNXNXNXNXNXNXNXNXNXNXNXNXNXNXNXNXNXNXNXNXNXNXNXNXNXNXNXNXNXNXNXNXNXNXNXNXNXNXNXNXNXNXNXNXNXNXNXNXNXNXNXNXNXNXNXNXNXNXNXNXNXNXNXNXNXNXNXNXNXNXNXNXNXNXNXNXNXNXNXNXNXNXNXNXNXNXNXNXNXNXNXNXNXNXNXNXNXNXNXNXNXNXNXNXNXNXNXNXNXNXNXNXNXNXNXNXNXNXNXNXNXNXNXNXNXNXNXNXNXNXNXNXNXNXNXNXNXNXNXNXNXNXNXNXNXNXNXNXNXNXNXNXNXNXNXNXNXNXNXNXNXNXNXNXNXNXNXNXNXNXNXNXNXNXNXNXNXNXNXNXNXNXNXNXNXNXNXNXNXNXNXNXNXNXNXNXNXNXNXNXNXNXNXNXNXNXNXNXNXNXNXNXNXNXNXNXNXNXNXNXNXNXNXNXNXNXNXNXNXNXNXNXNXNXNXNXNXNXNXNXNXNXNXNXNXNXNXNXNXNXNXNXNXNXNXNXNXNXNXNXNXNXNXNXNXNXNXNXNXNXNXNXNXNXNXNXNXNXNXNXNXNXNXNXNXNXNXNXNXNXNXNXNXNXNXNXNXNXNXNXNXNXNXNXNXNXNXNXNXNXNXNXNXNXNXNXNXNXNXNXNXNXNXNXNXNXNXNXNXNX  % ; % O O + X         .         + +   X +   X   .           + NXNXNXNXNXNXNXNXNXNXNXNXNX",
"NXNXNXNXNXNXNXNXNXNXNXNXNXNXNXNXNXNXNXNXNXNXNXNXNXNXNXNXNXNXNXNXNXNXNXNXNXNXNXNXNXNXNXNXNXNXNXNXNXNXNXNXNXNXNXNXNXNXNXNXNXNXNXNXNXNXNXNXNXNXNXNXNXNXNXNXNXNXNXNXNXNXNXNXNXNXNXNXNXNXNXNXNXNXNXNXNXNXNXNXNXNXNXNXNXNXNXNXNXNXNXNXNXNXNXNXNXNXNXNXNXNXNXNXNXNXNXNXNXNXNXNXNXNXNXNXNXNXNXNXNXNXNXNXNXNXNXNXNXNXNXNXNXNXNXNXNXNXNXNXNXNXNXNXNXNXNXNXNXNXNXNXNXNXNXNXNXNXNXNXNXNXNXNXNXNXNXNXNXNXNXNXNXNXNXNXNXNXNXNXNXNXNXNXNXNXNXNXNXNXNXNXNXNXNXNXNXNXNXNXNXNXNXNXNXNXNXNXNXNXNXNXNXNXNXNXNXNXNXNXNXNXNXNXNXNXNXNXNXNXNXNXNXNXNXNXNXNXNXNXNXNXNXNXNXNXNXNXNXNXNXNXNXNXNXNXNXNXNXNXNXNXNXNXNXNXNXNXNXNXNXNXNXNXNXNXNXNXNXNXNXNXNXNXNXNXNXNXNXNXNXNXNXNXNXNXNXNXNXNXNXNXNXNXNXNXNXNXNXNXNXNXNXNXNXNXNXNXNXNXNXNXNXNXNXNXNXNXNXNXNX    % % % O X o o X o . o o o o X . o o X   X o . X . . . o . . NXNXNXNXNXNXNXNXNXNXNXNXNX",
"NXNXNXNXNXNXNXNXNXNXNXNXNXNXNXNXNXNXNXNXNXNXNXNXNXNXNXNXNXNXNXNXNXNXNXNXNXNXNXNXNXNXNXNXNXNXNXNXNXNXNXNXNXNXNXNXNXNXNXNXNXNXNXNXNXNXNXNXNXNXNXNXNXNXNXNXNXNXNXNXNXNXNXNXNXNXNXNXNXNXNXNXNXNXNXNXNXNXNXNXNXNXNXNXNXNXNXNXNXNXNXNXNXNXNXNXNXNXNXNXNXNXNXNXNXNXNXNXNXNXNXNXNXNXNXNXNXNXNXNXNXNXNXNXNXNXNXNXNXNXNXNXNXNXNXNXNXNXNXNXNXNXNXNXNXNXNXNXNXNXNXNXNXNXNXNXNXNXNXNXNXNXNXNXNXNXNXNXNXNXNXNXNXNXNXNXNXNXNXNXNXNXNXNXNXNXNXNXNXNXNXNXNXNXNXNXNXNXNXNXNXNXNXNXNXNXNXNXNXNXNXNXNXNXNXNXNXNXNXNXNXNXNXNXNXNXNXNXNXNXNXNXNXNXNXNXNXNXNXNXNXNXNXNXNXNXNXNXNXNXNXNXNXNXNXNXNXNXNXNXNXNXNXNXNXNXNXNXNXNXNXNXNXNXNXNXNXNXNXNXNXNXNXNXNXNXNXNXNXNXNXNXNXNXNXNXNXNXNXNXNXNXNXNXNXNXNXNXNXNXNXNXNXNXNXNXNXNXNXNXNXNXNXNXNXNXNXNXNXNXNXNXNX  . o X X   . + X X   . .   X . . .       . .   X . + .     NXNXNXNXNXNXNXNXNXNXNXNXNX",
"NXNXNXNXNXNXNXNXNXNXNXNXNXNXNXNXNXNXNXNXNXNXNXNXNXNXNXNXNXNXNXNXNXNXNXNXNXNXNXNXNXNXNXNXNXNXNXNXNXNXNXNXNXNXNXNXNXNXNXNXNXNXNXNXNXNXNXNXNXNXNXNXNXNXNXNXNXNXNXNXNXNXNXNXNXNXNXNXNXNXNXNXNXNXNXNXNXNXNXNXNXNXNXNXNXNXNXNXNXNXNXNXNXNXNXNXNXNXNXNXNXNXNXNXNXNXNXNXNXNXNXNXNXNXNXNXNXNXNXNXNXNXNXNXNXNXNXNXNXNXNXNXNXNXNXNXNXNXNXNXNXNXNXNXNXNXNXNXNXNXNXNXNXNXNXNXNXNXNXNXNXNXNXNXNXNXNXNXNXNXNXNXNXNXNXNXNXNXNXNXNXNXNXNXNXNXNXNXNXNXNXNXNXNXNXNXNXNXNXNXNXNXNXNXNXNXNXNXNXNXNXNXNXNXNXNXNXNXNXNXNXNXNXNXNXNXNXNXNXNXNXNXNXNXNXNXNXNXNXNXNXNXNXNXNXNXNXNXNXNXNXNXNXNXNXNXNXNXNXNXNXNXNXNXNXNXNXNXNXNXNXNXNXNXNXNXNXNXNXNXNXNXNXNXNXNXNXNXNXNXNXNXNXNXNXNXNXNXNXNXNXNXNXNXNXNXNXNXNXNXNXNXNXNXNXNXNXNXNXNXNXNXNXNXNXNXNXNXNXNXNXNXNXNXNXNXNXNXNXNXNXNXNXNXNXNXNXNXNXNXNXNXNXNXNXNXNXNXNXNXNXNXNXNXNXNXNXNXNXNXNXNXNXNXNXNX",
"NXNXNXNXNXNXNXNXNXNXNXNXNXNXNXNXNXNXNXNXNXNXNXNXNXNXNXNXNXNXNXNXNXNXNXNXNXNXNXNXNXNXNXNXNXNXNXNXNXNXNXNXNXNXNXNXNXNXNXNXNXNXNXNXNXNXNXNXNXNXNXNXNXNXNXNXNXNXNXNXNXNXNXNXNXNXNXNXNXNXNXNXNXNXNXNXNXNXNXNXNXNXNXNXNXNXNXNXNXNXNXNXNXNXNXNXNXNXNXNXNXNXNXNXNXNXNXNXNXNXNXNXNXNXNXNXNXNXNXNXNXNXNXNXNXNXNXNXNXNXNXNXNXNXNXNXNXNXNXNXNXNXNXNXNXNXNXNXNXNXNXNXNXNXNXNXNXNXNXNXNXNXNXNXNXNXNXNXNXNXNXNXNXNXNXNXNXNXNXNXNXNXNXNXNXNXNXNXNXNXNXNXNXNXNXNXNXNXNXNXNXNXNXNXNXNXNXNXNXNXNXNXNXNXNXNXNXNXNXNXNXNXNXNXNXNXNXNXNXNXNXNXNXNXNXNXNXNXNXNXNXNXNXNXNXNXNXNXNXNXNXNXNXNXNXNXNXNXNXNXNXNXNXNXNXNXNXNXNXNXNXNXNXNXNXNXNXNXNXNXNXNXNXNXNXNXNXNXNXNXNXNXNXNXNXNXNXNXNXNXNXNXNXNXNXNXNXNXNXNXNXNXNXNXNXNXNXNXNXNXNXNXNXNXNXNXNXNXNXNXNXNXNXNXNXNXNXNXNXNXNXNXNXNXNXNXNXNXNXNXNXNXNXNXNXNXNXNXNXNXNXNXNXNXNXNXNXNXNXNXNXNXNXNXNXNX",
"NXNXNXNXNXNXNXNXNXNXNXNXNXNXNXNXNXNXNXNXNXNXNXNXNXNXNXNXNXNXNXNXNXNXNXNXNXNXNXNXNXNXNXNXNXNXNXNXNXNXNXNXNXNXNXNXNXNXNXNXNXNXNXNXNXNXNXNXNXNXNXNXNXNXNXNXNXNXNXNXNXNXNXNXNXNXNXNXNXNXNXNXNXNXNXNXNXNXNXNXNXNXNXNXNXNXNXNXNXNXNXNXNXNXNXNXNXNXNXNXNXNXNXNXNXNXNXNXNXNXNXNXNXNXNXNXNXNXNXNXNXNXNXNXNXNXNXNXNXNXNXNXNXNXNXNXNXNXNXNXNXNXNXNXNXNXNXNXNXNXNXNXNXNXNXNXNXNXNXNXNXNXNXNXNXNXNXNXNXNXNXNXNXNXNXNXNXNXNXNXNXNXNXNXNXNXNXNXNXNXNXNXNXNXNXNXNXNXNXNXNXNXNXNXNXNXNXNXNXNXNXNXNXNXNXNXNXNXNXNXNXNXNXNXNXNXNXNXNXNXNXNXNXNXNXNXNXNXNXNXNXNXNXNXNXNXNXNXNXNXNXNXNXNXNXNXNXNXNXNXNXNXNXNXNXNXNXNXNXNXNXNXNXNXNXNXNXNXNXNXNXNXNXNXNXNXNXNXNXNXNXNXNXNXNXNXNXNXNXNXNXNXNXNXNXNXNXNXNXNXNXNXNXNXNXNXNXNXNXNXNXNXNXNXNXNXNXNXNXNXNXNXNXNXNXNXNXNXNXNXNXNXNXNXNXNXNXNXNXNXNXNXNXNXNXNXNXNXNXNXNXNXNXNXNXNXNXNXNXNXNXNXNXNXNXNX"
};
