/* XPM */
static const char *enemy5_xpm[] = {
/* columns rows colors chars-per-pixel */
"397 80 234 2 ",
"   c #020402",
".  c #040A04",
"X  c #090B06",
"o  c #070C08",
"O  c #090E0A",
"+  c #040608",
"@  c #110E00",
"#  c #031403",
"$  c #0C1402",
"%  c #031A02",
"&  c #061409",
"*  c #0C120D",
"=  c #0C1A0E",
"-  c #0A1A06",
";  c #151201",
":  c #1A1601",
">  c #1D1901",
",  c #10140F",
"<  c #111A06",
"1  c #0F1410",
"2  c #0E1B11",
"3  c #07131A",
"4  c #111612",
"5  c #141A14",
"6  c #181C17",
"7  c #171D18",
"8  c #191E19",
"9  c #060E13",
"0  c #221D01",
"q  c #052104",
"w  c #0A2A08",
"e  c #152A05",
"r  c #0A3706",
"t  c #173309",
"y  c #0F2211",
"u  c #0F2A12",
"i  c #132415",
"p  c #132915",
"a  c #162319",
"s  c #1B221C",
"d  c #162A19",
"f  c #1B2C1D",
"g  c #182017",
"h  c #1B321E",
"j  c #19351C",
"k  c #262101",
"l  c #2B2401",
"z  c #2E2902",
"x  c #222C02",
"c  c #332B02",
"v  c #382F01",
"b  c #2C3804",
"n  c #3B3201",
"m  c #363903",
"M  c #20291F",
"N  c #2B301C",
"B  c #0A1B25",
"V  c #1F2521",
"C  c #1E2C21",
"Z  c #1D3421",
"A  c #1E3922",
"S  c #0C2637",
"D  c #0D2535",
"F  c #212521",
"G  c #222C23",
"H  c #2A2E2A",
"J  c #272D28",
"K  c #213224",
"L  c #213B23",
"P  c #2B322C",
"I  c #28332A",
"U  c #2E3631",
"Y  c #343A35",
"T  c #393E3A",
"R  c #343835",
"E  c #32392C",
"W  c #433902",
"Q  c #453B07",
"!  c #1A5A09",
"~  c #134B06",
"^  c #21640B",
"/  c #3C433D",
"(  c #38443A",
")  c #265609",
"_  c #564908",
"`  c #584C10",
"'  c #55490A",
"]  c #68590A",
"[  c #695B17",
"{  c #77660D",
"}  c #796819",
"|  c #6F6118",
" . c #7B6B21",
".. c #0E2D44",
"X. c #133957",
"o. c #11314A",
"O. c #3E4842",
"+. c #434C45",
"@. c #464D48",
"#. c #444945",
"$. c #445147",
"%. c #455349",
"&. c #4A544C",
"*. c #495C4E",
"=. c #465B4C",
"-. c #4C5D51",
";. c #4E5750",
":. c #555C57",
">. c #50554E",
",. c #4D6153",
"<. c #5C635D",
"1. c #526357",
"2. c #5E6B61",
"3. c #636B65",
"4. c #666D68",
"5. c #6B736D",
"6. c #66796B",
"7. c #6D7C72",
"8. c #6E7671",
"9. c #727C75",
"0. c #747B76",
"q. c #60655F",
"w. c #8C7814",
"e. c #927D13",
"r. c #927D1C",
"t. c #8B760D",
"y. c #8E7B24",
"u. c #6A816E",
"i. c #6E8273",
"p. c #6F8974",
"a. c #728376",
"s. c #738976",
"d. c #75857A",
"f. c #7A847D",
"g. c #768A7A",
"h. c #798B7C",
"j. c #978215",
"k. c #9F8502",
"l. c #A68C03",
"z. c #A98E02",
"x. c #A58B07",
"c. c #AD9203",
"v. c #B29503",
"b. c #B69904",
"n. c #BB9D03",
"m. c #B89B0A",
"M. c #AC9419",
"N. c #B59A19",
"B. c #A48C18",
"V. c #BFA004",
"C. c #BEA00D",
"Z. c #BEA21A",
"A. c #9A8629",
"S. c #9D8A31",
"D. c #AD962D",
"F. c #AE9624",
"G. c #B49C29",
"H. c #AD9631",
"J. c #B59E33",
"K. c #B69F39",
"L. c #A28C28",
"P. c #BDA329",
"I. c #B9A33B",
"U. c #B8A135",
"Y. c #C3A404",
"T. c #C7A804",
"R. c #CCAB04",
"E. c #C3A50B",
"W. c #CCAB0A",
"Q. c #C8A705",
"!. c #D0AF03",
"~. c #D0AF08",
"^. c #D4B204",
"/. c #D9B604",
"(. c #DDB904",
"). c #D5B309",
"_. c #DCB809",
"`. c #C3A61B",
"'. c #CAAC1C",
"]. c #C6A816",
"[. c #D3B215",
"{. c #D4B41D",
"}. c #DCBA18",
"|. c #CFB01A",
" X c #E2BD04",
".X c #E2BD09",
"XX c #E0BE19",
"oX c #C7AB28",
"OX c #CEB127",
"+X c #D3B523",
"@X c #D9BA29",
"#X c #C6AC35",
"$X c #CCB239",
"%X c #D7BA34",
"&X c #E0BF24",
"*X c #E6C004",
"=X c #EBC304",
"-X c #EDC50A",
";X c #E6C009",
":X c #F3CA0C",
">X c #F3C907",
",X c #EAC518",
"<X c #F3CA13",
"1X c #F5CC1C",
"2X c #F9CE18",
"3X c #FBD01C",
"4X c #DFC137",
"5X c #E7C527",
"6X c #F6CE26",
"7X c #FCD124",
"8X c #FCD12C",
"9X c #F4D02E",
"0X c #E9C937",
"qX c #FCD234",
"wX c #FDD43C",
"eX c #F7D537",
"rX c #F1CF38",
"tX c #E9CA41",
"yX c #FED544",
"uX c #FED54C",
"iX c #F8D747",
"pX c #FED654",
"aX c #FED75A",
"sX c #FED85B",
"dX c #FED864",
"fX c #FEDA6B",
"gX c #FED761",
"hX c #FFDB72",
"jX c #FFDC7B",
"kX c #BDA742",
"lX c #7D8981",
"zX c #828A84",
"xX c #FEDE82",
"cX c #000001",
/* pixels */
"cXcXcXcXcXcXcXcXcXcXcXcXcXcXcXcXcXcXcXcXcXcXcXcXcXcXcXcXcXcXcXcXcXcXcXcXcXcXcXcXcXcXcXcXcXcXcXcXcXcXcXcXcXcXcXcXcXcXcXcXcXcXcXcXcXcXcXcXcXcXcXcXcXcXcXcXcXcXcXcXcXcXcXcXcXcXcXcXcXcXcXcXcXcXcXcXcXcXcXcXcXcXcXcXcXcXcXcXcXcXcXcXcXcXcXcXcXcXcXcXcXcXcXcXcXcXcXcXcXcXcXcXcXcXcXcXcXcXcXcXcXcXcXcXcXcXcXcXcXcXcXcXcXcXcXcXcXcXcXcXcXcXcXcXcXcXcXcXcXcXcXcXcXcXcXcXcXcXcXcXcXcXcXcXcXcXcXcXcXcXcXcXcXcXcXcXcXcXcXcXcXcXcXcXcXcXcXcXcXcXcXcXcXcXcXcXcXcXcXcXcXcXcXcXcXcXcXcXcXcXcXcXcXcXcXcXcXcXcXcXcXcXcXcXcXcXcXcXcXcXcXcXcXcXcXcXcXcXcXcXcXcXcXcXcXcXcXcXcXcXcXcXcXcXcXcXcXcXcXcXcXcXcXcXcXcXcXcXcXcXcXcXcXcXcXcXcXcXcXcXcXcXcXcXcXcXcXcXcXcXcXcXcXcXcXcXcXcXcXcXcXcXcXcXcXcXcXcXcXcXcXcXcXcXcXcXcXcXcXcXcXcXcXcXcXcXcXcXcXcXcX. cX7 :.lX<.2.:.<.2.:.1.1.1.<.-.;.;.;.&.&.:.:.:.;.&.:.:.>.>.;.&.R cX+ cXcXcXcXcXcXcXcXcXcXcX",
"cXcXcXcXcXcXcXcXcXcXcXcXcXcXcXcXcXcXcXcXcXcXcXcXcXcXcXcXcXcXcXcXcXcXcXcXcXcXcXcXcXcXcXcXcXcXcXcXcXcXcXcXcXcXcXcXcXcXcXcXcXcXcXcXcXcXcXcXcXcXcXcXcXcXcXcXcXcXcXcXcXcXcXcXcXcXcXcXcXcXcXcXcXcXcXcXcXcXcXcXcXcXcXcXcXcXcXcXcXcXcXcXcXcXcXcXcXcXcXcXcXcXcXcXcXcXcXcXcXcXcXcXcXcXcXcXcXcXcXcXcXcXcXcXcXcXcXcXcXcXcXcXcXcXcXcXcXcXcXcXcXcXcXcXcXcXcXcXcXcXcXcXcXcXcXcXcXcXcXcXcXcXcXcXcXcXcXcXcXcXcXcXcXcXcXcXcXcXcXcXcXcXcXcXcXcXcXcXcXcXcXcXcXcXcXcXcXcXcXcXcXcXcXcXcXcXcXcXcXcXcXcXcXcXcXcXcXcXcXcXcXcXcXcXcXcXcXcXcXcXcXcXcXcXcXcXcXcXcXcXcXcXcXcXcXcXcXcXcXcXcXcXcXcXcXcXcXcXcXcXcXcXcXcXcXcXcXcXcXcXcXcXcXcXcXcXcXcXcXcXcXcXcXcXcXcXcXcXcXcXcXcXcXcXcXcXcXcXcXcXcXcXcXcXcXcXcXcXcXcXcXcXcXcXcXcXcXcXcXcXcXcXcXcXcXcXcXcXcXcXcXcX5 -.6.Y J C J J J V V 8 8 V 7 7 6 3 5 7 5 5 5 3 , 1 1 1 4 4 5 P U O cXcXcXcXcXcXcXcXcXcXcX",
"cXcXcXcXcXcXcXcXcXcXcXcXcXcXcXcXcXcXcXcXcXcXcXcXcXcXcXcXcXcXcXcXcXcXcXcXcXcXcXcXcXcXcXcXcXcXcXcXcXcXcXcXcXcXcXcXcXcXcXcXcXcXcXcXcXcXcXcXcXcXcXcXcXcXcXcXcXcXcXcXcXcXcXcXcXcXcXcXcXcXcXcXcXcXcXcXcXcXcXcXcXcXcXcXcXcXcXcXcXcXcXcXcXcXcXcXcXcXcXcXcXcXcXcXcXcXcXcXcXcXcXcXcXcXcXcXcXcXcXcXcXcXcXcXcXcXcXcXcXcXcXcXcXcXcXcXcXcXcXcXcXcXcXcXcXcXcXcXcXcXcXcXcXcXcXcXcXcXcXcXcXcXcXcXcXcXcXcXcXcXcXcXcXcXcXcXcXcXcXcXcXcXcXcXcXcXcXcXcXcXcXcXcXcXcXcXcXcXcXcXcXcXcXcXcXcXcXcXcXcXcXcXcXcXcXcXcXcXcXcXcXcXcXcXcXcXcXcXcXcXcXcXcXcXcXcXcXcXcXcXcXcXcXcXcXcXcXcXcXcXcXcXcXcXcXcXcXcXcXcXcXcXcXcXcXcXcXcXcXcXcXcXcXcXcXcXcXcXcXcXcXcXcXcXcXcXcXcXcXcXcXcXcXcXcXcXcXcXcXcXcXcXcXcXcXcXcXcXcXcXcXcXcXcXcXcXcXcXcXcXcXcXcXcXcXcXcXcXcXcXcX* ;.7.U 5 B 7 8 a 5 6 5 7 6 5 5 6 7 6 5 7 6 6 8 6 6 6 8 8 7 6 6 5 U T * + cXcXcXcXcXcXcXcXcX",
"cXcXcXcXcXcXcXcXcXcXcXcXcXcXcXcXcXcXcXcXcXcXcXcXcXcXcXcXcXcXcXcXcXcXcXcXcXcXcXcXcXcXcXcXcXcXcXcXcXcXcXcXcXcXcXcXcXcXcXcXcXcXcXcXcXcXcXcXcXcXcXcXcXcXcXcXcXcXcXcXcXcXcXcXcXcXcXcXcXcXcXcXcXcXcXcXcXcXcXcXcXcXcXcXcXcXcXcXcXcXcXcXcXcXcXcXcXcXcXcXcXcXcXcXcXcXcXcXcXcXcXcXcXcXcXcXcXcXcXcXcXcXcXcXcXcXcXcXcXcXcXcXcXcXcXcXcXcXcXcXcXcXcXcXcXcXcXcXcXcXcXcXcXcXcXcXcXcXcXcXcXcXcXcXcXcXcXcXcXcXcXcXcXcXcXcXcXcXcXcXcXcXcXcXcXcXcXcXcXcXcXcXcXcXcXcXcXcXcXcXcXcXcXcXcXcXcXcXcXcXcXcXcXcXcXcXcXcXcXcXcXcXcXcXcXcXcXcXcXcXcXcXcXcXcXcXcXcXcXcXcXcXcXcXcXcXcXcXcXcXcXcXcXcXcXcXcXcXcXcXcXcXcXcXcXcXcXcXcXcXcXcXcXcXcXcXcXcXcXcXcXcXcXcXcXcXcXcXcXcXcXcXcXcXcXcXcXcXcXcXcXcXcXcXcXcXcXcXcXcXcXcXcXcXcXcXcXcXcXcXcXcXcXcXcXcXcXcXcXcX5 ;.i.U 2 7 5 4 O O O 9 o o O o O o O O o o o o O O O O + + + 9 7 5 4 H #.* cXcXcXcXcXcXcXcXcX",
"cXcXcXcXcXcXcXcXcXcXcXcXcX. F P H H J J H J H H P H H U U U R R R R P R R U R R R R R R T T T T T T T T T T T T T T T T #.T / / T / #./ / / 8 cXcXcXcXcXcXcXcXcXcXcXcXcXcXcXcXcXcXcXcXcXcXcXcXcXcXcXcXcXcXcXcXcXcXcXcXcXcXcXcXcXcXcXcXcXcXcXcXcXcXcXcXcXcXcXcXcXcXcXcXcXcXcXcXcXcXcXcXcXcXcXcXcXcXcXcXcXcXcXcXcXcXcXcXcXcXcXcXcXcXcXcXcXcXcXcXcXcXcXcXcXcXcXcXcXcXcXcXcXcXcXcXcXcXcXcXcXcXcXcXcXcXcXcXcXcXcXcXcXcXcXcXcXcXcXcXcXcXcXcXcXcXcXcXcXcXcXcXcXcXcXcXcXcXcXcXcXcXcXcXcXcXcXcXcXcXcXcXcXcXcXcXcXcXcXcXcXcXcXcXcXcXcXcXcXcXcXcXcXcXcXcXcXcXcXcXcXcXcXcXcXcXcXcXcXcXcXcXcXcXcXcXcXcXcXcXcXcXcXcXcXcXcXcXcXcXcXcXcXcXcXcXcXcXcXcXcXcXcXcXcXcXcXcXcXcXcXcXcXcXcXcXcXcXcXcXcXcXcXcXcXcXcXcXcXcXcXcXcXcXcXcXcXcXcXcXcXcX5 2.h.J 1 5 2 + 1 #.@.#.#.#.@.@.@.#.#.#.@.#.#.#.@.#.@.#.#.#.#.@.U o 6 6 4 F #.* + + cXcXcXcXcXcX",
"cXcXcXcXcXcXcXcXcXcXcXcXcX4 R T T T R R R R R T T Y T ( / T / #.T / T / / #./ / / #.#.#.#.#.@.@.#.#.#.@.@.@.&.@.>.@.@.>.&.&.>.>.>.>.:.>.:.:.@.F cXcXcXcXcXcXcXcXcXcXcXcXcXcXcXcXcXcXcXcXcXcXcXcXcXcXcXcXcXcXcXcXcXcXcXcXcXcXcXcXcXcXcXcXcXcXcXcXcXcXcXcXcXcXcXcXcXcXcXcXcXcXcXcXcXcXcXcXcXcXcXcXcXcXcXcXcXcXcXcXcXcXcXcXcXcXcXcXcXcXcXcXcXcXcXcXcXcXcXcXcXcXcXcXcXcXcXcXcXcXcXcXcXcXcXcXcXcXcXcXcXcXcXcXcXcXcXcXcXcXcXcXcXcXcXcXcXcXcXcXcXcXcXcXcXcXcXcXcXcXcXcXcXcXcXcXcXcXcXcXcXcXcXcXcXcXcXcXcXcXcXcXcXcXcXcXcXcXcXcXcXcXcXcXcXcXcXcXcXcXcXcXcXcXcXcXcXcXcXcXcXcXcXcXcXcXcXcXcXcXcXcXcXcXcXcXcXcXcXcXcXcXcXcXcXcXcXcXcXcXcXcXcXcXcXcXcXcXcXcXcXcXcXcXcXcXcXcXcXcXcXcXcXcXcXcXcXcXcXcXcXcXcXcXcXcXcXcXcXcXcXcXcXcXcXcX5 2.a.F * 7 5 7   &.zXlXlXlX0.zXzXzXzXzXzXzXzXzXlXf.f.f.f.f.f.0.f.0.V 4 5 6 4 J O.O cXcXcXcXcXcXcX",
"cXcXcXcXcXcXcXcXcXcXcXcXO J 5 * O 1 1 O , , 1 1 , 4 4 4 4 , 4 , O 6 , , , , 4 4 8 4 4 4 4 4 4 1 5 5 5 5 5 4 6 5 1 4 4 4 4 1 4 , 1 1 1 * O , 4 H V * 8 H P P R R R R R Y T Y T ( O./ / O./ / / / / O./ O.+.O.O.O.O.O.O.+.+.+.@.$.+.O.+.O.O.O.+.+.O.O.O.O.O.O.O.O.O.O.%.$.O.O.O.+.O.$.%.%.$.%.$.%.%.%.=.%.=.=.&.-.-.=.-.*.*.;.;.*.-.-.-.;.-.-.-.-.-.-.-.-.;.-.-.-.1.,.1.,.-.-.*.-.:.,.,.-.-.*.,.-.-.-.-.,.,.-.1.1.,.,.1.,.-.,.,.,.,.,.,.,.,.,.,.,.,.,.1.1.,.1.1.,.-.,.,.,.1.1.,.,.-.-.-.-.,.,.*.,.,.,.1.,.,.,.,.,.-.,.1.,.,.,.,.,.-.,.:.-.,.,.1.,.-.,.,.-.,.-.,.,.-.1.-.,.1.,.,.,.,.:.-.,.1.,.,.-.-.,.,.,.1.,.*.,.,.,.-.-.=.-.-.,.*.*.-.-.,.=.=.*.-.=.*.*.*.-.=.=.,.=.;.O.$.$.%.$.$.O.=.%.O./ ( $.=.O.O.O.O.@.O.O.( 8 cX8 2.6.I 1 a 7 5 5   Y a 5 5 5 5 5 4 6 4 4 6 4 4 4 4 4 4 4 1 1 4 9 , 4 7 5 5 6 5 1 H R * + + cXcXcXcX",
"cXcXcXcXcXcXcXcXcXcXcX4 F 8 6 8 8 8 8 6 6 6 8 8 6 6 6 6 s 8 8 8 8 6 F 8 8 8 s s 8 s 8 s s s s F s s s V F s F s F F 8 F F F F F s 8 8 8 8 6 6 5 7 5 9 4 5 6 7 7 5 5 7 7 a 8 a 6 s s s s s s s s s f s s s V f V F C V C C G G V C C V F f V f V C V C V V V f s G C C V V f f V C C Z V V Z C V G C G C J C J C C G C C C K K C K K K J K I K Z J Z K K Z K K K G K K K Z K Z K K K K G Z Z Z A Z K Z I Z Z K K K K K K K K Z Z I Z K I K K K Z Z C Z K K K L K K Z K L K K K K Z A Z Z I Z Z A K K A K K I K A K K I A Z I C Z K A Z Z K K A A C Z Z Z K K C Z K K Z K Z K K K Z C C C K Z Z Z Z G Z C K J Z C C C C K G C C C C C C G Z C C C C f C C f C f C C f a C C s f V C f s s f d s s s a s a f a a 5 5 * V 7.2.U 5 7 5 5 5 1   R G s F V s F F F V V F F V F 8 F F 8 F F F 8 F 8 6 5 5 5 5 5 4 H R , X cXcXcXcX",
"cXcXcXcXcXcXcXcXcXcXO F 8 5 6 5 4 6 6 4 6 6 8 8 6 6 6 6 6 4 6 6 6 8 6 6 8 6 8 8 8 8 7 8 6 8 8 8 8 8 8 8 8 8 8 F V 8 F 8 s 8 F 6 6 6 6 4 O O O O * O     + O O X . o o . o o O O O O O O O O O X @ O O O O O O * O * O O O O O O O O O O O O O * O * * X & * * & & * . * o * O o & . & & & * & * * & & & * & * * 1 * & * & & * * * - & & * & * & & & & * * & & & = * * & & = & & & = & & & & = = & y & & & - = - * * & = & & & = - & & - * = * & & * & & = & * - * - & & * - & & - * & & & & & & & & & * & = & * 1 * & & & & & & - & * & # & & & & & & = & & * & * & & & & & * & & & & & & & & = & & & & & # & & & & & & & * & # & * o & & & & o # & & # . # . # . # . & . # . . . . # . . . . . . . .   .         s a.6.Z 6 8 7 7 5 5 1   U V a s V s s F F F 8 F F 7 8 s s 8 V s V s s s V 6 5 6 B 6 4 4 4 F T 4   cXcXcX",
"cXcXcXcXcXcXcXcXcXcXF 6 5 6 5 5 6 6 6 6 6 6 4 8 6 6 6 6 6 6 6 6 6 6 8 8 6 4 5 8 8 6 6 5 6 6 6 6 8 M 8 8 F F 8 8 8 8 s 8 8 8 8 6 6 6 4 + 6 E R T Y T T T / T / T ( T T ( T T T ( / T T T T / ( / O.( / ( / / ( / / O./ / / / / / / ( / / / #./ / / / / #./ / / / O./ +./ / O./ O.O.#.O.#.O.O.#.+.+.O.#.+.O.$./ $.@.O.@.+.O.+.O.$.+.+.+.$.O.$.@.%.=.%.$.%.%.%.=.%.$.%.$.=.=.$.$.+.%.%.%.%.%.$.%.$.O.O.%.%.%.%.%.$.O.%.%.%.%.=.%.=.%.$.=.%.%.%.%.$.=.=.%.%.=.=.O.=.%.%.%.=.*.&.&.%.%.%.$.=.%.%.%.%.=.%.O.=.=.%.%.%.=.O.%.O.=.O.%.=.$.$.%.$.$.%.O.%.%.%.O.%.=.O.$.$.O.%.O.%.%.$.O.%.%.%.=.O.=.O.O.=.=.@.%.%.%.@.@.%.%.%.=.%.@.%.%.%.%.%.%.$.+.@.@.@.+.$.$.@.%.@.$.+.$.O.O.@.&.@.&.&.$.$.@.@.%.%.@.@.+.+.+.@.+.@.+./ %.lX6.V 5 a a a 5 5 2 *   U s 7 s a 7 6 s 6 6 6 8 6 7 8 7 6 6 8 8 8 8 8 6 8 8 6 6 4 6 7 4 7 4 V / 4 X cXcX",
"cXcXcXcXcXcXcXcXcXF 8 5 6 4 5 4 6 , 4 6 6 6 4 8 4 6 6 8 6 6 4 6 6 4 6 6 6 6 6 6 6 6 8 5 6 6 6 6 8 8 8 8 8 8 8 8 F 8 8 8 8 6 8 8 8 5 + U 3.q.3.4.3.<.3.3.4.4.4.4.4.4.4.4.3.3.3.4.5.5.5.3.5.4.5.4.5.4.5.5.5.5.4.5.5.4.5.5.5.5.5.5.7.5.5.5.5.8.5.5.5.5.5.5.8.8.9.8.8.0.7.5.9.7.5.7.6.8.7.8.7.7.7.9.8.7.9.9.i.7.6.0.7.7.0.a.9.a.a.0.a.7.i.d.d.a.a.d.f.d.g.d.d.s.d.a.d.a.a.a.s.a.s.d.g.d.g.g.s.a.d.a.g.g.g.lXi.a.a.a.g.g.a.a.lXg.d.lXg.d.h.h.h.d.d.g.d.d.g.d.d.h.lXh.s.g.h.d.s.g.h.h.g.lXd.d.f.a.d.d.g.lXd.d.s.d.h.h.d.lXg.lXlXg.lXa.d.d.a.d.d.d.lXd.a.i.a.a.a.a.a.a.i.7.g.i.i.i.a.i.i.i.i.a.9.7.7.7.7.8.7.a.9.a.i.a.i.a.7.a.0.a.9.a.a.7.i.7.i.i.9.a.9.a.9.i.a.7.7.7.6.6.7.7.6.6.6.7.6.5.6.6.7.6.5.6.6.3.6.5.6.5.5.6.6.%.J 5 V a 8 5 5 2 1 *   U s 7 5                   +                       4 6 4 4 7 4 5 4 5 4 s R * cXcX",
"cXcXcXcXcXcXcXcX8 s 6 5 4 6 4 6 6 6 6 5 1 6 6 4 4 6 6 6 6 , 6 4 8 6 6 6 6 4 6 6 6 5 5 7 6 6 6 6 8 8 6 6 8 8 F 6 8 8 8 s 8 8 8 6 5 O F #.8 4 , 4 4 1 1 , , * 4 * * 1 1 1 4 4 4 5 4 * , * O 1 1 4 O 1 , * , * * , 9 4 , , , * , * , , , * , , 4 4 4 * , * , , * * * , * , * * 4 4 1 * 2 4 4 4 * , 4 * 2 4 4 4 2 * 2 2 2 5 5 5 2 2 5 2 1 2 2 i 5 2 2 2 5 2 2 2 i 5 2 2 2 2 2 y 5 y 2 2 y 2 2 2 2 i y y 2 y y 2 y i y y 2 y = 2 2 y i = 2 p y y y y 2 y 2 y y 2 2 2 = y 2 2 2 i = 5 2 2 y 2 y y i i y y u y 2 y y = y = y = = 2 y y y y 5 y y y y y 2 u 2 y 2 y 2 2 2 2 i y 2 y 2 2 2 2 y 2 y 2 y 2 2 2 y 2 2 2 2 i 2 y 2 i y 2 y 2 2 2 2 2 2 y 2 y 2 2 y i 2 2 y = 2 2 2 y y y 5 5 5 i 2 5 4 2 = 2 = 2 = 4 4 2 1 2 * 2 i a a a 7 8 7 5 2 *   P s a 1       O O 9 O O + O O O O + 9 . O + +       O 6 4 5 7 4 5 4 7 4 G P + cX",
"cXcXcXcXcXcXcX5 8 4 6 4 4 6 6 6 5 5 6 5 4 5 8 4 6 6 6 6 6 6 4 6 6 6 6 5 5 5 6 6 6 6 6 6 6 6 6 6 6 6 4 6 6 6 6 6 8 8 8 8 8 6 8 4 O H U 5 8 8 6 8 6 6 6 7 7 6 7 5 7 7 7 7 6 6 s 8 6 6 8 6 6 s 6 s 6 6 6 s s s 6 s s s s s s s s g s g s s s s s s 6 s s g a s 5 s g s s g g a s s s s s s s f f f s f f s s f f s f f f V C f f C f C f C f f C Z f C C f h f h h Z f h h Z C C Z C Z Z Z C Z h K Z Z f Z Z h h Z h h A h j Z d Z A Z h j Z f h Z Z j C Z Z h Z j h h Z h C h h h Z j Z Z Z j Z h Z Z Z j h h Z h Z Z Z j Z d A Z Z j h Z Z j Z Z C Z Z Z h h Z Z Z Z Z Z Z j Z Z Z C f Z j Z h Z h h h h Z f Z Z j h f h Z C Z C j f f Z h h h h Z f j f f j f d f f d h d h h f j d f h f f f d p d f f f f f f d s a a 7 5 5 a 5 5 2 *   U s 7 4     O 5 5 4 4 5 5 4 5 4 4 4 4 1 4 4 O 4 +     O 5 5 4 5 4 7 4 6 5 8   cX",
"cXcXcXcXcX  X X + X + + + + + + X X + + X X   X + + + + + + X X + + X + X + + + + + + + + + + X X X + X X X X + O X + + X X O O H J 4 5 7 6 8 6 6 5 5 7 6 7 7 6 7 6 6 7 7 6 8 5 6 6 s 6 s 6 s 6 s 7 5 7 6 s s g g 6 8 s s s M s s 6 s s g s s s g g a s s s s s s s s s a s a s a s s s s s s s f s s f s f s f f f f d f C C d f C f f C f f f Z f C j f h h f f j f j h h h Z Z Z j h h f d h Z Z j Z h h h d h h Z h j Z Z A j j j h j j Z j j j Z j Z Z j Z j j j j j h h j j j j j j Z j j Z Z j j j j j Z j Z A Z j j Z j Z j j h j d j j Z j j j j A j j Z Z j Z j Z j Z j Z j j j Z d Z j h Z h j Z Z j Z Z h h Z j Z j C h j Z h h f h f j j d h d h f f h d f f h d h h h j d h f f d Z f f p f f d a a a a a 5 a a 2 2 2 2 1   U a 7 5     1 7 5 4 5 4 5 5 5 5 5 7 4 4 5 4 O 4       + O 8 5 4 5 4 7 4 5 5 + cX",
"cXcXcXcX+ H :.:.q.q.q.<.q.:.:.:.q.:.q.:.q.:.<.q.3.3.3.3.4.4.4.3.4.3.3.3.5.4.5.5.4.4.4.4.4.5.5.4.5.5.5.5.5.8.8.8.8.5.5.4.8.8.5.@.J 5 5 6 6 8 s 8 6 5 s s 8 6 6 5 6 6 6 6 6 6 s 6 6 8 s 6 5 6 7 5 6 5 s s 5 6 6 5 8 s 5 s s s 8 M s s s s s s s s s 6 s s s s s s d s s s a s s s f s s d s a d s f f f C f V f f C K f f Z Z Z C Z C f f Z Z Z f Z h j j h Z L j h h h h h Z Z Z Z Z Z h Z Z h A L A Z A j L L h h L Z h Z j A A A L A A A A A A A A A A j L A j Z A j j A L j j Z A A A A h L A A A Z A A L L L A L A A A A A A j L ( j Z A j j j A A A j A j A A A A j Z h A j A A A Z Z h Z j A j Z j j A j A L Z h A Z Z Z j h j h h h j d j j f j Z d h h j j d h h j h h h h f h f h h h d f d h f p f d Z d V 7 a 7 a 7 5 5 5 1 *   U s a 1     4 7 4 5 1 5 5 4 7 5 5 4 4 5 1 4 1 5   +       O 8 5 4 5 4 4 5 5   cX",
"cXcXcXcX6 R E H H H J J F F J J F H H H H H J H H H H H H H H H H H H H H H P E P H H R E P H H H H H H R H H H H H H H J H H 8 5 6 6 6 6 1                                                                                                                                                                                                                                                   .                                     .           .   .     .                 .                   .           .     .     .                   .                                                                                                                                                                 * C a a a a 2 7 2 5 2 2 1   I 7 7 4     5 7 5 5 6 5 5 7 5 5 7 4 6 4 5 1 4 5   X 8 O     + 8 6 4 5 5 6 X   + ",
"cXcXcX5 F 5 4 6 5 5 5 4 , 4 6 4 4 6 6 4 6 6 4 6 5 5 6 6 4 6 6 4 4 4 4 4 4 6 6 5 4 6 4 5 5 4 6 5 6 4 6 6 6 5 6 6 5 5 4 6 4 6 4 6 8 6 6 7 *                                                                                                                                                                       . . . . . . # . . # . . . # . . # . . # . . # . # . # . . . . # . # . # . # # # . # # . # # . . . # # . # . # . # # # # # # # # # # # # # # # # # # # # # # . . . . # . # . # . # # # . # # . # # . . # . # # # # # . # . # . # # . # # # . # # # # . # # # . # # # # # # # # # # . . # # # . # # . # # . # # . # . . # # . # # . # . . # . . # . # . . . # . # . . . # . . . . . . . . . . . . # f p a 7 5 i 5 2 5 2 *   H a 6 5     5 6 5 5 6 5 5 5 5 6 5 5 4 4 5 4 4 5 X   , 8 O     + O , , , X       ",
"cXcX5 F 8 8 8 8 6 6 6 8 8 8 8 8 8 8 6 F 8 8 F 8 s 8 8 F 8 8 8 F F F 8 8 8 8 F 8 8 F 8 8 F 6 F M 8 F 8 F F 6 6 8 8 8 8 F 8 8 8 8 6 6 8 *                                                                                                                         .   . .       .     . . . . . .   . . . . . . # # # # # % % # % % # % # # % # % % % # % % # # % # # # # % % % % % % % % % % % % % % % # % % % % % % % # % % # % % % % % % % % % % % % % % % % % % % % % % % % % % % # % % % # % % % % % % % % % % % % % % % % # % % % % % # % % % % # % % % % % % % % % % % % % % % # % % % % % # % % % % # % % % % % % % % % % % % % % % % % % % # % % % % % # % % % % % % % % % % % % % % % % % # # # # # . .   X f p 5 a 5 2 1 5 2 *   P s 7 5     5 8 4 6 6 8 7 8 7 8 6 5 5 6 6 4 5 6 +   O 5 s                     X ",
"cX4 G 8 8 M s 8 8 s 8 s 8 8 8 8 M 8 8 F 8 F 8 F 8 s 8 M F 8 F M 8 M M F F F M s F M M F 8 8 M s 8 F F F V s s s s s s 8 8 8 8 8 8 V X                                                         .                                                   . .     .                                         . . . # . # # % # # # # # # # # # # % # # # # # # # # % q % % % % # % % # # % % # % % % % % # % # % % % % # # % % % % % % % % q # % % % % % % % % % % % % % % # % # % % % q % q % q % % % % % % % # % % % % q % % % % % # # # % - - % q % % q % # % # % # # % % % % % % % % % % % % # % q q % % % q q % # # % % # % % % % % % % % % % # # # # % % % % % % q % % % % % % % q % % % % % % % % # # # # # # # # . . . f f i a 5 5 2 2 1   H a s 4   + 5 6 * O O 9 X O O O X X O O X O 4 8 +   * O F O                     ",
"cXX + X X + + + X +     + + +       X   X   +   + + X   +       + +   + + +   +   +   + + + +   X X     X +     + + +     X   X X               X 1 O 1 4 5 5 5 5 4 5 5 4 4 5 5 5 5 4 *     .   .   . 5 5 5 5 5 6 5 5 7 5 6 5 6 5 5 7 7 5 5 * . . . . .     * s s a a s s s s s s s s f V f C C d d y # # # # . .                                             . # # % q q > ' F.Z.Z.`.`.].Z.`.`.`.].].].`.].'.Z.E.N.N.W k x $ ; : > k e.`.Z.`.`.].Z.`.].`.].].].].].`.`.`.m.N.] k k - ; ; > 0 ] `.Z.Z.`.`.`.Z.`.Z.].].].`.].].`.`.m.`.r.n k e ; ; > > n B.`.`.`.oXC.Z.].`.Z.'.`.].`.].oX`.C.Z.M._ 0 k ; ; > > n B.Z.Z.`.`.Z.Z.`.].Z.].].`.].].].`.Z.Z.N._ 0 k - ; ; > k } `.Z.Z.Z.].Z.`.].Z.].].].].`.].`.`.m.Z.{ c l ; f a 5 5 2 1 2 *   P 7 7 4     5 4 +       +                 X 4 8 X   * O F O   X 4 F 5   O 8 +   ",
"cX                                                                                                                                            4 1 1 4 5 5 5 5 5 4 5 5 5 5 5 5 5 5 5 5 4 X +   .   . 5 6 5 5 6 5 7 5 7 5 7 7 5 7 7 7 5 7 s 6 2 +   . .     o a a 4 5 4 i i 5 i i i a 5 a a a a a a d p & # # # .   .   a s s s f V V V C C V V f C Z C Z C Z d 2 # # q q w c F.E.c.c.c.v.v.z.c.v.c.n.b.v.c.v.b.c.z.x.b.M.n x $ : > > { }.v.c.c.v.v.c.l.v.v.v.b.v.c.v.b.c.l.l.c.`._ l - ; > > ' ].C.c.c.c.n.c.z.c.v.v.n.v.c.v.v.b.z.z.x.m.t.c x @ > > 0 e.[.c.c.c.c.b.c.l.v.b.n.v.v.c.v.b.c.x.l.c.`.W l @ ; > 0 e.[.c.c.c.v.v.z.z.v.v.n.v.v.v.v.m.c.l.x.v.`.W l - ; > > ] 5Xv.c.c.c.v.c.x.c.b.v.n.v.c.v.b.v.x.x.x.C.] l $ a V a i 2 5 2 *   P a 7 4   + 5 5 J q.3.3.3.4.3.4.4.4.5.3.:.R 6 8 X   O 1 8 X   O 4 8 H   4 H , , ",
"cX                            +                             + +                                                         X       .           O O +   +   +   . . .   X +   .   X     X . *   .     O *       +   . + . . . .   . . . + . . . + *       .   1 . . . . . o + . + . . . o o # . o o . . & y . # # . .   1 5 5 = 1 2 2 2 2 2 2 2 2 2 i 5 5 7 a 2 u y . % w w ! Q `.m.n.b.n.n.n.b.v.V.C.b.n.v.Y.m.b.c.b.b.t.+X_ k X > 0 ; F.[.c.b.n.n.n.b.n.v.E.n.n.c.V.C.n.c.b.b.x.'.w.> - > > > [ oXl.b.b.b.n.n.b.b.C.V.b.v.b.E.n.v.v.b.v.x.G.W e @ > > 0 G.E.v.n.m.n.b.b.b.b.V.b.n.c.Y.C.b.z.v.V.k.&X{ l X > 0 > G.E.v.b.n.n.n.b.n.m.V.b.V.c.V.C.v.c.b.b.k.&X{ 0 e > > < w.}.l.b.n.V.n.b.V.v.Y.C.b.c.V.C.n.v.v.n.c.Z.B.0 ; a p 7 2 5 2 2 *   P a 7 1     8 F s s s F F G M F H F F F 8 5 5 8 +   * 1 V X   X   , 8   O 8   O ",
"cX                .   X X   + X   X X X X X X O X X X X X X O + X   X X   X X X   X X     . +       X       .         X X X X O O           O X O X X O O O o + o O O O O O O O O o O O 4     .   O * O O * O O O O * o O O o * O * * * & * * * .   . . . 2 O * & * * o * * * * * * * - 1 * & * = * = y # % %     . * o . o . o . & & . + o & & o # o # & o & y % # q q ! m #Xm.m.V.T.V.T.V.V.n.V.V.Y.V.Y.V.C.V.b.b.l.%X] k $ 0 k : D.+Xv.n.Y.Y.Y.Y.V.V.n.V.Y.V.V.Y.V.C.b.b.z.@Xe.> e : k 0 [ OXc.n.V.T.V.T.V.V.V.V.V.Y.V.Y.V.C.n.b.b.M.`.W e @ k k > P.].b.n.Y.Y.Y.Y.V.V.n.V.Y.V.V.V.C.V.V.b.l.0X{ k ; k k > P.].b.n.Y.Y.Y.Y.n.V.V.V.Y.V.V.Y.V.Y.b.v.x.0X{ 0 e 0 0 > y.5Xc.V.Y.T.V.T.V.V.b.Y.V.V.V.Y.V.C.b.v.c.oXM.0 ; s d 5 2 2 2 * *   J s 7 4     6 s 8 s 6 s s M 6 8 5 4 4 4 4 4 5 8   + , 1 V X   + X , 8   * 8 + O ",
"cX.             X X X O X O + O O O O O O O O O O O O O O O O O X X X X X X X O O O O O O O O X @ O X X X X o X X .   O O O O * *     .     * O O O O O O O O O O O + O O . O o o * O + 5   . .   X * O O . O O & o o o O O * o O O O o O o * 1     .     4 o & o & * * & & & & * * * * & * = - * = = u # - % .   . 1 & * O * & * * * * * * * * * * * = * * * y y # w q ^ Q #XC.Y.Y.T.Y.Y.V.V.Y.Y.V.Y.Y.Y.V.Y.V.n.v.l.@X_ x . 0 k > H.+Xb.E.T.Y.Y.V.V.E.V.Y.V.R.Y.Y.V.Y.n.b.c.@Xe.0 e : k 0 [ %Xv.Y.Y.T.Y.E.V.V.V.T.Y.Y.Y.Y.V.Y.n.n.b.m.P.Q x @ 0 k e J.'.n.Y.Q.Y.T.V.V.Y.V.Y.V.T.Y.Y.Y.V.b.V.z.0X{ l X k k > U.'.n.Q.T.Y.Y.V.V.Y.V.V.V.R.Y.Y.V.Y.m.b.z.rX{ k p 0 k > y.5Xv.V.T.Y.Y.V.V.Y.V.Y.V.T.Y.T.V.T.n.V.v.'.B.k ; f d a a 5 4 2 *   P s 7 4     6 F 5 s M M s F 6 8 8 8 6 8 8 5 5 8 +   O 1 s X   + X , F   O 6 X X ",
"cX    * X X + + O O O O O O , O O X O * , , O O O , O , O , O O O O   X X + X X X X X + X X X o X   X X   X + X X +   * O * , O 5 +         * X O O o O * O O o * O O O O O o O O . O O *     .   . * * O * O O O O X O o & * O o o o * O O * 5 .   o     = * & * * * o & * * & * * * = * * * * * 2 = u # % % .   . = o * & o * & o & & * O * * & * = & * * * = y # w q ! m $XE.Y.T.Q.T.T.Y.W.T.T.T.Q.!.T.T.T.Y.V.V.z.%X] x . 0 k e D.&Xn.Y.!.Y.Y.Y.!.Y.T.T.Q.!.T.T.Y.T.V.V.v.@Xj.l e > k k [ @Xb.V.T.Y.T.T.T.R.T.T.T.T.R.R.Y.T.Y.V.V.C.oXQ x @ k k k P.|.V.T.!.Y.T.Y.^.T.T.T.T.!.R.V.T.V.V.V.c.0Xt.0 @ 0 l 0 P.'.n.Q.!.Y.T.Y.^.T.T.T.E.!.T.Y.Y.T.V.V.v.0X{ z t 0 l 0 y.0Xb.Q.W.Y.Q.T.T.T.R.T.T.W.T.R.Y.Y.Y.n.n.'.F.k ; p h g 2 i 4 2 *   J s a 5     7 V 7 7 7 6 6 8 7 7 5 5 7 8 5 4 4 8 +   * * V X   + X 4 s + O 8 X O ",
"cX  P #.T #., + * O O * O O O , 4 4 4 4 , , 4 , , , , , , , , O 4                                                     4 , * O 4 5 X         O O o o O O + o O O O O O O O O O O * O O * 4   . X   O * O O * O O O O O * O o O O * * O * O # O 1     .   . 5 o * * * & 9 O * & * 1 & = & & * 2 & = = - p . % q .   o * * & * * * & * * * & * & & = * = * & - = u = # r q ! ' OXE.Y.Q.Q.W.!.Q.T.R.^.^.T.!.T.^.T.T.T.T.b.@X] z $ 0 z k G.@XV.Q.Y.!.!.Q.Y.R.!.^.R.R.!.R.R.T.T.Y.n.,Xj.l < > k l | @XV.T.T.T.T.^.V.T.R.^.^.R.!.T.!.T.T.T.V.E.`.Q b X k l k #X|.V.T.Y.R.!.T.V.R.!.^.T.R.R.!.R.R.T.V.V.9X{ z @ 0 z l #X|.Y.Q.Q.R.R.T.Y.R.!.^.R.R.!.!.T.T.T.V.V.9X{ z e 0 k l y.5Xn.Q.Y.R.R.R.Y.T.!.^.!.R.^.T.R.T.T.Y.V.[.N.l > f f i 5 5 2 * *   P a 7 4     6 8 7 8 5 6 8 5 6 6 5 7 7 5 5 6 4 8 +   * * V +   + X 4 8   O 8 + O ",
"cX  6 * , 6 X   , O O , , , , , 1 1 4 * 4 4 4 4 , , , , , , , O 4         .       X + +       .       .               4 4 * , 4 6           , O o O + O O * O O O O O o O O O O * O + * 4   .     O 1 O O . o O . * O O * * o * * O * & O * O 5 .   . .   4 o * O * o & & * * * * * & * * = = 9 = 2 = p # % % .   . * * & * * * * * * * * * = * * * = * 2 = * u y # r w ! Q $XE.Y.W.R.R.R.R.R.T.R.!.!.!.^.T.T.T.Y.T.b.4X] b $ 0 l 0 G.&XV.Q.R.!.R.!.W.Q.T.!.R./.R.^.T.R.Y.T.V.@XB.l e > k k | %Xb.T.!.!.!.R.R.T.T.!.!.^.!.^.R.T.T.T.T.].OXQ x ; k k k P.|.V.R.!.!.R.R.T.T.R.!.!.^.!.~.T.R.T.T.V.0Xt.l @ l k 0 oX|.Y.W.R.R.T.W.W.T.!.!.!./.!.^.T.!.T.Y.V.0Xw.l t 0 l 0 y.5Xb.Q.R.!.R.R.R.T.T.!.!.^.R.^.W.T.T.T.Y.{.N.z ; p f a 2 2 2 = *   J a 7 4   + 6 s 7 7 7 7 6 5 7 8 5 5 5 5 5 5 5 8 +   * O V X   + X 4 s + O 8 X X ",
"cX  6 5 4 F O + , O , , O , , , O X X X X + + + O , 4 , , , , , 5                 +   +           +   X       +       4 1 4 O , 6   X       , O O O O O O o O O O O O * * * O O O O * * 4   . .   o * O O o * O O o * * * o * * O O O O O o * 2   . .     2 * * * * * * * * & * 1 = = * = = = = = = 2 i # % % .   . 1 * O * * o * & * & * * 1 * * = 2 & * 2 2 y y % r w ! ' %X~.Q./.!.!.T.R.^.^././.!./.!.R.^.R.Y.T.V.4X] c $ 0 l 0 J.5XY.~.!.!.!.R.~.!././.^.(.R.!.!.!.Y.V.Y.0XB.0 e > l l | 5XV.R.^.!.^.T.R.^.^.(.^.^.!.!.R.^.R.V.T.W.oX' b $ k z l #X}.T./.R.!.R.R.^.^./.(.R.(.!.R.!.!.V.T.V.tXw.c @ 0 z k #X}.Q.^.!.^.R.R.^.^././.R._.R.R.R.!.V.Y.V.rXw.c w > l l A.9XY.~.^.R.^.Q.^.^././.^./.R.R.!.^.T.Y.Y.{.G.z > f f i i 5 4 = *   P a 7 1   + 7 8 5 5 7 6 5 5 5 5 7 6 5 6 5 5 5 8 +   O O V X   X O 1 8   , s   O ",
"cX  5 4 4 8 X + , , O , 9 6 O X + 6 R / T T >.R 4 + + 6 6 , 4 , H U H H H H H H U H R R R P P H U P U H H H U H 8 4   4 4 * , , 6 + +       4 . O . O O O X O O O O O O O O O O O O * o 4   . .   X * * O O X * * * O * O O o O * O O * O O o 1   . .   X 5 * O & * * * & * * * * = = * * = = & & = = p # % - .   o 1 & O O * * * & * & * * = * = 2 * & = = = y y # r u ! ' $XW.R./.R.!.W././.^.(. X^.^.T.R.^.!.T.T.n.4X{ b $ 0 c l P.&XQ./.!.!.!.!. X!./. X/./.T.T.^.R.T.Y.Y.5XM.c e > l z | 4XV.^.^.R.^.~.(.^./. X(.^.!.Y.!.!.R.T.T.].#X' b @ k c c #X}.T./.R.!.!./.(.^.(.*X^.^.T.R.^.!.T.Y.V.tXe.c ; k z c #X[.T.^.W.!.!././.^.(. X^./.Y.T./.!.Y.T.V.tXw.v t k l l A.9XY.!.!.R.^.^./.^.(. X(./.Q.T.^.!.R.Y.T.{.P.c > f f 5 y 2 2 1 *   U s 7 1     6 8 4 7 5 7 7 4 4 8 7 5 4 6 4 4 4 8 +   O 1 V X   + O * 8   O 8   O ",
"cX  4 4 4 s X + , , , , 4 +   F R #.F 8 8 F F R <.>.4 + , 4 4 , 4 F 8 F V 7 8 8 8 8 8 8 8 8 8 6 6 8 8 8 8 8 8 8 5 4   4 4 * O * 5 X         * O * O X O O O O O O O O O O o O O O O O * 4   . .   X * O * O * O * o O * * O * O * * * * O * * 1     .     * O * * * * * * o & = & * 9 * = * 2 = = i = u & q q .   o 1 * * & * * * & * * & * 9 = * * 2 = = = = u y # r r ^ ` %XE.T.^.^./.^. X/./. X_._././.~./.T.R.W.V.0X{ m $ l c l J.&XY.~.!.!.).(./.^.(. X_.).(.^.^.T.^.R.Y.0XM.c e 0 l z } 5Xb.R.^.^.).^._.(./. X_././._.^.!.R.R.R.W.+X_ m ; l l l #X[.T.^.^.^.^._.(.^.(._./._./.)./.Y.!.!.Y.eXe.v ; l l c oX[.Q.^.^.^.^.(.(.^.(._._./._.^./.V.^.!.V.eXj.n e k l l A.9Xb.!.^.^././.(.^./.(.(./.(./.^.R.!.W.T.}.P.n > d f g i 2 = * *   P s a 4     5 8 7 4 5 5 8 8 7 4 7 5 7 5 6 5 5 8 +   * O V X   X X 4 s   * 8 + X ",
"cX  5 5 4 F O + , , O , + O H H 4 O O 1 9 , , O + H :.T O , 4 4 , O O O O O O O O O O + + O O O O O O O O O O O O O + , 4 O 4 4 5     . .   * o O o O O O O . o O o o * O * O O O * O * 4   . +   + * O O O O * O O * o * o * * + o o . O O * 5 +   X   . = * * o * * & * * * * * * * = 2 * * 2 2 = = u & - % .   . = * * * * * * * & * * * * & = & & 2 - 2 = y u # r w ! ' OXW.W. X^.^.=X(.(. X*X*X/..X*X X/.^.^.!.n.0X{ c $ 0 l l J.&XY././.!. X X X.X X X/._.*X;X/.^./.R.Y.0XM.c e > l l | 5XV.^.(.^.(.*X(. X(.*X X(.*X=X_././.!.T.W.%X' b @ 0 z l oX[.T.(./.^.*X X(.(.*X*X/.(.*X X(.^./.R.V.iXr.n ; k l z #X}.Q. X/.^.*X X(. X*X*X/. X*X.X/.^./.R.V.iXj.b t 0 l l A.6XV.^.(.!./.-X(..X X*X(.(.;X X(.^./.^.T.@XP.c > f f i 2 5 2 * *   J s s 1     7 8 5 4 8 7 7 8 6 5 6 7 7 6 4 4 4 8 X   , O s X   O + 4 8   * 8   X ",
"cX  5 5 4 8 + + , O , + O H F , 4 6 4 4 4 , O 4 4 , O #.T , 4 4 , 9 O , O O , O O , , O , , 1 O , 1 * , O , , * , O   , 4 * 4 4 6 .         1 o O O O O O O O X O O O o O O O O O O * O 4   . .   o , * O O * X o O O * O O * O * * * * * O O 5 . . X   + 2 O * * * & * & * * * & * * 2 & & = = 2 2 - u # - q .   + * o * & * * * * & & * * * * = 2 & = = = = y y % r r ! ' %X[.(.(.^. X=X=X=X-X=X:X-X<X:X=X X(.^.R.Y.0X{ b $ l c l #X&X!..X!. X X=X=X-X=X>X:X:X:X=X*X*X/.R.T.0XM.n e > c c } 4XT.(./.^. X=X=X-X-X=X<X-X<X=X=X X_.^.R.[.%X_ b ; z c v #X}./._.!.(.=X=X-X-X=X:X-X:X:X=X.X(.^.!.Y.uXw.n ; l c c #X}.^.(.!. X X=X=X-X=X:X-X-X:X=X*X X/.R.T.iXw.n t 0 c c A.0XR.(.^./. X=X=X-X=X=X<X-X<X=X=X(./.^.T.@XoXm > d f 5 2 5 2 * *   J s 8 4     7 8 5 5 4 7 8 5 8 5 5 7 4 4 4 8 4 8     O * s O   X O 1 6   O 8   O ",
"cX  4 6 , 6 O   , , + + J 6 4 4 4 6 6 6 4 * , 4 , 4 , O H R , , , , O O 1 , O , , , , O , O O , O O , O O , 9 , O , + , * , , 1 6 +     .   * * O O O O O O O X O O O O O O O O O * O O 4   . +   X * * O * O O O O * * O * * * O * O O * X * 4   . . . . 2 * O * * & * * & * * = & * & 2 * * = = = y y % % q X   O * * o * * & O & O * = = * * * & = = 2 2 = y y % r w ^ ` %X)./.(.(.;X1X2X8XqX7X8X7X8X2X>X=X/./.).Q.0X{ m < l l c I.5X!.(.(. X,X2X7XqX6X7X8X8X8X>X=X(._./.!.0XM.v t 0 c c  .0XR./. X(.;X2X3X8XqX1X8X8X8X2X>X X(./.^.).4X_ b > z z n $X}.^.(.(. X<X2X7XqX6X8X7X8X7X>X=X(./.^.!.uXe.n ; l c v $XXX^././. X<X2X8XqX7X7X7X8X7X>X-X_././.R.iXe.m t l l c L.9XR./.(.(.-X2X3XqX8X6X7X8X8X:X>X X/./.!.5XP.m > a d g 5 = 5 = *   P 7 8 1   . 6 s 5 5 5 5 6 4 O O O O 5 4 4 5 4 8 +   , O 8 +   + O 1 8 + * 6 . O ",
"cX+ 6 6 4 F O   O O + F 4 4 5 5 6 O + +     + X 9 , , 4 , H F + 4 O , O 1 , O 9 9 O O , 9 , , O , , , , , O , , , O + , , , , , 6 X         * O O O O O O * O 9 O O O O O O O , * O O O 5   . +   O * O O O O * O * O * * O O O o X * X O & * 5 . X +   . 5 O & & o o * * 2 * * * 9 * = 2 2 2 & = 2 = u % q q .   X * * & * & * * * * * & * 9 = = 2 * = & = = y u % ~ w ^ ` %X)././.=X<X7XwXwXwXuXsXuXiXyX8X*X(.(./.^.tX{ m < l c c #X5X!.^. X=X3XqXwXwXyXaXuXuXyXwX<X X(.(./.rXN.n e 0 c c } 0XT.^. X=X1X7XyXwXwXpXpXuXyXyX1X=X(.(./.}.4X_ m ; z z v $X}.^./.*X>X7XwXyXwXyXpXuXyXyXqX:X X(.(.!.iXe.W ; z c v $XXX^./.=X>X7XwXyXwXiXaXuXyXiX8X-X(.(./.!.iXj.W t l c c L.9XR./.(.=X2XqXyXwXwXpXpXuXyXyX2X*X(.(./.5XP.W 0 d f i 2 2 = * *   J a 7 5   + 7 s 6 5 5 6 6 + + X X   1 5 5 4 5 8 X   O * 8 O   X O 1 8   O 6 . X ",
"cX+ 4 4 , 8 X + , + O 8 4 6 4 6 X   X O 9 9 O   + , 4 O , , H + , , , , 9 , 4 , O , 4 O , , O , , 4 O O , , , O , 4 + 4 , * O , 6     .     4 O O O O O O O O O , O O O O O O O * O O * 4   . .   O , * O * O * * O O O O O O O * * * * * O * 5 .   . .   5 * * * * * * * & * & * * = = * 2 = = & = = p * q w .   O 4 * * * & * * & * * * * * * * 1 = * = = = y u % r r ^ ` %X[./.;X=X2XwXgXyXaXfXpXhXjXfXsX<X X(.^.!.rXt.m $ l c c K.6X!. X=X:X8XpXuXuXfXaXdXxXfXdXqX*X X^.!.rXF.W e 0 c c } 0XQ.). X>X7XyXsXyXgXfXaXjXhXfXpX-X X(.^.}.4X] b ; z c v #X}.^. X=X2XqXaXyXpXfXaXfXxXfXdX1X X X^.!.uXj.W ; k v v #XXX!..X=X<XqXaXyXpXfXsXfXxXfXdX1X*X(.^.^.iXj.n t 0 c c S.8XR.(.;X:X7XuXuXyXfXdXsXxXfXfXyX*X*X^.^.5XoXW > f C 5 2 2 4 = *   J 7 7 1     8 8 5 5 5 6 6 + O 4 1 X 5 6 5 5 4 8 + + * O 8 O   X O 1 8   O 6 + . ",
"cX  , 4 , F X + , + 6 4 4 , 6 X   3 S S S o.D B + + , , , O J 4 + , , O O , , O , O 4 , , O , O O O , , , 9 , , O O + , 1 , , , 6   X       , O O O O O O O O O O O O O O O O O O O O O 4   . .   O * O O O * O O O O * * * O * O * O * * O * 5   X .   . 5 o * * & o * * * * * * * * * * 2 & 2 = y = u % % q .   O 2 * O * * * = * * * & * * = 2 = = 2 * & = u p % r r ^ _ @X;X X X;X3XaXfXhXfXfXfXdXdXyX3X<X*X X(.!.tX{ m < l c c J.3X/. X X:XwXdXfXhXfXfXfXdXpX8X2X*X*X(./.0XN.W t 0 c c } 5X X X X=X7XsXhXfXfXdXfXdXgXwX2X<X*X(.(.[.$X_ b e z c n #X<X X;X X<XuXfXfXfXfXfXdXdXpX7X1X*X X(.^.iXj.W ; z c n $X-X X X X2XuXfXfXfXdXhXdXdXuX7X1X*X*X(./.iXj.' t 0 c c A.8X(. X X>X8XdXhXfXfXfXfXdXsXqX<X-X*X/./.5XoXW > p f i i 2 = = O   P a a 4     7 8 5 5 5 4 8 + O , 1 X 5 6 4 4 4 8 +   O O V O   X O 4 8   O 6   O ",
"cX  4 4 , 6 +     X 6 4 4 4 4 + B o.....o.X.o...B + + 4 , O 8 F + , , O , O , , , , , O O , O , , , , , 9 , O , * * + , 1 , , , 6 + +       1 O O O O O * O O O O O O O O O * O * O O * 5   . +   X 1 O O * O * O O * O O * O O . * * O * O * 4 + X .     5 * * * & * & * * & * * * 9 = & = * & = 2 = u - q q .   . 2 * * * & o * * * * * * * * = = = = = = = u p % r r ^ ` 4X.X(. X=XqXpXfXfXfXjXfXgXfXpXyX,X X X(.R.0X{ v $ l c n #X6X(. X X2XpXgXfXdXfXhXdXfXfXiX6X X*X(.^.9XM.v e k c c  .5X^. X X>XyXaXfXfXfXjXfXdXhXuXwX;X*X X/._.@X_ b : z c n $X,X_. X X6XpXdXhXdXhXhXdXfXgXyX,X X X(.R.iXj.m > l v n $X,X_. X X6XpXdXhXfXhXhXgXfXdXiX1X X*X(.R.wXj.m t l c v L.qX/. X X:XpXsXhXfXfXjXfXfXhXyXqX;X;X X^.,XP.n > d h i 4 5 = = *   J a 8 5   + 6 8 5 5 5 5 6 + * 1 4 O 4 7 5 4 5 7 +   O O s O   + O 4 s   * 8 X O ",
"cX  5 4 , 8 O +   O 6 6 , 6 O 3 ....X.X.X.X.X...D 4   4 , O 1 J   + , , , , O , 9 , , , , , , 9 , 9 O , , , , 4 O *   * , O , , 5 X         * O O O O O O O O * O O O O O O O * * O O O 4   .     . * O O O * O * O * O * O O * * O O * * O O 4 .   O   . 2 * * o * * & o * * * = * * = 2 = = = = & y u - q q .   O * * * . * * & * & * 9 = * 2 * & * = = = = y u q r r ^ ` %X}._.=X=X2X8XdXfXdXjXsXfXjXgXyX>X;X_./.R.rXt.m - l c c I.5X(. X X>X7XpXhXgXhXhXfXhXhXiX1X=X.X/.!.rXN.n e 0 c z  .0X^. X X>X7XqXdXfXfXxXgXfXhXsXwX-X X(.).}.%X] b < z c n $X,X(.=X=X<X8XaXhXdXhXdXhXhXdXuX<X=X X/.!.iXj.n : c c v $X,X/.=X=X2X8XaXhXgXjXdXfXhXdXyX<X=X_./.!.iXj.n t l c c L.qX^. X-X=X7XyXfXgXfXjXgXfXhXpX9X=X X/.^.5XoXn > d d i y 4 2 * &   J s a 4     7 8 7 4 5 5 5 + O 4 4 O 5 7 4 4 5 8 + + * O s X   X O * 8   * 8 + O ",
"cX  5 4 , 8 X   + O , , , 8 + B ..S X.X.X.o.X.o...B   O , , * F   + , O , O , , 4 4 4 O , O O , , O , O , , , O * , + * , 1 , O 5           1 O O * O O O O O O O O O O O O O O O O 1 O 4   . X   X * O O O O O O O * O O * O * * O * O O * * 5 .   .   . 4 * o * * * * * * * * & * & = 2 = * = 2 = = p & q q .   X 1 * * & * * * o * = * * * & = * = * & = & u p % r r ^ ` 4X_..X.X X>XwXpXgXjXfXgXjXfXfXsX2X=X X(.R.0X{ m - l c c #X9X(. X X>X7XuXpXjXhXdXhXhXdXfX8X>X X(.^.rXN.c e 0 l v y.0X/. X.X X:XyXpXfXjXgXfXjXgXjXuX<X*X X(.[.%X_ m > l v n $X,X_._. X>X8XpXpXjXfXgXjXfXfXgX2X=X X(.!.iXe.n > l c n $X,X X_. X:X7XpXpXjXfXdXjXfXfXsX3X=X(.(.!.iXj.n t l c c S.9X/.*X(.=X2XyXpXjXjXgXfXjXsXjXwX:X*X X/.5XZ.n > d d g 5 2 * = O   J a s 4     8 8 4 8 4 5 5 X O 4 1 O 5 7 4 5 4 8 +   O , 8 +   X X , 8   * 8 X O ",
"cX  4 , O 6 X     O 6 , * s + B o.S o.X.X.X.X.S ..D + + 4 O , F     , , , , 4 9 O O , , O 4 , O , , O , , , O , * O + , 1 O , 1 6   . . .   4 O O O O O * O O O O o O O O O O * O * O O *   . .   O * * O O * O 1 O * O O O O & * * * O * O O 5     O . . 2 X * * * & o & * & * * * * * * & = = - = y p % y q .   X 2 O o * * * * * * & & * * & 1 = * = 2 = = u p % r r ^ ` 4X}.;X X=X2XpXfXfXfXfXdXfXfXaXpX:X=X X.X(.0X{ m $ l c z kX6X(. X*X>XqXfXhXdXdXfXfXhXsXsX9X=X*X X(.9XM.W t 0 c c  .0X^. X X>X2XgXfXfXdXfXdXhXgXsXuX:X=X X.X;X@X_ b < l c n $X,X_..X-X>XuXdXhXfXdXfXfXhXaXsX1X=X*X X XeXe.W ; l c v $X,X X.X=X>XyXfXhXdXfXdXfXhXsXsX1X=X*X*X(.wXe.W t 0 c c S.eX/. X*X>X7XdXfXgXfXdXfXhXsXsXwX=X*X X.X,XP.m k f f i 2 5 2 = *   J a 7 4   + 8 8 6 5 5 5 5 X 9 5 4 O 7 7 5 4 4 8 +   O O 8 X   X O , 8   * 8 + o ",
"cX  5 , * 6 X +   O 5 , O F + B ......X...o.....S B + + 4 O , F     , , , , O O 9 , , O O , , , O , , O , O , , O , + , , O , , 5 +         * O O O O * * O O O O 9 O X O O 1 O O O * O ,     .   X * * * * O O * O O * * O O O O * * O * * * 5   . X   + 4 O * o * * & * * * * * 2 = = = = 2 2 = y 2 u % - q o . o 1 * * * * * * o & & * = * * * * & 2 & = = u i % ~ r ^ ` %X}..X X X6XyXpXfXgXgXaXgXdXaXuX<X=X;X*XR.0X} m < l c c I.9X/.*X*X-XyXuXdXdXgXdXgXfXgXpX7X*X=X X/.9XM.n t 0 z c  .0X^. X X X8XuXaXfXgXdXgXfXdXsXyX:X*X X X}.%X_ b : l c n kX,X X X X1XyXuXfXdXdXgXgXfXgXuX2X*X*X X^.uXj.W @ l z v $X,X_. X*X<XyXuXfXdXdXgXgXfXaXuX3X*X*X X^.yXj.W t 0 c c A.qX/. X X=XwXuXgXfXgXdXgXdXdXsXqX-X*X X(.5X#Xn > d d a 7 2 1 * &   I a s 5   . 6 8 1 7 6 5 4 + O 4 4 O 5 5 4 5 5 8 X   O O M X   + O 1 8   O 6 X O ",
"cX  4 4 , 8 X     X 6 , * 8 4 9 S S ........S S B 3 + 1 4 O , 8     O O O , , , , , , , O , O , , , 9 , O , 9 O O ,   , * , , , 5 X   X     * X O O O O O O O O * * O O O * O O * O O O 4   . .   X * * O O O O O O O O O * O O * O * O O * O 5 +   X   . 5 & * * * & * * * = * & * * & * = = & - y = u - q q +   . * * & * O * * 1 = * * * = = 2 & = 2 2 2 2 u u q r r ^ ` 4X_./. X=X2X8XaXaXpXaXdXpXuXwXyX<X(././.T.rX{ W - k z c kX5X/.(.=X-X7XyXgXpXaXgXpXuXyXwX7X*X/.(.^.0XN.W t > z c  .0X/. X X-X3XqXaXaXpXsXaXuXuXqXwX:X(._./.[.@X] m ; l c n $X,X/. X;X<X7XpXgXpXaXgXuXuXyXwX1X X/./.R.iXj.W ; l c v $X,X/.(.;X2X7XpXgXaXaXgXuXuXyXwX1X X).(.R.iXj.W t k z c S.qX/./. X:X3XwXsXaXpXaXaXuXuXqXqX;X(.(.^.}.oXW 0 d d y 2 4 2 * o   I 8 a 4     5 a 5 5 6 5 6 X O 4 5 O 5 6 4 6 5 8 +   , O 8 X   X O 1 8   1 6   O ",
"cX  4 , , 6 X +   + 4 4 , 4 F + B ..D D S S S D B + + 4 4 * 4 6   X * * 9 , , , , + 9 , , , O , , O O , , , O , , ,   , , O , , 6           , * O O O O O O O * O O O O O O O O * O O O 4   . +   + 1 O O * * O * O O O O * O * O O O O O * * 4   X X . . 5 # O * * * * * & * * * * & * * = = = = = = p - % % .   o 1 & O * O * & * * * * - * & * = = = = = = y u % r r ^ ` 4X}.^. X.X-XqXaXyXwXwXwXyXyXqXwX=X(.^./.R.0X{ ' % k z c I.6X^././.*X2XpXyXuXqXwXyXpXqXeX1X_.^.^.^.0XN.W e 0 z z  .0X!.^./..X>XwXpXyXwXwXyXuXwXwXrX=X/.^.)._.@X_ m ; k c n $XXX^.(.(.>X7XaXwXyXqXwXyXpXqXwX:X(.^.^.!.iXj.W : l l v $X,X^.(.(.-X6XaXwXyXqXwXyXuXwXwX:X(.^.^.!.yXj.W t k l c S.eXR././.*X:XyXuXyXqXwXyXuXqXqX6X;X^.!.^.5XoXW > f C 7 2 5 2 2 *   J a 7 5     6 7 4 5 6 4 6 + O 4 * O 5 5 4 4 5 8     O O 8 X   + O * 8 + O 6 . X ",
"cX  5 4 , 5 X       * 4 4 , F F + 3 S S S D B B 9   , 6 O O 4 O   X O O , O , 9 , , , , , , O , , , , , 9 , , , , O + , , , , , 4 X .   .   , O O O O * O O O O O O O * * O O O O O O * 4   X .   O 1 * * O O O O . * * * X * . O * * O O o * 5 .   .   . 4 O * * * * * * * * & * * = = = = = * = y = u & q q o   o 2 o O * O & * * * * * * * = & = = * = = = u u % r r ^ ` $X}.!.(.(.-X6X8XqXwX7X7X2X8XqX-X X/.R.^.T.tX{ m $ k c c kX5XW._./.*X<X8X7XaX3X7X<X7XqX7X*X_.^.R.R.0XM.c t > z z  .4X!.^._. X-X8X6XyX7X8X2X2XqXqX X X/.R./.[.%X` m < k c v $X}.!.(./.;X1X8X6XuX3X7X>X8XqX<X X/.^.!.Q.iXj.m ; l c v $X}.!.(./.;X3X8X6XuX7X7X:X8XqX<X X(.^.!.T.iXj.m t 0 c c S.9XR./.(.;X<X8X7XpX2X7X2X7XqX8X*X X/.R.!.@XoXn > d d y 2 2 2 * o   J 7 a 4     5 8 5 5 5 5 6 X O 5 4 O 5 5 4 4 6 8     O O s X   X O 1 8   O 6 + O ",
"cX  4 4 * 8 + + X   X 4 O , , T 6 + 9 3 B B 9     4 F + , O 5 +   O O O , , , , , O , O , 9 4 9 O O 9 , , , , O , ,   * , O O , 6 +   X     * * O O O O O O O O O O * O O , O * 1 O * O 1   . X   O * * O O O O O O O O O O o O O * o * * * * 4 .   .     2 O * o & O & * * * * = * = * * = * = 2 = = u - - q .   * * * * * O * * * * & - * * 2 & = = * * = = y u % ~ r ! ` %X}./.!.^. X=X X>X=X=X>X-X=X=X-X^.^.^.^.b.4X{ m $ l z c #X5X^.^.^.(.=X=X-X>X=X=X>X>X=X=X/./.^.!.T.0XN.c e k c c } 5X!.^.!./.=X=X=X>X=X=X=X>X=X=X=X^.).^.).].%X_ m : z z v $XXX/.W.^. X=X X>X>X X>X-X>X X=X/./.^.^.Y.tXe.v ; l z v $XXX^.!.^. X=X=X=X>X=X>X=X=X=X=X^./.^.^.V.iXe.n t l c c L.9X!.!.!.(.=X=X=X:X X=X>X>X=X=X X/./.R.R.{.Z.c > f f y 2 2 1 * &   J 7 7 1   + 7 8 7 1 5 5 8 + O 4 4 O 5 8 5 4 4 8 X   O O 8 +   + O * 6   O 8   O ",
"cX+ 4 4 , 6 + + O     4 1 , , 6 #.F O +   +   O 8 F O 1 O 4 *   + O O , O * O , O , , O , , O O , , , O O O O , * O + * , , 9 , 4 + X       * O O o O O O O O O O O O O O O O O O O O * 1   . +   * 4 O O O O * o O O O * O O & * * O * * * * 4 X   . . . 2 O O * * o * * * & * & = * = = = * = = = y u % - q .   o * O & o * * * * * * * * & 2 = * = 2 = = - u p % r w ! ' %X).W.W.~./.^. X X X=X X X*X X*X^.^.R.W.Y.0X{ m $ k z z I.5XR.W.R./.^.(. X X X X(.=X(.*X/./.~.R.Y.4XN.c e > c l } 0X!.!.W.^.^./. X X X=X X X X X X^.^.T.W.W.OX` b @ l z z $X}.!.W.!.).)./..X X X X X=X X X^.^.!.T.Y.yXr.W ; k c z $XXXW.W.!.).^.(. X(.;X*X(.=X X X^.^.W.Q.Q.tXe.n t 0 l z A.9XR.W.W.).^./. X X X=X X*X(.;X(.^.^.T.W.@XoXv > p f 2 a * 2 * O   I 7 5 1     5 8 5 5 5 4 5 + X 4 4 O 5 6 4 4 4 8 +   O O 8 X   + * O 6   , 8 + O ",
"cX  4 4 , 6 X   O     + 4 1 , O , T / R H H H U F , O , , 6 X   X O O * O O , , , , O , , , , , , , , , , , O , * O + * O , , , 5 +   . .   , O * O O O O O O O O O O O O O O O O O O O 1   . .   o , O * O O * O * O & O O * O O O * * * * * 4 +   .   . 5 & O o * * * & * = * * * * = = * = = 2 2 = p - - q .   o = * O * * O * & * & = * * = = * & 2 = = 2 y u % r w ! ` %X~.!.^.~./.^./._. X X/./.*X/./././.R.Q.n.0X{ m $ l c l I.,XT.^.!.).^./.(.(. X X/. X X(././.^.R.Y.0XM.c t > c l } 4XQ.!.!.^.^.^./. X X X/.(. X(.(././.T.Q.[.%X_ b @ l l z #X}.T.^.^.(.~.^..X X X/.^. X X/./.).^.Q.Y.tXr.v ; l z z #X}.W.^.!./.^./.(.(. X/./.*X(.(././.!.Q.Y.iXe.c t 0 z l S.9XQ.!.!./.^.^.(. X X(./. X X(./.)./.T.T.{.oXm > d f i 2 2 * 2 *   J 8 6 4   + 5 8 5 5 5 5 5 + O 4 4 O 5 6 4 5 4 8 X   O 1 8 O   + O 1 6   O 6   O ",
"cX  4 4 O 6 X + O     + O 4 4 , O X 6 F H F F 4 O , , , 6 O +   X X O * , , O O O , , O O O O , O O , O , , , O , * + , 1 , , , 5   .       , . O O O O O O O O * O O O O O O O O * O O 1   . +   o , O O * O O O O O O O * o * * o o * * * * 4   . . .   4 * * * * o * * & * * & * = * * = = = - = y d % - q .   o * * & * O & * * * * * * * = * = * = 2 2 * u u % r w ! ` %XE.Y.!.!.!.~././.(.(.(././. X/.^.^.^.Q.n.4X{ c $ 0 z l U.@XV.!.!.!.!.)./.^. X(././. X/.^.^.^.R.Y.5XM.c e 0 l l  .%Xn.Q.!.!.!.).).^. X/.(./. X X^.^.^.!.T.].oX' m ; 0 l c $X[.Y.!.!.!.!.(.(./. X X^./. X/.^.^.^.R.V.rXe.v ; 0 l z $X[.Y.!.!.!.!./././.(.(././. X(.^.^.^.R.Y.tXw.c t 0 k z A.5Xn.R.!.!.!.^./.^. X(./.^. X(.^.^.^.R.Q.{.P.c > d f 5 2 2 2 * *   I 7 6 4   + 7 8 5 5 4 4 5 X X 4 4 O 5 5 4 4 4 8 +   O O 8 X   + o O 6   4 6 . O ",
"cX  4 4 , 8 + + O X       X , , * O O * X O O , , O 4 6 O       + O 9 , O , , O O , , O , , O O O , , O O , , , O , + * * O , , 4 X         1 O O O O O O O O O O O O O O O O O * O * o 4   . +   O 5 o O * O O O O * * o * * * * * O O * O * 1     . .   5 * . * * * * * & O * * & 2 * = & * - 2 2 = p % = % .   X 2 * * O * * * & & * * * * = = = = = = * * u p % r w ! ' #XW.^.Y.R.!.T.^./.!./. X^.^./.R.R.T.W.Y.V.5X] m $ 0 k l #X@XQ.R.Q.!.W.R.(.W.^.(.^.^./.!.R.Y.!.Q.V.4XN.l e : l l } 4XY.!.Q.!.W.T./.^.^./.(.^./.^.W.T.R.T.Y.].OX_ b @ l k c #X[.R.T.T.^.Q.^./.!./. X!.^./.!.R.Q.!.Y.V.rXw.c @ l k c #X}.R.Q.Q.!.R.^./.!./. X!.^./.!.R.T.R.Q.Y.0Xe.c t 0 l z L.5XY.!.Y.^.R.R./.W.^.(./.^./.^.R.T.R.T.Y.{.P.z > p f 2 i 5 = * &   J g a 5     5 7 7 5 1 4 7 X X 4 4 O 5 4 4 4 4 6 +   O O 8 O   + X 4 8   * 6   O ",
"cX  4 , , 8 + + O X + +       4 4 * * * O , , O , 6 4 +         O + , O , O , , , , 9 , , 9 O , 4 O , , , , 9 , , , + , , , , , 4 +   X     1 O O O O O O O * O X * O O O O O O * O * * 4   . X   X 1 O O * O O O O o X * o . O * O 9 & * O * 5 .   O     = * * O & O & & * * * * 2 2 * * * = = = 2 y d - % q .   . * * & * * * * * * & * * & * * = * = * = = y p % r w ! ' OXE.T.W.!.W.^.!.!.^.^.!.R.^.!.T.R.^.T.Y.v.%X{ m $ 0 l 0 J.&XY.R.!.W.!.!.R.!./.^.R.^.!.R.R./.Q.Y.n.5XM.v e 0 l l | %Xn.Q.!.!.W.!.!.R.^./.R.!.^.R.T.!.!.Y.Q.E.OX_ b @ 0 l l #X[.Y.W.!.W.!.R.!.!.^.!.R.^.!.Q.R.^.Q.Y.b.rXe.n @ k k k #X[.Y.W.!.W.!.!.W.!.^.!.W.^.!.R.T.^.T.Y.v.rXe.n t 0 l 0 A.0Xn.Q.!.W.W.^.R.W./.^.R.^.!.!.T.^.R.Y.Y.|.Z.m > d f i 2 2 2 * *   J 7 7 1     5 5 5 4 5 4 5 + O 5 4 O 5 5 4 5 4 6 +   X X 8 +   + O * 6 + * 6 X O ",
"cX  4 O , 6 X   O X X +         X 4 4 4 4 , , 4 4 X           O , + O 4 O 4 , , , , , , , O O 4 O , O , , O , O O O + , 1 O , O 4 X     .   5 O O . O O O O O O O O * O O O O O . O O o 1     O   * 1 * * O O O O O * O * O O O * O O * * * * 4 .   . . . 2 * * * * o * * * & * & * = * = 2 = = 2 = = u * % % .   O = . O * * X & & * * * * 2 2 * & 1 = = 2 = u p # r r ! m $XE.Y.Y.R.R.!.Y.R.T.W.R.T.R.R.R.T.!.T.Y.v.0X{ m $ > l 0 G.@Xn.Y.R.R.!.T.R.R.Q.W.T.!.R.R.Q.~.Q.Q.V.@XM.c e : l 0 | @Xb.Y.Y.W.R.!.Q.R.Q.W.T.W.R.R.R.R.R.Q.W.E.oX_ b @ 0 l 0 oX[.V.Y.R.R.R.Y.R.Q.W.R.Q.!.R.R.Q.^.Q.Y.b.rXe.v @ 0 l 0 #X[.V.V.R.R.R.Q.R.R.W.R.Q.R.R.R.Q.^.T.Y.b.tXe.n e 0 k 0 y.5Xn.Y.Q.R.R.W.Q.R.R.W.T.R.T.^.T.W.Q.Y.Y.|.P.c > d d 5 5 * 2 = *   K 7 7 5     5 7 4 5 1 5 7 + 9 4 4 O 5 5 5 4 4 6 +   O O 7 X   X O * 7   O 6 + O ",
"cX  , 4 , 8 X   , O O X                 + X + +             O O + , O , , O , 9 O O , , O , , O , , , 9 , O , , , , + , 4 1 * , 4 X   X     4 X O O o O O O O O * O O O O O * O O O * O 4   . .   o 1 o O O * * O O O O O O O * O O * 1 O * O 4     . . . 5 o * & O * * * * & * * * * = & * = * & y 2 u # % q .   . 4 * O * & * O * * * * & * * = * = & = = - u u % r w ! ' OXE.n.n.Q.W.W.Y.T.R.^.R.^.T.Y.Y.Y.W.Y.Q.z.%X] c $ 0 l 0 D.}.b.n.Y.Q.!.Y.Q.R.!.!.^.T.Y.Q.Y.Q.Y.Y.n.@XM.l e : l 0 [ &Xv.n.V.Q.!.R.Y.T.R.^.!.^.T.T.Y.Y.Q.Y.E.N.oX' b @ 0 k 0 P.[.b.n.Q.W.!.Y.T.R.!.W./.Q.Y.Q.V.R.Q.Y.v.tXw.c @ 0 l 0 P.[.b.V.Y.W.!.Y.Y.R.!.W./.T.Q.Y.Y.W.Q.Y.v.tXw.c e 0 0 0 y.5Xv.V.Y.T.^.T.Q.R.R.!.^.R.Y.Y.Y.T.Q.Y.n.'.P.z > d f i 2 5 = * &   J a 5 1     5 8 5 5 5 1 7 O o 4 4 O 4 5 4 4 4 6 +   O O 8 X   X O 9 7   * 6   O ",
"cX  , O 4 6 X + O O O o . .                             . . X O , , , O , O , O , O , O O , , , O O , O 4 , , , O , + * 1 O 1 1 4 +         1 O O O O X O O O O O O O O O O O O O * O . 1   . .   + * * O O O O o O * O O * o O O * O O * O * 1   X . .   5 . * & * O O & * * * * * = & * * = & - 2 = i - % - .   O 2 * * O * * * & * & & * = = * * & 2 * = = i u % ~ w ! Q oXm.n.Y.R.Y.Q.W.Y.Y.Y.Y.Q.R.n.Q.T.Q.b.n.v.0X{ c $ > k 0 D.}.v.n.^.Q.V.W.Q.Y.Q.Y.Q.!.n.Y.Y.W.n.n.b.@XN.z e : 0 0 [ +Xv.b.Q.R.n.Q.W.Y.T.Y.Y.R.Y.n.Q.Q.Y.n.n.E.OX_ b @ 0 0 l G.W.m.V.!.Y.Y.W.Y.V.Q.Y.Q.!.n.Y.T.W.n.n.b.0Xe.c @ 0 0 0 P.W.v.V.!.Y.Y.Q.Q.Y.Q.Y.Q.!.V.Y.Q.W.n.n.b.0Xe.c t > 0 : y.,Xv.n.W.Q.V.T.Q.Y.Q.Y.Q.R.Y.n.Q.R.V.b.n.|.P.z > d d 2 i 5 1 * &   J 7 7 1     5 6 5 4 5 4 6 X O 5 1 O 5 6 4 4 4 8 X   O O 8 X   + O 1 6   1 6 . o ",
"cX  , O 4 6 X   O X o X X + X                 +       X   X O O O , , , 4 O O , O , , 9 , O , O O , O O 9 , , 9 , O   * 1 , 1 1 4 + + X     , X O O O O O o O O O * O O * O O O O O o * 1   O .   O * O O * O O * O O O O o O * O O 1 * O * 1 5 .   O   . 5 O * o * * & O * & * * = * * * * = * & 2 2 u & % % .   o 1 * o & * * * * * * * * * * = * = = - = 2 2 u # r w ~ Q $XC.n.T.n.n.V.Y.V.Y.n.Y.T.V.E.n.b.Y.n.n.l.%X{ b $ > 0 0 H.@Xv.Y.Y.b.n.Y.n.Y.Y.n.Q.Y.Y.n.n.Y.Y.b.v.@XM.c e : l k [ @Xv.Y.Q.n.n.Y.Y.V.Y.n.Y.Y.V.Y.V.V.Y.b.n.m.OX_ b @ 0 l 0 P.'.n.T.Y.n.V.Y.V.Y.V.V.R.Y.n.Y.n.Y.n.b.v.0Xe.v @ 0 l l P.|.n.T.Y.n.V.Q.V.Y.V.V.Q.V.V.V.n.Y.n.b.c.0Xe.v e > 0 0 y.5Xv.Y.Y.b.n.Y.V.V.Y.n.Q.Q.n.Y.n.V.Y.b.b.].Z.n > d d 5 2 2 2 * *   J a 7 5     6 6 4 4 4 5 5 X O 5 4 * 1 5 4 5 4 8 +   O O 8 X   + O * 6   O 6 . O ",
"cX  * 4 4 6 +   1 O O O O X O + X X X X X   + + X X X O O O 1 * , 4 O O , O , O O , , , O , , , , , 9 , , , O , , O + 4 , , , , 4 +         4 X O O O O O O * O X 1 O O O O O O O * * O 4   . O   O 4 O o O O O o O O O O O O O O * * * * O * 2     O . . 4 * * * o & * & * * * * & * * = * 1 2 2 = 2 u - % - .   O 1 O & O * & & * * * - * * * * * * = * & 2 y p # ~ w ~ Q oXm.n.b.n.Y.Y.Y.V.Y.V.Y.n.V.n.V.n.n.n.Y.z.%X{ b $ > 0 0 F.{.v.b.b.Y.Y.Y.n.Y.Y.V.n.n.V.n.n.n.n.n.v.%XM.c e ; 0 0 [ +Xz.n.v.V.Y.Y.V.n.Y.V.V.n.V.V.V.n.n.n.Y.N.oX_ b X 0 0 0 J.E.v.b.n.V.Y.Y.n.Y.V.V.b.V.n.n.V.b.V.n.z.tXw.v X 0 0 0 G.E.b.b.b.V.Y.Y.n.V.V.V.n.n.V.V.V.b.n.V.z.0Xe.c e > 0 : r.&Xz.n.b.n.Q.Y.n.Y.Y.Y.n.n.n.n.V.n.n.n.b.oXP.c > C a 5 2 = * * *   J 7 7 5   + 6 6 5 5 1 4 5 + + X + + O 6 4 4 4 6     O O 6 +   + o * 6   O 7 . o ",
"cX      X X + + O + O X   X . .           X + +         X + X X + O , O + , , , , O , , , , O O O , , , , O , O , O + , , , 9 O 5 X . . . + 1 X * O O O + * O O O O O O O O O O O O O O 4   . .   O * * O * O * O O * O O O * O * O * O * * O 1   X . . + g & o * * * * * * * * * & * = = * = 2 * 2 * u & % - .   o 2 O & * o * * * * * * * * & * 2 * 2 2 2 - y p # r u ! n oXm.v.l.c.v.z.c.v.v.v.v.v.c.v.z.v.c.z.c.l.%X] z - > 0 > j.{.c.z.z.c.v.z.b.z.v.v.v.v.v.c.c.v.z.v.z.%Xj.l e : > : ` +Xz.v.z.z.v.z.v.v.v.v.v.v.c.c.z.v.z.c.c.m.#XQ x @ > > 0 F.].v.z.z.v.c.v.b.v.v.v.v.v.v.z.v.c.z.v.l.iX{ z @ > > > F.].c.z.c.c.c.c.b.v.v.v.v.c.v.z.v.v.z.c.z.iX} c e : 0 ; w.5Xz.v.z.c.v.c.v.c.v.v.v.v.v.v.z.v.z.v.c.OXF.z ; C d y 5 1 2 * O   I a 7 1     5 6 5 5 4 4 5 5 F F F s J 4 5 4 4 6 +   O 1 6 +   O O * 6   * 7 . o ",
"cX      O 4 4 5 6 5 4 6 6 6 6 6 8 8 8 8 8 8 8 8 8 8 8 8 8 F F F F + + O O O , , , O O O , , O , , O O , O , O , , O   , , , , O 5 +         , * O O O X . O + X X o + O o O O o O O O * 1   . X   O * O O O o O o O O o O + O O O O O O o * * 2 .   . . . g O & o o O & o * * & * * & * * & = * = * & p * # % .   O 4 * & O * * & = 9 * * * * * * = * = = = * y u # r w ~ c j.,X'.{.+XOX'.OX{.+XOX+X{.OXOXOXOXoXoX].rXD.n z $ > > 0 _ }.}.'.+X+XOX+X+X+X+X+X{.OX+XoXOXOXOXoX@X%X_ l e : : 0 W N.5X].{.+XOX'.+X{.+X+X+X+X+XOXOXOXoX'.'.0Xw.v x ; : > 0 { {.{.|.{.OX'.'.+X+X+X+X@XOXOXoX+XoXoX'.0XOXW c ; > > k { }.{.'.+X+XOX|.{.+X+X+X{.+XOXOXOXoXoX].0XOXW c e > : 0 _ |.}.'.{.OXOX|.+X+X+X+X+XOX+XOXOXOXoXoX{.4X] c : d a 5 2 2 2 * *   J 5 a 5     5 6 5 4 4 4 4 6 J F J J 8 4 5 5 4 8     O O 8 +     + O 5   * 4 . + ",
"cXcX  + F H F F J H J J H H H H H H H H H H H H H H R H R R R R / R O X , , , O , , , , , O O , , , , , , O , , , ,   , * O , , 4 +   X X     * * 1 * 1 1 4 4 * 1 4 4 4 4 * 1 1 1 1 1 5 o   . +   . 4 4 4 4 2 4 4 1 1 4 4 2 5 2 2 1 2 5 4 2 5 4   o . +   2 4 1 2 2 5 1 5 5 2 5 2 5 y y 5 i a i i a f y # % # O   O 5 # o & o o o o o & O & & & & * * & * * & y y # w r r 0 n { L.D.D.D.J.D.D.J.I.I.P.K.I.I.I.I.J.G.w.n c z < ; > 0 l _ j.H.H.H.D.D.D.U.J.U.U.U.K.I.I.K.K.G.j._ c c - : : 0 0 W t.H.H.D.D.H.D.J.J.K.U.U.K.I.K.I.U.U.F.} v c x ; : 0 0 c ] L.H.H.D.H.D.J.J.J.I.P.K.I.U.I.I.U.G.r.n z c ; : > 0 z ] L.H.H.D.H.D.D.J.K.K.U.K.I.K.I.U.K.G.r.n z z e : : 0 0 _ j.D.D.D.D.H.F.J.J.K.U.J.J.I.K.I.U.P.L.] z c < h i 5 y * * * o   J 5 7 1     6 6 5 5 4 4 5 5 4 1 1 1 9 5 4 4 4 8 +   O O 6 X   +                 ",
"cXcXcXcXX 6 4 , * * , , O , 9 , , O O 4 , , 9 , 4 , , O O , , 9 O R R X + X X X + O + O + + O X + + + X + + + X + +   + + + +   X     + . .     O * O 1 4 4 , 4 4 * 4 * * * 1 4 * 4 4 +   . . . .     4 1 4 4 4 2 4 4 * 4 1 5 5 4 1 1 1 5 4 *     O . .     O 5 7 5 a 5 5 5 a 5 7 7 a a 5 s a g a 5 2 . # # # . .   4 5 a 5 g 5 5 5 a a a i a i a a d d d d d d - % w w w : > > : : ; : : : : > > > 0 0 > 0 0 > 0 0 : 0 0 x < ; : ; > > > : : ; : : : > > > 0 0 0 0 0 : 0 0 : 0 0 l q ; ; : : > > : ; ; > : ; > : > 0 0 0 0 0 0 > > > ; > k e ; ; : ; > 0 > ; ; : : : : > > > 0 0 0 0 0 0 > > : 0 0 l @ ; ; ; > 0 : : ; : : > : > > > 0 0 > 0 0 0 0 > : 0 k k - ; : : : > > ; ; : < > : > > > > 0 : 0 0 > > > > : 0 l N U y 5 2 2 1 * &   J 7 a 1     6 8 5 5 7 5 4 5 4 5 1 4 4 5 4 4 5 6 +   O O s X                 +   ",
"cXcXcXcX  + 4 4 , * * 1 , 9 , , 4 4 4 4 4 , , 4 9 , , , , , , , , + R >.4 X O O O O O O O O O , , O + , , , O 9 O 6 , O , , , , , O   +   . .                                             . . +   .                                             . . . . .                                             # % # # .   .   * 5 5 5 5 5 7 5 7 7 5 a g 5 a s a a s 5 . . % q % % ; ; ; : ; @ ; ; ; ; ; ; ; ; : ; ; ; > : : : : > > $ ; X ; ; ; : ; ; ; ; ; ; ; ; ; ; ; ; : : : : : : : > > - ; @ @ @ : ; ; ; ; ; ; ; ; ; ; ; ; ; ; ; : > : > > > > > $ ; @ ; ; ; : ; ; ; ; ; ; : ; ; ; ; : ; ; : : : : : > 0 X ; ; ; ; : : ; @ ; ; ; ; ; ; ; ; ; : : ; : : : > > > > $ ; @ @ @ : ; ; ; @ ; ; ; ; ; ; ; : : ; : > ; > : : > > E & 5 2 1 = = * o   I a 7 4     5 6 9 4 4 4 4 5 4 1 4 4 5 4 4 4 4 8 +   O O s X     5 P s O         ",
"cXcXcXcXcX    4 , O O , , , O , , , , O , 4 , , , , O , , , , , , , 9 R >.:.:.<.:.>.:.:.:.:.:.:.<.>.:.:.:.:.<.q.<.q.:.3.q.q.q.q.:.#.8 + .             .         .             .   . .   .   X   .   .       .     . .     .       .       . . . . . . . . .   .   . . . .   . . . . . . . . . # . . # . # # # # # # % # # # # # # # # # # % % # # % % # % % % % % % % % % % % % # # % % % % % % % % % # # % % # # % % % % % q q q % % % % % % % % % % % % # % # # % % % # % % % % % q % % % % % # # % % % % # % # % % % # % # % # % % q q q q q % % % % % # # % % % % % # % # % % % % % % % % % % q % q q % % % % % % # # # # % # % % % % % % % % % % % % % q % % % % # % % % # # # # # # # # # # # # # # # # . X P ( & 2 2 2 2 * = * o   I 7 7 4     4 5 5 4 5 5 5 5 5 4 4 1 1 4 4 4 1 6 +   O O 6 X   8 :.:.#./ 5     . ",
"cXcXcXcXcXcX    , , , , O O , O 9 O O , O O O , , , , O + , , O O , , + , , O O , , , 9 , , , , , , , 4 , 4 , , O * , , O , , , , , J 8 X   .     .   .   + . . .   .     .   .       . . . .   . . . .     . . .   .     . . . .   . . . . . + . . . # . . . . . . . . . . . . . . . . . . . . . # . # # # # # # # # # # # # # # # # # # # # # # # % # # % % % % % % # % % % # # % # % # # # % % # # % % % # % # % % % % % % % % % % % % % # # # # % # # # % % % % % % % % % % % % % % % # % % % # # % % % % # # % # # # % # % % % % % % q % % % % % % % % % # % # # # # % # % % # # % % % % % - % % % % % % % % % % % # % % # % % # % # % # % % % % % % % % % # # % # # # # # # # # # # # # # . # # # . # # # I Y 2 5 5 2 2 1 2 * * &   I 5 7 1   + 5 6 4 5 5 1 4 5 4 4 1 1 1 5 4 4 4 6 +   O 4 4 + 6 T F O O 4 H *     ",
"cXcXcXcXcXcXcXcX+ X , O O , 9 , O , , , , O 9 , O 4 O 4 , , O , 9 , , 4 4 , , 4 , 9 4 4 , 4 4 4 4 4 , 4 4 4 4 4 6 4 4 4 4 4 4 6 5 4 4 8 F X                                                 +           +                                 .     .   .   .   .     .       .   .       . .   . . . . . . . . . . . . # . # . # # # . # # # # . # # # # # # # # # # # # # # # # # # # # % # # # . # # # # # # # # # # # # # # # % # # # # # # # # # # # # # # # # # # # # # # # # # # # % # # # # # # # # # # # # # # # # # # # # # # # # # # # # # # % # # # # # # # # # # # # # # # # # # % # # # # # # # # # # # # # # . # # # # . . # # # # . # # # # # . # # # # . # # # # . . # # # . . # . . . # # . . . I E 2 5 y 5 5 2 5 2 2 * o   J 5 7 *     5 6 1 5 5 4 4 5 5 1 1 1 1 4 4 4 * 5 +   O O + 4 #.F 4 4 4 4 8 M + X ",
"cXcXcXcXcXcXcXcX  + + O , , O + O O O O , 9 , O O O O O 9 O O O , O O O , O O , , , 9 , 4 , , , , , , , , 4 4 4 , , 4 , 4 , 6 , 4 5 4 4 8 F 6 4 5 5 5 4 4 6 4 5 6 5 6 4 5 6 5 6 6 6 6 6 6 5 6 5 6 5 5 6 5 5 6 6 6 5 6 5 6 6 6 5 7 6 6 6 6 6 6 7 6 6 8 6 6 6 5 7 5 6 6 6 5 s 6 6 g s s 6 g s 5 s s 6 a 6 5 s 5 s s d s f s f s d d M f M d f f M f s s f f f s f h f f M f f f M d f f M f f f G f G G h M h f K M f M M f M f f M K M f f s f f s f f f f f f G f f M f f f V f C M f f M f f M f f f f f K f f f f f M f K f f G h C G C C G M f Z C f h f f f f f C M f f f f f K f G f f f K K M K f M f K M K h f K f h G f K M h f f f f G f Z f f G f Z Z Z G h M f f f f d G f M d f d f f M f s f G $.E = y i 5 2 2 2 2 4 1 * o   J 5 5 1   + 5 6 5 4 5 5 5 4 1 5 5 5 5 5 4 4 4 5 +   X   1 &.6 O 4 4 4 , 5 5     ",
"cXcXcXcXcXcXcXcXcXcXcXX 4 * 4 * O 4 1 * 4 4 , , , , 1 4 * 4 , * * * , 4 4 , 5 5 4 4 4 4 4 4 4 4 4 5 6 5 5 4 , 5 5 4 4 5 5 5 5 5 5 4 4 4 4 4 T 3.3.3.3.<.q.:.q.3.4.4.5.4.3.4.5.4.4.5.4.5.5.5.4.5.5.5.4.5.8.5.8.8.5.5.8.5.5.5.5.8.8.8.5.8.0.8.8.0.8.5.5.5.8.8.5.0.0.0.0.0.0.9.9.d.f.0.f.d.0.a.9.d.0.f.d.a.d.0.d.d.9.a.f.a.d.d.d.d.d.a.9.d.d.a.f.g.d.g.a.g.g.g.g.h.h.h.h.g.d.d.h.h.a.a.d.g.h.h.g.g.h.h.h.s.s.g.g.h.h.s.d.g.g.g.g.g.h.h.h.h.h.h.lXh.g.g.g.s.a.g.s.s.p.s.s.p.g.s.g.s.g.d.g.g.g.s.d.g.s.g.g.g.g.p.s.s.p.g.a.i.i.p.g.p.s.s.s.d.g.g.g.a.u.u.s.p.s.s.s.p.p.p.a.s.i.i.7.i.s.a.s.s.s.i.i.p.p.p.p.p.6.i.u.i.i.6.6.i.u.u.u.i.i.6.s.6.7.6.6.6.u.6.u.u.6.6.6.6.6.6.6.6.6.6.u.6.2.6.6.6.6.6.6.6.6.7.6.6.2.6.Y - i 5 5 2 2 5 5 2 = * * o + J 5 7 4     6 6 4 5 5 5 6 4 4 4 6 4 4 4 , , , 5 +   + , :.4 , 1 1 4 1 4 6 X   cX",
"cXcXcXcXcXcXcXcXcXcXcXcX          X   +     +                                             X   X         + +   X X     X +     X O 4 , 4 4 , O     .     + X .     X   + . .   . X   . . +   X   . .   . .   . .   + X + . .   .   X . .   X X . .   . X . . . . . . . . X . . . . . o . O X . . + . . . . . . . . . o . . . . . . # X # X & . . X . & # # . . # # # X $ & & . # # o # & . # . . # . . # & & # . & # & o # # # # . # & # # % # # & & & # & * # & # . & & # # # # # & # . # . # & # & # # # # & & # # & # & & o & & & # % # # & # # * # # # # # . # & # # & # # # # . . # # # . o . # # . & & # & # & # . # . # # # . . # . # # . # # . # # & & . # # . + # & . . # # . . . . . . . . # + # . & 5 5 a 5 2 5 4 1 1 4 * * *   C 5 5 4     6 6 4 4 5 5 4 4 5 4 4 5 4 4 6 , , 4   + 4 T 6 O 4 1 4 4 4 4 O cXcXcX",
"cXcXcXcXcXcXcXcXcXcXcXcXcXcXcX                                                                  +                                   4 4 4 , 4 5 4 , , , 4 4 4 4 4 4 4 5 5 4 4 5 5 4 4 4 4 5 4 , 5 5 4 4 2 5 4 5 5 5 4 5 5 4 5 5 5 5 5 5 , 5 5 5 i 5 5 5 5 5 5 5 5 5 5 i 5 5 5 5 5 i 5 g 6 s g i a a a 5 5 i i 7 i a i g a i g i p 5 i g s d i a d a a a s a g d a f a d a d d a a a a d p d d p i i d a d p i i d i i p d i p s i a d d d p p f a d i p d p p p a p p p d i i d i i a p d i p a d p i p p d d p p p p p f p d d d d d d d d p d d p d d d p p p p p f i d i i i i d p a a p p y d p a i d i d d p p p i a p p a i a i i p a i i d i i d i i i i y y a a y y i i a p i i u y i i y y 7 y i 7 i 5 2 5 4 2 2 2 4 = = * * o   J 7 7 4     4 6 4 , , 4 4 4 4 4 4 4 , 4 4 , , O + 4 T F O 1 4 4 4 4 4 O cXcXcXcX",
"cXcXcXcXcXcXcXcXcXcXcXcXcXcXcX                .             .         .   X       .   .   .       X   .   X       .   .   X         + * 4 4 4 4 , * , , * , , , , * , , 4 = = 4 4 4 4 4 * , , , 5 4 4 = 5 1 4 * , , , , = = = , 4 4 = 4 , 2 5 , = 5 2 = 1 4 5 2 5 i 2 5 5 5 i = 2 5 2 y 5 5 5 2 2 5 y 2 5 2 y 2 5 i i i i i i i y i p a p i i i i p i i i i y i i i i i d i i a p i i a p i a d i p p p d p i p u u p p u d p i y u p i p p p d p i u d d p p p d i p d u u p p u p d d u p d d d p p a p i d p i i a d p p p p p p p p d d i p p p u p i p p i p a i p u p i d u p i i p i u u p i i p i y y i i i u y i i p i u i i i i i i u y i y y i i y y y i u a y i 2 y = i i y y 2 y y y 5 y y 2 y 2 5 a 2 5 2 5 2 4 1 5 * * O   V 5 5 5       +   + +   +   + + + + X X + + +   , T F * , 1 1 4 4 4 O cXcXcXcXcX",
"cXcXcXcXcXcXcXcXcXcXcXcXcXcXcXcX  X     .   .   . . .   X . .   + . X . . . X   X   .   X . . . . . . . X . . . X . + . . . .           O 4 4 , * * * * * * * * * , * * , , * * 1 4 4 * 4 4 5 4 1 4 4 4 5 4 4 4 i 4 4 4 5 i 4 , 5 4 = 5 i 5 5 5 4 5 5 5 5 4 4 5 5 5 5 i 4 5 5 5 g 5 a 5 5 5 5 5 g 2 5 i 5 i 5 5 i i a a g i i g a g a p i g i g i g i a i i i i i i i a p a p a a i i p a p p a d p d d i d i i i i d i i i d d i p p a i p p i a d d d d d i d p d p d d i d i i p i i p d p d d f d p p a a p p a p i f d p d p d d d p p i p p i i i d d i d p i d a a a p p i p a a i i i i i p i i p i y i a a p d d d a d i i i i i 2 i i y i i i y i 5 i i 5 i p 5 i y 5 i i g i 2 i 5 5 a 5 5 i 5 5 i 5 2 a 5 2 4 5 = 2 5 2 * *   F 8 5 5 O.O./ #./ T R Y Y T T T T T T T T / / / @.F * 4 * 4 4 4 6 + cXcXcXcXcXcX",
"cXcXcXcXcXcXcXcXcXcXcXcXcXcXcXcXcXX O X   X + X +   O . . X X X . + + o X + . . X . . o X + X . + O + . . X X X + . O . O O + . . .                                                                                                                                                                                                                                                                                                                                                                                                                                                                                                                                                                               + a 2 * 2 * 2 2 * * *   V 7 5 1 4 5 4 4 5 5 5 5 4 5 5 4 6 4 3 4 4 , 6 5 O 4 5 * 4 4 4 6 + cXcXcXcXcXcXcX",
"cXcXcXcXcXcXcXcXcXcXcXcXcXcXcXcXcXcX  O O O . . X X . X O X + o + o X   X O O X X X . + O . + X X + X + X O . X . O O O X + O . X . .                                                                                                                                                                         . .             .                         .         .     .     .   .     . . .       .       . .   . .   .       .   .   .   . .   . . .   . . .     .   . .   . .   .     . .     . . .   . .   .   . . .   . . . . . . . . . . . . . . . . . . . . . . . .   . . . . . . . . .   . . .   . . .   . .   .     .   . .     .   .       .     .   . .     . .   . . .       .   .         .             2 2 4 2 4 1 1 * *   V 7 4 4 4 5 5 5 5 5 5 4 4 4 5 4 5 5 4 4 4 4 6 4 5 5 1 5 4 5 5 X cXcXcXcXcXcXcXcX",
"cXcXcXcXcXcXcXcXcXcXcXcXcXcXcXcXcXcXcX  O O X O O O O + O O O O O O * O O O O O O O O X O O O O O O O O O O O O * O O O * * O * O O O O X   .   cX  . .       . . .   . .   . . . . . .   . . . . .   . . . . . . . . . . . . . . . . . . . . . . . . # . . # . . . . . # . . . # . # . O # # # & # # . # # . . # . # # # # # # & # # # * # # # # # # # & # # # # & % # # # # # # & # % # & # % # - % & # # # # # # % # # & # # # # # # % # * % & # # # # # # % % # % # # # & # # % # % # # # % & & # # # # # % % # & % # - % # % # # # # # * % # % % # # # # # # # # % # # % # # % # # # # # # # # # # # # # # # # # # # # # # # # # # # # & # # # # # # # # # # * # # # # # # # * # # & # # # # o # # # # . . . .   + 4 = 1 4 * 1 * & + F 7 5 7 4 5 5 4 5 5 5 5 5 4 4 4 4 5 4 4 4 4 4 5 4 4 4 4 4 5 X cXcXcXcXcXcXcXcXcX",
"cXcXcXcXcXcXcXcXcXcXcXcXcXcXcXcXcXcXcX  X O O * O O O O * * O , * O , , , O * O * * O * * , * * * , * * * , O 4 4 O * 4 4 , * 4 4 * * 1 * O O O cX  . . . X   X . X + X . . . . . . . X . X . o O . . . . . X . . . o o . X . O . . X . O . * . O . O . o . & X . # o X X * . # * . * O & O * . o O * . * & . O * & & * . * * . * # * # O * * . * # * & O # * * * # * # * * # & * # * - * & * # * - * * * - * * # * * & & * & # * # & * & & * # # * # * # * & * * * # * * * - * # * * # * & * * & * # * * & - * * * * # * * - * * # & * # * * # & * - * # * # * & & * # * & & * # * # * * & & * # * # * * & # * . # * * # & & * * # o & & & * # # * # * . & . * # * * # O # O X * # * & O . * . & . & o . * . O . . .   . 1 4 = = * * .   V a 5 a 5 5 5 6 7 5 5 6 5 5 5 5 5 5 5 5 4 5 5 5 5 5 4 5 4   cXcXcXcXcXcXcXcXcXcX",
"cXcXcXcXcXcXcXcXcXcXcXcXcXcXcXcXcXcXcX                +       + X       +       +                                                       .     X cXcXcXcXcXcXcXcXcXcXcXcXcXcXcXcXcXcXcXcXcXcXcXcXcXcXcXcXcXcXcXcXcXcXcXcXcXcXcXcXcXcXcXcXcXcXcXcXcXcXcXcXcXcXcXcXcXcXcXcXcXcXcXcXcXcXcXcXcXcXcXcXcXcXcXcXcXcXcXcXcXcXcXcXcXcXcXcXcXcXcXcXcXcXcXcXcXcXcXcXcXcXcXcXcXcXcXcXcXcXcXcXcXcXcXcXcXcXcXcXcXcXcXcXcXcXcXcXcXcXcXcXcXcXcXcXcXcXcXcXcXcXcXcXcXcXcXcXcXcXcXcXcXcXcXcXcXcXcXcXcXcXcXcXcXcXcXcXcXcXcXcXcXcXcXcXcXcXcXcXcXcXcXcXcXcXcXcXcXcXcXcXcXcXcXcXcXcXcXcXcXcXcXcXcXcXcXcXcXcXcXcXcXcXcXcXcXcXcXcXcXcXcXcXcXcXcXcXcXcXcXcXcXcXcXcXcXcXcXcXcXcXcXcXcXcXcXcXcXcXcXcXcXcXcXcXcXcXcXcXcXcXcXcXcXcXcXcXcXcXcXcXcXcXcX      * 4 * * * *   4 7 4 4 4 5 4 4 5 * 4 5 4 4 5 4 5 5 5 5 5 4 4 4 5 4 4 O + cXcXcXcXcXcXcXcXcXcXcX",
"cXcXcXcXcXcXcXcXcXcXcXcXcXcXcXcXcXcXcXcX      .   .   . X     . .     . X .   .     X         X   .     . X . X X   +   .   . . . .   + .   X   cXcXcXcXcXcXcXcXcXcXcXcXcXcXcXcXcXcXcXcXcXcXcXcXcXcXcXcXcXcXcXcXcXcXcXcXcXcXcXcXcXcXcXcXcXcXcXcXcXcXcXcXcXcXcXcXcXcXcXcXcXcXcXcXcXcXcXcXcXcXcXcXcXcXcXcXcXcXcXcXcXcXcXcXcXcXcXcXcXcXcXcXcXcXcXcXcXcXcXcXcXcXcXcXcXcXcXcXcXcXcXcXcXcXcXcXcXcXcXcXcXcXcXcXcXcXcXcXcXcXcXcXcXcXcXcXcXcXcXcXcXcXcXcXcXcXcXcXcXcXcXcXcXcXcXcXcXcXcXcXcXcXcXcXcXcXcXcXcXcXcXcXcXcXcXcXcXcXcXcXcXcXcXcXcXcXcXcXcXcXcXcXcXcXcXcXcXcXcXcXcXcXcXcXcXcXcXcXcXcXcXcXcXcXcXcXcXcXcXcXcXcXcXcXcXcXcXcXcXcXcXcXcXcXcXcXcXcXcXcXcXcXcXcXcXcXcXcXcXcXcXcXcXcXcXcXcXcXcXcXcXcXcXcXcXcXcXcXcXcXcXcXcXcXcXcX      1 4 * * cX  cXcXcXcXcXcXcXcXcXcXcXcXcXcXcXcXcXcXcXcXcXcXcXcXcXcXcXcXcXcXcXcXcXcXcXcXcXcXcXcX",
"cXcXcXcXcXcXcXcXcXcXcXcXcXcXcXcXcXcXcXcXcXcXcXcXcXcXcXcXcXcXcXcXcXcXcXcXcXcXcXcXcXcXcXcXcXcXcXcXcXcXcXcXcXcXcXcXcXcXcXcXcXcXcXcXcXcXcXcXcXcXcXcXcXcXcXcXcXcXcXcXcXcXcXcXcXcXcXcXcXcXcXcXcXcXcXcXcXcXcXcXcXcXcXcXcXcXcXcXcXcXcXcXcXcXcXcXcXcXcXcXcXcXcXcXcXcXcXcXcXcXcXcXcXcXcXcXcXcXcXcXcXcXcXcXcXcXcXcXcXcXcXcXcXcXcXcXcXcXcXcXcXcXcXcXcXcXcXcXcXcXcXcXcXcXcXcXcXcXcXcXcXcXcXcXcXcXcXcXcXcXcXcXcXcXcXcXcXcXcXcXcXcXcXcXcXcXcXcXcXcXcXcXcXcXcXcXcXcXcXcXcXcXcXcXcXcXcXcXcXcXcXcXcXcXcXcXcXcXcXcXcXcXcXcXcXcXcXcXcXcXcXcXcXcXcXcXcXcXcXcXcXcXcXcXcXcXcXcXcXcXcXcXcXcXcXcXcXcXcXcXcXcXcXcXcXcXcXcXcXcXcXcXcXcXcXcXcXcXcXcXcXcXcXcXcXcXcXcXcXcXcXcXcXcXcXcXcXcXcXcXcXcXcXcXcXcXcXcXcXcXcXcXcXcXcXcXcXcXcXcXcXcXcXcXcXcXcXcXcXcXcXcXcXcXcXcXcXcXcXcXcXcXcXcXcXcXcXcXcXcXcXcXcXcXcXcXcXcXcXcXcXcXcXcXcXcXcXcXcXcXcXcXcXcXcXcXcX",
"cXcXcXcXcXcXcXcXcXcXcXcXcXcXcXcXcXcXcXcXcXcXcXcXcXcXcXcXcXcXcXcXcXcXcXcXcXcXcXcXcXcXcXcXcXcXcXcXcXcXcXcXcXcXcXcXcXcXcXcXcXcXcXcXcXcXcXcXcXcXcXcXcXcXcXcXcXcXcXcXcXcXcXcXcXcXcXcXcXcXcXcXcXcXcXcXcXcXcXcXcXcXcXcXcXcXcXcXcXcXcXcXcXcXcXcXcXcXcXcXcXcXcXcXcXcXcXcXcXcXcXcXcXcXcXcXcXcXcXcXcXcXcXcXcXcXcXcXcXcXcXcXcXcXcXcXcXcXcXcXcXcXcXcXcXcXcXcXcXcXcXcXcXcXcXcXcXcXcXcXcXcXcXcXcXcXcXcXcXcXcXcXcXcXcXcXcXcXcXcXcXcXcXcXcXcXcXcXcXcXcXcXcXcXcXcXcXcXcXcXcXcXcXcXcXcXcXcXcXcXcXcXcXcXcXcXcXcXcXcXcXcXcXcXcXcXcXcXcXcXcXcXcXcXcXcXcXcXcXcXcXcXcXcXcXcXcXcXcXcXcXcXcXcXcXcXcXcXcXcXcXcXcXcXcXcXcXcXcXcXcXcXcXcXcXcXcXcXcXcXcXcXcXcXcXcXcXcXcXcXcXcXcXcXcXcXcXcXcXcXcXcXcXcXcXcXcXcXcXcXcXcXcXcXcXcXcXcXcXcXcXcXcXcXcXcXcXcXcXcXcXcXcXcXcXcXcXcXcXcXcXcXcXcXcXcXcXcXcXcXcXcXcXcXcXcXcXcXcXcXcXcXcXcXcXcXcXcXcXcXcXcXcXcXcXcXcX",
"cXcXcXcXcXcXcXcXcXcXcXcXcXcXcXcXcXcXcXcXcXcXcXcXcXcXcXcXcXcXcXcXcXcXcXcXcXcXcXcXcXcXcXcXcXcXcXcXcXcXcXcXcXcXcXcXcXcXcXcXcXcXcXcXcXcXcXcXcXcXcXcXcXcXcXcXcXcXcXcXcXcXcXcXcXcXcXcXcXcXcXcXcXcXcXcXcXcXcXcXcXcXcXcXcXcXcXcXcXcXcXcXcXcXcXcXcXcXcXcXcXcXcXcXcXcXcXcXcXcXcXcXcXcXcXcXcXcXcXcXcXcXcXcXcXcXcXcXcXcXcXcXcXcXcXcXcXcXcXcXcXcXcXcXcXcXcXcXcXcXcXcXcXcXcXcXcXcXcXcXcXcXcXcXcXcXcXcXcXcXcXcXcXcXcXcXcXcXcXcXcXcXcXcXcXcXcXcXcXcXcXcXcXcXcXcXcXcXcXcXcXcXcXcXcXcXcXcXcXcXcXcXcXcXcXcXcXcXcXcXcXcXcXcXcXcXcXcXcXcXcXcXcXcXcXcXcXcXcXcXcXcXcXcXcXcXcXcXcXcXcXcXcXcXcXcXcXcXcXcXcXcXcXcXcXcXcXcXcXcXcXcXcXcXcXcXcXcXcXcXcXcXcXcXcXcXcXcXcXcXcXcXcXcXcXcXcXcXcXcXcXcXcXcXcXcXcXcXcXcXcXcXcXcXcXcXcXcXcXcXcXcXcXcXcXcXcXcXcXcXcXcXcXcXcXcXcXcXcXcXcXcXcXcXcXcXcXcXcXcXcXcXcXcXcXcXcXcXcXcXcXcXcXcXcXcXcXcXcXcXcXcXcXcXcXcXcX",
"cXcXcXcXcXcXcXcXcXcXcXcXcXcXcXcXcXcXcXcXcXcXcXcXcXcXcXcXcXcXcXcXcXcXcXcXcXcXcXcXcXcXcXcXcXcXcXcXcXcXcXcXcXcXcXcXcXcXcXcXcXcXcXcXcXcXcXcXcXcXcXcXcXcXcXcXcXcXcXcXcXcXcXcXcXcXcXcXcXcXcXcXcXcXcXcXcXcXcXcXcXcXcXcXcXcXcXcXcXcXcXcXcXcXcXcXcXcXcXcXcXcXcXcXcXcXcXcXcXcXcXcXcXcXcXcXcXcXcXcXcXcXcXcXcXcXcXcXcXcXcXcXcXcXcXcXcXcXcXcXcXcXcXcXcXcXcXcXcXcXcXcXcXcXcXcXcXcXcXcXcXcXcXcXcXcXcXcXcXcXcXcXcXcXcXcXcXcXcXcXcXcXcXcXcXcXcXcXcXcXcXcXcXcXcXcXcXcXcXcXcXcXcXcXcXcXcXcXcXcXcXcXcXcXcXcXcXcXcXcXcXcXcXcXcXcXcXcXcXcXcXcXcXcXcXcXcXcXcXcXcXcXcXcXcXcXcXcXcXcXcXcXcXcXcXcXcXcXcXcXcXcXcXcXcXcXcXcXcXcXcXcXcXcXcXcXcXcXcXcXcXcXcXcXcXcXcXcXcXcXcXcXcXcXcXcXcXcXcXcXcXcXcXcXcXcXcXcXcXcXcXcXcXcXcXcXcXcXcXcXcXcXcXcXcXcXcXcXcXcXcXcXcXcXcXcXcXcXcXcXcXcXcXcXcXcXcXcXcXcXcXcXcXcXcXcXcXcXcXcXcXcXcXcXcXcXcXcXcXcXcXcXcXcXcXcXcX",
"cXcXcXcXcXcXcXcXcXcXcXcXcXcXcXcXcXcXcXcXcXcXcXcXcXcXcXcXcXcXcXcXcXcXcXcXcXcXcXcXcXcXcXcXcXcXcXcXcXcXcXcXcXcXcXcXcXcXcXcXcXcXcXcXcXcXcXcXcXcXcXcXcXcXcXcXcXcXcXcXcXcXcXcXcXcXcXcXcXcXcXcXcXcXcXcXcXcXcXcXcXcXcXcXcXcXcXcXcXcXcXcXcXcXcXcXcXcXcXcXcXcXcXcXcXcXcXcXcXcXcXcXcXcXcXcXcXcXcXcXcXcXcXcXcXcXcXcXcXcXcXcXcXcXcXcXcXcXcXcXcXcXcXcXcXcXcXcXcXcXcXcXcXcXcXcXcXcXcXcXcXcXcXcXcXcXcXcXcXcXcXcXcXcXcXcXcXcXcXcXcXcXcXcXcXcXcXcXcXcXcXcXcXcXcXcXcXcXcXcXcXcXcXcXcXcXcXcXcXcXcXcXcXcXcXcXcXcXcXcXcXcXcXcXcXcXcXcXcXcXcXcXcXcXcXcXcXcXcXcXcXcXcXcXcXcXcXcXcXcXcXcXcXcXcXcXcXcXcXcXcXcXcXcXcXcXcXcXcXcXcXcXcXcXcXcXcXcXcXcXcXcXcXcXcXcXcXcXcXcXcXcXcXcXcXcXcXcXcXcXcXcXcXcXcXcXcXcXcXcXcXcXcXcXcXcXcXcXcXcXcXcXcXcXcXcXcXcXcXcXcXcXcXcXcXcXcXcXcXcXcXcXcXcXcXcXcXcXcXcXcXcXcXcXcXcXcXcXcXcXcXcXcXcXcXcXcXcXcXcXcXcXcXcXcXcXcX"
};
