/* XPM */
static const char *enemy6_xpm[] = {
/* columns rows colors chars-per-pixel */
"397 78 238 2 ",
"   c #020302",
".  c #040A04",
"X  c #090C06",
"o  c #070C08",
"O  c #0A0E0A",
"+  c #040706",
"@  c #110E00",
"#  c #021302",
"$  c #0C1402",
"%  c #031A03",
"&  c #0A1B03",
"*  c #061409",
"=  c #0C120D",
"-  c #07190A",
";  c #0B1A0D",
":  c #131400",
">  c #1A1601",
",  c #151A01",
"<  c #1D1901",
"1  c #10140F",
"2  c #10190F",
"3  c #0F1410",
"4  c #0E1A10",
"5  c #07131A",
"6  c #111612",
"7  c #141B14",
"8  c #181C17",
"9  c #171D18",
"0  c #191E19",
"q  c #231D01",
"w  c #052303",
"e  c #0C220C",
"r  c #082905",
"t  c #1C2605",
"y  c #152C04",
"u  c #1C2A05",
"i  c #122806",
"p  c #173309",
"a  c #0F2311",
"s  c #0E2812",
"d  c #132415",
"f  c #132915",
"g  c #162419",
"h  c #1B221C",
"j  c #162A19",
"k  c #1A2C1C",
"l  c #182017",
"z  c #1A321E",
"x  c #17321C",
"c  c #262101",
"v  c #2B2401",
"b  c #2F2802",
"n  c #222B05",
"m  c #332B02",
"M  c #382F00",
"N  c #2C3804",
"B  c #3B3201",
"V  c #313E04",
"C  c #20241F",
"Z  c #0A1B25",
"A  c #0C212D",
"S  c #1F2521",
"D  c #1E2B21",
"F  c #1C3521",
"G  c #1C3821",
"H  c #0C2739",
"J  c #102A3E",
"K  c #222622",
"L  c #232924",
"P  c #272D28",
"I  c #292E2A",
"U  c #282B27",
"Y  c #2B332C",
"T  c #2D3B2D",
"R  c #263327",
"E  c #2E3C30",
"W  c #2E3530",
"Q  c #313632",
"!  c #333C34",
"~  c #393E3A",
"^  c #363D39",
"/  c #303C2D",
"(  c #403701",
")  c #443A02",
"_  c #493D01",
"`  c #364339",
"'  c #3B433D",
"]  c #37463B",
"[  c #2F402F",
"{  c #354104",
"}  c #564908",
"|  c #524608",
" . c #665607",
".. c #695B17",
"X. c #77660E",
"o. c #7C6C1E",
"O. c #756518",
"+. c #6F6119",
"@. c #7D6C21",
"#. c #40433F",
"$. c #0D2D45",
"%. c #133857",
"&. c #103049",
"*. c #3D4C42",
"=. c #3E4541",
"-. c #3F5244",
";. c #414542",
":. c #444B46",
">. c #464D49",
",. c #494E4A",
"<. c #415546",
"1. c #445549",
"2. c #4C534D",
"3. c #44594A",
"4. c #4A5B4D",
"5. c #435947",
"6. c #4E5550",
"7. c #4E5C52",
"8. c #525C55",
"9. c #565E59",
"0. c #565C58",
"q. c #4F6252",
"w. c #536355",
"e. c #556359",
"r. c #5A635C",
"t. c #58685B",
"y. c #4D604F",
"u. c #5E6A62",
"i. c #646B66",
"p. c #68736B",
"a. c #8A7716",
"s. c #937E13",
"d. c #887410",
"f. c #867424",
"g. c #897724",
"h. c #8A7826",
"j. c #867322",
"k. c #6E8375",
"l. c #9C8400",
"z. c #988215",
"x. c #A58B01",
"c. c #AA8E01",
"v. c #A18705",
"b. c #AD9101",
"n. c #AC910B",
"m. c #B29602",
"M. c #B69904",
"N. c #BB9D04",
"B. c #B79B0C",
"V. c #AC9419",
"C. c #B39919",
"Z. c #A48D19",
"A. c #BFA004",
"S. c #BEA00A",
"D. c #BDA21C",
"F. c #9A862A",
"G. c #9C8931",
"H. c #AC9427",
"J. c #B69C24",
"K. c #AF9831",
"L. c #BDA329",
"P. c #BCA439",
"I. c #C3A404",
"U. c #C7A805",
"Y. c #CCAB04",
"T. c #CBAA09",
"R. c #C4A509",
"E. c #D0AF04",
"W. c #D0AF0B",
"Q. c #D4B204",
"!. c #D9B604",
"~. c #DDB904",
"^. c #D9B609",
"/. c #D8B609",
"(. c #CCAC13",
"). c #C8A918",
"_. c #D4B415",
"`. c #D4B41A",
"'. c #DBB918",
"]. c #CFB01B",
"[. c #E2BD04",
"{. c #E4BE09",
"}. c #E1BE18",
"|. c #C5AA27",
" X c #CEB128",
".X c #D4B525",
"XX c #DBBB23",
"oX c #D3B52B",
"OX c #D6B92C",
"+X c #DABB2A",
"@X c #C5AB35",
"#X c #CCB134",
"$X c #CBB23B",
"%X c #D1B531",
"&X c #D8BB33",
"*X c #E0BE24",
"=X c #E6C004",
"-X c #EBC304",
";X c #ECC50B",
":X c #E6C009",
">X c #F3C90B",
",X c #F2C906",
"<X c #E8C418",
"1X c #F4CA14",
"2X c #F5CC1C",
"3X c #F9CE1B",
"4X c #F9CE14",
"5X c #FCD01B",
"6X c #E4C223",
"7X c #E9C72A",
"8X c #F6CE27",
"9X c #FCD023",
"0X c #FCD22D",
"qX c #F5D12F",
"wX c #EBCA34",
"eX c #E8C837",
"rX c #FDD334",
"tX c #FDD33B",
"yX c #F6D437",
"uX c #F1CF34",
"iX c #DFC02E",
"pX c #FDD443",
"aX c #FED64C",
"sX c #F8D846",
"dX c #FED653",
"fX c #FED75C",
"gX c #FED85C",
"hX c #EBCB43",
"jX c #FED864",
"kX c #FEDA6C",
"lX c #FFD761",
"zX c #FFDB73",
"xX c #FFDC7B",
"cX c #B9A440",
"vX c #7E9083",
"bX c #FFDE81",
"nX c #84998B",
"mX c #000001",
/* pixels */
"mXmXmXmXmXmXmXmXmXmXmXmXmXmXmXmXmXmXmXmXmXmXmXmXmXmXmXmXmXmXmXmXmXmXmXmXmXmXmXmXmXmXmXmXmXmXmXmXmXmXmXmXmXmXmXmXmXmXmXmXmXmXmXmXmXmXmXmXmXmXmXmXmXmXmXmXmXmXmXmXmXmXmXmXmXmXmXmXmXmXmXmXmXmXmXmXmXmXmXmXmXmXmXmXmXmXmXmXmXmXmXmXmXmXmXmXmXmXmXmXmXmXmXmXmXmXmXmXmXmXmXmXmXmXmXmXmXmXmXmXmXmXmXmXmXmXmXmXmXmXmXmXmXmXmXmXmXmXmXmXmXmXmXmXmXmXmXmXmXmXmXmXmXmXmXmXmXmXmXmXmXmXmXmXmXmXmXmXmXmXmXmXmXmXmXmXmXmXmXmXmXmXmXmXmXmXmXmXmXmXmXmXmXmXmXmXmXmXmXmXmXmXmXmXmXmXmXmXmXmXmXmXmXmXmXmXmXmXmXmXmXmXmXmXmXmXmXmXmXmXmXmXmXmXmXmXmXmXmXmXmXmXmXmXmXmXmXmXmXmXmXmXmXmXmXmXmXmXmXmXmXmXmXmXmXmXmXmXmXmXmXmXmXmXmXmXmXmXmXmXmXmXmXmXmXmXmXmXmXmXmXmXmXmXmXmXmXmXmXmXmXmXmXmXmXmXmXmXmXmXmXmXmXmXmXmXmXmXmXmXmXmXmXmXmXmXmXmXmXmXmXmXD u.p.7.7.1.6.6.,.>.:.1.>.*.=.=.' =.=.=.*.=.=.~ ;.=.' =.~ ' ! 6 mXmXmXmXmXmXmXmXmXmXmXmXmX",
"mXmXmXmXmXmXmXmXmXmXmXmXmXmXmXmXmXmXmXmXmXmXmXmXmXmXmXmXmXmXmXmXmXmXmXmXmXmXmXmXmXmXmXmXmXmXmXmXmXmXmXmXmXmXmXmXmXmXmXmXmXmXmXmXmXmXmXmXmXmXmXmXmXmXmXmXmXmXmXmXmXmXmXmXmXmXmXmXmXmXmXmXmXmXmXmXmXmXmXmXmXmXmXmXmXmXmXmXmXmXmXmXmXmXmXmXmXmXmXmXmXmXmXmXmXmXmXmXmXmXmXmXmXmXmXmXmXmXmXmXmXmXmXmXmXmXmXmXmXmXmXmXmXmXmXmXmXmXmXmXmXmXmXmXmXmXmXmXmXmXmXmXmXmXmXmXmXmXmXmXmXmXmXmXmXmXmXmXmXmXmXmXmXmXmXmXmXmXmXmXmXmXmXmXmXmXmXmXmXmXmXmXmXmXmXmXmXmXmXmXmXmXmXmXmXmXmXmXmXmXmXmXmXmXmXmXmXmXmXmXmXmXmXmXmXmXmXmXmXmXmXmXmXmXmXmXmXmXmXmXmXmXmXmXmXmXmXmXmXmXmXmXmXmXmXmXmXmXmXmXmXmXmXmXmXmXmXmXmXmXmXmXmXmXmXmXmXmXmXmXmXmXmXmXmXmXmXmXmXmXmXmXmXmXmXmXmXmXmXmXmXmXmXmXmXmXmXmXmXmXmXmXmXmXmXmXmXmXmXmXmXmXmXmXmXmXmXmXmXmXmXK u.u.P S h S S h 9 9 7 9 9 4 6 9 3 4 9 6 9 4 4 3 3 4 3 3 6 4 U ~ 7 + mXmXmXmXmXmXmXmXmXmXmX",
"mXmXmXmXmXmXmXmXmXmXmXmXmXmXmXmXmXmXmXmXmXmXmXmXmXmXmXmXmXmXmXmXmXmXmXmXmXmXmXmXmXmXmXmXmXmXmXmXmXmXmXmXmXmXmXmXmXmXmXmXmXmXmXmXmXmXmXmXmXmXmXmXmXmXmXmXmXmXmXmXmXmXmXmXmXmXmXmXmXmXmXmXmXmXmXmXmXmXmXmXmXmXmXmXmXmXmXmXmXmXmXmXmXmXmXmXmXmXmXmXmXmXmXmXmXmXmXmXmXmXmXmXmXmXmXmXmXmXmXmXmXmXmXmXmXmXmXmXmXmXmXmXmXmXmXmXmXmXmXmXmXmXmXmXmXmXmXmXmXmXmXmXmXmXmXmXmXmXmXmXmXmXmXmXmXmXmXmXmXmXmXmXmXmXmXmXmXmXmXmXmXmXmXmXmXmXmXmXmXmXmXmXmXmXmXmXmXmXmXmXmXmXmXmXmXmXmXmXmXmXmXmXmXmXmXmXmXmXmXmXmXmXmXmXmXmXmXmXmXmXmXmXmXmXmXmXmXmXmXmXmXmXmXmXmXmXmXmXmXmXmXmXmXmXmXmXmXmXmXmXmXmXmXmXmXmXmXmXmXmXmXmXmXmXmXmXmXmXmXmXmXmXmXmXmXmXmXmXmXmXmXmXmXmXmXmXmXmXmXmXmXmXmXmXmXmXmXmXmXmXmXmXmXmXmXmXmXmXmXmXmXmXmXmXmXmXmXmXmXmX7 u.p.S 9 9 Z S S l h 9 g 0 0 S 9 h 0 0 0 0 0 0 0 0 9 0 9 9 0 0 4 K >.6   mXmXmXmXmXmXmXmXmXmX",
"mXmXmXmXmXmXmXmXmXmXmXmXmX                                                                                                                mXmXmXmXmXmXmXmXmXmXmXmXmXmXmXmXmXmXmXmXmXmXmXmXmXmXmXmXmXmXmXmXmXmXmXmXmXmXmXmXmXmXmXmXmXmXmXmXmXmXmXmXmXmXmXmXmXmXmXmXmXmXmXmXmXmXmXmXmXmXmXmXmXmXmXmXmXmXmXmXmXmXmXmXmXmXmXmXmXmXmXmXmXmXmXmXmXmXmXmXmXmXmXmXmXmXmXmXmXmXmXmXmXmXmXmXmXmXmXmXmXmXmXmXmXmXmXmXmXmXmXmXmXmXmXmXmXmXmXmXmXmXmXmXmXmXmXmXmXmXmXmXmXmXmXmXmXmXmXmXmXmXmXmXmXmXmXmXmXmXmXmXmXmXmXmXmXmXmXmXmXmXmXmXmXmXmXmXmXmXmXmXmXmXmXmXmXmXmXmXmXmXmXmXmXmXmXmXmXmXmXmXmXmXmXmXmXmXmXmXmXmXmXmXmXmXmXmXmXmXmXmXmXmXmXmXmXmXmXmXmXmXmXmXmXmXmXmXmXmXmXmXmXmXmXmXmXmXmXmXmXmXmXmXmXmXmXmXmXmXmXmXmXmXmXmXmXmXmXmX0 p.k.l 4 7 3 O                               +             + + 9 5 6 h 6.6 mXmXmXmXmXmXmXmXmXmX",
"mXmXmXmXmXmXmXmXmXmXmXmXmXU ! Q Q Q W Q W W Q ^ Q ! ^ ~ ~ ~ #.~ ~ ~ ~ ~ ^ ~ ' ~ =.=.=.=.=.=.:.;.;.=.;.:.>.>.:.;.:.:.>.>.:.>.>.>.>.,.,.,.,.U mXmXmXmXmXmXmXmXmXmXmXmXmXmXmXmXmXmXmXmXmXmXmXmXmXmXmXmXmXmXmXmXmXmXmXmXmXmXmXmXmXmXmXmXmXmXmXmXmXmXmXmXmXmXmXmXmXmXmXmXmXmXmXmXmXmXmXmXmXmXmXmXmXmXmXmXmXmXmXmXmXmXmXmXmXmXmXmXmXmXmXmXmXmXmXmXmXmXmXmXmXmXmXmXmXmXmXmXmXmXmXmXmXmXmXmXmXmXmXmXmXmXmXmXmXmXmXmXmXmXmXmXmXmXmXmXmXmXmXmXmXmXmXmXmXmXmXmXmXmXmXmXmXmXmXmXmXmXmXmXmXmXmXmXmXmXmXmXmXmXmXmXmXmXmXmXmXmXmXmXmXmXmXmXmXmXmXmXmXmXmXmXmXmXmXmXmXmXmXmXmXmXmXmXmXmXmXmXmXmXmXmXmXmXmXmXmXmXmXmXmXmXmXmXmXmXmXmXmXmXmXmXmXmXmXmXmXmXmXmXmXmXmXmXmXmXmXmXmXmXmXmXmXmXmXmXmXmXmXmXmXmXmXmXmXmXmXmXmXmXmXmXmXmXmXmXmXmXL p.k.9 4 9 9   0 r.r.9.9.0.r.r.0.r.0.0.0.0.r.0.9.9.r.r.0.0.0.0.;.O 9 0 6 h :.8 mXmXmXmXmXmXmXmXmX",
"mXmXmXmXmXmXmXmXmXmXmXmX0 I I I I I L U U U U I U I I Q I Q Q Y Q I I W Y Q Q Q W W Q ^ ^ ^ ^ Q Q ! ~ ! Q ~ ^ ^ ! ! ^ ^ ^ ^ ~ ~ ~ =.' ~ ~ ~ U mXmXmX3 6 6 7 8 6 9 6 8 6 8 8 8 0 9 9 0 8 0 8 8 9 0 8 8 0 0 0 9 9 0 0 0 9 0 h h h 0 0 0 0 0 0 0 0 0 h 9 8 0 0 0 0 0 0 S 0 0 0 h 0 0 h S 0 h h h h h S S S h S S h S S S S S h S S S K S K S S S S S S S S S S S S K K K S S S S S S S S S K S K h S S D D S L L S L L L L S S K S S S L D L D L D D L D K S L K S S L S L K K S S S D D S S S S D S L S S D K S K K K D D K S D S K S S S L L L S S S K k S K K h L S L K K K S P S D K L L L S D S L D L S K D S K K K h K S D S S S S S S S S h S S K h S K S S S S S S h h h S S S h h 0 0 h h S 0 h 0 h h 0 8 mXmXmXY p.u.l ; 7 7 9   :.u.r.r.r.9.r.r.r.r.i.r.i.i.r.r.9.r.0.0.r.9.0.0.0.S 6 6 7 6 S ^ 8 mXmXmXmXmXmXmXmX",
"mXmXmXmXmXmXmXmXmXmXmX7 K 8 6 6 6 6 6 6 6 6 6 6 7 7 6 7 7 8 6 7 7 8 8 7 7 8 8 8 8 9 0 0 8 6 8 8 0 0 0 0 0 0 0 9 8 8 8 8 0 8 8 6 6 8 9 6 6 8 0 0 3 7 K U P Y Y Y Y W W Q W Q Q ^ ^ ^ ^ ! ^ ^ ! ! ' ^ ` ] ' ' ' =.=.=.=.*.=.*.=.=.=.] ] ` =.=.' ] =.=.' ' ' ` ` ] *.*.=.] ` =.=.*.*.-.*.] *.*.:.*.*.*.*.*.-.-.1.-.-.*.-.<.-.-.1.1.1.1.1.1.3.1.<.1.3.1.1.1.1.<.1.3.5.3.1.5.1.-.1.3.3.3.<.<.-.5.1.1.3.-.3.-.5.5.3.<.<.3.5.<.5.<.3.3.-.3.3.5.3.3.5.-.<.3.3.3.3.4.3.1.3.3.5.3.3.1.5.-.-.-.-.5.3.-.3.3.3.3.5.3.3.3.3.<.4.3.3.3.3.-.3.<.3.3.<.1.5.3.<.-.5.5.1.<.5.1.5.1.3.<.1.3.3.5.5.5.-.<.5.<.3.5.-.-.<.5.3.3.5.-.-.-.5.-.<.*.1.-.1.-.-.-.-.-.-.-.-.-.-.-.<.-.-.] -.] *.-.] ] ] ] *.*.*.] *.[ ` E ` ] ` ` ` ` ~ ` ! T d mXW p.t.S 7 9 9 9 4   Q S 0 h 0 0 h 0 0 0 0 0 0 0 0 0 0 0 0 0 0 9 9 6 9 9 6 9 9 7 6 S ~ 8   mXmXmXmXmXmX",
"mXmXmXmXmXmXmXmXmXmX8 L 7 0 0 0 8 8 0 8 0 0 0 8 0 0 0 0 8 8 8 0 8 0 0 0 0 0 0 0 0 0 0 0 0 S S 0 h h h K 0 S h K C K h C C h C 0 0 7 8 8 9 8 7 7 6 O = 6 6 6 6 = 3 3 3 4 4 7 6 6 7 4 3 7 7 6 7 7 6 3 7 6 7 7 4 9 9 4 7 9 7 9 4 9 7 7 7 7 9 4 7 7 9 4 4 4 7 7 7 7 7 7 4 7 4 4 7 4 4 9 4 9 g l 7 d 9 7 l g 8 9 9 9 d 9 7 l d 9 9 9 d 7 d l 0 l d g d d d 7 d d l d g l d d d d d g g g l l d f f f g g g g g g f g f g g d g f g f d d g l d g g g l f l g g f g f d d d g g d f f g f g g d f g s g g g g j g f d g g l s g f g l l d d d d d d f f d d d d d d d l d d d d d d d 7 g 4 g d g d g l g 9 4 g 9 g g d d d d d 4 9 9 9 d l f 7 9 d 9 7 d 7 a 9 d d 7 7 7 g 4 9 7 9 4 4 9 4 9 7 7 7 ; 3 3 = 4 3 = = = o ! vXq.S 7 9 7 8 6 3   ^ S 0 h S h S S K h 0 S C 0 h 0 h 0 0 0 h 0 0 h 0 9 8 8 7 7 8 6 h =.8   mXmXmXmXmX",
"mXmXmXmXmXmXmXmXmX6 K 8 8 8 6 6 0 8 8 6 8 0 8 0 8 8 0 8 7 7 8 8 0 0 8 0 8 8 0 8 0 9 9 0 8 0 0 h C 0 C 0 8 C 0 C 8 h h 0 0 C 8 7 6 8 6 +   + X O .     X . . + + + + + o o O = X o O O O O X o O = = O * X o O X o o o O . O O O = O o O . O O O O = O O o = o O o o * o * * o = o * = . = * * O * = o * * = * * = * * * = = * * = * * * * * o * - * * * = * * - * * * - * * * * ; * * - * = - - - * * * * - * * * * ; * - - - - & - - ; ; * - * ; * * ; - ; - = * * * * * * * # = * * # * * - - * - * * - * * - * * * # * * * * * * * * * # * = * * * * * * * * * % o * * * * * o * * # * # * * * # * * # o # * # * * * * # o . * . * # o * . # # * # . # . o . . . . . . . . . . . . . .   . . . . .           I nXt.7 g g 0 7 7 4 =   Y h 0 S S S h K K S S S C C C h h S h S S S S h S 8 6 6 9 6 6 8 6 6 >.9 + mXmXmXmX",
"mXmXmXmXmXmXmXmX1 C 8 7 7 7 6 8 6 8 8 8 8 8 0 8 8 8 8 8 8 8 7 8 8 0 8 8 8 8 0 0 8 8 8 9 9 8 8 0 h 0 8 C C h h 0 8 h 0 C 0 0 8 8 8 6 O U ;.;.,.:.:.,.,.,.,.2.,.,.>.,.>.>.>.:.>.2.2.,.:.2.,.,.2.2.>.2.,.2.2.2.2.6.2.1.6.2.6.,.2.2.,.,.6.6.6.2.,.6.2.2.6.4.6.2.6.4.6.8.6.2.6.2.6.6.6.7.7.6.6.8.8.8.6.8.8.8.8.8.8.w.8.8.8.8.7.8.e.8.w.8.8.e.e.8.e.e.r.e.e.e.e.t.e.e.e.e.e.r.e.w.e.e.e.e.e.e.e.t.e.w.e.e.t.e.e.t.e.e.e.e.e.e.e.e.r.e.e.t.e.e.e.e.t.e.e.e.e.e.e.e.t.e.e.e.t.t.u.t.t.t.t.e.t.e.e.e.e.e.e.e.e.e.t.t.e.w.e.e.e.e.e.r.e.e.w.e.e.e.e.e.e.8.e.e.e.e.e.e.e.8.9.e.e.e.e.e.9.e.e.e.e.e.e.e.e.e.8.e.e.e.e.e.e.e.e.r.e.e.9.e.e.e.e.e.e.8.9.9.e.8.e.8.e.e.8.8.8.e.q.7.e.w.9.e.w.e.8.8.8.w.9.8.7.8.6.8.8.8.8.8.2.e.vXe.g 7 h 0 l 7 7 7 =   W S 0 g 6 7 6 7 9 6 6 6 6 6 5 6 8 6 6 9 6 6 5 6 8 0 8 8 6 9 9 6 7 5 9 ' 8 mXmXmXmX",
"mXmXmXmXmXmXmXmXK 8 7 6 6 8 6 0 7 7 7 7 8 8 8 6 6 0 0 8 8 6 7 7 8 8 8 9 8 8 8 8 8 9 9 8 9 9 8 8 8 0 8 0 8 0 h h 0 0 0 0 0 8 0 0 3 O ~ 6.,.,.,.:.;.,.,.>.,.2.,.,.,.,.1.>.,.,.,.2.,.,.>.2.,.,.2.2.,.2.2.2.2.2.2.2.2.6.2.,.2.2.2.6.2.6.2.6.6.6.2.6.2.2.2.2.2.6.6.2.6.6.6.6.2.6.6.2.6.6.6.6.6.6.6.8.6.6.8.6.6.2.8.6.7.7.8.8.8.8.7.8.8.8.e.8.9.q.e.e.8.e.w.w.w.e.w.8.8.q.e.q.w.w.w.e.8.w.e.q.8.e.8.e.w.w.e.q.q.w.8.e.w.q.w.e.e.e.e.e.w.w.w.w.e.w.e.e.e.e.e.e.e.t.e.q.e.e.e.w.w.w.e.e.e.e.8.e.e.e.w.e.e.e.e.e.e.e.t.w.e.e.e.e.q.e.e.e.w.w.e.w.w.e.w.7.7.e.7.7.7.e.7.q.7.7.7.7.q.q.7.7.q.6.7.7.6.q.6.7.6.7.8.8.7.7.8.7.7.7.q.w.9.7.e.7.7.7.7.7.7.7.7.8.7.7.8.7.8.4.6.4.2.4.4.4.4.4.4.4.6.2.4.6.6.2.2.1.1.2.6.2.2.2.3.2.` D 7 g h g 7 g 7 ; O   W h l 6                 +   + +             +     O 8 8 9 9 6 6 6 8 9 0 Q 9 + mXmX",
"mXmXmXmXmXmXmX0 7 7 7 7 8 6 8 8 8 7 7 1 8 6 8 8 6 8 6 8 7 8 8 8 8 6 8 8 7 7 7 7 8 6 8 8 8 8 8 8 8 8 8 8 0 h 0 0 0 C h 0 l 0 8 1 3 Q W h 7 7 8 7 7 6 7 6 7 7 7 6 9 6 9 8 8 7 8 7 7 7 7 1 7 7 7 7 6 6 6 7 7 6 7 7 8 6 7 8 7 7 7 7 7 7 7 8 7 9 7 7 7 7 7 7 7 7 7 7 7 7 7 7 9 l l 9 4 9 g g 0 d 7 0 9 g 0 d l g 7 7 l l g g g g l l g 7 d l g g g g d g j g g j g k g g f g j j g j j j j g f g f k j d j g f f f f j g g f f f j j f j x x j f j f f f f j f f f f f f f j j d g j g j g j f k j j x j j j f j f j f g f f j j f j j f j j j j f f j j j f f j j f j j j j f g j f f j f j g j f f f f g g f k j j g g j g g j g f g j j j j j j f g j g f f f d d g d g f j g l f j f g f f d 9 d d d 7 f 7 d g 4 9 d g 7 7 7 g 7 9 3 =   W g g 6     + 3 3 = 3 3 O O 3 O = = = = = O O O     O 7 8 6 8 6 6 7 6 6 S I + mXmX",
"mXmXmXmXmXmX0 7 7 8 8 6 6 8 6 7 8 8 6 8 8 6 6 6 8 8 8 7 7 7 7 8 8 9 8 8 7 7 7 8 8 6 8 8 8 7 8 7 8 7 8 7 8 8 8 0 h 0 0 0 0 8 = 3 Q K 8 0 8 8 8 8 7 7 7 8 7 7 7 7 9 6 7 7 8 0 8 8 8 8 7 0 8 8 0 8 l 7 8 l 8 0 l l 0 h h 0 0 l h l 0 l l h 8 h h 7 7 0 l l l l l l l l d 0 l l l h g g h g h h h k g h h l h h h k k k k k k k k h k k h k k D D k D k j k k k k k D x k F k k F k D F z z k k z z D z z F z k z z z G z x F D F F z z z z k z z x D x F j z z z z k j x z z z z z j x z z z z x z F z x F x z x z F z z z D F F j z z z z x z z x F F F j z z z x F D z F x F x F D j z j z k F z k z k z z z z F z z z z x F D k j k F k k z z k k k k k j z j j k f k k k k x j k j k k j k j j j k j k j h D g S g g g l 7 7 7 7 4 3   W g 0 6     O 7 6 6 9 6 7 6 9 6 6 6 6 4 6 1 3 6       + 9 6 6 9 6 9 9 6 8 7 + mXmX",
"mXmXmXmX                                                                                                                    O ! S 3 8 6 0 0 8 8 8 8 8 7 0 0 8 0 0 0 0 7 0 0 8 8 h h 0 0 h h 0 0 l l l h h 0 h h 8 l h h C C C h l h h l h C h l g h h h h h h h k h h l g h h l h S h g k h h h k k k D k k k D k C g k F D k D F D F D k D z z F F D F z z z z x k F z z F G z F F z z z z z z z z F z z z x z z z z x x G G G x z z z F G z z F G G F z z G G F F z z z z x x x G z x F G z z x x F x z z G z F G z G x F G F z z x z x z z z F x F F z x z G x x G z F F G x F G x G F x z z F F z x G x F F F z z z x G x F z z F F z x x z F x x x z k z F z k z F k z R F F F k z F k k L k k k k F j g g d g g 7 g 9 7 4 4 4 =   W S g 6     3 8 8 6 9 6 7 7 6 6 9 8 6 8 8 6 3 6         + 0 8 6 6 6 6 8 6 7 + mXmX",
"mXmXmXmXW 0.0.9.r.r.9.r.0.0.0.9.r.9.r.9.9.r.i.i.u.i.i.i.i.i.i.i.i.r.i.i.i.p.p.i.i.i.p.p.p.p.i.i.p.p.p.p.p.p.p.p.p.p.i.p.p.p.:.K 4 8 8 8 8 8 7 7 7 7 7 8 6 7 7 6 9 6 7 7 8 7 7 6 8 7 7 6 7 6 7 6 7 6 7 8 6 7 6 6 8 7 7 7 8 7 8 7 7 0 8 7 l l 7 8 7 7 l 8 8 9 7 d 0 8 l 7 7 7 l 0 9 7 d 7 d 0 d d l 9 h g l g l k k h g k k g k k k d g f k k j k j f j j k z k f k j j f k k k j k j k j k j z z z x z k x z k j k k j k j z k z z j z x x z j z x k x j z j x j x j x x z x j z x z z x z z z x z x k z z z x z z j j z x x x j x z j j z x f j j x x x x j k z x x j j f x j j x j x j j j j j x j k j k j j z k k j z k j g j f f k f f f f j f d j g f k f f f f k f j j j f g j k f j f f d d f g f g d D j g 9 g 9 g 7 7 7 4 7 3   Y g 9 6     6 0 6 6 9 6 8 6 0 8 9 6 9 6 6 6 3 6     X     + 9 6 6 8 6 3 7 3   mXmX",
"mXmXmXK U U K K K K C C 0 C S K K K K K C K K K K K K S K K K K S S K K K L U L K K L K L K K K K K L U U U K C U K K K K K 0 6 8 8 8 8 O                                                                                                                                                                                       .     .             .             . .     .       . .     .           .     . .   .   .       . . .     . . . . . . . . . .     .     . + . .       .     .         .   .   .   . . .   .   . . . . . .   . .   . .     . .     .   .   .   . . .     . . . . . .   . .   . .   .     .   .   . .   .   .     .   .                                                         + g D j j d 7 g 4 7 4 3 3   Y 9 0 3     9 0 6 4 9 8 6 8 8 6 6 4 6 6 6 6 3 7 + + 8 6   + + 6 8 6 8 7 8     o mX",
"mXmX0 K 8 7 8 8 7 8 8 6 8 8 8 8 8 8 0 0 8 0 0 0 8 8 0 8 8 8 8 8 8 8 8 8 0 0 8 8 8 7 0 0 8 h h 0 8 8 0 0 0 0 0 0 8 0 0 0 8 8 8 8 8 0 8 O                                                                                                                                                             . . .   . . . # . # . # . % . # . # # . # # . . # # # # . # . # # . . # # # # # # % % # # # # # % # # % # # % # # % . # # % # # % % . % % # % # # % # # # % % % . % % # . # . # . # . # # # % % . % # # # % # . % . % # # # % . % . # # % # # . % # # # # # # % # % # # # % # # % % . % # # # # # # # # # # # % # # # % # # # # # % # # # . . # # . # . # % # . # # # % # # # # # # # . # . . . # . . . . . d k f 7 7 7 7 7 7 4 =   Y l h 6   + 6 0 8 8 6 8 6 8 8 9 0 6 6 6 6 6 6 8 +   3 0 3       O + O O       + + ",
"mXh C 7 0 8 8 8 8 8 8 0 0 8 0 h 0 0 0 0 0 0 C 0 8 0 C 0 0 0 K 0 h 0 0 0 0 S 0 0 0 C C h 8 0 K 0 0 C C K 0 0 0 0 0 0 0 0 0 h 8 8 0 0 +                                                                                                     .     .             . . .     .   .   . . . . . . . . . . . . . . # . . . . . . . . . . . . . . . . # . # . . . . # . # # . . . . . . . . . . . . . . . . . . . . . . . . . . . % % % % % & e % % % % % w % w w % % w % % % & % % % % % % % % % % % & % % % % w & % w w % % & % % % % % % % % % % % % % % % % & w % w % % % % % % % % % % % % % % % % % % % % % # % % % % % % % % % - % % % % % % % % % % % % % % % % % & % % % - % & & % % % % % % % # # % % # . # . + d k d g d 7 ; 3 4 =   Y 9 0 6     8 0 6 0 0 0 0 0 9 0 0 8 0 8 8 7 7 8 +   O 1 S +                   + + ",
"mXU h K K S 0 S h C h 0 0 h 0 h 0 C K C 0 K K h h C K C K C C h K K K K K K S K C K h 0 C K h C K K C C C h h 0 C 0 C 0 0 h h h h +                                                         . .                                             .   .     . .                                           # # # . # .   .   O 3 = = = 3 3 3 3 = 3 = 3 6 6 ; ; 3 4 ; = # # . . .   . 3 = = 3 = = = 4 3 = 3 = 7 6 6 ; ; 1 4 = # # % % & & # & u u u u u u u t u u u u u t t t t u y % & % % & % % % & t u t u t u u u u u u u u t u t t u n , i & & % & * # # i u u u u u u t u u u u u u u u t y n p w & & % & $ * $ w t t t n u t u u u u u u t u t t t n u w % & % & % # & & i t u u u t u u y u u t t t t < t t t , X   h C d 9 7 7 4 6 =   Y l g 6   + 9 9 O   X   + + + +     + +   O 6 0 + + O O K O                   + + ",
"mX                                                                                                                                            O = 6 6 7 8 8 7 7 7 7 8 7 7 7 8 8 9 7 =     .   +   O 7 9 7 7 0 7 l 7 8 g 9 9 9 9 l l 9 h 9 = . . . . .     6 h h h l h S k h k h h g D D L k F k k d # # # # % .     o d h d d 9 g g h l f g h g k S k k D j k f # . # .   . 7 h g 7 g l h l g l g g g g k k k S k k z - . $ : < > v C.'.]._.`._.(._._._._.'._._._._.`._.T.].d.c b & : > < c a.*X(._.`._.W.].`._._._._._._._.`._.)._.B._ c t : > q < _ ).`.(._.`._.].`._._.'._._._._.'.`.W.(._. .q b @ > < q _ ).`.]._.`._._.`._._._.'._.'._.'.`._.(._. .c b $ : < < c V.XX(._.`._._.`._._._.'.`._._.'.`._.T.(.z.B b : k l d 7 ; 7 4 =   Y l 0 4   + 6 4 O 6 8 8 9 6 8 8 6 8 6 8 6 1 7 8 +   = = S +   O 6 K 0   1 C X + + ",
"mX                            +                               +                                                                           + = O O O = 6 3 3 = 1 O = 6 O = = O O = = = O   + +   o 7 = 3 3 = = 6 3 3 = = 3 3 ; 3 3 3 7 3 3 = *   . .     = 7 ; = = = 4 4 1 = 2 6 7 ; 4 7 4 4 7 4 7 a - . % % % . .   3 o . . . o o o . . . . o * . . . o o . o - - # #   . * o . . . + o o . + o . o o o o . . o X o * e . $ > < < a.'.c.x.x.x.c.x.l.x.n.b.n.c.x.c.b.x.l.l.l.]. .v & > < < | .Xc.x.x.x.b.c.l.x.b.c.b.c.c.c.c.c.l.v.s.m.z.M t @ < < q Z.T.c.x.x.c.c.l.l.c.c.b.n.c.c.c.b.x.l.l.x.XX| b @ > < < Z.(.x.x.x.x.c.l.v.x.c.b.c.c.x.c.b.x.l.l.x.XX| v & > < < +.2Xc.x.x.x.b.x.l.x.b.b.b.c.c.c.b.c.l.v.l.S.d.c : g k 9 4 4 7 4 3   Y l 8 6     8 8 K 2.2.6.6.0.6.6.0.6.0.6.,.U 0 0 +   = = h O   O = 8 L   1 U O O   ",
"mX                          + +         + +       X   +   + + +                         +                             + + + + X           O O + + O + X + + + . O O o O O . O O X o O 1   + .   + O X . O + + O o o o o . . O o o o o o o o =         . = o = o o o * o * o * X o = o * * = * o * ; 4 # # % - .     3 * = o = O * = = = * = = = = = = ; ; * ; 4 e o #     = = = = = o = = = * = = = * = = = 4 = * ; = f - X < q , H.`.b.N.N.A.N.N.N.M.A.N.N.m.A.I.B.b.M.M.c. Xs.q & > q < ...Xx.N.M.N.N.A.M.M.A.A.N.M.M.R.N.M.m.M.B.b.L.) n @ q q > J.R.M.M.N.N.N.N.N.N.A.N.N.M.S.A.B.b.m.B.l.iXX.q @ < q < L.R.m.M.N.A.N.N.N.N.S.N.N.M.A.N.M.m.M.M.l.iXX.c i < q > a.'.c.N.M.N.N.N.N.M.A.A.A.M.N.I.B.m.M.M.b.D.Z.q : l k 9 4 4 6 4 O   Y l 0 5     8 K h 0 0 C S h 0 K S 0 0 0 6 8 6 0 +   1 1 S +   + X O 8   = 0 + X   ",
"                X + + X X X + + X X O X X O O O + X O + O X X + + X + . X + + X   X X     + +   + +   .   .   +     O O O X O O +         O X O O + O O O + O o o O O O O O o O O O O =   + . + O 3 X O X O O O o o o O O O = o = o = o O O =     . .   7 # = o = * O = * = = = = = = = = * = = = ; e # % % & +   . 4 = o * O o * O * = = = = = = = = * * = ; ; a o *     = = = * o * = = # = = = = * ; = * = * = = * f - # q c < K.`.M.N.U.I.A.I.N.A.N.A.A.I.A.I.N.I.M.M.n..Xs.< , < q q ..oXm.B.I.I.I.U.A.A.M.I.A.I.A.I.N.S.A.M.M.B.L.B t @ q c < P.).M.N.U.I.I.I.N.N.N.A.N.I.I.A.N.I.m.m.x.eXX.q : q c < L.).N.N.U.I.I.A.N.A.N.I.N.I.I.N.N.R.M.M.c.eXX.c s q c < h.iXm.N.I.U.A.I.N.A.M.I.A.I.N.I.N.I.M.M.b.|.Z.q : k j 9 g 4 4 4 =   R h 0 4   + 8 h 0 h h h h K h 0 8 6 6 6 8 6 8 0 +   O 3 K +   X + = C   = 0   O   ",
"mX+         + O O + O O O + O O O O O O O = O O O = O O O O O O O O O O O O O O O = = O O O = O O O = X O O O O +   O O O 1 O 6           1 X O O O O O O O O O O o O + + O O O O O . 6   . +   O = O O O O O O = o O = o = o O O O o O = O 6 .   .     7 O o * o = = o o = * = * = = - = ; * * 3 ; f * & w w .   . 4 O = = = = = o * = = = = * ; = = ; = * 4 ; f # $     = O * O = = = = o * * = * = = = = ; = * 2 * f - $ q c < K..XN.I.Y.U.I.I.I.I.I.A.I.Y.U.U.U.I.M.N.b.+Xz.c i < c q ..oXm.U.U.U.I.I.A.I.I.I.A.U.U.U.I.I.N.M.M.B.|.) n @ q c c P.).A.U.T.I.I.A.I.U.I.I.I.U.U.I.U.I.A.S.b.wXX.c X c c c P.).A.I.U.U.I.I.I.I.I.A.I.Y.I.U.I.I.N.M.b.wXX.v p < c q g.eXM.I.U.U.I.I.I.I.A.I.I.U.R.U.I.I.N.N.M.(.H.c : h j g g 4 4 3 =   W g 0 6     8 S 7 h h C k C 8 0 0 9 0 8 9 9 8 8 + + O O K +   + O 6 C   O 8 X O   ",
"mXO 0 7 6 + + 1 + O O O O 1 O O O O O 6 1 O O 1 1 O O O O O O O X + + + + + + + + + X   + O + + + + X + + + + +     = O 1 = = 7     +     = . O O o O O O O o O O O O O O O O O O O = 3   . .   + = O O = O O O O O O O o = o O = o = = o = 7     .   . 7 * = = = = * O = = * = 3 * 3 = = ; * ; 2 ; s o % w w .   . 4 o = = o = = o = = * = 3 = ; = = = = ; 4 ; e # * +   = = = = = o = o = * = = = ; = = = 4 = - ; * f = # q c q J.XXN.U.E.R.U.U.E.I.Y.Y.Y.Y.Y.U.I.I.I.N.M.+Xz.q i < c c ..+XM.A.Y.U.U.Y.U.Y.Y.U.Y.Y.Y.Y.A.Y.A.N.I.S.|.) n @ c c c L.`.N.U.Q.I.Y.I.Q.Y.Y.Y.U.Y.Y.A.U.U.A.A.b.eXd.v @ q q q |.].N.I.E.R.U.I.Q.U.Y.Y.U.T.Y.I.I.I.A.A.m.eXd.v i < v q h.8XN.I.Y.I.Y.U.Y.U.Y.U.Y.Y.Y.Y.I.U.A.N.N.].C.c > g k d 9 9 9 ; =   R g 9 6     9 S 9 9 8 0 0 0 7 9 8 7 9 9 7 7 6 0 +   1 3 K +   + O 1 0   O 0 + O   ",
"mXU W W Q 1 + 1 O 1 O 1 O 1 6 6 6 6 6 6 6 6 6 1 1 1 1 1 1 1 6 6                                                     1 = O 1 3 8 +     +   = O O O o O O o O O O O O O O O O O O O O = =   . .   O = O O O O O O O O O = = O = O O = = o = o 3 .   o .   4 o O = = o = O = * = = * 3 = * 4 = = 4 2 - f # % w e .     4 o = = = o = * = = = * * = = * 4 3 * ; 4 a f # # .   = X * O = * O = = = = = = ; = * 4 ; = 4 4 ; f - $ q b c K.XXI.U.I.Y.Y.Y.I.Y.E.Q.Y.Y.Y.Y.Y.Y.Y.U.N.<XZ.q i < q b +.OXN.U.U.Y.Y.Y.U.U.Y.E.Q.Y.E.Y.E.Y.Y.U.I.R.|.) N @ q v v L.(.A.Y.I.Y.Y.U.I.Y.Y.Q.Y.E.Y.E.U.Y.Y.A.A.wXd.c @ c b v @X].I.U.U.Y.E.U.I.Y.Y.!.Y.E.Y.E.Y.Y.Y.I.M.qXX.b i c v c h.7XN.I.U.Y.Y.Y.I.Y.Y.Q.Y.Y.E.Y.Y.Y.U.U.A._.C.c > k k l 4 4 4 = =   Y 0 9 6     9 0 9 9 9 9 0 7 8 8 9 9 8 6 6 7 6 0 +   O 3 h X   + + 3 C   O 0 + O   ",
"mX7 6 6 0 O   1 O 1 1 O O O 6 6 1 1 = 3 1 6 6 6 6 6 1 1 1 1 1 6           +   . X + + +   +   +   . +       + + +   6 6 3 3 3 8 X   .     3 + O O o O o O O O O O O O O O O O O O O = 6   + +   X = O O . O O O = O O = = o O = O o O o o = 7 +   .     4 O = = = = = = = * = * 3 - 3 * ; 4 = - 4 ; d * % w e .     9 = = = = = = = = * = 3 3 4 = = ; ; ; 4 4 ; d # * +   = = = O = = = = = * = 3 = 3 = * = ; 3 ; 4 ; f - $ q c c K.XXI.Y.E.E.Y.Y.Y.Y.Y.Q.Y.~.Y.Q.Y.Y.I.I.A.iXZ.c i < v c +.iXN.U.E.E.Y.Y.Y.Y.Y.Q.E.Q.Q.Q.Y.Y.I.U.U.T.|._ n @ c v c |.`.I.Q.Y.E.Y.Y.Y.Y.E.Q.Y.!.Q.E.Y.Y.U.U.A.uXd.b @ c v q |._.A.E.E.Y.U.Y.Y.E.E.Q.Y.!.E.E.Y.Y.I.U.A.wXd.b i q v c h.7XN.Y.Q.Y.Y.U.Y.Y.Y.Q.E.!.Y.!.Y.Y.U.I.I.`.J.v > k k l d 4 7 = =   Y g 7 4     9 S 6 8 0 9 7 7 0 8 9 6 9 6 7 7 8 0 +   O 1 K X   + O = 0   = 0 + O   ",
"mX0 6 6 C O + 1 1 O 6 O 1 1 6 O + +     + + + + O 6 6 1 6 1 6 6                     + +                             6 1 = O 6 6 .         1 O O + O o O O O O O O O O O O O O O O O O 6   X     o 1 O O O o = O o = = O o = O O O = O = O = = . . o   . 4 = o O = O = * * = = 3 = * 3 3 = ; 4 ; ; e f # % w w .   o 4 = o o = = = = = * * = * = ; 4 ; = 4 ; ; a d # * +   = = = o * = = * = = = = * 3 - 3 3 ; ; ; ; ; f - $ q v b K.<XI.Q.Y.Q.E.Y.Q.E.~.~.Q.!.U.Y.Y.Q.I.I.A.7XZ.v y < v b +.7XN.T.Q.E.E.Y.E.E.Q.~.!.E.Y.Y.E.E.Y.A.I.(.#X| N @ c b m @X'.U.W.Y.Q.Y.Y.Q.Q.!.!.Y.!.U.Y.E.E.A.U.A.uXd.m @ c v b @X'.U.!.E.E.E.E.Q.E.!.!.Y.!.Y.Y.E.Y.I.I.I.hXa.m i q v b F.qXI.Q.Y.Q.Q.Y.Q.E.!.~.Q.!.U.U.Y.Q.U.I.I.XXJ.m < j k f 4 7 7 ; o   W 9 0 4   + 9 0 4 9 0 6 7 7 8 8 0 9 9 0 7 7 7 0 +   = = K +   O O 6 8   = 8 X O   ",
"mX7 7 6 0 + + 1 O 1 O 6 6 O + + C ,.0.,.0.i.,.0 + X 0 0 1 6 O Q ;.~ ~ ~ ~ ~ ~ ' #.#.;.;.#.#.;.;.~ ~ #.~ #.#.~ L 6   6 6 = 1 1 8 X         = o O O O O O O O O + O O O O O = O O O 3 O 6   + .   o = = O O O * O = O O O = O o = = O = O o = 3   . .   . 6 = = o = = = = = = * = 3 - 3 = 4 ; ; ; 7 ; s * % r r .   . 3 = = * O = = = * = * = 3 4 = 3 ; * ; = 4 ; d # # +   = = = = * = = = = = = = * 4 = * 4 4 ; ; 4 ; f ; # c b b P.XXI.Q.Y.Y.E.!.{.E.~.[.!.~.T.Y.E.Y.Y.U.I.eXZ.b y < v b O.iXA.W.E.Y.E.E.[.!.!.~.[.~.E.U.Y.E.Y.U.Y.). X} N : c b b @X`.Y.!.Y.Y.Q.~.~.Q.~.:X!.!.T.Y.!.E.U.Y.A.hXa.B @ v b b @X_.Y./.E.E.E.~.[.E.~.:X!.!.U.Y.Q.Y.Y.Y.A.hXs.M p q v v F.7XA.Q.Q.Y.W.!.[.Q.!.{.~.!.Y.Y.E.E.Y.U.U..XL.m > h k d 4 4 4 3 =   W g 9 6     9 0 9 9 4 8 9 6 3 9 9 6 6 9 6 6 6 0 +   1 O C X   O O 3 C   1 8 + X   ",
"mX7 6 6 0 O   3 1 O 6 6 + 1 K Q ~ 0 6 6 0 0 U ,.2.U O O 6 1 6 5 0 8 8 6 6 7 7 7 8 8 5 6 6 6 6 6 7 7 7 7 6 6 6 6 6 + 6 6 = = 3 7 +   +     = O O O O O O O O O O O O O O O O O O O O = 3   . +   O 3 O O O O O = X O = O O O = = O = = O O = 6     .   + = = = = = = = = = * = = = ; = - ; = ; ; 7 e f # % r r .     ; = = = = = = = = o 3 = * * = - - 4 4 ; 4 e s * & + + = = = = O = = = = * = = = = * 3 * * ; ; 4 - f e $ c b b K.<XI.Q./.Q./.~.!.!.~.[././.~.!.!.U.E.Y.U.7XV.m y q v b +.7XM.Y.!.Q.!.!.~.!.!.{././.~.~.Q.E.Y.E.Y.W.oX} V @ c v b @X`.I.Q.!.Q./.~.!.!.~.~.!./.~.Q.!.A.E.Y.Y.yXs.B : v b b @X`.I.E.Q.Q./.~.~.Q.~.!.!./.~./.!.U.E.Y.I.yXz.B p q b v F.8XN.Y.Q.Q.!.!.!.!.~.~.~./.~.!.!.Y.E.Y.U.'.L.B < k k d g 4 4 ; =   Y h l 3     8 h 8 6 6 9 9 9 9 9 9 4 9 9 8 7 6 0 +   = 1 0 +   + X 3 0   O 0 + +   ",
"mX7 7 6 C O + 3 O 6 O + 0 U U 6 O 3 1 6 1 O O O C #.;.0 O 6 6 1 O O O O O O O O O O O O O O O O O O O O O O 1 O 1   1 3 O 3 1 8 +   +     6 o O O O O O O + O O O O O O O O O O = O O 6   . o   + = O O O = O X = o = = o O = O O O = O = = 7 . + .   + ; = = = = * * = = = = = = = = = = 4 4 ; ; ; f # & w e .   o 3 O = = = = * = = = = * = = 3 = 3 4 4 4 2 e s # * +   = O = O = * = = * = = * = * 3 4 = 4 4 4 ; - f ; # c b b K.6XY.~.!.Q.[.{.[.{.[.[.[.{.-X=X!.!.!.Y.I.wXV.M y < b b O.iXA.Q.~.!.!.;X[.[.=X=X=X[.:X=X[.~.!.Q.Y.(.%X} N : c b m @X'.Y.~.Q.!.=X[.~.=X=X=X~.:X=X=X~.!.Q.E.A.sXs.B : c b b #X'.E.[.Q.E.{.[.[.{.=X=X~.:X=X=X!.!.Q.E.A.sXs.M p t v v F.8XI.!.!.Q.~.=X~.{.=X=X:X~.=X=X~.!.!.E.U.XX|.M < k k d 4 7 4 = O   Y h h 3     8 0 6 6 8 9 9 9 8 6 8 9 6 6 6 6 6 0 +   O O K X   O O 3 0   1 0 + O   ",
"mX7 7 6 0 O + 3 6 O + 0 U 6 6 6 6 6 6 6 6 1 6 1 1 1 U ;.0 1 6 1 1 1 O 1 O 3 O = O 1 O O 1 1 O 1 3 3 3 O 1 O 1 O 3   6 1 1 3 3 8 X     +   O o O O O O O O O O O O O O O O O O O O O O 6   . .   O = O O = X = O o = O O = = O o = X = o o O 7   + X   X = = O = = o = * = = * = = * ; = 4 - 2 ; ; ; s * % r r .   O 4 = o * = o = = O = - 3 3 * * 3 - ; 2 ; ; ; s # & .   = = = = = O = # = * = 3 = 3 - * 4 * 4 4 4 ; s e $ v m m P.6XQ./.Q.~.[.-X,X1X;X>X1X1X1X,X-X[.!.Q.Y.wXV.M y < b b o.iXY.~.Q.!.[.-X;X;X>X;X1X1X1X,X,X[.~.E.E._.&X} V : v m m #X'.!./.Q.~.-X-X;X1X,X1X1X1X>X,X=X~./.E.Y.sXs.B : c b m @X'.!./.E.[.[.,X,X>X,X1X4X1X>X,X=X[.!.T.Y.sXs.M p c b m F.wXY.~.Q.!.=X-X;X1X,X,X4X1X1X,X,X~.!.Q.Y.6XL.B < j k d 4 4 7 = O   Y h 0 3   + 9 g 9 6 6 9 0 0 8 7 9 9 9 6 6 8 8 h     1 O 0 O   + + 3 0   O 8 + X   ",
"mX6 6 6 0 O   1 1 + 6 K 1 8 6 5 8 7 = O O 3 6 6 O 1 1 8 ~ 6 1 6 O O O 1 1 O 6 O O 5 6 O O 1 O 1 O O 1 1 O 1 1 O O + 6 O 6 6 6 0 +   + .   = O O o O X O 3 + O O O O O O O O O O O O O 3   . +   O 3 = O O O = O = = = = O = O O = O o O = X 2 + + o + . ; = O = * = o = = = * * 3 ; = ; ; - ; ; ; e d * % r r X . X 7 O = = = = o = = = = = * * 3 4 3 * ; ; 4 4 s # & + + = O = = = * O = = = = = = 3 ; = 4 = = ; ; 2 s ; $ c m m @X6XQ.~.[.[.2X9XrXpXtX0X0XtXtX>X,X~.~.!.E.wXV.M y q m m o.eXY.!.[.[.;X9X0XtXpX0X0XrXtX3X,X[.[.!./._.&X} V : v m M #X}.!.~.[.{.2X9XtXpXrX0X0XtX0X>X,X~.~.~.Y.sXs.B > v m B #X}.Q.~.[.:X8X9XrXpXrX0X0XtX0X>X-X~.~.!.E.sXz.B p c b m G.qXE.!.[.[.1X9X0XpXpX0X0XrXtX5X,X~.~.!.Q.6XL.M t f k d 4 4 4 = =   Y 9 9 7     9 h 7 4 6 9 9 O o   +   6 6 6 6 6 h +   1 O C +   + O 3 8   O 0 + O   ",
"mX8 0 6 C O   1 + + K 3 6 6 8 0 X             1 6 1 1 6 L K   6 1 6 O 6 O 6 6 O 1 O 1 1 O 1 O 1 6 1 O 1 O 1 1 1 1 + 1 6 1 O 6 6 + + + +   = O O O O O O O O O O O O O O O O O 3 O O = 6   . .   o = O O O X = O O O O O O = O O X = X O = = 7 + + X   . 7 O o * o = = = = = = 3 * = 3 4 4 = = 4 7 e s % w r r . + . 9 = O = * = = = = * = = = 3 3 ; 4 ; ; = 4 e s % * + + 2 = * = O = = = = = * 3 = * = 4 4 ; ; = ; ; s e & b m b @X7XY.Q.[.,X9XtXpXrXtXjXfXaXpXsX1X[.!.[.!.uXC.( p c m m o.7XY.Q.!.-X4X0XpXrXrXjXlXdXpXdXqX-X~.[.!.'.+X .V : m m m #X}.E.Q.-X,X9XpXtXrXaXjXfXpXaXyX;X[.~.~.!.sXs.) > b m m #X}.Q.Q.-X>X3XpXtXrXaXkXdXsXaXyX;X[.~.[.Q.sXz.) p v m m F.qXY.!.~.,X5XqXpXrXrXlXlXaXpXaX8X=X!.=X!.6X|.) q g k d 7 4 4 3 =   Y 9 9 5   . 9 h 8 7 8 9 9   + O O + 3 8 6 6 6 h + + O O 0 +   O O 6 8   O 8   .   ",
"mX8 6 6 0 O   1 + 1 8 6 6 8 0 +   O 6 Z Z 5 +   O 6 1 O 6 I O O 6 6 1 6 6 O 6 O O 6 6 O 1 O 6 1 1 O O 1 1 1 1 6 1 + 6 1 1 1 3 6   + .     1 O O O O O O O O O O O O O O = O O O = O = 6   o .   o = O O O = = O O O O O = O O = = = = O = X 6 X   X + . 9 = = = = = = = = = * = = = 4 ; 4 ; ; * ; ; f % w r r o   . ; = = = # = = = ; = = 3 = = = - 4 4 4 ; 4 e f * - .   = = = = = O = = = = = = * = ; = 4 ; 4 ; ; - j e & c m m P.8XY.[.-X1X0XfXaXdXkXlXjXbXjXfXqX=X[.Q.Q.uXJ.( y q m m O.eXY.~.:X;X5XaXlXdXjXkXfXxXzXjXpX;X[.!.Q.'.&X .N : b m M $X}.Q.{.-X4XrXlXaXfXkXfXkXxXjXdX2X=X~.Q.Q.sXz.) : v m B $X}.Q.{.-X1XtXlXaXfXkXgXkXxXkXdX2X=X~.Q.E.sXz.) p v b M F.0XY.~.=X>X9XdXgXdXkXkXlXxXkXlXtX;X=X!.Q.6X|._ < k k g 9 4 7 ; o   Y g 0 6   + 0 h 6 8 6 6 8   3 3 6 O 6 8 6 6 8 0 +   O = 0 O   X + 6 C   = 0 + O   ",
"mX6 6 6 0 X + O + 8 6 6 6 8 + + Z H J $.&.H A O + O 3 3 1 K 8   1 O O O O 1 O 1 1 6 O O 1 O O 1 1 5 O 1 6 5 O O O + 3 6 1 3 6 0 + +   +   1 X O O O O O O O O O O O O O O O O O O O O 6   . +   O 3 O O O = = O O = = = 3 O O O = O = = O = 7 + + o     4 = = = O O * = = * = = = = = = = ; 4 4 ; ; f - % r r #   . 4 = = O O = = = = * * = = = = ; = ; - ; 4 4 s * &     ; = 1 = X 1 * = = * * = 3 = = = - = 4 ; d - f e $ b m b P.2X~.[.~.>XpXjXzXkXkXkXkXjXfXrX8X=X=X~.Q.uXV.B y q m m o.7X!.[.[.-XrXgXkXkXkXkXkXlXjXpX0X;X=X~.[._.+X} V > b m B #X<X~.{.[.4XaXkXzXkXkXzXlXjXdXyX2X[.[.~.E.sXs.) > b b B #X<X[.[.[.3XaXkXzXkXkXzXgXkXdXrX2X[.=X~.Q.sXz.B p c M M F.0X!.:X~.,XtXlXkXkXkXkXkXjXlXtX8X;X=X!.!.6X|.B q f k g 4 4 4 = o   I g 0 6     9 0 9 9 6 8 8 + O 3 3 O 6 0 6 6 6 0 + + O O 0 O   + O 3 0   = 0   O   ",
"mX7 6 3 0 + + + + 8 6 1 6 3 + H &.$.&.&.%.%.J A +   6 3 1 6 U   O 6 O 1 6 O 6 1 6 1 O 1 O 1 1 1 1 1 1 1 O 1 1 O O + 6 6 O O 6 8 + +   +   3 O O O O O O O O O O O O O O O O O O O O O 6         O = O O O = O O O O = O = O O O O = O = O 1 6 +   o . + 7 = = X = = o = = * = = = 3 4 * 4 * ; 4 7 ; f - w r r o + . 7 o = = = = * O * = = ; = - 3 = 4 ; - ; ; 4 s % & +   = = = = = = * O = = = 3 3 * 4 = 4 * * = ; ; f e $ b m m @X7X~.[.[.4XaXjXkXfXzXzXjXkXkXtX8X=X:X~.Q.uXV.M y c m m o.7X!.{.{.,XtXgXkXjXkXxXjXkXzXaXrX;X:X[.Q._.+X} V > v M B $X<X{.-X[.9XdXkXzXjXzXkXjXzXjXtX<X=X:X/.Q.tXs.B : v m B $X<X~.{.[.9XdXjXkXlXzXkXjXkXjXtX1X[.:X~.E.sXz.B p c b M H.qX!.[.=X,XaXgXzXlXkXzXjXkXzXpXqX[.:X{.Q.<X|.M < k k d d 4 ; 4 *   P l S 4     9 h 9 6 8 6 8 + O 6 4 O 6 9 6 6 6 0 + + 3 O 0 O   O O = 0   1 0 + O   ",
"mX8 6 3 0 O +   O 8 6 1 9 O 5 $.$.%.%.%.%.%.$.H Z + 1 3 O 1 K   + O 1 O O 6 6 O 6 6 1 O 1 O 1 5 O 1 O 1 1 1 6 O 1   1 O 1 1 6 6 +   +     = O O O O O O O O O O O O O O O O = O O O O 3   + o   O = O O O O = O = O O O = O = = = O O O O O 2 +   X + + 4 o * = = = = * = = = = = * = = 4 = = - ; e f % w r r o + + 4 * o = = = * = = = = = = = * 4 = = 4 ; - a f - & . + = O O = X = * O = = * = * * = = ; 4 ; - ; ; f s $ v m m P.8X!.[.[.,X3XpXzXlXzXzXkXzXzXgX2X;X!.!.Q.uXC.B u c b m o.wXQ.[.-X-X4X9XjXkXkXbXlXzXzXjXtX>X~.~./.'.&X .N > b m m $X<X~.-X-X,X3XdXzXjXxXjXzXzXkXdX4X-X~.~.E.sXz.) > b m B $X<X~.-X[.,X3XdXzXkXzXkXzXzXkXdX1X=X~.Q.E.sXz.B p n M b G.qXQ.:X=X=X5XrXkXjXkXxXkXzXzXgXqX,X~.!.Q.6X|.( < g j 7 4 7 7 = o   Y g 0 6     8 0 6 6 9 8 6 + 3 3 3 O 8 8 6 9 4 9 +   O O h X   + O 3 0 + = 0 X O   ",
"mX6 6 1 8 X     1 6 6 1 0 + Z $.$.%.%.%.&.%.$.$.A + O 6 = = K   + 6 1 1 1 1 5 1 6 O O 6 1 O 1 O 1 1 O 1 1 1 O 1 O + 6 1 3 1 1 6   +   +   3 O O O = O O O O O O O O o O O O = O O 3 = 6   . X   O = O O O O O O O 3 = O o O = O O = = O = O 2 + + .   + 4 = O = * = o = = = * = * 3 = ; - ; 4 4 - ; f - w r r *   X 7 O = = = o O = = = = = = = = = * ; 4 ; ; a f # & . . = = * = O = = = * = = = = = 3 = ; = 4 4 ; ; f ; & b m m P.7X[.{.[.,X8XdXdXbXzXlXzXzXfXkX0X,X=X~.!.uXV.M y q b B @.eX!.{.~.-X1XaXdXkXxXfXkXxXfXxXaX1X-X[.~.'.OX| V < v m B $X<X[.~.{.,XrXdXdXxXkXjXxXkXjXjX5X-X[.~.Q.sXs.B > v m B $X<X[.~.[.,XrXdXdXbXkXjXxXkXjXjX5X-X[.[.!.sXz.M p v b M G.yX!.~.~.,X4XaXdXxXzXlXkXzXfXzXpX,X=X[.~.6X|.B < f j d 7 4 = = *   P 7 g 4     9 h 6 7 6 9 8 + 3 6 3 O 4 8 6 6 6 S +   3 = 0 +   + O O 0   1 0   O   ",
"mX6 3 O 8 X     1 6 1 1 h + Z &.H &.%.%.%.%.H $.A + + 1 = = K   + 6 1 1 O 1 1 O 6 O 6 O 6 O O 1 1 O O 6 O 1 1 O 3   1 6 O 1 6 6 +   .     3 O O O O O O O 3 O O o O O O O O O O 3 O O 6   . .   O 1 O O O = O = O O O = = O O = = O = O * = 7 + + X + . 4 X = = = = = = * = = = ; = ; = = 4 4 - ; e f - w r r o + . 4 O = * = = = = = * * = ; ; 4 - ; 4 4 ; a 4 s * * . . = = = = * = o = = = = = 3 * 4 = ; ; a ; ; e f e $ c m m P.8X~.[.[.,XtXfXzXlXjXjXjXxXfXdXqX=X=X=X~.qXV.B p < m m @.eXQ.{.{.-X5XlXjXkXjXkXlXkXjXgXsX>X=X[.{.{.OX} V @ v m B $X6X^.{.[.4XaXfXzXjXjXlXjXzXgXdX2X-X=X[.[.tXs.) @ v m M $X<X[.[.-X4XaXlXzXlXlXjXkXzXgXdX2X=X=X=X~.yXz.B p c b M G.yX!.:X=X,X0XlXkXjXjXkXjXzXgXgXtX-X=X[.{.6XL.B q k z d 4 4 7 ; =   Y g 0 7     9 9 7 7 9 6 8 + = 6 3 O 7 9 9 6 6 0 +   O O C O   + O 6 0   = 8 + O   ",
"mX8 3 = 8 O     O 6 6 O 0 O 5 $.H $.&.$.&.$.H H Z   X 6 O 3 C   + 1 O 1 1 1 O O 1 1 O 1 1 O 1 1 3 3 3 O O 1 1 O 1   1 3 1 1 1 6     + .   = O O O O O O O O O O O = O O O 3 O O O 3 O 3   + +   X 1 = O O O O O = O O O = o O = O = O 3 = = 7     X + + ; * * O * = * = ; = = = 3 ; ; = 4 ; 4 ; a 4 s % & r r o +   4 O = O O * = = = = = = ; * * 3 4 ; ; ; 4 ; s % & .   = = O = O * = = ; = = * ; = = * 4 ; ; ; ; ; f e $ c m m cX8X!.[.=X;XrXaXlXkXjXkXfXfXjXdX9X=X=X[.!.wXC.B p q m m @.eX!.[.[.{.0XpXfXjXkXjXjXfXjXfXrX>X[.[.~.'.&X} V @ b m B $X<X[.[.{.1XtXdXlXkXkXjXfXlXlXaX2X[.[.[.E.aXs.) : v m B $X6X[.[.[.1XtXaXlXkXjXkXfXlXlXaX3X=X=X~.Q.sXz.B p c m m G.yX!.[.[.{.rXpXgXkXjXjXlXgXjXfX0X;X=X[.~.6X|.B < j f d 7 4 4 ; o   Y g 0 5     9 0 4 0 8 9 7 X O 6 6 O 9 9 7 7 7 0 +   O = 0 O   O O 6 8   O 8 + O   ",
"mX6 3 3 0 X     X 6 6 6 8 0 + H H $.$.$.$.$.H Z 5   3 1 O 3 8   + O O 1 1 5 1 1 O 1 O 1 1 O 1 O O O 1 1 3 6 O O 3   1 3 1 O 1 0 X   + +   = O O O O O O O O = O O O O O = O O O O O o 3   . X   o 3 O O = O = O = o O = = O O O O O O O O = 7 + + . + + 6 * = = O = = = = = = - = * = = ; = ; ; - a f - w r r .   . 7 * = = = = = * = ; = = = = = = ; = 4 ; ; a f % * . + = * = = = O = = = = - = = = ; = ; = ; 2 - ; f e & q b m @X7X!.~.[.1X9XpXjXpXaXdXaXaXrX0X0X[.!.!.E.wXC.( p q c m @.eXQ.~.[.,X3X0XfXdXpXdXdXaXpX9XpX;X~.~.Q._.+X .{ > q b ( $X}.!.[.[.4X9XaXjXpXaXdXaXaX0XtX2X[././.Y.tXs.) > q b B $X}.Q.[.[.4X9XaXkXpXdXdXaXaX0XtX3X~./.!.Y.tXz.| p c b m G.rXQ.[.[.;X9XtXgXaXaXdXdXdXtX9XrX:X/./.Q.6X|.) q k D g 4 7 3 = o   I h 9 9   + 8 g 6 6 9 7 8 + O 6 6 O 7 8 6 6 7 8 +   1 O C +   + O O 0   O 8 o O   ",
"mX7 6 O 0 X     + 6 6 6 6 U + 5 $.Z H H H A Z Z + + 8 6 O 6 8   + 6 O 1 6 O O 1 O 1 5 1 O 1 1 1 O 6 1 O 6 O 6 1 O + 1 1 O 1 1 6   + + +   = O O O O = O O O O O O O = O O O O = O = = 3   . o   O = O O = = O O O X o = O o O O O = o = = = 4     X . + 7 X O = = = * = = = = = = = ; 4 ; = ; 4 4 ; s * % r r . + . 7 o O = = O * = = = * = = = - 4 ; = ; 4 ; e s * & . + = = X O = = = = = * = ; = = = ; ; ; = ; a ; f e & c b m cXqXE.!.!.-X1XdXrXdX0XtXtXdXtXsX1X~.Q.Q.W.uXC.( p q b b @.wXY.Q.!.[.{.pXdXpXrXtXtXpXtXaX8X:X!.E./._.&X .V @ v b m $X}.E.[./.[.8XfXrXpXrXrXtXaXtXtX,X~.E.Q.Q.sXz.) > v b M $X<XQ.~./.-X0XlXrXpX0XrXtXaXpXyX-X~.E.Q.Q.sXz.B p v v m G.rXE.!.!.[.,XaXpXaX0XrXtXaXrXsX2X:XQ.E.Q.6X|.) < j k 4 9 4 4 = O   R g 0 6     8 0 6 6 9 3 8 + O 6 6 O 8 6 6 6 8 0 +   = O 0 +   O O 3 0   6 8   O   ",
"mX8 6 3 8 X   +   O 6 6 1 C U + 5 H A A A A Z + + 6 6 O O 6 O   + O O O O 1 1 6 1 1 1 1 6 O O 1 O 6 3 O 1 1 O O =   1 1 6 6 6 6   . + +   1 O = O O O O O O O O = O O O O O O O O O O 6     o   O = O = O O O O O O = O O = O = = O O O O O 6 o   + . X 2 X = = = O = = = = * = * 4 = ; ; ; ; 4 e ; f % w w r . + . 4 o = O = = = = = = = ; = 4 ; = ; ; ; 4 ; ; f % = .   1 = = = = O * = = = = = = - ; = 3 ; ; ; ; - f e $ c m m cX6XQ./.!.=X1X2X2XaX4X3X>X9X8X1X[.^.!.E.Y.eXV.m y < b m O.eXY.E.!.[.>X2X2XrX3X9X4X4X8X8X-X~.^.Y.Q._.&X| V : v m B $X}.E.Q.[.{.4X8X2XtX2X3X>X3X8X>X[.^.Q.E.I.sXs.( @ v m M $X*XE./.!.{.1X2X3XtX3X5X>X9X8X1X[.~.Q.E.I.sXs.B p c b m F.uXE.Q.!.[.1X3X2XpX1X9X>X3X8X2X=X~.!.Y.E.XX|.m < j D a 4 4 4 = O   R 9 h 6     7 9 8 9 7 7 0 + O 6 3 O 7 8 6 6 6 h     O O 0 O   + + 3 0   O 8 . o   ",
"mX6 1 1 0 + + +   + 6 6 O 6 I U + + 5 5 5 + + + 0 0 O O 3 6 +   O O O 1 O 1 6 O O 1 1 1 O 1 O 1 O 6 O 6 1 1 O 3 1 + O 1 O X 1 8 +     +   6 O o O O O O O O O O O O O O = O O O = O O 3   . +   O 6 O = O O O O O O O O O O = O O O = = = = 7   + . + + 4 O * = = * O = * = = = = 4 ; = = ; ; 4 ; ; f - w r r .   . 7 O = * = O = = = * = = ; ; = = 3 ; 4 ; 4 a f % * .   = = = o O = = = = = = = = 4 = ; ; = ; ; ; ; f e $ c b b @X6XY.Y.Q.~.=X[.-X,X[.,X-X,X[.-X!.Q.W.Y.U.7XV.m y < m b o.eXU.E.E.!.[.[.[.,X[.,X-X-X-X-X{.Q.Q.Y.Q.(.oX} B > v b m $X*XE.Y.Q.[.{.[.{.,X[.-X{.,X[.-XQ.Q.E.E.I.hXs.M : v b m $X}.E.Y.Q.[.[.[.-X-X-X-X-X-X[.-XE.Q.E.E.A.hXs.M p c b b F.uXE.E.E.~.[.[.-X-X{.-X-X,X=X-X~.Q.Q.Y.Y..X|.m < k j d 4 4 3 = =   I 7 7 3   + 9 0 9 6 8 6 8   O 6 3 3 6 8 7 6 6 0 + + O = 0 +   + O 3 8   3 8 + O   ",
"mX6 1 1 8 +   O     = 6 3 3 6 ~ ~ K O + + O 0 L 0 O 1 1 6 =   + O 1 1 O 1 O O 6 O 1 1 1 1 O 1 1 6 O O O O 1 1 1 O + 3 1 6 1 1 6 X   +     = O O O O O O O O O O O O O O O O O O o 3 = 3   . o   O 6 O O O O O O o O O = O o O = = = O O = O 7 +   . + + 7 O O o = O = = = = = = ; = ; = ; = 3 ; 4 a f & & r r .   X 7 = O O O O = = = = = = = ; 4 ; = = = ; a ; f % &     = = O = = o = = = = = = ; = ; = ; 4 = ; ; ; j e * c b v P.7XQ.T.T./.Q.^.~.~.[.[.~.-X~.[.!.!.Q.Y.U.eXC.m y < m b O.7XQ./.T.W.E.E.[.[.[.-X~.[.~.[.[.Q.Q.Y.T.(.oX} N @ v b b @X*XE.E.W.E.Q.~.~.[.{.[.[.[.~.[./.Q.W.Y.U.hXs.( @ v b b $X}.E.E.W.Q.!.^.~.~.{.[.~.-X[.[.Q.!.E.Y.I.sXs.B p q b b F.qXE.E.E.W.Q./.~.~.[.-X~.{.!.:X~.!.Q.Y.Y.XXL.m < j k 9 4 4 4 = o   Y g g 4     9 9 6 6 6 9 7 + O 6 3 O 7 8 6 6 6 0 +   O O h +   O O O 8   = 8   O   ",
"mX8 6 1 0 +   O +   + 6 6 1 O 1 K ~ #.#.~ ~ I 8 1 1 1 1 6 +   X O O O 1 O 6 O O 1 O 1 5 O 5 1 1 O 6 6 O O 1 1 3 O + 1 6 6 3 O 8 +   .     1 O O O O O = O O O O = O O O O O O O O O O 3   + .   . 6 O = O = O O = O O = * O O o O = = = = O 6 +   . + . 3 = O = = o = = = = = = = = ; ; ; 4 4 ; ; ; f - & r e . + . = = = * O = o = = = = - = = ; ; ; ; 4 4 ; 4 f - & . + = = = O = * = O = = * = ; = ; = ; ; 4 ; 2 * x e $ v m v P.<XI.Q.Q./.!.Q.[.[.~.~.Q.[.[.!.!.!.Q.I.I.eXV.m y q m b @.&XI.E.E.!.!.Q.~.[.[.~./.~.[.~.!.^./.Y.U.(.%X} N > v b b @X'.I.!.E.!.Q.Q.{.[.[.Q.Q.[.[.!.!.^.Q.Y.I.sXs.B > q v m @X`.U.Q.E.~.Q.!.[.[.~.~.Q.[.[.!.~.^.E.U.I.sXs.M p c m b F.7XI.E.Q.Q.~.Q.~.[.~.~.!.~.=X~.!.!.Q.U.I.XX|.M < j k d 4 7 ; ; =   P g 9 6     9 S 6 9 7 6 7 + O 6 6 O 7 8 6 6 6 0 +   O O h O   + O O 8   = 8 + O   ",
"mX6 6 1 8 O + O +     + 6 6 1 6 O + O 1 1 O O 1 1 = 1 8 +     + O O 6 O 1 O O 1 O 1 O O 1 O O 1 6 O O 6 3 O 1 3 O   1 6 O O 3 6 +         1 X O O O O O O O O O O O O O = O O O O O O 3   . o   O 6 O O = O O O O O O O O = = O O o O = = = 7   + o     1 * = = = = = O = * ; = = ; = = 4 ; * ; ; e f - w r r .   + ; = X = = = = = = * = = ; ; = = ; ; ; ; ; ; f * * .   = = O * = = O O * = = = = = = ; ; ; = ; 2 ; j e $ q v b P.XXA.Y.Y.Y.Y.Q./.E.[.~.!.Q.[.!.Q.Q.E.E.I.iXV.m y < v v @.&XM.U.Y.E.E.T.!.E.[.Q.[.Q.~.[.Q.E.Q.E.U.). X| N @ q v m $X].I.Y.E.E.E.!.!.Q.[.[.!.!.[.!.E.E.E.Y.N.wXs.m > q v m #X].I.Y.E.Y.E././.Q.~.[.!.Q.[.!.E.E.Q.Y.N.eXs.m p q c v F.eXN.Y.E.E.E.E.!.Q.[.!.~.!.~.~.Q.E.Q.Y.I.`.L.b < j k g 4 4 7 = O   Y 7 0 6     6 g 9 6 3 9 8 O + 6 6 O 7 8 6 6 7 0 +   O O 0 O   + + 3 8   1 7 + X   ",
"mX8 3 3 0 + + O + +     + 1 1 = O = 1 O 1 1 1 1 O 6 8 +       X O O O 1 O 1 1 1 O 1 6 O 6 O O O O 1 O 1 1 1 O 1 1 + 1 1 O 1 3 6   . +     = X O O O O O O O O o = O o O o O O = O = O 3   + .   O 6 O O O O O O O O = O O = = = 3 O O 3 O = 3     .   . ; = O O = = * = = o = = ; ; = ; * ; ; 4 ; ; f % & w r o + . 7 O = = * O * = = * = = = = ; = * ; = 4 ; 4 f - * .   = = = O = = O = = * = = = 4 ; = * 4 ; ; 4 - j e $ c v c @X'.U.Y.Y.E.T.E.Q.E./.~.E.Q./.E.Y.Y.Y.I.A.*XV.m t q v v O.iXA.E.U.E.E.Y.E.E.E.~.!.E.!.E.Y.Y.Y.U.I.). X| N @ q v m #X_.U.E.U.E.Y.E./.E.Q.[.E.Q.Q.Y.Y.Y.Y.I.N.hXs.m @ q q m #X_.Y.U.Y.Y.Y.E.Q.E.^.~.E.Q.Q.Y.Y.Y.Y.U.N.wXs.m y < v v F.6XI.Y.U.Y.Y.Y./.W.!.!.!.Q.!.Y.U.Y.Y.U.A.`.D.m < j k 4 a 4 ; = =   P d l 6     6 9 9 4 6 6 0 o O 6 3 O 9 6 6 8 3 8     O + 0 O   + + 6 0   = 0   O   ",
"mX6 3 3 0 O + 1 O + +       = 6 1 1 1 O 1 = 1 1 6 1         O O O O 1 O 1 1 O O 5 O 1 1 O O 6 6 6 O 1 O 5 O 1 1 1 + 1 1 1 1 6 6 + + +     1 O O O = O O O O O O O O = O O O O O O = O 3   . O   + = = O = O O O O O o O O o O O O O = = = O 7 . + o . + 2 = = = X * = o = = - = = 4 = = 4 = = 4 a ; f - & w w .   + 2 = = o = O = X = = = * = ; = ; 4 = ; 4 ; ; f # & . + = = = o * = * O * = = * = = = = 4 = ; 4 4 - f e $ < v q P.XXI.U.Y.E.Y.E.Y.T.E.E.U.Q.Y.Y.Y.Q.U.U.A.iXV.m i > v q +.+XN.U.Y.E.Y.E.Y.E.W.E.Y.E.E.Y.Y.E.Y.U.U.S. X} N : q v q @X].I.U.E.E.E.E.Y.Y.E.Y.U.Q.E.U.T.!.U.U.N.uXs.M @ q v v @X].I.R.W.E.W.E.Y.W.Q.Y.U.Q.Y.Y.Y./.I.U.M.uXs.B p < c c F.7XN.Y.Q.Y.Y.T.E.Y.Q.Q.Y.Q.Y.Y.Y.Q.Y.I.I.`.D.m < k k d 4 4 7 4 O   P 7 0 6     9 8 6 6 6 4 7 + O 4 3 O 6 8 6 6 6 8 +   O O 0 +   O O O 0   O 8 + O   ",
"mX3 3 3 0 +   1 O + X +       X O O 1 1 O 1 1 O +       + + + O O 1 O 1 O 1 1 1 1 1 6 O O 6 1 O 1 1 O 1 1 1 O 1 O   3 3 1 1 O 6 X         6 O O o X O O O O O O O O O O O O O O O O O 3   X +   O 3 O = O O O O O O = = = O O = O = 3 O O = 4 + + .   . ; = X = = O = = = = = = = = ; ; ; = ; 4 ; ; f * % w w o . . 9 = * = = = = = = * = = = = ; = = ; ; 4 4 a f % * +   = = = = = = O = = = O = ; = ; = ; ; = - 4 ; f e # < v q K.'.N.I.U.U.Y.U.U.Y.Y.Y.Y.Y.U.Y.I.Y.Y.I.N.+XV.m y > q q +.+XM.I.I.U.Y.E.I.Y.U.T.E.Y.U.Y.Y.Y.Y.I.U.S. X} N @ q b q L.].A.A.U.U.E.I.Y.Y.T.E.Y.Y.Y.Y.I.E.U.U.m.wXd.( @ q v q L.].I.A.U.Y.E.I.Y.U.U.Y.Y.Y.Y.E.I.Y.U.I.M.eXs.M p < v q h.7XM.I.U.U.Y.Y.U.Y.R.Y.Y.Y.Y.E.U.Y.Y.I.A. XL.m < j k 4 4 4 ; ; =   R 9 9 4     7 0 6 6 9 9 8 o O 3 3 3 6 9 6 6 6 8 +   O O 8 O   X O 3 0   3 8 + O   ",
"mX3 3 O 0 X + O O X O +               + + +               O O O 1 O 1 1 1 5 O 1 1 O 6 O 6 O 1 6 O 1 1 5 O 1 1 O 1   3 1 3 1 6 6   + + .   6 O = O O O O O O O O O O O O O O = O = O O 3   + +   O = O O O O O O O = X O O O O O O O = = = o 6   + . + . 7 O = * = * = = = = * = = = * = = 4 ; ; ; 4 f - * r w o   . 4 o = X = * = * = = = = = ; = = = ; ; ; ; 4 f # & . X = * = o = = * = = = * = = = = * = 4 4 = ; 4 j e $ < v q H.*Xm.N.R.T.E.U.U.Y.E.E.Q.Y.I.I.I.Y.I.I.M.&XV.b y q q q +.*Xm.N.A.T.T.Y.I.Y.E.E.E.E.U.U.I.I.U.S.T.B.@X| N @ q v q L.W.M.A.R.E.T.I.U.Y.E.Y.!.Y.I.I.A.T.I.I.b.hXd.M : q q v L.].M.A.I.Y.E.I.I.E.E.Y.~.U.I.I.I.Y.I.R.m.hXa.m i < c c h.8Xm.N.I.R.Q.U.I.Y.E.Y.Q.Y.I.I.I.I.U.A.N.].L.b < j j d 9 4 = = o   I 9 8 6     9 0 6 8 6 6 8 O O 3 3 O 6 9 6 6 6 8 +   O O 0 +   + + 3 0   = 8   O   ",
"mX6 = 6 8 X   O O O o X   X                             X O O 1 O 1 1 O 5 1 1 O 1 1 O 1 6 O O O O 1 O 5 6 1 O 1 1 + O 3 O 3 3 1 X   + X   1 O O O O O O O O O O O O O O O O O O O o o 3   + .   O 3 O O o = O * o O O O o = o O O = = = = = 7     X + + 7 O o = = O = * * = = = = * 3 = = = - = 4 ; d & % w w . + + 7 X = O = = * = = = = = = = 3 = = = ; = 7 e f # & .   1 = * o = = = * = * = = ; = ; = = = ; ; ; ; s e $ < q < H.'.m.I.Y.I.N.U.U.N.I.I.U.E.N.A.I.Y.N.M.N.+Xn.b i > q q ...Xb.N.Y.U.N.I.Y.I.I.I.I.Y.I.N.I.I.U.M.N.S. X| N X q q q L.(.M.I.Y.A.A.T.I.A.U.I.Y.Y.A.I.I.Y.N.N.m.eXs.M X q q q L.(.M.I.Y.A.A.T.I.I.I.I.U.Y.N.I.I.T.N.N.m.eXs.m p < c c h.6Xb.N.Y.I.N.U.U.A.U.I.U.Y.A.S.I.U.N.M.N.].).b > j k 4 4 7 7 ; O   Y 7 9 4     8 0 6 6 6 6 8 O O 6 3 O 6 9 6 6 6 8 +   O O 0 O   + O = 9   = 9 . =   ",
"mX= O 1 8 +   O + O O . X +                   +     + + O O O X 1 O O 1 O O O 1 O 1 O O O 3 6 O 1 O 6 O 1 1 1 O O + 6 3 3 3 1 6   +       1 O O O O o O O o O O O O O 3 O O O O X O = 3   O X   O = O = = O O O O = X O o O = O O = 3 o = = 7 . + .   o 2 O = o = = # = = = = = = = = = = 3 ; - 4 ; f # % w & . + + 2 = = o * o = = = = = ; * = * = ; 4 4 ; ; 4 f * * + + = = = = O o * = = = = = = = = = ; = 4 ; ; = f e $ < c q K.XXm.I.I.N.A.U.N.I.I.A.I.A.A.A.A.A.A.N.m.oXC.m i < c q ..+Xb.A.I.A.A.I.I.A.I.M.I.I.I.R.N.N.N.N.A.B. X} N @ q q q J.(.M.I.A.A.I.U.N.I.N.A.I.N.A.A.N.A.N.N.m.eXs.( @ q q q J.(.N.I.A.A.I.I.N.I.I.N.U.A.I.A.A.A.N.N.c.eXs.B i < c c h.7Xm.I.I.N.I.I.A.I.A.N.I.I.A.I.A.N.I.M.M.).L.M < g j 4 d 4 = = O   P g 0 6     9 7 7 7 6 7 6 + 1 6 6 3 3 8 7 6 6 8 +   O O 0 +   + O O 0   3 9   O   ",
"mXO O 6 8 + + 3 O O O O O O o . + + + + + + + + X X o O O O = 3 6 O O 1 1 1 O 1 O 1 6 1 O O O 1 1 O 6 1 O 1 O 1 O + 6 6 3 O 3 6 X     +   1 O O X O o O O O = O = O O O O O O O O = o 3   . O   O = = O O O O O O = O O O O O = O = = = O O 7     X + . 7 = * = O O = = = = = * = * = 3 ; ; 4 = ; ; s - % w e o . o 9 o o * = = * = = = = = = = = 4 = * ; = = ; s # - o . = = X * O o = = = = = = = = = ; * ; ; = ; = f ; # q q q H.`.m.m.m.N.R.N.N.A.I.I.N.N.N.N.N.N.N.A.m.%XC.v i > q q ...Xb.M.m.N.R.N.A.N.I.A.S.N.N.N.N.N.B.A.N.C.#X| n @ q q q J.).M.m.M.S.A.A.N.I.I.A.N.N.N.A.N.N.N.N.c.hXs.b @ q q q J.S.M.m.M.A.N.A.N.I.I.A.M.N.N.N.B.N.N.N.c.hXs.m i < q q h.'.b.M.m.N.A.N.N.N.I.A.N.N.N.N.A.N.N.N.M.|.J.m , j j 9 4 4 = ; O   R 9 0 5     9 9 6 9 6 6 6 O O 5 O O 6 9 6 6 6 8 +   O O 0 O   + O O 8   O 0   o   ",
"mXmXmXmX+     X X   +                       + +       +     + X O 1 O O O 1 1 1 O 1 O 1 1 O 1 1 O 1 1 O 1 O 1 1 1 + 3 6 O 1 3 6   + + +   = X O O O O o O O O O O O O O O O = O O O O 4   . .   O 3 O O = X O = O O O O = O O = = O = O = = 6 . . X . + 7 = X = * = * = = = = = ; = ; ; = 4 4 = ; ; d * * w & .   . d = = O = 3 * = = = = = ; - ; 4 4 4 4 4 ; ; d $ = X . 2 = = = = * = = = 3 3 = ; ; * 4 3 4 4 ; 2 - d ; $ < > < h.'.c.x.c.c.x.c.m.x.c.c.b.x.m.x.c.c.v.x.x.eXa.c i < < < } .Xc.b.x.c.c.x.b.c.c.c.b.b.c.c.v.m.x.x.c.B.|.) N @ < q q H.).b.x.c.c.x.x.m.x.c.b.m.x.c.x.b.x.x.x.x.sXX.v @ q q q H.).c.x.c.c.c.c.m.x.c.b.m.c.c.x.b.c.x.c.x.aXX.b i < < > O.6Xc.c.c.c.b.c.b.c.b.b.b.b.c.c.x.c.x.x.c. XH.b > D j 4 4 3 4 = o   Y l 0 7     9 0 6 6 6 6 6 0 U I U U L 3 8 6 6 8 +   O = 0 +   O O 3 0   3 0 + o   ",
"mXmXmX8 K K K U U U U I I I W I I I Q I Q Q I Q I Q Q Q ~ Q ~ #.O + O 1 O O O 6 O O 1 O O O O O 1 O 1 O 1 O O O O   1 1 O O 1 6   + + .   O = O o O O + O . + O o + o + o o o + O O O 3   . o + O 3 o o O . o O . O O O o o o o o O o o = = 7     . .   d o o o o o o o = o # = o o * O * = = = = ; f * - % % . +   d = = o o O o = o = = * = = = = * = = = ; a d % * +   = = = o o = o O O = = * = = * = * = = = = ; j - $ < < q _ ).`. X.XoX X XoXOXoXOX+XoXoX%X%X#XoX X&X|.) m i > < q m z.*X|..X.XoX X.X.XOXOX+XOXoX#XoX#X%X X X&XO.M n @ < < q  .].`. X.XoXoX.X.XoXOXOX+XoX%X%X%X#X%X XeXH.B m @ < < c  .].`. X.XoX X X.X+XoX&X.XoXoX%X%X#X|. XeXH.B m i < > q ( D.XX X.X X X X.XOXoXoX+XoXOX%X%X%X#X X.X@X .m : k f 9 4 4 ; = =   P g 9 3     9 9 7 6 7 6 6 6 0 9 0 8 6 6 6 6 6 9 +   O O 0 +     + + O   o O . +   ",
"mXmXmXS L 0 h h h h h C C h C C C C 0 K C C C C K C C K L U U Q #.O + 6 6 6 1 1 1 1 1 1 1 6 1 6 1 O 1 6 1 3 3 3 3   O 1 1 1 6 6   + + +     O 6 6 6 6 7 7 7 7 7 9 8 8 7 7 7 4 9 7 7 0 + + . X     6 9 8 8 9 7 0 9 7 7 0 7 9 l 7 9 7 7 g d 9 3   o o .   = 9 l l 9 l l g g g h g g k g k k k k k k z a . & % % + +   + 7 l l l g l l g g h g g g k g k k k k k g * . & +   . 7 7 g l g l l l g g l g k h h j D k k k k ; . $ : < q q _ +.o.j.o.j.@.a.f.f.f.g.g.f.h.h.f.f.a...B b b i @ > q q M  .o.@.o.o.o.j.f.f.f.g.h.f.h.h.h.f.a.o.} m b n > : < q v | O.@.o.o.@.j.j.f.f.f.a.f.f.f.h.f.f.a...m b m : > < q v | +.j.@.@.j.o.j.f.f.g.g.g.f.h.h.f.g.a...m b v i : > < c B X.o.o.o.o.j.o.f.f.f.g.g.f.h.h.f.f.a.O.| v b : R g 4 4 4 = = O   P 9 9 3     7 9 6 7 6 6 8 8 8 6 6 6 4 6 9 6 6 9 +   O O 0 +                       ",
"mXmXmXmX6 3 3 O O O O O O O O O + 6 O O O O 5 1 O 1 O 1 3 O + + U #.3 + + + + + + + + + + + + + + + + +   + + + + + + + + + + +     + + .     + O O O 3 O 3 = O = = 3 O O 3 3 O 1 O     + . + .     O = = 6 O = 3 = = O 3 = 6 3 O = 3 = 3 O     o . .     o 3 7 7 7 7 3 7 7 7 7 d 7 7 7 7 l d 7 7 = . . # % % . . .     o X o O o O O O o o = o O O O O o o o   . # # . +     . O O O O . O O o O O o O * O O X O O . . # $ : > : > < > @ @ : : : : > > > < < < q < < < < < < q c w : : @ : < < > > > > : : : > > > < > < < < < > < < < q t @ : > @ > > > > @ > @ : > < > > < < < < < < > < : q q q @ : : : < < > > @ : > : @ > > > < < < < q < < < > < q q & : > : > < > : @ : > : : < < > < < > < < < < < < < q c Y R ; 4 4 4 3 = O   P g 0 6     7 0 7 6 8 8 6 6 3 6 6 3 6 8 6 6 6 9 +   O O h O     +                 ",
"mXmXmXmXmX1 3 6 3 3 3 = 1 1 3 3 1 6 6 1 1 O 6 1 3 1 O 1 1 5 6 6 O I ,.I K K U U K K U U U U U U U U U U U U I U I I I I U Q I U C X   +   . +                                         + . + . + .                                             . . o . .                                             # # # % - + .   . .   .         .   .   .   . .   + . . . . # # # o . .       .       .       .   . .   .   . . . o # $ , $ $ : $ $ : : : : : : , : $ : : $ : : : : , , , , , & : $ : : : $ : $ $ $ : : : $ : : : , , $ : , , , , , , i $ : $ : : $ : : $ $ : : $ : : $ : : , $ : : : , , , < , $ : $ : $ $ @ : : : $ : : : : $ : $ , $ : , , : , , , < $ $ X $ : $ , : : $ $ : $ : : $ : $ : : : : , : : : : v R ; 9 7 = 4 ; = .   Y l 0 5   + 7 7 6 6 6 6 6 9 6 3 6 4 6 6 6 6 6 9 +   O O 0 +   + U #.I S +   +     ",
"mXmXmXmXmXmX6 6 3 O 1 O O 1 O 1 O 1 1 1 O 6 3 3 O 1 O 3 O 6 O 6 1 1 K ~ ~ ~ ~ ~ ~ ~ #.~ #.~ ~ #.~ ~ #.~ ~ ;.;.#.;.#.;.#.#.;.;.#.Q K O   .   .     .       . .     .         .   .   . .   X .   . .   . + . . . . . +         . .   . . . . . . . . . . . . .     . .   . . . . . . . . . . . # # . . # # # # . # # . # # . . # # # # . # # # # # # # # % # % % % % % # % # # # # # # % # # . % % . % # % # # # % % % % % % w % % % % % # % % % % % % # % % # % % % % % - % % % % % % % # % % % # # % % % % % # # # % % % % # % % % w w w w w % % % % % % # % % % % % % % % # % % % % % % % % % % % % % % % % % % % % % % % # % % % % % % % % % % % % % % % % % # % % % # # # # # # # . # # % . * # . # % # # 3 ^ R = 4 9 4 4 3 = = O   I 7 8 3     6 9 8 6 6 6 8 9 7 6 6 6 3 6 6 6 3 8 +   O 3 0 + + U :.^ Y W 0 +   + + ",
"mXmXmXmXmXmXmXO 1 O 1 O O 1 3 O O 1 O 1 O 6 O 3 1 O 1 O 6 3 6 O O O O 1 6 1 6 6 3 3 6 5 1 6 3 6 1 1 3 6 6 6 6 3 6 1 1 1 6 6 6 6 6 8 K O   .     +   . .       . .   .   +   . .       . . . . + .   .   +     .   +   + . . . . .     .   . . . o . . . . . . . . . . . . . . . . . . . # . . . . # # # # # # % # % # % # % % % # % % % % % % % % % % % % % % % % % % % % % % % % % % % # % % % % % % % % % % % % % % % % % w % % % % % % % % % % % % % % % % % % % % % % % % % % % % % % % % % % % % % % % % % % % % % % % % % % % % % % % % % % % % % % % % # % # % % % % % % % % % % % % % % % % % % % % % % % % % % % # % # % % # % % # % % % % % % % % % % # # % % % % # % % # % % # # # # # # # % # . = [ R 4 4 4 4 4 4 3 = 3 .   R 9 8 3     4 8 5 9 7 6 6 4 6 3 6 6 6 7 6 6 3 8 +   O 6 O   U ~ 0 6 3 6 U 8       ",
"mXmXmXmXmXmXmXmX+ 3 1 3 O 1 O O 5 1 O 6 O 6 3 O 3 O 3 O O O O 1 1 O 1 5 1 O 6 1 3 6 6 3 1 1 6 6 6 6 6 1 6 1 6 6 7 6 6 8 6 6 6 8 6 6 7 L O                                                                                                             .                                         .   .     .   .   . . . . . . . . . . . . . . . . . # # . . # # . . . # . # # # . % . # . . . # . # . . . . . # . . . . # # # . . # . # . . # . # . . . # . . # . . # . # . . # . # # . . # # . . # . . # . # # . # # . . # . . . # # . . # # . . # . # # # . # . . . . # # . . # . . # # # # # # # % . # . . # . . . . . . . . . . # . . . . # . # # . . # . # # . # . . . . # . . . . . . . . . . . .   X ` L 4 4 d 9 9 4 4 4 4 = o   R 7 9 3     7 8 6 6 7 6 4 6 6 5 6 6 6 6 6 6 3 8     3 O   0 ,.6 3 6 = 3 8 h   X . ",
"mXmXmXmXmXmXmXmXmX+ O O 3 O O O O O O O O O O O O O 3 O 1 O O 6 O O O 6 O 1 O 1 O O 6 6 1 1 6 O 3 3 6 6 1 6 6 1 1 1 6 6 7 7 6 6 6 6 6 8 U 0 C C C K K 0 C C K K K K K K K K K K K K K K K K K K K K L K K L L K K K K K K K L L L K U K U U U U L U U K U L U U U U P U P P P P R P I R P P R R I P R P P I R R R Y Y T Y T R T Y T T T R T T R R Y T Y T Y T T T T T T T Y T R R T T T T T T [ [ T [ T [ T [ T T T T T T T T T [ T T Y T T T R T T T T T T T T T T T T T T T T T T T T T T T T T T T T T T T R T T T T T [ T T [ E T E E E T [ T T T T [ T T Y T T T T T R T [ T T T T T T [ T T T T T T T [ [ [ T [ [ [ T [ T [ T T T R T [ T T [ T T T [ T / / T T T R T T R T T T R R R T T T Y T Y T 4.Y ; 4 g 9 4 4 4 3 4 4 = *   P 7 8 3     7 8 7 7 7 7 8 3 6 9 6 6 7 7 6 6 3 9 +       0 6.3 6 6 6 6 6 7 6     + ",
"mXmXmXmXmXmXmXmXmXmXo O O = O O O 3 O O 1 O O = = O O = O O O O O O = = = = 1 = = = = 1 1 1 1 = 1 6 6 1 1 1 1 6 1 1 1 6 6 = 6 6 6 6 6 6 6 I :.:.;.:.:.;.;.;.:.,.,.,.,.,.,.,.,.2.,.,.2.,.,.,.,.6.2.,.2.6.2.6.2.2.,.6.2.2.2.2.2.6.6.6.2.6.6.6.6.6.2.2.6.2.6.6.8.6.8.8.8.6.6.8.8.8.8.9.e.8.8.8.8.8.e.8.8.w.8.8.w.7.8.8.8.8.8.w.w.w.w.w.8.e.8.e.e.e.e.w.e.w.e.e.t.e.e.w.e.e.w.e.w.w.w.w.w.e.w.w.w.e.w.w.e.w.w.w.w.w.w.t.e.q.w.e.w.w.e.t.w.w.w.t.e.w.w.w.w.w.w.w.w.q.w.q.w.w.w.w.w.w.w.w.w.w.w.w.w.w.w.w.w.w.w.w.w.q.w.w.q.q.q.w.w.w.t.w.w.w.w.w.q.q.q.q.q.q.w.w.q.q.q.q.q.q.7.4.q.w.q.w.w.w.q.y.q.q.q.w.q.4.y.7.q.q.4.4.4.y.y.y.y.4.4.y.4.4.4.4.4.4.4.4.y.4.4.3.4.3.3.3.3.3.3.4.1.1.3.3.4.3.3.3.4.4.4.3.3.1.1.P ; 9 9 9 4 7 7 3 6 ; = = o   L 9 8 6     9 8 6 6 8 6 8 6 6 6 6 6 6 6 6 3 6 0 +   + h :.3 O 6 6 6 6 6 1 +       ",
"mXmXmXmXmXmXmXmXmXmXmXmX                                                                                                      + = 6 6 6 6 3 O O O O O O O O O O O O O O O O O O O O O O O O O O O O O O O O O O O = O O = = O O O O = O O = 1 = O # = O = O O = X = = = = = = = = = O = = = = = = = = = = = = = = 2 = = = = = = $ = ; ; 2 = = - = = ; ; = - ; = 2 ; 2 ; 7 ; = = ; ; ; ; = ; ; = - ; ; - ; ; ; ; ; - 3 - 4 e ; ; ; ; ; e ; e ; 4 4 ; ; e ; ; ; ; ; e ; ; e - ; e - = ; ; ; ; 4 4 e ; ; e - ; e ; - e ; 4 4 4 4 e ; ; e ; e e ; 4 ; ; ; e ; = ; e ; e ; ; ; ; ; - ; = ; ; ; - * = ; - ; ; ; = - ; ; ; - - - ; ; ; - = ; ; ; ; = ; & - - ; ; = - - = = = = ; - = = = = = = = = = * = = = * = ; 7 d 4 7 4 7 4 6 4 3 = = o   P 6 8 6   + 8 0 6 4 7 8 6 7 6 6 8 7 7 6 6 6 6 6     S ^ 6 O 6 6 6 6 6 6 +         ",
"mXmXmXmXmXmXmXmXmXmXmXmXmXmX                                                                                                      O 7 7 3 6 6 6 1 1 1 1 1 6 6 6 1 7 6 7 7 1 7 6 7 6 6 6 6 7 1 7 7 = 1 3 6 6 6 7 = 7 7 6 2 = = 7 7 7 1 1 2 7 7 2 7 7 7 7 7 7 7 ; 7 4 4 7 7 7 7 7 7 7 7 d d 7 d 9 4 d 7 7 7 d 9 a d d d d d d d 7 7 f l l f d d d d j d d d d f f j f f l f f d d l g g g f g g f f j f g f g f f f g s f g g f s g g f d f j f f f g j f f f j f f f g f a s f s f g f f f j g f g g f f f g g d f f g g f j f f f j g f j f f f f f f f f f f g f g s f d d f d f a f f f s f f f d f g d f f a f a d d d f f d d d f d d d d d d d f d d a d a d d d a d 7 f d d d 9 e d a e 7 7 e 7 d a 7 4 7 4 9 4 4 7 3 = 4 = ; O   P 7 8 3     O 6 3 3 3 O 3 3 3 3 3 O 3 O 3 1 O +   h ~ 8 3 1 1 1 3 8 6 +         mX",
"mXmXmXmXmXmXmXmXmXmXmXmXmXmX+ .   +   X + +   + X     +     X X   .   + X X   + + + + X + + + + + + + + + + . . + X . + X +         O 7 6 6 1 1 1 = 1 1 1 1 = 1 = = 1 = ; = ; 7 6 7 7 = = 6 1 7 7 = 7 7 7 2 ; 6 ; 7 = 7 7 ; 2 1 1 2 7 2 2 7 2 2 7 7 ; ; = 7 7 7 9 4 7 7 2 d 7 ; 7 d 7 7 d 7 4 4 4 4 ; d 4 4 4 d d d d d d d f a d d f d d d d d f d d d s d a a ; d g g f d f f s f f g f f f a a f g f g a f a s f f f s d f f a f f f f j j f s f j f j f j j f f f f f f f f d f f d f f s j j f f f f f f f f f f f f f j j d f f f f d f f f s f f f d f f f f f d f f f f d d d s f a f f a f f f d a f d f a d f s d d d a d d a d s a e s ; d d d a d a f d d d a d 4 e a a a e d a d a 4 d a 7 a 4 7 a 4 4 4 4 7 4 3 7 = 3 O   S 7 8 5 +                           + + +   +   8 ;.6 3 6 1 6 6 8 7       mXmXmXmX",
"mXmXmXmXmXmXmXmXmXmXmXmXmXmXmX  X +   + + + + .   + + + X + +   + O + + + X + + + + + . . X + + + + + X X   . O   o . X X   . +       X 3 6 = = = = O O O O = = = = = = = 1 = = 3 = 2 = 1 6 1 = = 6 7 = 6 6 = 7 7 6 4 7 7 1 1 7 7 = 6 2 7 = 7 2 2 7 = 6 7 6 4 7 4 7 9 4 = 7 7 7 7 9 7 4 7 7 7 7 7 ; 7 d 7 4 4 d 7 f d 9 7 d d 9 7 d 7 d d 7 d 7 l 7 d d 7 ; f 9 d 7 f d d d f 7 9 d d g d f g d d f f d d d d d a d d a f d d f a d f d f d a d d g f f f g a f f d d f d d d d a f d d f f f f f g f f d f f f d d f f j f f j f f f f d f f a d d a f f d f f d d f f d d d d f d d 7 d d d a 9 a d a f a d d d l d f f l d 7 4 d d d a 4 d ; 7 d 4 7 d ; 4 7 2 d d 7 4 4 d 7 d 7 7 4 4 7 7 7 7 4 9 7 7 7 7 7 d d 3 7 = 4 = 4 6 4 =   L S 4 9 :.>.>.>.,.=.' =.=.=.=.;.;.;.:.=.:.:.;.:.6.0 3 3 6 6 6 7 6         mXmXmXmX",
"mXmXmXmXmXmXmXmXmXmXmXmXmXmXmXmX  O X   . . + + . X + O O X . o + o . O . . + o X + + O O + + o X . + O X X O . O + O + o + O . .                                                                                                                                                                                                                                                                                                                                                                                                                   .                             .                                                                                                                             . 3 7 = 7 4 7 4 3 = o   S 9 7 4 6 7 6 7 6 9 7 6 3 6 8 7 6 6 6 6 6 6 6 6 3 6 6 3 6 3 7 6 +     mXmXmXmXmXmX",
"mXmXmXmXmXmXmXmXmXmXmXmXmXmXmXmXmX  O O O . O X O + + O O + O + O + . o X X o o X X X . + O X + + X O + O O . o o o X O o o o + + . +                                                                                                                                       .           .   .     .         . .           .   . . .     .     .   .   . . . . . . . .   .   . . . . . . . . . .   . . .   . . .   . . . .     . . . . . . . . . . . . . . . . .   . . . . . . . . . . .   . . . . . . .   . . . . . . . . . . . . # . . . . . . . . . . . . . . . . # . . . . . . . . . . . . .   . . . . . . . .   . . . . . . . .   . . . .     . . . . . . . .   . . . . . . .   . . .   . . . . . . .           = 4 ; 3 6 ; 4 = O   S 7 8 6 3 7 7 7 7 7 7 6 6 6 7 6 6 9 6 6 6 0 8 6 6 6 6 6 6 6 6         mXmXmXmXmXmX",
"mXmXmXmXmXmXmXmXmXmXmXmXmXmXmXmXmXmX  O O O O O O O O O O 3 O O O 1 = O = O O = O O O = O O O 3 = O O = O O 3 O 3 = O 6 = O 3 = O O = O . X X   . . X . . + o X X o . o . . . o o o o . o # . o . o o # . . X # o o # X o o # * # o * X # * # o O # # o = # X * # # = # = = # $ * * * * * * * = * * = * * = # = - & - * - = - ; * * - - & * - - - & * * * - - ; & - & ; - - - - - - - - ; & - ; ; ; - ; - & - - - & & - - & - - - - - - & - ; - - - & - * & - ; - & & ; - & - - & - - & - - ; ; - ; - ; - - - & & - ; e - e - & - - & & - - ; ; w ; & - * - - & - - - - - & - & - & - & - - ; - - - - - - - - * - - & - - % - * * % - & - * & - - - * % * - - - - & - - & - - - - & - - & * * = # # * * $ * * # o .   3 7 = 6 = 6 = o   S 9 9 6 4 7 9 6 6 7 6 7 8 6 6 6 6 8 6 6 6 6 6 6 6 6 6 6 7 6           mXmXmXmXmXmX",
"mXmXmXmXmXmXmXmXmXmXmXmXmXmXmXmXmXmX  + O O O O O O O O O O = O O O 6 3 O O O O O O O O O O = O = O = = = = = = = O 1 = = O 1 O 6 O 3 O O O = mX    +   . +   + + . . +   + + .     . . X + + + +   . +   . + + . + X . + . + X . + . X . . + . + X . + o + + . + + . X + . o X . o o o . O . o o . o o o . o X o o . o X o . . . . X X o o o o o o o o o o o # . # o o o o o o o o # O o o o # o O O # X o O # o # o o * o o o # o o o o # X o o o o o O # o o * o o o = o o o # O o o o o o o O # o o X * o X o . o o o O # o o o # X o # O O o o o o O # o o . o o o o o o o o o # o o o o o o o o o o o X . . o o o o o # o . o o . X o o o o . o . . . o o o + o o . . . X o . X . O . . . . + . . + . + +   .     = 7 = = = = o   S 0 9 9 8 8 9 9 9 9 8 0 8 9 8 8 9 9 4 6 7 7 8 8 8 4 6 7 3           mXmXmXmXmXmXmX",
"mXmXmXmXmXmXmXmXmXmXmXmXmXmXmXmXmXmXmX                                                                                                mXmXmXmXmXmXmXmXmXmXmXmXmXmXmXmXmXmXmXmXmXmXmXmXmXmXmXmXmXmXmXmXmXmXmXmXmXmXmXmXmXmXmXmXmXmXmXmXmXmXmXmXmXmXmXmXmXmXmXmXmXmXmXmXmXmXmXmXmXmXmXmXmXmXmXmXmXmXmXmXmXmXmXmXmXmXmXmXmXmXmXmXmXmXmXmXmXmXmXmXmXmXmXmXmXmXmXmXmXmXmXmXmXmXmXmXmXmXmXmXmXmXmXmXmXmXmXmXmXmXmXmXmXmXmXmXmXmXmXmXmXmXmXmXmXmXmXmXmXmXmXmXmXmXmXmXmXmXmXmXmXmXmXmXmXmXmXmXmXmXmXmXmXmXmXmXmXmXmXmXmXmXmXmXmXmXmXmXmXmXmXmXmXmXmXmXmXmXmXmXmXmXmXmXmXmXmXmXmXmXmXmXmXmXmXmXmXmXmXmXmXmXmXmXmXmXmXmXmXmXmXmXmXmXmXmXmXmXmXmXmXmXmXmXmXmXmXmXmXmXmXmXmXmXmXmXmXmXmXmXmXmXmXmXmXmXmXmXmXmXmXmXmXmXmXmXmXmXmX      = 9 = = = O   = 7 3 3 = 6 3 = 6 = = 1 = 3 6 3 3 3 3 6 6 O 3 = 3 3 3 O             mXmXmXmXmXmXmX",
"mXmXmXmXmXmXmXmXmXmXmXmXmXmXmXmXmXmXmXmXmXmXmXmXmXmXmXmXmXmXmXmXmXmXmXmXmXmXmXmXmXmXmXmXmXmXmXmXmXmXmXmXmXmXmXmXmXmXmXmXmXmXmXmXmXmXmXmXmXmXmXmXmXmXmXmXmXmXmXmXmXmXmXmXmXmXmXmXmXmXmXmXmXmXmXmXmXmXmXmXmXmXmXmXmXmXmXmXmXmXmXmXmXmXmXmXmXmXmXmXmXmXmXmXmXmXmXmXmXmXmXmXmXmXmXmXmXmXmXmXmXmXmXmXmXmXmXmXmXmXmXmXmXmXmXmXmXmXmXmXmXmXmXmXmXmXmXmXmXmXmXmXmXmXmXmXmXmXmXmXmXmXmXmXmXmXmXmXmXmXmXmXmXmXmXmXmXmXmXmXmXmXmXmXmXmXmXmXmXmXmXmXmXmXmXmXmXmXmXmXmXmXmXmXmXmXmXmXmXmXmXmXmXmXmXmXmXmXmXmXmXmXmXmXmXmXmXmXmXmXmXmXmXmXmXmXmXmXmXmXmXmXmXmXmXmXmXmXmXmXmXmXmXmXmXmXmXmXmXmXmXmXmXmXmXmXmXmXmXmXmXmXmXmXmXmXmXmXmXmXmXmXmXmXmXmXmXmXmXmXmXmXmXmXmXmXmXmXmXmXmXmXmXmXmXmXmXmXmXmXmXmXmXmXmXmXmXmXmXmXmXmXmXmXmXmXmXmXmX  O 1 = = = .                                                             mXmXmXmXmXmXmXmXmXmXmX",
"mXmXmXmXmXmXmXmXmXmXmXmXmXmXmXmXmXmXmXmXmXmXmXmXmXmXmXmXmXmXmXmXmXmXmXmXmXmXmXmXmXmXmXmXmXmXmXmXmXmXmXmXmXmXmXmXmXmXmXmXmXmXmXmXmXmXmXmXmXmXmXmXmXmXmXmXmXmXmXmXmXmXmXmXmXmXmXmXmXmXmXmXmXmXmXmXmXmXmXmXmXmXmXmXmXmXmXmXmXmXmXmXmXmXmXmXmXmXmXmXmXmXmXmXmXmXmXmXmXmXmXmXmXmXmXmXmXmXmXmXmXmXmXmXmXmXmXmXmXmXmXmXmXmXmXmXmXmXmXmXmXmXmXmXmXmXmXmXmXmXmXmXmXmXmXmXmXmXmXmXmXmXmXmXmXmXmXmXmXmXmXmXmXmXmXmXmXmXmXmXmXmXmXmXmXmXmXmXmXmXmXmXmXmXmXmXmXmXmXmXmXmXmXmXmXmXmXmXmXmXmXmXmXmXmXmXmXmXmXmXmXmXmXmXmXmXmXmXmXmXmXmXmXmXmXmXmXmXmXmXmXmXmXmXmXmXmXmXmXmXmXmXmXmXmXmXmXmXmXmXmXmXmXmXmXmXmXmXmXmXmXmXmXmXmXmXmXmXmXmXmXmXmXmXmXmXmXmXmXmXmXmXmXmXmXmXmXmXmXmXmXmXmXmXmXmXmXmXmXmXmXmXmXmXmXmXmXmXmXmXmXmXmXmXmXmXmXmXmXmXmXmX= = * O X + O . . o X . + .   .   . . .   . + o o .   .           mXmXmXmXmXmXmXmXmXmXmXmX",
"mXmXmXmXmXmXmXmXmXmXmXmXmXmXmXmXmXmXmXmXmXmXmXmXmXmXmXmXmXmXmXmXmXmXmXmXmXmXmXmXmXmXmXmXmXmXmXmXmXmXmXmXmXmXmXmXmXmXmXmXmXmXmXmXmXmXmXmXmXmXmXmXmXmXmXmXmXmXmXmXmXmXmXmXmXmXmXmXmXmXmXmXmXmXmXmXmXmXmXmXmXmXmXmXmXmXmXmXmXmXmXmXmXmXmXmXmXmXmXmXmXmXmXmXmXmXmXmXmXmXmXmXmXmXmXmXmXmXmXmXmXmXmXmXmXmXmXmXmXmXmXmXmXmXmXmXmXmXmXmXmXmXmXmXmXmXmXmXmXmXmXmXmXmXmXmXmXmXmXmXmXmXmXmXmXmXmXmXmXmXmXmXmXmXmXmXmXmXmXmXmXmXmXmXmXmXmXmXmXmXmXmXmXmXmXmXmXmXmXmXmXmXmXmXmXmXmXmXmXmXmXmXmXmXmXmXmXmXmXmXmXmXmXmXmXmXmXmXmXmXmXmXmXmXmXmXmXmXmXmXmXmXmXmXmXmXmXmXmXmXmXmXmXmXmXmXmXmXmXmXmXmXmXmXmXmXmXmXmXmXmXmXmXmXmXmXmXmXmXmXmXmXmXmXmXmXmXmXmXmXmXmXmXmXmXmXmXmXmXmXmXmXmXmXmXmXmXmXmXmXmXmXmXmXmXmXmXmXmXmXmXmXmXmXmXmXmXmXmXmXmXmXmXmXmXmXo . O o o . O . o . . O . . . . . . . o o . . . .   mXmXmXmXmXmXmXmXmXmXmXmXmXmXmX",
"mXmXmXmXmXmXmXmXmXmXmXmXmXmXmXmXmXmXmXmXmXmXmXmXmXmXmXmXmXmXmXmXmXmXmXmXmXmXmXmXmXmXmXmXmXmXmXmXmXmXmXmXmXmXmXmXmXmXmXmXmXmXmXmXmXmXmXmXmXmXmXmXmXmXmXmXmXmXmXmXmXmXmXmXmXmXmXmXmXmXmXmXmXmXmXmXmXmXmXmXmXmXmXmXmXmXmXmXmXmXmXmXmXmXmXmXmXmXmXmXmXmXmXmXmXmXmXmXmXmXmXmXmXmXmXmXmXmXmXmXmXmXmXmXmXmXmXmXmXmXmXmXmXmXmXmXmXmXmXmXmXmXmXmXmXmXmXmXmXmXmXmXmXmXmXmXmXmXmXmXmXmXmXmXmXmXmXmXmXmXmXmXmXmXmXmXmXmXmXmXmXmXmXmXmXmXmXmXmXmXmXmXmXmXmXmXmXmXmXmXmXmXmXmXmXmXmXmXmXmXmXmXmXmXmXmXmXmXmXmXmXmXmXmXmXmXmXmXmXmXmXmXmXmXmXmXmXmXmXmXmXmXmXmXmXmXmXmXmXmXmXmXmXmXmXmXmXmXmXmXmXmXmXmXmXmXmXmXmXmXmXmXmXmXmXmXmXmXmXmXmXmXmXmXmXmXmXmXmXmXmXmXmXmXmXmXmXmXmXmXmXmXmXmXmXmXmXmXmXmXmXmXmXmXmXmXmXmXmXmXmXmXmXmXmXmXmXmXmXmXmXmXmXmXmXmXmXmXmXmXmXmXmXmXmXmXmXmXmXmXmXmXmXmXmXmXmXmXmXmXmXmXmXmXmXmXmXmXmXmXmXmXmXmXmXmXmX"
};
