/* XPM */
static const char *enemy7_xpm[] = {
/* columns rows colors chars-per-pixel */
"396 81 238 2 ",
"   c #020402",
".  c #040A04",
"X  c #080B07",
"o  c #070C08",
"O  c #0A0D0A",
"+  c #03070A",
"@  c #160605",
"#  c #1A0706",
"$  c #1C0807",
"%  c #1D0A08",
"&  c #150D05",
"*  c #021402",
"=  c #091504",
"-  c #031A03",
";  c #0A1A04",
":  c #071309",
">  c #0B130C",
",  c #0C1A0D",
"<  c #071808",
"1  c #10140F",
"2  c #171709",
"3  c #0F1410",
"4  c #0E1A11",
"5  c #08151A",
"6  c #111612",
"7  c #141B15",
"8  c #181C17",
"9  c #171D18",
"0  c #191E19",
"q  c #1B1610",
"w  c #060F15",
"e  c #220907",
"r  c #230A09",
"t  c #2C0C0A",
"y  c #2B0806",
"u  c #330906",
"i  c #330D0B",
"p  c #3B0D0B",
"a  c #3A0906",
"s  c #261709",
"d  c #34100E",
"f  c #3B110E",
"g  c #391E0E",
"h  c #331310",
"j  c #052304",
"k  c #0C2405",
"l  c #062A04",
"z  c #092B06",
"x  c #0C210D",
"c  c #0A2B08",
"v  c #152A09",
"b  c #0A3407",
"n  c #0E2311",
"m  c #0F2811",
"M  c #132415",
"N  c #132915",
"B  c #162319",
"V  c #1B221C",
"C  c #162A19",
"Z  c #1A2C1D",
"A  c #1B321E",
"S  c #19341E",
"D  c #1C300D",
"F  c #35220C",
"G  c #3A250E",
"H  c #23251C",
"J  c #0A1C27",
"K  c #1F2420",
"L  c #1F2C21",
"P  c #1D3421",
"I  c #1D3921",
"U  c #0C2637",
"Y  c #0F2634",
"T  c #212521",
"R  c #222C24",
"E  c #262D28",
"W  c #292E2A",
"Q  c #223224",
"!  c #263229",
"~  c #2B322D",
"^  c #243926",
"/  c #2E3430",
"(  c #2E3C32",
")  c #313532",
"_  c #333B35",
"`  c #363E39",
"'  c #393E3A",
"]  c #383937",
"[  c #35362D",
"{  c #440D0A",
"}  c #4A0E0B",
"|  c #410A07",
" . c #43110E",
".. c #51100D",
"X. c #4C1411",
"o. c #441310",
"O. c #521513",
"+. c #5C1915",
"@. c #530F0D",
"#. c #661D19",
"$. c #711E1B",
"%. c #70201C",
"&. c #772C27",
"*. c #6E2D24",
"=. c #592B1B",
"-. c #2F4234",
";. c #324436",
":. c #354439",
">. c #3B433D",
",. c #354B3B",
"<. c #394C3D",
"1. c #324A37",
"2. c #38513E",
"3. c #5F4237",
"4. c #0D2C43",
"5. c #133857",
"6. c #10314A",
"7. c #3E4A42",
"8. c #3E4640",
"9. c #3C5141",
"0. c #424643",
"q. c #434B45",
"w. c #464C48",
"e. c #494E4A",
"r. c #484C47",
"t. c #435246",
"y. c #455449",
"u. c #4C524D",
"i. c #47594A",
"p. c #4C5D4D",
"a. c #455947",
"s. c #4E5E51",
"d. c #4E5550",
"f. c #525C53",
"g. c #545955",
"h. c #4D604E",
"j. c #4E6050",
"k. c #516152",
"l. c #5B635D",
"z. c #57615B",
"x. c #5F6761",
"c. c #626C65",
"v. c #616864",
"b. c #66746B",
"n. c #69756D",
"m. c #6A796E",
"M. c #647368",
"N. c #6C7C71",
"B. c #6F7571",
"V. c #727974",
"C. c #88322E",
"Z. c #91322D",
"A. c #A53B34",
"S. c #A83C36",
"D. c #AC3934",
"F. c #C92E2A",
"G. c #CC322E",
"H. c #C2312D",
"J. c #D7322E",
"K. c #CE3632",
"L. c #D43531",
"P. c #DA3632",
"I. c #D53A36",
"U. c #DC3935",
"Y. c #DB3E3A",
"T. c #D53D38",
"R. c #D32E2B",
"E. c #EB3632",
"W. c #E43A36",
"Q. c #EB3B36",
"!. c #E53C39",
"~. c #EC3D39",
"^. c #E53431",
"/. c #F33E3A",
"(. c #F93F3A",
"). c #F23935",
"_. c #E3332F",
"`. c #8B4D39",
"'. c #884735",
"]. c #9A433B",
"[. c #A7423C",
"{. c #BF453E",
"}. c #DD413C",
"|. c #C7443F",
" X c #E7413D",
".X c #F5413C",
"XX c #F9433E",
"oX c #B44943",
"OX c #AF4944",
"+X c #D5544D",
"@X c #CD5851",
"#X c #D35B54",
"$X c #DC5A54",
"%X c #DA5B55",
"&X c #D04E48",
"*X c #E64B45",
"=X c #ED4B46",
"-X c #E94A45",
";X c #F64640",
":X c #FB4641",
">X c #FC4A45",
",X c #FD4F48",
"<X c #F34D47",
"1X c #EC514B",
"2X c #FE534C",
"3X c #F4534C",
"4X c #E25C56",
"5X c #E25E59",
"6X c #EA5C55",
"7X c #FE5750",
"8X c #FE5B53",
"9X c #F75A54",
"0X c #DC635D",
"qX c #D5625B",
"wX c #E7635C",
"eX c #FE635B",
"rX c #FC665D",
"tX c #DD6760",
"yX c #E36B63",
"uX c #FE6B63",
"iX c #F76C65",
"pX c #FF746C",
"aX c #F8756C",
"sX c #FF7B73",
"dX c #F97A73",
"fX c #EE756C",
"gX c #738678",
"hX c #FF837C",
"jX c #FF837A",
"kX c #778B80",
"lX c #FF8681",
"zX c #FF8A84",
"xX c #FF8E89",
"cX c #FF928D",
"vX c #FF9691",
"bX c #FF9894",
"nX c #849A8B",
"mX c #000001",
/* pixels */
"mXmXmXmXmXmXmXmXmXmXmXmXmXmXmXmXmXmXmXmXmXmXmXmXmXmXmXmXmXmXmXmXmXmXmXmXmXmXmXmXmXmXmXmXmXmXmXmXmXmXmXmXmXmXmXmXmXmXmXmXmXmXmXmXmXmXmXmXmXmXmXmXmXmXmXmXmXmXmXmXmXmXmXmXmXmXmXmXmXmXmXmXmXmXmXmXmXmXmXmXmXmXmXmXmXmXmXmXmXmXmXmXmXmXmXmXmXmXmXmXmXmXmXmXmXmXmXmXmXmXmXmXmXmXmXmXmXmXmXmXmXmXmXmXmXmXmXmXmXmXmXmXmXmXmXmXmXmXmXmXmXmXmXmXmXmXmXmXmXmXmXmXmXmXmXmXmXmXmXmXmXmXmXmXmXmXmXmXmXmXmXmXmXmXmXmXmXmXmXmXmXmXmXmXmXmXmXmXmXmXmXmXmXmXmXmXmXmXmXmXmXmXmXmXmXmXmXmXmXmXmXmXmXmXmXmXmXmXmXmXmXmXmXmXmXmXmXmXmXmXmXmXmXmXmXmXmXmXmXmXmXmXmXmXmXmXmXmXmXmXmXmXmXmXmXmXmXmXmXmXmXmXmXmXmXmXmXmXmXmXmXmXmXmXmXmXmXmXmXmXmXmXmXmXmXmXmXmXmXmXmXmXmXmXmXmXmXmXmXmXmXmXmXmXmXmXmXmXmXmXmXmXmXmXmXmXmXmXmXmXmXmXmXmXmXmXmXmXmXmXmXmXmXmX6 O 3 O O O O O O w O O 1 3 1 1 O 1 w X 1 1 w O 1 O 7 q mXmXmXmXmXmXmXmXmXmXmXmXmXmX",
"mXmXmXmXmXmXmXmXmXmXmXmXmXmXmXmXmXmXmXmXmXmXmXmXmXmXmXmXmXmXmXmXmXmXmXmXmXmXmXmXmXmXmXmXmXmXmXmXmXmXmXmXmXmXmXmXmXmXmXmXmXmXmXmXmXmXmXmXmXmXmXmXmXmXmXmXmXmXmXmXmXmXmXmXmXmXmXmXmXmXmXmXmXmXmXmXmXmXmXmXmXmXmXmXmXmXmXmXmXmXmXmXmXmXmXmXmXmXmXmXmXmXmXmXmXmXmXmXmXmXmXmXmXmXmXmXmXmXmXmXmXmXmXmXmXmXmXmXmXmXmXmXmXmXmXmXmXmXmXmXmXmXmXmXmXmXmXmXmXmXmXmXmXmXmXmXmXmXmXmXmXmXmXmXmXmXmXmXmXmXmXmXmXmXmXmXmXmXmXmXmXmXmXmXmXmXmXmXmXmXmXmXmXmXmXmXmXmXmXmXmXmXmXmXmXmXmXmXmXmXmXmXmXmXmXmXmXmXmXmXmXmXmXmXmXmXmXmXmXmXmXmXmXmXmXmXmXmXmXmXmXmXmXmXmXmXmXmXmXmXmXmXmXmXmXmXmXmXmXmXmXmXmXmXmXmXmXmXmXmXmXmXmXmXmXmXmXmXmXmXmXmXmXmXmXmXmXmXmXmXmXmXmXmXmXmXmXmXmXmXmXmXmXmXmXmXmXmXmXmXmXmXmXmXmXmXmXmXmXmXmXmXmXmXmXmXmXmXmXmXmXmXmX8.z.e.u.0.7.7.8.8.0.0.q.8.8.8.8.8.>.8.q.0.0.8.w.w.0.0.w.w.T mXmXmXmXmXmXmXmXmXmXmXmXmX",
"mXmXmXmXmXmXmXmXmXmXmXmXmXmXmXmXmXmXmXmXmXmXmXmXmXmXmXmXmXmXmXmXmXmXmXmXmXmXmXmXmXmXmXmXmXmXmXmXmXmXmXmXmXmXmXmXmXmXmXmXmXmXmXmXmXmXmXmXmXmXmXmXmXmXmXmXmXmXmXmXmXmXmXmXmXmXmXmXmXmXmXmXmXmXmXmXmXmXmXmXmXmXmXmXmXmXmXmXmXmXmXmXmXmXmXmXmXmXmXmXmXmXmXmXmXmXmXmXmXmXmXmXmXmXmXmXmXmXmXmXmXmXmXmXmXmXmXmXmXmXmXmXmXmXmXmXmXmXmXmXmXmXmXmXmXmXmXmXmXmXmXmXmXmXmXmXmXmXmXmXmXmXmXmXmXmXmXmXmXmXmXmXmXmXmXmXmXmXmXmXmXmXmXmXmXmXmXmXmXmXmXmXmXmXmXmXmXmXmXmXmXmXmXmXmXmXmXmXmXmXmXmXmXmXmXmXmXmXmXmXmXmXmXmXmXmXmXmXmXmXmXmXmXmXmXmXmXmXmXmXmXmXmXmXmXmXmXmXmXmXmXmXmXmXmXmXmXmXmXmXmXmXmXmXmXmXmXmXmXmXmXmXmXmXmXmXmXmXmXmXmXmXmXmXmXmXmXmXmXmXmXmXmXmXmXmXmXmXmXmXmXmXmXmXmXmXmXmXmXmXmXmXmXmXmXmXmXmXmXmXmXmXmXmXmXmXmXmXmXmXmXmX` N.d.' ' ` ' ' _ / ~ / / E W T T T W E E T T K T T K K K K ` T + o mXmXmXmXmXmXmXmXmXmX",
"mXmXmXO mXmXmXmXmXmXmXmXmXmXmXmXmXmXmXmXmXmXmXmXmXmXmXmXmXmXmXmXmXmXmXmXmXmXmXmXmXmXmXmXmXmXmXmXmXmXmXmXmXmXmXmXmXmXmXmXmXmXmXmXmXmXmXmXmXmXmXmXmXmXmXmXmXmXmXmXmXmXmXmXmXmXmXmXmXmXmXmXmXmXmXmXmXmXmXmXmXmXmXmXmXmXmXmXmXmXmXmXmXmXmXmXmXmXmXmXmXmXmXmXmXmXmXmXmXmXmXmXmXmXmXmXmXmXmXmXmXmXmXmXmXmXmXmXmXmXmXmXmXmXmXmXmXmXmXmXmXmXmXmXmXmXmXmXmXmXmXmXmXmXmXmXmXmXmXmXmXmXmXmXmXmXmXmXmXmXmXmXmXmXmXmXmXmXmXmXmXmXmXmXmXmXmXmXmXmXmXmXmXmXmXmXmXmXmXmXmXmXmXmXmXmXmXmXmXmXmXmXmXmXmXmXmXmXmXmXmXmXmXmXmXmXmXmXmXmXmXmXmXmXmXmXmXmXmXmXmXmXmXmXmXmXmXmXmXmXmXmXmXmXmXmXmXmXmXmXmXmXmXmXmXmXmXmXmXmXmXmXmXmXmXmXmXmXmXmXmXmXmXmXmXmXmXmXmXmXmXmXmXmXmXmXmXmXmXmXmXmXmXmXmXmXmXmXmXmXmXmXmXmXmXmXmXmXmXmXmXmXmXmXmXmXmXmXmXmX  _ kXi.4 7 5 9 4 3 > > 3 3 6 3 6 6 4 3 3 6 4 6 6 6 6 6 6 6 6 9 7 0.T + mXmXmXmXmXmXmXmXmXmX",
"mXmXmXmXmXmXmXmXmXmXmXmXmXmXmXmXmXmXmXmXmXmXmXmXmXmXmXmXmXmXmXmXmXmXmXmXmXmXmXmXmXmXmXmXmXmXmXmXmXmXmXmXmXmXmXmXmXmXmXmXmXmXmXmXmXmXmXmXmXmXmXmXmXmXmXmXmXmXmXmXmXmXmXmXmXmXmXmXmXmXmXmXmXmXmXmXmXmXmXmXmXmXmXmXmXmXmXmXmXmXmXmXmXmXmXmXmXmXmXmXmXmXmXmXmXmXmXmXmXmXmXmXmXmXmXmXmXmXmXmXmXmXmXmXmXmXmXmXmXmXmXmXmXmXmXmXmXmXmXmXmXmXmXmXmXmXmXmXmXmXmXmXmXmXmXmXmXmXmXmXmXmXmXmXmXmXmXmXmXmXmXmXmXmXmXmXmXmXmXmXmXmXmXmXmXmXmXmXmXmXmXmXmXmXmXmXmXmXmXmXmXmXmXmXmXmXmXmXmXmXmXmXmXmXmXmXmXmXmXmXmXmXmXmXmXmXmXmXmXmXmXmXmXmXmXmXmXmXmXmXmXmXmXmXmXmXmXmXmXmXmXmXmXmXmXmXmXmXmXmXmXmXmXmXmXmXmXmXmXmXmXmXmXmXmXmXmXmXmXmXmXmXmXmXmXmXmXmXmXmXmXmXmXmXmXmXmXmXmXmXmXmXmXmXmXmXmXmXmXmXmXmXmXmXmXmXmXmXmXmXmXmXmXmXmXmXmXmXmXmX~ N.j.4 0 V V 0 V 9 V 9 9 9 9 9 7 9 7 9 0 0 9 9 7 7 q 0 9 9 9 9 6 0 e.T mXmXmXmXmXmXmXmXmXmX",
"mXmXmXmXmXmXmXmXmXmXmXmXmX6 6 6 6 6 6 6 6 6 7 6 6 7 6 7 7 8 9 6 7 7 9 9 0 9 0 7 9 9 0 9 0 9 0 7 0 9 8 0 0 0 0 9 0 0 0 0 0 0 0 0 0 0 0 0 0 6 mXmXmXmXmXmXmXmXmXmXmXmXmXmXmXmXmXmXmXmXmXmXmXmXmXmXmXmXmXmXmXmXmXmXmXmXmXmXmXmXmXmXmXmXmXmXmXmXmXmXmXmXmXmXmXmXmXmXmXmXmXmXmXmXmXmXmXmXmXmXmXmXmXmXmXmXmXmXmXmXmXmXmXmXmXmXmXmXmXmXmXmXmXmXmXmXmXmXmXmXmXmXmXmXmXmXmXmXmXmXmXmXmXmXmXmXmXmXmXmXmXmXmXmXmXmXmXmXmXmXmXmXmXmXmXmXmXmXmXmXmXmXmXmXmXmXmXmXmXmXmXmXmXmXmXmXmXmXmXmXmXmXmXmXmXmXmXmXmXmXmXmXmXmXmXmXmXmXmXmXmXmXmXmXmXmXmXmXmXmXmXmXmXmXmXmXmXmXmXmXmXmXmXmXmXmXmXmXmXmXmXmXmXmXmXmXmXmXmXmXmXmXmXmXmXmXmXmXmXmXmXmXmXmXmXmXmXmXmXmXmXmXmXmXmXmXmXmXmXmXmXmXmXmXmXmXmXmXmXmXmXmXmXmXmXmXmXmXmXmXmXmXmXmXmXmXmXmXmX` N.s.7 4 9 o O K K K K 0 K K K K K T K K K 0 K K K T 0 0 0 T 7 6 7 6 9 >.E mXmXmXmXmXmXmXmXmX",
"mXmXmXmXmXmXmXmXmXmXmXmXO ) ' ] ] ] ) ] ] ) ] ' ] ' ' >.>.0.0.>.8.>.>.>.>.0.0.8.0.0.0.w.w.w.e.w.w.w.e.r.e.e.e.e.e.e.e.u.e.u.d.d.d.g.g.d.g.' 6 mXmXmXmXmXmXmXmXmXmXmXmXmXmXmXmXmXmXmXmXmXmXmXmXmXmXmXmXmXmXmXmXmXmXmXmXmXmXmXmXmXmXmXmXmXmXmXmXmXmXmXmXmXmXmXmXmXmXmXmXmXmXmXmXmXmXmXmXmXmXmXmXmXmXmXmXmXmXmXmXmXmXmXmXmXmXmXmXmXmXmXmXmXmXmXmXmXmXmXmXmXmXmXmXmXmXmXmXmXmXmXmXmXmXmXmXmXmXmXmXmXmXmXmXmXmXmXmXmXmXmXmXmXmXmXmXmXmXmXmXmXmXmXmXmXmXmXmXmXmXmXmXmXmXmXmXmXmXmXmXmXmXmXmXmXmXmXmXmXmXmXmXmXmXmXmXmXmXmXmXmXmXmXmXmXmXmXmXmXmXmXmXmXmXmXmXmXmXmXmXmXmXmXmXmXmXmXmXmXmXmXmXmXmXmXmXmXmXmXmXmXmXmXmXmXmXmXmXmXmXmXmXmXmXmXmXmXmXmXmXmXmXmXmXmXmXmXmXmXmXmXmXmXmXmXmXmXmXmXmXmXmXmXmXmXmXmXmXmXmXmXmXmXmXmXmXmX8.gXy.7 7 7 9   ) V.B.B.B.n.B.V.B.B.V.V.B.V.B.B.B.B.B.B.c.B.B.B.v.7 6 0 6 7 ` W mXmXmXmXmXmXmXmX",
"mXmXmXmXmXmXmXmXmXmXmXmXT V 6 7 7 7 7 7 7 7 6 8 6 9 7 9 0 0 7 q 0 7 q 0 7 0 0 0 0 0 0 V 0 0 0 0 0 0 0 K V K K 0 K 0 K 0 0 K 0 0 0 0 0 0 9 K W 0 mX0 T W W / / ~ ~ ~ / / / / / ` ` _ _ _ _ _ _ _ _ _ _ ` _ ` ` ` ` ' ` ' ` ' >.:.` :.` ` ` ' :._ ` ` _ _ _ ` _ :.:.>.>.:.' :.` :.:.>.>.:.<.>.>.>.7.7.7.7.7.7.q.7.7.q.7.7.7.7.7.q.9.t.q.q.t.q.t.7.y.q.t.7.q.9.t.y.y.y.y.y.9.9.q.y.y.t.t.t.t.t.q.9.q.t.t.t.y.y.i.y.i.y.y.t.y.t.t.y.t.t.y.y.y.y.y.t.y.i.y.t.y.y.y.t.t.y.t.y.i.y.t.7.9.y.q.y.i.9.9.9.y.y.y.y.y.t.y.q.t.y.y.t.y.y.t.t.t.t.t.y.y.y.y.7.t.y.t.t.t.t.y.9.y.y.t.p.y.y.y.y.y.t.y.y.i.i.t.t.y.y.y.i.y.y.t.t.y.t.t.q.t.y.y.t.t.t.t.t.7.t.t.q.q.t.q.t.q.t.q.7.q.t.7.>.8.<.7.7.7.7.0.:.:._ >.7.>.:.>.>.8.>.:._ 7 mXmXq.gX7.6 7 9 7 7   8./ E W W W W W W W W W W W W W W T E E E E T K E K 6 7 8 9 6 _ E mXmXmXmXmXmXmX",
"mXmXmXmXmXmXmXmXmXmX+ T H 7 0 0 9 9 9 0 0 K 0 9 0 V 8 V 0 T 0 0 K K 0 0 0 K K K K V K K K K K K T T T T T T T T T T T T T T K K K K V 0 0 9 6 V 6 6 0 K K T R T T R E ! E E ! ~ ~ / / ~ [ ~ ~ ~ [ ( ( _ _ ( _ _ _ ( :.:.:.:.:.:._ _ ;._ ( _ ` _ ;._ _ _ ( _ ( _ ` :._ _ ( ( :.;.:.:.:.;.,.:.:.:.:.:.:.:.,.:.<.,.,.;.,.:.,.,.,.7.9.7.,.,.9.,.7.,.2.7.,.:.,.,.<.,.7.9.,.,.,.,.,.<.>.7.,.,.,.,.2.,.,.,.9.,.,.,.,.,.,.7.,.,.,.,.,.2.,.<.,.<.2.,.,.:.:.,.9.,.9.9.9.,.<.<.2.<.<.,.,.,.,.1.,.9.9.1.9.9.2.2.,.2.9.9.9.,.9.9.9.,.2.,.,.,.,.,.,.9.,.,.,.1.,.,.,.,.,.1.,.,.7.,.,.,.9.,.,.:.-.:.,.,.,.1.1.-.1.:.,.<.,.,.,.;.1.1.;.-.;.:.:.1.:.-.,.,.-.-.;.;.-.-.;.;.;.( -.( -.( ( ~ ~ ( ( ( ( ~ ( ^ ! ! ~ ~ ! Q ~ ! ~ ! Q K 4   e.gXy.7 V 7 M 7 4   ) R L R R H R E R T T E W T E T T H V R T T K K V 9 6 7 9 7 7 3 8.E   mXmXmXmXmX",
"mXmXmXmXmXmXmXmXmXmXV T 7 0 0 8 8 9 6 0 6 8 0 9 0 0 8 8 8 6 0 0 7 0 0 0 0 8 8 0 q 9 9 0 0 0 K 0 V V 8 K 0 V V T 0 K V T V V 0 8 0 6 6 7 7 6 7 6 > X + O > > O O O O o O > O > O : : O > X O : > : X O : : O > > > O > O O O O O > O O > : : : O O O : > = O > : : O X : O O : O : o o > , > > > = > > > > > > = > > > 3 > > : : > = > > > > : > < : > < : , > = > < < > , > : < , : > : : < , < < : , , < , = , : < 4 > : , , , > < , < , > < , > < < 4 > = , = : < = < , = = , : , < : < 4 : : , : < 5 < < : w > : : < : < < , , < < = > < , : < < , < = , > < < : > = < 3 : : < : : : , : > , < > : : : : : : : > , > : = : : = > > : : < : : : > : : > = = : : : = < = > > : : : O : : : : : X : X O X   X X O f.nX<.7 V 7 7 7 7 3   / K 9 V V V V V T V 8 0 0 q V 0 V 8 8 V V 8 V 8 0 0 0 7 7 7 7 6 6 ' E mXmXmXmXmX",
"mXmXmXmXmXmXmXmXmX0 K 7 6 0 7 6 8 8 8 7 0 8 9 0 8 8 8 7 7 0 9 9 0 0 8 0 9 8 8 8 0 0 0 9 9 0 0 0 V 8 0 H V V K 0 0 V 0 V 0 0 8 8 q 9 O O 0 0 0 T V 8 0 K K K 0 0 V V V V V T V K K H V V K K K K T T V T T V T H K K K K V T H T T K T T H T K T T T T T T K K L T T Z H K R L R R R L K T R T R R R T R T R L Q R E L L R R R R R L R L L E P E ! L Q ! Q ! Q Q P E Q ! Q P Q Q ! P P ! ! ! P Q P P Q Q P ! Q Q ! I ! P P ! P P Q Q Q Q ! Q ! Q ^ L Q ^ ^ R Q Q R Q ! ! Q Q Q Q L L P L L L P ! P L L ! P L P ! R L ! L L L P L L E L Q L L P E L R P R R ! L E L P P E P L L P L P L P I L Y P L L Q R L L L E R Q L Q ! Q L L R R Q R R R L L L R L L L L L L L L L R L L R V L V K T L K V L Z V T V V V 0 T d.gX9.7 7 B B 7 7 6 O   / K B V K 9 V K V V V V K K V V 0 V V V K V V 0 K 0 7 7 7 7 9 4 6 6 _ W mXmXmXmX",
"mXmXmXmXmXmXmXmX8 V 7 q 8 7 6 8 6 7 8 8 8 8 8 6 9 9 0 8 0 6 9 q 7 0 7 0 9 9 9 9 7 9 9 9 0 9 q 8 V V 0 0 V 0 0 K 0 V 0 0 8 8 0 8 0 X K e.g.g.l.g.z.g.x.x.g.x.x.l.x.l.l.z.x.g.l.v.x.v.l.l.l.l.x.v.l.x.v.l.v.x.v.v.x.x.v.v.c.x.v.v.x.v.v.c.c.v.v.v.x.v.c.c.c.c.c.c.c.M.c.c.c.v.c.c.c.c.c.M.M.c.b.M.c.b.M.M.M.c.M.n.b.b.b.b.b.n.n.b.b.n.m.m.n.n.N.N.N.N.N.m.n.N.m.m.n.m.m.m.m.m.m.m.m.m.N.m.n.N.n.m.B.N.N.n.b.N.m.m.N.n.m.N.V.N.N.N.N.N.N.N.m.N.N.N.N.N.N.N.N.N.gXN.N.m.gXN.m.gXV.N.N.N.N.N.B.N.N.N.N.N.N.N.N.gXN.N.N.N.N.N.N.N.N.N.N.m.N.n.m.N.N.b.b.N.N.n.n.b.b.b.b.b.m.b.n.m.b.n.m.b.m.b.M.n.n.b.b.b.n.n.n.b.N.b.n.n.N.b.n.b.N.n.b.b.n.b.b.n.b.n.n.n.n.b.b.M.M.M.x.c.b.M.M.M.M.M.M.M.M.b.M.c.c.c.c.c.c.c.M.c.x.M.b.7.B V V V 7 B 7 6 >   ( V 9 9 O O O O O O O O + O + + O O O O O O O o O 7 8 7 9 8 6 9 6 7 9 W E mXmXmX",
"mXmXmXmXmXmX+ 0 K 7 9 q 7 8 7 8 9 7 7 7 0 6 7 7 6 8 9 7 6 0 8 0 8 7 9 9 9 9 8 9 7 8 0 9 9 9 0 0 0 8 8 0 0 0 0 0 0 K 0 0 V 8 8 8 O 6 r.~ K T T T T T 0 T K K 0 V K K K K T T T T 0 K H K K K T T V H K K H V K V K K K H K H K T T T V T K T T T K T K V T Z H K T T T Z T T T V K L T R L T T T K T R T T T T T T T R R L R R R R R R R R R Q L L R R R Q R R Q E L L R Q Q R R L L P L L L L E L L ! L R Q L R Q L Q L L ! L P P L Q P I L P L P E P L L Q Q L L Q L P R R Q R L ! L P L ! P P P ! P L L P L L L P L L P ! L ! P R Q Q P ! I L Q L P L R P R R L L L L P L Y P L L L L L L K L L L L R L P E R E L P L L R L L L R R L Q R R L L Q R L P L L L L L T R Z L T R T L Z R T T H K Z L T T T T L Z V 9 B B B V B 7 7 4 >   / B 0 6         + +     +   +       +       +       6 8 6 9 6 7 7 7 7 6 / E mXmX",
"mXmXmXmXmXmX6 T 6 7 6 6 6 6 8 6 9 9 7 6 8 8 0 8 0 0 6 8 7 q 6 0 9 q q 8 6 6 8 q 8 7 6 q 8 9 0 q 7 7 9 8 0 0 0 0 0 0 0 0 V V 8 X 9 q.0 0 V V K V 8 V V 0 0 V 0 V 0 0 V K 0 V T V V V 0 V V V V V V V V V V V V V H V K K V V V V V V Z H K Z H V V Z V V V V H V V V V V Z T H V V K R K K L R V K L Z L L P Z L Q P Q L L L R R T Z L P Q P P L L Q P P Q ^ Q Q P P P I P Q ^ P ^ ^ I P ^ P I I ^ P I I A S ^ S P P P S P P ! P P I I ^ P P I P P P I P I I P A P S P P Q P Q ^ ! I P P P I P P ^ I ^ P I I P P I I I I P I P I I S I ^ P P I C I I I P S ^ I P I I P P P P P P P P I I P P P P P P P Q P I I P P L I P Q I P I A P ^ P Q P S S I P P A Z P Z L A Z P P Q Q P A P P Q Q Q A Z C L Z Z L Z Z Z V C C 7 B 7 7 B 7 9 4 >   ( K V 6     O 7 7 7 7 6 6 6 7 6 6 6 3 6 3 3 3 O     + 6 7 6 9 6 6 6 6 7 6 E mXmX",
"mXmXmXmXmXmX7 3 6 6 % w 1 1 6 6 % 3 6 O 1 1 q 6 6 6 6 6 6 6 6 8 7 9 6 6 6 6 1 6 6 6 6 q 6 6 6 w 6 6 6 6 q 6 6 6 8 6 q 7 6 6 O 0 _ 8 6 0 8 8 9 7 7 7 6 8 9 7 7 6 0 9 7 7 0 8 8 7 8 8 9 8 0 8 9 7 7 7 7 8 8 V B 0 8 8 8 B B V V V 7 V 8 B V B B 7 7 9 8 V B 8 7 V V V 7 B B 7 V B B B 8 B V V B Z V V V V V V V V V C V C Z C Z Z Z Z Z Z V Z L Z Z Z C Z C Z A Z Z C Z Z A Z P C L L C L L C Z Z Z S L P P C C P Z P Z C S L I I S S C S C L S S C P P L A Z A A A C A A A S A S C P S S I L S C S S Z P S S C P P L C S C P P L S C C S L C S S C S P L A A A S P L P S L S S S L C S C L C L S Z A A Z C P P P S Z C S C S L C C Z S C A C Z Z N C C Z N P C C Z C C C A N A Z C C C Z C C C C C Z C Z Z C B B V B C 7 B 7 7 7 4 4 >   ~ B 9 6     6 7 6 6 0 7 6 8 7 7 6 6 6 6 7 3 1 6         6 9 6 6 6 9 9 9 7 6   mX",
"mXmXmXmX6 E E W W W W W E E E E W W W E W W W W W W ) W / / W W W W W ) / / / / W / / / ) / / / / ) ) ) ) ) ) ) ) ) W ) ) ) E ) 8 7 8 0 8 0 8 9 8 8 V 8 8 8 0 8 8 8 8 8 8 0 8 V 0 V V 8 8 V 8 V V 8 B V 0 V 0 B 8 V V V H V V V V H V V V V V V V V V V V Z V V Z V V V V V V Z V Z V Z V C Z V Z Z L Z Z Z Z L Z P Z P L L A L P R Z P Z P Z P P P A A P P S S P S P S P A P P I I P P P P P I P P I P P I S S S P P P S I I I I I I P I I P I I I P I I S S I I S S I S S S S I I P I I I P I P S P P I I I I I I P I I I I I I I P S P I S P I I I P I S S I I P S P P S I S P I P P I P S I S I S S I S P I P S P I P I L P S S P S S S S S A A A A Z S P P A C S P A A A S P P Z A A A Z A Z Z A Z Z C L C B B V 7 B B 7 4 7 4 >   / B 9 3     6 9 7 6 6 6 7 6 7 7 0 7 8 6 7 3 1 6 +       + 6 9 6 9 6 6 6 7 6 + mX",
"mXmXmX6 ) q.0.0.0.0.0.0.8.>.8.0.0.0.0.q.0.q.w.r.r.r.e.e.e.e.q.r.e.w.w.e.r.d.d.e.e.e.e.e.d.e.w.e.e.e.e.u.u.u.e.e.u.u.e.e.u.e.) 0 6 8 7 0 7 O O O O O O O O O O O O O O O O O O X O O O X X O o O O O O X O O X O O O O O O O O O O O O O O O O O O : O O O O : O O O > : O O O : O O : : O O > = : O > O > > > = 3 > = 4 > , > > > = 3 > , , < > , = , > , , , < , , > = , < , , , < , < , < , , , , , , , , , < < > , , , , , , , , < , , , , , , , , , , , < < 4 = , < , , < , < , , < , , , , , , , , , x , , , , , , , , , , , , , < , , = > , , 4 , , < , < > , , < < , , < , < , < 4 = , < , , = > , , , , < , > < , , , > < , < = > < > , < = > < > > < = > = > < > > > = > , > < , > > = < = > : < : 7 Z Z B V 7 M 7 7 7 4 6 >   ~ B 9 4     6 0 6 7 7 8 6 9 9 7 7 7 7 6 6 6 3 6   o 6 o   + 6 9 6 6 7 6 q O   mX",
"mXmXmXT 0 8 8 8 7 q 7 6 7 q 8 6 7 0 8 q 9 6 7 8 6 0 0 6 9 0 8 7 6 6 0 0 0 9 0 0 8 8 8 8 9 0 0 q 0 0 0 0 8 8 8 8 8 8 9 q 7 6 8 0 0 9 8 6 +                                                                                                                                                                                     .     .   .   .     .   .             .     .     . . .   . . .   .   .     .   . *     . .   . . * . * . . * . . . . . * . . . . . *   . . .     . . . . . .   .   . . . .   . . . . .   . . * . . . * . . . *   .   . . . . . . . *   . . . . . * . . . . * . . .   * . . . .   . . . . . .   . .   . . . . .   .   . . . . .   . .     . . .     .                 .       X 6 Z M B M 7 B 7 4 7 4 >   ~ B V 6     9 9 7 7 7 7 7 6 6 9 7 7 6 8 6 6 3 9 o   6 0       O 0 6 6 9 1     mX",
"mXmXW V 0 V 0 8 0 0 0 0 0 0 0 T 0 H 0 K 0 K 0 T 0 T H H 0 0 T T 0 V V 0 K K K 0 K 0 K K 0 T T K K 0 T T 0 K T 0 0 H 0 K V 0 0 0 0 8 6                                                                                                                                                 .         .     . . . . * * - * * * * * - * * * * * * * * * * - * * * * * * * * * - * * * - * * * - - * - - * * - - - - - - * - - * * - - * - - * * * - - * - - * - - * - - - - - - - * * * * * * * * * - - - - - * - - - - * * * - * * - * * - - * - * - * - - - * * * - - * * * - * - - - * - * * * * * - * * - - * - * * * * - - - * - - * * - - * - - * * * * * - * - * * - - - - * * * - * * * * - * * . * * * . .   7 P 7 7 M 7 4 7 7 4 O   ~ V V 6     9 9 6 8 7 7 9 9 0 0 0 7 7 6 9 4 6 0 +   O 0 7                   X mX",
"mXT V 8 0 0 8 8 8 0 0 0 0 0 0 0 0 0 K 0 0 0 H 0 0 0 0 0 0 V T 0 T 0 0 K 0 0 0 K V K T V 8 0 H V H T V V V 0 0 8 0 V 0 0 8 0 0 0 8 0                                                                                                               .                           . .   .   . . . . . .   * . . *                                                 . . * * .                       +                       . * .                                                 . * - - - - j - j c - - - - j - - l j - - j - - - - - - - - - - - j - - - - j - j l j - j - j - - - - - - - - j j - - - - - - - - - - - j j - - - - - j - - - - - - - - - - - - - - - - - - - - j j - - - - j - - j * * * * . * * .   3 P M M 7 7 4 3 4 >   ! 9 9 6     7 9 1 7 8 8 6 7 6 7 7 6 6 6 6 6 q 0     O O T +                   mX",
"1 6 6 6 6 6 6 6 6 6 6 6 6 6 1 q 6 6 q 6 6 6 6 7 q 6 6 6 6 6 6 q 6 6 6 q 6 6 6 q 6 6 6 1 6 6 6 6 6 q 6 6 6 6 6 1 6 6 6 > 6 6 6 6 6             + +   O O X o O O X O O O O O o O O O X         .   + O o X O O O O o O O O O O O O O O O : o   .   .   .   o > O = O > > > 3 > > > > > > > > 3 > < : * * * . * .       6 V C B B V V V V B V B K Z V Z K L C Z 4 * * *       O V V C V B L V V B B K K B Z Z V L L Z M * * * . .   O V V B C V V V Z V B B K K L Z Z L Z L M * * - ; & & 2 s g &.`.`.`.`.'.`.`.`.`.`.`.`.`.`.`.`.'.'.O.s % 2 & & 2 2 s =.`.`.`.`.`.`.`.`.`.`.`.`.`.`.`.`.'.'.*.e 2 y & & 2 2 s =.`.`.`.`.`.`.`.`.`.`.`.`.`.`.`.`.'.'.*.r s r ; & 2 2 s G '.`.`.`.`.`.`.`.`.`.`.`.`.`.`.`.'.C.&.f r e q L 7 B 4 7 4 4 3   ~ B 9 6     0 7 O     + +                 O 6 0     1 O T X     + > O     +   mX",
"                                                                                                                                            O > 1 6 6 8 8 8 8 7 7 6 7 7 8 7 6 9 7 6 1 +   . .   . 6 9 7 7 7 9 8 9 B 8 V V 7 B V V V V 8 8 6 X . .       . 9 V B V B B V V B B V V B Z L L L L C Z C : * * * - .     O B 7 7 7 7 M 7 M 7 9 B B 4 B C B C B M M C : . *     . B B 7 4 4 7 7 M M 7 9 9 n M B B C V M C Z 4   *     . 9 B 7 6 7 7 7 7 M 4 B B 4 M C C 9 C B M Z , . j - $ e t f oX3X X*X=X<X=X*X*X.X;X3X<X=X=X=X=X*X X X+X$.p s $ e t y &.6X1X X1X X=X*X*X=X=X<X<X=X=X<X1X=X X X1XD.{ i # $ y y &.6X-X X-X1X=X*X*X=X.X3X<X=X=X=X1X=X X X*XD.p p = % t e } 4X3X X*X1X<X=X*X=X X.X3X3X<X=X3X=X*X*X*X&X+.i @ Z Z 9 7 4 7 4 >   ~ V 9 6     6 6 0 >.0.0.0.w.0.0.0.w.r.0.' T 9 0 +   O 6 K X   X 6 K T   1 E 6 O ",
"+                                                                                                                                         + O X X   + X + +   X + O + O X X + X X O X >   .     X > X X X X + X + X . X X . + + + X + O X O :     .     3 o X X . + O o : o X o o : O X . o O : : , , . * - -     . 3 X X X + X o : o . . . . : o X . o o . : , , . :   . > o . . X X o X . . . . . . > : . X X o . : m : *     > o . . . X o . + X o o o o o . . o + X . : M X j ; e e r %.6XF.K.G.L.J.K.F.G.P.L.L.K.K.L.J.L.F.G.H.K.{.o.s @ e t y oX*XG.G.G.R.L.G.G.K.P.L.J.G.J.J.L.G.F.G.D.rX%.i @ e y y &X XG.L.G.L.L.G.G.R.I.L.J.G.L.L.J.F.R.G.D.9X%.i , y r t C.rXF.R.L.R.L.G.G.G.P.J.J.G.K.J.J.G.H.G.H.}.A.i @ B C 9 4 4 7 4 O   ~ B 9 3   + 7 V T / / ) _ ' ) ` ' ) ` ) W K 6 0     > 6 V o   + X 1 H   1 8   1 ",
"                              X     .   X . + + . . . . + +   X     +   .   X     X       +     +                   X X X + X O           O X O X O X O O O X O X O O O X : O O o O X 1   +     X > O O o O O O O > o o > O > O O : > : O : >     . . . > > : > > > : > > : : > > > > > > 4 : : = 4 n . * - j .   . 4 : o : : o w > : > : 3 3 > > > : , , : > 4 x . * .   > > > o > O : w > : > : 3 > > : : > > : > > M - . .   > > : > > > : > > < > : 3 : > : , > > = , > m - k ; e y t *.6XR.}.U. XW. X XU.W.!.W.W.W.~.!.U.I.P.P.|.+XX.s @ t t e @X XP.}..X XW.!.W.W.W.W. XU.!.!.W.I.P.J.F.rXZ.t @ t s e @X*XL.U. XW.Q. XW.W.W.Q.!.U.!.~.U.Y.P.J.F.rXZ.y v y t % A.eXG.Y.W. XW. XW.U.}.E.}.}.W.Q.W.U.P.L.L.*X{.y @ B C M 4 B 4 3 :   ~ B B 6     8 T 0 0 8 8 0 9 7 8 7 6 1 1 6 6 9 0 X   > O T O   X + 6 0   1 K   X ",
"+ .           X X   X O + O o + X O X O O O O w O + O O O O X   X X + X   O + . o o + O   O o X X .   + X o   X     O O O O O 1           1 X O O O O O o O O + X O O O O X + X O O O 6   + X   O > O O O O O : O X O O O O O O O O > o O O 3 +   .   X 7 = : > > o 3 > > > : O : > : : > : : : , < x : * j x     . 7 : o : O > > : . > : > > : > > : , : > , , N * * .   > : : : o > > o : : > 3 > > : > > 4 , : , : N , :     > > > : : : > : o = > > w = > , : 3 > > 4 < N , j k y i t &.6XR._. X.X X.X_.}._.~.W.Q.~.~.W.Q.Q.P.L.}.+XX.s @ y i s @X X}._..X X~.W.P.Q.Q.Q.U.~.W._.U..XP.P.G.uXC.u @ y d r @X-XW.!.~.~.~.W.U.!.W.Q._. XE._.}..XP.J.R.uXC.u 2 t t t ].rXR.!.~.~. XE._. XJ.E._..XW.~.W.!.W.U.L.*X{.u & V Z M 7 4 3 4 >   W V V 3     9 V 8 V V H V T V 8 8 8 9 7 0 6 7 9     O 1 H o   X X > K   O 0 X X ",
"    X X       1 o o O O O O X O O O > O O O O % 1 O O O 1 + O O O O O O X O O X O O X O O O O X X O X O o X X o +   O 1 X 1 O 6 +         > + O O + O O O O X > O X O O O O O O O O X 3     X   X > O O O O O O O X : o o 3 o : > o O > : o 6 .         6 O : O > > : . : > > > 3 : 3 , : 3 > < 4 , N : - j j .   . 3 > : : > > > o : 3 : > > : , : > > , < , , m . : .   > O > > 3 > > . > > > > : > > > : > : : 4 , N = :     > : > O > w O O > > > > > : > > : > = - , > N < j ; r i h &.rXJ..XE..XE. XE..X X~.Q.~..X~.~.~.W.P.W.U.+XO.s @ i t t #X1XE.)..X X~.Q..X~.~.Q.)..X.X.X.X}._.U.J.uXZ.u @ u t i @X=XW.).(.~.~.Q..X~. XQ.).XX X.X.XE.P.}.R.uXZ.a v y d t A.uXP.~./.). X X.X X.X.XE..X)./.~.~.W.U.P.*X|.u $ V Z M n 7 4 4 >   ! V 9 4   + 8 K 9 V 0 V V V 0 8 8 7 7 0 9 0 9 0     1 O K +   + X 6 K   O 0 o X ",
"  K ) / ) O + O + 1 1 O 1 O O O 1 O > 6 1 w % w 1 1 1 w 1 O O 1                                                     1 > 6 O 1 6     X     1 X O o O O O O O o O O O O O O O O O O O : 6   . .   O > O O O O O o O O O O O O O O > O > O > O 6 .   .     6 : : > > > > > : > : > > > > > > > , , 4 , m . - j x .   . 7 : > > O O > : > O > 3 3 > > > : 3 > , 4 x M . :     > O > > O : O > > : > 3 > > 5 3 : 4 > , , < N < <   . : O > > O : > o > : > : > 4 : 3 > , > 5 4 < N < k k e i t &.iX_. X.X.X.X.X X.X.X.XXX.XXX.X.X~.~.Q.Q.!.+XO.s & t d u #X1X_..X.X.XXX~..X~.XXXX~.XXXX.X X.X XW.J.uXZ.u @ u d y #X3XW.Q.(.~..X~..X/.XXXX~.XXXX.XE..X X XP.uXZ.| v t t t ].uX_.Q..X)..X.X.X.X.XXX.X.XXX.X/./.Q.Q.W.1X&Xu # C Z B 7 7 4 3 O   / V 9 3     9 V 7 8 7 8 V 7 8 8 7 8 8 9 7 6 6 0 o   1 1 K     X + 1 0   O 0 X O ",
"  0 8 7 T O   1 1 1 O O w % 6 6 6 1 6 6 6 6 6 6 O 1 1 6 1 1 1 6                                                     1 O O O 6 0 X         O X O X o O X O : O O O O O O O O O : O O > 6   . .   X > O O O O O > > O O > > O > : O O > O : o 7     :     6 O O > O . > : > : w : , > > : 4 4 : 4 4 , N * - j c .     4 o : O > > > > > : > : : 3 > , 4 4 : 4 4 , N * *     > : > O > O > > > > : > : 4 = : > 4 , , 4 , N , -     3 > . > > > > > : > > 3 : 3 3 : 4 4 > , 4 , N x z ; e i d &.wX_.E.)..X.X.X.X.X.XXXXX.XXX.X.X(.~..XQ. X$X+.F $ t d u #X.X^..X.XXXXX.X~..XXXXXXXXX.XXX.XXX)..X_.uXZ.p @ y i u #X<XE.(./.:X.X.X/.(..XXXXXXX.XXX.X.X)..X_.uXZ.i v t i i [.uX^././.XX.X.X X.X).XXXXXX.X;X.X/./.~.Q.1X|.u # Z Z B n 4 4 3 >   ! B 9 3     9 K 0 8 9 8 7 7 9 9 0 7 6 9 7 6 9 0     w 1 T X   + O 6 0   1 0   O ",
"  8 7 6 K O   6 + 1 1 1 1 + 6 6 6 1 O 1 1 w 1 6 6 6 O 6 6 O w 6   +   + X X X o O O O + O + o o X X O X X   X X +   6 1 6 O 6 0           > + O O O X o O : O O O O O > O O > O > O O 6   + .   X > O O O > O O : > > O > O O > o > > o O > 6 X   X .   6 > > O 3 > > > > > > 3 > 4 > > : 4 : 4 4 x m : - j k X + . 4 > O O > > > > > : 3 > 3 > 3 5 < , > , 4 n M . < . + 1 > > w > : > > 3 > > 3 : 3 > 5 < , > 4 4 , N < - .   > > > O > O > > > > : 3 > 3 : 3 3 : , 4 4 , N < z k y i g &.iX X.XXXXXXX.X.XXXXX>X>XXX>X>X.XXX.XQ. XXX$XO.F # t d u qX9X XXXXXXX.X.XXXXXXXXXXX7XXXXXXXXXE..X.XpXD.a # u d u #X6X~.,X(.;X/.).XXXXXX>XXX2XXXXXXXXXE..X.XiXZ.| v t i i [.sXE.;X:X;XXX.X.XXXXXXXXX2X:X:X.XXX/.Q..X3X&Xu % Z Z B 4 4 7 4 =   / B 9 6     8 V 9 7 9 7 7 7 9 9 7 8 0 7 9 6 7 8 +   O 6 K X   + X 1 H   1 0 X X ",
"  8 7 6 0 O   6 1 & O 1 6 6 O + + 1 6 6 6 q 6 + X 6 7 6 6 6 1 K 6 % O 1 X 1 O 1 O & 1 1 6 O O 1 1 O + 1 w 1 1 X     6 6 > 1 6 6 X         1 : O o O O > O X O O O O O O O O > O O > O 6   . .   O > O O O O O O O O O O O : O O > O O > : O >     X     6 > : O > O : > > = > > > : 5 , 4 , 4 4 , 4 x : - j j X   + 4 > O > > 3 > : > > : > : , : 3 , < , , 4 , m * = .   > > > . > > > > = > : > > : 4 > , , , 4 : , N , *     > > > O < w > : < > > > : , 4 > 4 , , > , : N , z k e i a &.iX_..XXXXXXXXXXXXX8XeX7XXX.XQ.XXXX.XQ.Q..X0X#.F @ t f a qX3X.X,X.XXX.X,X2XXX7XeXXXXXE..XXXXX.XW._.uXD.| # y f | %X3X).>X(.:X:X<X<X>X7X8XXXXX X.XXXXX).}.E.uXA.{ v y i u [.sXE.;XXX>X>XXXXXXX7XeX,XXX~.~.:XXX/.W.W.3X&Xp e C Z M 4 7 6 3 >   / B 9 6     7 V 6 9 9 7 9 9 6 9 9 7 6 9 0 6 6 0 X   O O H X   X X 1 0   1 0   X ",
"  6 6 6 0 o   1 O w 1 6 1 O & K / ] ' ] ' e.0.] W O & q 6 6 w T ) / W W / W W W W ) ) / / / / W W W / W W W W V q + 6 6 1 O 3 7 X         1 X O O O O O o O O O O O O O O O O O O O O 6   . X   X 3 O O O O O > > O O > O O > > O O > O O O 6 + . . . . 6 > : O > > > > < > > : > 4 3 : , > , = x , m : - l z       > : > > > > > > > : 4 > 3 > : 3 , > > , M , m * :     O : > > : > > > : : > : : 3 3 , > 4 : , 4 , N , :     > > > > > > > > > : > : > 3 : > , 5 , , 4 , N < b k s i p C.iX_.XXXXXXXXXX8X7XXX7X7X2X>XXXXXXX.X.X.X X4X#.g $ i f a #X3X.XXXXXXXXX7X8XXX2X8X,X,XXXXXXX.X.X.XE.pXA.| # i d a %X3X/.,X:X:X:X7X8X:X7X8X2X2XXXXXXXXX.X.XE.pXA.{ v i i p [.pXE.:X:X(.XX,XeXXX,X7X7X2X:XXX:XXX.X(..X3X&X{ e Z Z 7 M 4 4 , :   ~ V 8 6     9 0 9 6 7 6 9 9 6 9 9 6 9 9 6 6 7 0     1 O 0 O   o O > 0   O 0   X ",
"  6 6 6 T O   6 1 1 1 O   0 W T 0 6 6 6 6 6 q W ] r.T + q 6 6 6 1 1 6 O 1 O 1 1 6 + 1 1 1 O O 1 1 1 1 1 1 3 6 O >   6 6 > 6 6 7 +         1 O : o O o O O X O O O O O O O O X O > O : 6     .   X > O O O O : O O O > O O O O O o > O O O > 6 .   .   + , : > > > > > > > : 3 > > > : 4 : 4 , , 7 , m : - j z X   . 3 > > . > > > > > > : > > : > > , 4 , , , , M * < X   > > O > O > > > > > > > > > : > , , 4 4 , : N k <   + > > : O o > > > > o > > > : > 4 < < , 4 , , m x z k y i u C.fX XXX7XXX7X8X7X2X7X8X7X>X7XeX,X>XXXXX.X.X0X#.F $ t f a qX3X.X,X,XXX7X8X2X2X8X8X,X7XeX2X>X.XXX.XE.jXA.| # u f a %X6X~.,X,X:X7X8X2X2X8X7X,X2X8X7X2X.XXXXXE.jXA.| D t p i [.sX^.;X2X:X,X8X2X2X2XeX2X2X8X8X,X:X:X.X/.9X+X{ e Z Z M n 7 6 > O   ~ B 8 >   + 9 V 6 6 0 9 9 9 9 6 9 9 9 6 9 6 6 0     6 O K o   o X 6 0   w 0   O ",
"+ 7 6 6 H + + 1 1 6 o   W E 7 7 6 1 1 1 1 O 1 1 w 0 l.W + 6 6 1 w O X 1 1 1 O O 1 w 1 1 + 1 1 1 1 O 1 O 1 1 @ O O + 3 1 O 3 3 7 X         1 X O O O O O O + O O O O O O O O O O O > O 6   X     + > O O o > O O O O > > O O O O > X > O O O 7 X X .   + > O > : : > > > > > > < = 3 3 : 4 , 4 4 4 , m : - j j X   X > > > : O : > > O > : 3 : 3 , : > 4 4 4 , , N * : .   > O > O > > : O : w > : 3 : 4 > > 4 , 4 , , m , = . + > > O : > > > > > > : : > : 4 > > , , 4 4 , m < l k t p p C.fXE.2X,X>X7XrXeXrXrXrXrXeXrXrXrX7X2X:X.X;XwX#.F $ i f a %X9X>X8X:X2XeXeX8XrXrXuXeXrXrXrX7X7XXXXX.XjXD.{ $ i p a %X9X>X7X:X,XeXeX8XrXeXuXeXrXuXuX7X7X>X.XQ.jXA.{ D t p p [.pX).2X>X2X8XeX8XrXrXuXuXeXuXuX8X7X2XXX~.9X@X{ e C Z M , 7 4 , O   ! K V 3   + 7 V 7 7 7 9 9 7 8 7 7 8 7 6 7 6 7 8     1 O H O   o o 6 0   > 0 X X ",
"  7 9 3 0 +   1 w O   E 0 O 7 6 6 7 7 q 6 1 1 1 q 1   w.T @ 6 1 1 O 1 + O O 1 1 O O X 1 1 1 + 1 1 1 1 O 1 w O 1 O   3 1 6 6 6 0 X         1 O O O : O O O O O O O O O > O 1 > O O > O 6   . X   X 6 O : > O O > O > O O > > > : > > O > O O 7     .   X 6 3 O > O o > : > : > 5 > > , : > 4 , , , , m - - l c . + . 4 > O > > O O > > > 3 : 3 : : 3 , 4 , , 4 , x : - X + > > > > > O > > 3 < > 3 : > > > 4 > 4 , 4 , m , < .   > > > > > o : O > > 3 3 > 3 : : 4 > , , , , m x z v t p f C.iX(.,X>X>XeXuXpXsXsXpXjXjXjXsXpXeX,X:X.X3XyX#.F $ i f } 0X9X:X,X>X2XrXpXsXsXsXsXjXsXjXsXuX7XXXXX.XhXA.} e i f { 0X9X>X,X>X2XrXpXsXsXsXsXjXjXjXpXuX7X:XXXXXhXS.} D t p p OXsX(.,X:X2XeXuXpXsXsXpXsXjXsXsXpX8X,XXX.XeX#X} y C Z B 7 4 4 > O   ! B 9 3     9 V 6 7 6 7 0 9 9 7 7 7 9 6 6 7 7 0     1 X 0 X   o O O 0   O 8   O ",
"  7 q 6 0 O   1 1   8 K 6 q 7 7 7 6 X O + O 1 1 1 1 6 1 ' 8 X 6 w 1 O 1 6 + 1 + 1 1 1 1 + 1 O X 1 O O O O 6 1 O >   6 3 6 6 6 6       .   1 O O O O O O O O O O O O O O O > O O O O : 6   + +   O 1 > O O O > O > > > O O O O O X > O O : O 7 . X X . X 7 : > > : > O > > > > > > > 4 > 4 : , , 4 4 m < j l c .   . 7 O > > O > : > > > > > : 3 4 > 4 : , , 4 x x - < .   1 > : > > > O > : : > 3 : > , , 4 = , , , , M k = .   3 > o > > O : > : w > : : 3 3 4 4 > , , 4 , m , b k t p f Z.aXXX,XeXeXpXzXzXxXzXhXhXzXxXhXsXeX7X7X2X,XyX#.G $ i f { 0X8X,X2XeXuXjXhXxXxXlXlXlXzXhXjXrX7XeX2XXXjXA.} e i f { 0X8X>X7XeXuXsXzXzXxXhXhXhXxXjXjXrX2X7X2XXXhXS.} D i p p OXsXXX2XeXrXpXlXzXxXzXlXlXzXxXhXpX8X7X2X,XeX#X{ y N Z M 4 4 6 > :   W V V 6   + 7 V 9 6 9 9 9 O         6 6 6 6 6 V X   1 O 0 o   o o 1 0   O 0   O ",
"  7 7 1 K O   1   O 0 6 7 7 q 6 +   + + o +   o 1 1 1 6 0 E + 6 1 1 1 1 O 1 1 1 + 1 O 1 1 1 1 1 1 1 1 6 1 O 1 1 6   6 3 > O > 0 X   .     1 O O O O O O O O o 1 O O O O O O > O > O O 6   X .   O > o > O O > O O O O > O > O O O O > O O > 7 .   X   X 7 O O > O > > : > : > > : 3 > 4 4 3 , : , , M - j c c . + X 7 > O > : > 3 > > > > 3 : > 3 4 4 , : , , , N : - X X > > > > > > > > > > > 3 > > > , 4 < 5 : , = C x - . + 3 3 > > > > > > , > > 3 : > > 4 4 , , > , < N x b k t f p C.fX).,X7XuXsXhXxXhXzXvXcXvXcXcXhXrX7X7X>X2XyX%.F e p f { 0X9XXX2XrXpXjXxXlXzXcXcXcXvXcXzXpX7X7X,XXXhXS...$ p f { 0X9X:X2XuXpXhXxXlXzXcXvXcXvXvXhXpX8X7X,X:XlXS.X.D i  .p OXsX(.2X8XuXjXlXxXlXxXcXcXvXcXcXsXrX7X7X:XrX#X..r C Z M 7 4 4 > O   ! B 9 6     8 V 9 7 9 6 8   O > 3 o 6 7 7 7 6 0 +   O O 0 +   o o 1 0   > 0 . X ",
"  6 6 6 H O   1   6 q 6 6 0 6   + J J Y Y J O + + 6 O 1 1 W 6   O 1 1 O 6 1 O 1 O 1 O w O 1 O 1 + 1 X 1 1 1 1 O 6   6 1 1 O 6 q X     +   6 O O O O O O O O O O X O O O O > O O O > O 6     X   O 1 O : O > O O > 1 O O > O O > > O > O O O 7         X 7 : : > > O > > : : > w > > , > 4 4 , 4 4 , N < j l c .   . 6 : > > > O > > > > : > 3 > , > , < 4 , x , N * -   + > > > > > o > > > : > > > > 3 3 4 > , 4 4 , N x <     : > > > > o > > > > > > : : 3 : , 5 , , 4 < N x l v y { f C.dX>X7XeXuXjXcXcXcXvXcXcXbXcXxXhXpXeX2X,X2XyX$.F $ p f } qXuX2XeXeXsXzXcXcXcXvXvXvXvXxXlXsXeX8X2X>XhXS...e p f } qXuX2X8XeXsXzXvXxXvXvXvXvXvXcXhXjXeX8X,XXXhXS.O.D i f p [.jX>X8X8XpXhXxXcXcXvXcXvXvXcXzXjXuX8X,X,XuX%X@.e C Z M M 4 7 , :   E B 9 7   + 9 0 6 7 7 7 8   1 1 3 O 6 9 6 6 7 0 +   O 1 H 1   X O 1 0   > 0   O ",
"  6 6 6 0 +   @ O 8 6 6 6 6   w U 4.4.6.5.6.U 6   O 6 6 O K 0   1 1 1 1 O 1 O 1 1 1 1 1 1 1 O 1 1 1 1 1 1 w X 1 O   O 6 1 1 6 9 X         > O O O O > O O O O O O O : O O O O > O > > 6     X   X > O O o > > O O O O 3 > > 1 O > > O > > : 7 + X X   . 7 > > O > > > > 3 > : > > > > > , : , , n , m - - l l .   . 7 : > : > > : : : > : 3 : 3 > > , 5 5 , 4 x N * = X   > > > > o > O : > > > > : 3 : : , , , , 4 , m m - X   3 > > > : > : o > : > > 3 3 > 4 , > < , , , m x b v t f  .C.fX,X7X7XuXxXcXvXvXvXbXbXcXcXzXzXrXeX8X8X,XtX#.F e p f } 0XrX2X7XeXhXxXcXbXvXvXbXcXcXcXxXpXeXeX7XXXjXS.X.e i p } 0XuX2X8X8XhXxXcXbXvXvXbXcXvXcXcXpX7XeX7XXXhXS.} D i f { OXjX,X8X8XsXxXcXvXvXvXbXvXcXvXzXhXeXeX7X,X9X#X{ y C Z 7 4 7 4 , X   ~ 8 V 6   + 9 V 6 9 7 6 8   O 1 3 O 7 9 6 6 6 0 +   O O 0 +   X O O K   1 8 X X ",
"  7 6 1 0 O     + 7 6 3 6 1 + 4.6.6.6.6.5.5.4.U w   6 O O 6 T   + 6 w 6 6 O 6 O 1 1 1 + w 1 3 w 1 6 1 1 1 O 1 1 3   6 6 1 O 6 9 X         > O O O O O O O O > O O O O O O : O > O O O 6   X     O 1 O O > > > O 3 O > O O O O O O O > > O > 6 X   X   X , : > > > : o O > : 4 3 > > 4 : 4 : : , , x N < k l l X   X 4 O > : > > > o > 3 3 : > : , > 4 > : , , x N - , .   > O > : > > > : > > > > 4 : > > 4 , < < , , m x = X   > > > : > > > : : > > 4 3 : , : , : , , , , N x b v t p  .C.fX2XeXrXrXhXxXvXcXvXbXcXbXbXxXjXrXeX8X>X7XyX#.G # i  .} 0XrX8XrXrXsXxXcXvXcXbXvXvXbXcXzXuXeXeX,XXXhXS.} $ i o.} 0XrX2XuXuXsXxXvXbXxXvXvXcXvXcXhXuXeXeX2XXXhXS.} D t {  .OXsX2XeXrXuXxXcXvXcXvXbXcXvXvXzXsXeXeX7X:XuX#X} e C Z M 7 4 , 4 :   ! B V 6     9 0 0 0 7 9 7 + 3 6 3 O 7 9 6 6 7 0     1 1 0 X   X O 1 0   6 0   O ",
"  6 6 3 0 O   + O 7 6 6 0 + J 4.4.5.5.5.6.5.6.U J   O 6 1 6 T     6 1 1 O 1 1 6 1 1 1 1 1 O 3 3 + 1 + 1 1 1 1 O 1   O 6 > 6 > 6       +   > O O O O O O O O O O O O O O O + > O : O o 3   . X   O > > O O o O o O > O O > O O 1 > O > O O O 4 X   X   . 6 O O > > > > : > : > > > , : , 5 , > , , x N < - l b .   X 6 : O > > O > > > : > > > > > 4 = , 4 , , n N : -   X > > > O > > : > > > > > : > > 3 , = 5 , , x N x =     > > O O > > o > > > > > : > > 3 , > , , , , N n b k t f o.C.fX>X7XeXrXjXhXcXvXbXbXcXbXcXbXlXpXeX2X2X<XyX%.G e p f } 0XeX2XeXeXuXjXxXvXvXbXcXbXvXcXcXjXrX2X,XXXhX[.} $ p f } 0XrX7XeX8XpXsXxXvXbXbXcXbXvXvXxXjXuX2X7XXXhX[.} D i p { OXjX,X8XeXrXsXlXcXvXbXbXvXbXvXvXlXpX8X2X;XrXqX} e C C M n 4 6 > O   ~ B B 6     0 8 6 6 7 6 7 + > 3 6 O 9 8 6 9 6 0 X   X O 8 X   + O 6 0   1 0 + X ",
"  7 3 1 9 +     O 6 6 1 0 + J 4.U 5.5.5.5.5.4.4.Y   + 6 > 1 T     6 1 1 6 1 O 6 1 w 1 1 1 O O O 1 1 O 1 3 1 1 1 O   1 1 1 O 1 q     .     1 O O O O > O O O O 1 O O O O O O O O > 3 O 6   . X   + > O O O O O O O > O O > O > > 1 O > O > O 7   + .   X 6 : O > > > > > > > : > > > > : : > 4 , , x N < j l b X   X 7 : > > > : > : > : > 3 , > > > : 4 4 , , n N * - X   > > > 3 > : > > : > = 3 : > , > : 4 4 , , , N x < . + 3 > > : 3 O > > : > : 3 > > > > < : 4 , , , N x b v t p f Z.jX>X8X8XuXsXxXcXvXvXcXbXbXcXcXxXpXeX8X8X9XyX#.g $ i f } tXeX8X7XeXsXlXcXcXbXvXcXbXvXxXvXsXuX8X8X2XjXS.} $ i f } tXuX8X7XeXsXlXcXvXbXvXcXvXvXcXcXjXrX8X8X2XjXA.} D i p  .OXhX,X8X8XpXsXcXcXvXbXvXvXvXxXvXlXpX8X8X7XrX#X} r C Z n 7 4 3 4 o   E B 9 6     8 V 7 7 7 7 q + > 6 6 O 7 7 9 6 6 0 +   O O 0 O   X X O 0   1 0 + X ",
"  7 O 1 7 +     1 7 6 1 T   J 6.U 4.5.6.5.6.4.U J + + 6 > > K     6 1 1 O 1 1 O 1 1 1 + 1 O 1 3 1 O 1 6 w 3 O O 1   1 1 O 1 6 9 X     .   1 > O O O O O O O O O O O O O O 3 O O O > + 3   .     X 1 : O > O O > O > O > > O O O > O O O > 1 7 +   X   X 6 > > : > O : > > : > 3 > , 4 4 4 4 4 , 4 n N * - l z + + . 4 > > O > O o 3 > > > : > , 4 , , 4 4 , 4 n N * < + X > > > o > O o > 3 > > : 4 > 4 4 : , 4 , 4 n m x * . X > > > O > > . > 3 > > : 4 , , 4 3 , 4 4 , 4 m x b b t p f C.fX>X8XeXrXlXxXcXvXcXcXcXbXcXcXxXuXeX8XeX8XyX$.F $ p f { qXuX7X8XeXpXxXxXbXcXcXxXvXvXxXxXsXeXrX8X2XhXS.} $ p f } qXeX7X8XeXpXxXxXbXxXcXcXvXbXcXxXsXeXrX8X2XhXS.} D t f p OXlX,X8X8XuXxXcXcXvXxXcXxXbXcXxXlXuXrX8X7XuX#X} r V Z B 7 4 4 = O   ! V V 4     7 V 6 7 7 7 9   O 6 6 O 9 9 6 7 6 0     O 1 0 o   + O 1 0   O 0   O ",
"  6 6 3 0 O     X q 6 O 0 O w U 4.4.6.6.4.4.U U 5   O 6 X 1 8     O O 1 O 6 O O 6 O 1 1 1 1 1 w w O 6 O O 1 O 1 1   6 1 1 1 3 7     . .   O O O O > > O O O O O 3 O O > O O O O O : O 6     +   O 6 > O O O O O O O O O O O O > O > O > > > 7   X .     6 : > > o > : > 3 : > = , 3 < > , 5 , , n , N < < l c .     7 : > O > > > > > > > : > > : > , , , , , x N - - X   = 3 O > > : > > > > > > 4 > : > 4 > , , , , N x < .   > < O > > < > > 3 > > > : 3 > > 4 , , , x , N x b b t i f Z.aX2X8X8XuXhXlXxXvXvXcXcXxXcXcXhXsXeX8X,X3XyX#.G $ i f } tXuX7X7XuXpXlXxXxXvXvXbXxXzXcXzXsXuX8X7X(.lXS.@.$ i f } tXuX7X7XuXpXhXxXxXvXvXvXxXxXcXzXjXeX8X7X.XlXS.@.D t p  .oXsX7X7XeXuXhXzXxXvXvXvXvXzXvXxXhXpX8X8X>XrX#X} r Z C M 4 4 3 3 >   ! V 9 7   + 7 V 6 9 8 7 6 o O 6 6 O 9 9 6 7 9 0 O   O O 0 O   X O 1 0   > 0 X X ",
"  6 1 O 8 o     + 6 6 1 q K + Y 4.U U 4.U U Y J w   q 1 1 1 8     1 O O 1 O 6 1 1 1 O O 1 O @ 1 1 O O 1 O 1 1 O w   6 1 O w 6 9 X         1 O O O O O O O O > O O O O O > O > 3 O O O 3   . .   X > O O > O O 1 > O > O > O O > > O O O > > 7     X   X 4 : O > > > > > > 3 > > > : > > < : 4 , < 4 N - j l c X   X 4 o O > O > > > > , > > > > > , , > , , , 4 N * :   X > : o O > > > > > > > > > > : : , , > , n , N x - +   > > o > > > w > = > > > > : : , > : , 4 4 , N x b v t i f C.dXXX2X8XrXsXlXcXxXlXxXzXxXlXjXlXrX>X:X,X,XyX$.G $ i f } 0XeX,X7X7XsXhXxXxXzXzXzXzXxXlXlXsX,X>X>X.XhX[.O.$ i d } 0XeX>X7X8XpXhXxXcXzXhXxXzXzXhXhXsX,X:X,X(.hX[.@.D i i p OXjX:X2X7XuXjXlXcXzXlXxXzXxXzXsXhXeX,X>X>XeX#X@.r C P 4 4 9 4 > o   ! V 9 6     7 8 6 6 9 7 0 o O 1 6 O 7 7 6 6 q 0     1 O K o   X O O K   > 8   X ",
"  q 1 w 8 O       1 6 6 O W 6 w U Y U U Y J J J   O q w O 6 6   O 1 + 6 1 1 O 1 O 1 1 1 + 1 1 1 1 1 O 1 6 O 1 1 O   6 6 1 O 1 q     X     > O : O O : O > O O O O O O O O 3 O O O > O 6   + X   O 1 O O O > O O O X : > O O O O O > > O O > 7   . X   X 7 X O O > > > > > > > > > > > , , , > , x , N < - j k X   X , X O > > > > > > > > 3 : , > , , , , 4 n , N * = X + : > O > > > > > > > > > : > , 4 , > , , 7 < N k <   + > o > > > O > > > > > > < > 4 , , 4 , 4 , < N x b v y d f C.fXXX>X2X7XpXhXlXxXhXlXhXhXhXxXpXeX,X(.,X,XyX$.G # i f } 0X9X;X,X,XuXsXxXsXxXlXhXhXlXlXsXuX2X:X:X(.hXS...$ i f { 0X8X:X2X,XuXsXzXjXxXhXhXjXlXzXjXrX2X:X:X(.hX[.} D t p p OXsX(.,X,X8XpXzXlXxXhXlXsXxXhXzXuX8X>X(.>X9X#X} r C Z n 4 4 4 > >   Q V 9 7     9 V 7 9 9 6 0   1 6 6 1 7 6 4 6 9 0 X   1 X 0 X   + O 1 0   6 0   X ",
"  6 6 3 8 +       1 6 6 6 0 W O + J J J J J w   + 8 1 1 O 6 X   X + O 1 1 O 1 1 1 O w 6 1 & O 1 O 1 w 1 1 O 1 O 1   1 O 1 1 1 7 X     .   6 O O O O O O O O O O O O O O O O O > O O O 4   + X   X 1 > > O O O O O O O O O : O O > O O O > O 7 .   . . . 4 O > : o > > > > > : 4 > , , , , , , 4 , , N - j l l . . X 7 : > O O > > > > : = > > 4 , > , < : 4 , , N * - X + 3 O > O > > . > > > > > > , 4 > 4 > , , < < N , - . . 3 > > . O > > > > > > , > , > , > , > , , , N x b v t p f C.iXXX,X:X2XuXpXpXsXpXpXsXpXpXpXrX,X,XXX:X;XtX#.G % i h { 0X8X,X;X,X8XpXpXsXsXpXsXpXsXpXpX,X2X:XXXE.sXOX{ $ d f { 0X8X>X>X>XeXpXpXpXsXpXsXpXsXpXuX2X2X:X:XE.sXOX{ D t f p OXsX:X,X:X7XpXpXpXsXuXpXpXsXpXpX8X7X,X(.;X3XqX{ r C Z 4 4 4 3 > o   ~ B 9 6   + 7 9 7 6 7 7 7 o O 6 3 O 6 9 6 6 7 9     O X 8 X   X o 1 9   O 0 + X ",
"  6 3 1 7 @   O   + 6 5 O 6 E ' 6 + + + + +   6 H 6 w O 6 6     1 O 1 O 1 w 1 1 1 6 1 6 1 O w O 1 + 1 O 1 1 1 O O   6 6 6 O w 6 X   +     6 O O O O O O O O > O O O 1 O O O O O > O O 3     X   O > > O O O O O O O O O O O O > O O > > > > 6     .   + 4 O > O > > > > > : > > , > > , , > , 4 , n N < ; l z X   + 6 : > : > O > > > > , > 3 , > > : 5 , , , n N - : X   = > > O > > > > > > > > , 3 : > , > , , 7 , N x < . . > > O > > > > > > : > : > 4 > > , > , 4 5 , m x b v y p f C.iX)..XXX,X,X7X8XeX8XpXeXrXeXrXeXXXXX).;X;XyX#.F # i i { 0X9X(.(.:X,X2X8XeXeXeXrX8XuX8XeX:XXX(.(.).sX].{ # i f { tX9X/./.:X,X2X8XeXeXrXrXeXrXeXeXXXXX(.(.).sXA.{ D t p p OXpX).(.XX,X,X7X8XuX8XpX8XuX8XuX2XXXXX).(.9X#X{ r C L M 7 4 4 > :   W 7 7 3     9 0 9 6 7 6 9   O 6 3 O 7 9 6 6 4 0 +   O O 0 o   + O w 7   > 0 + O ",
"  6 6 1 9 O   O     + q O 6 O K d.' 7 1 O q ] W 1 1 1 1 8 X   + O X O 1 O 1 O 1 O O O O 1 1 1 1 & 1 1 1 1 O 6 1 1   O 3 1 3 3 q           6 O O O O O O O O O O O O O O O O O O O 1 > 3   . X   O 6 O > O O > O > O O : O X > > O > O > O O 7 X   . . X 6 : > O > O : > > > > > > , 4 > > , > , 4 x N < - l c .   X 7 O O > O > > > > > > > > > , , , 4 , , 4 , N : - . + 3 = w o > o > > : > > > > > , , > , 4 , , , N x <   + > > > o > o > > > > > > > > , , > , , , , , N c l z r f i C.fX>X>X(.:X:XXX2X2X8XeX,X7X2X2X7X,X>X;X/.;XtX#.F # i f p %XeX>X:X(.:X:X,X,X2XeX2X,X8X,X8X,X2X:XXX).pXS.} # i h p #X8X>X:X(.:X:X2X2X2XeX2X:XeX,X8X,X2X>X(.E.sXA.{ D t f i [.sX>X>X(.:X:X>X2X2X8X8X,X8X,X2X7X,X>X:X/.2X@X{ r C C M 4 4 4 > o   ! V 9 6     9 0 6 7 7 7 7 O + 3 6 O 7 9 6 7 6 0     1 X 0 o   X X 1 9   > 8   O ",
"  6 6 1 9 +   O X     6 1 1 1 O X W u.g.u.>.K O 1 1 O 6 6     X O + O 1 6 O O 1 w 1 1 O O 1 1 O 1 O O 1 6 O % 1 O   6 6 1 1 1 6           6 X O > O O > O O O O > + O O O o O O > O : >     +   O 6 O O > O O O O > O O > O O o O > 3 > > O 6     .   X 6 : > O : O : O > > : > , > > , 4 , , 4 , , N < - l c .   . 6 > > X > O o > > > > , : > > 4 4 , , , 4 x N : < .   > > > > > : O O > : > > > > , : 4 4 , > , , N x - . + > > > > > O > O > > : > > > , > 4 , , , , = C x l z t f f &.rXE./.:X>X>X,X,X7X7X7X,X,X8X8X>X,X>X/./..XwX#.F $ i d | %X3X~.>X:X>X:X,X7X7X7X,X,X7X8X,X,X>X:X).^.sXA.{ % i f p %X,XQ.:X:X>X>X,X7X7X7X2X,X8X8X,X,X>X:X/.E.sXA.{ v t p i OXiXE.(.:X>X:X,X,X7X8X2X,X2XeX2X,X>X>X/.).9X@X{ e C Z 7 n 7 4 > O   E B 7 6     7 V 7 7 6 7 7 + O 6 6 1 7 9 6 3 6 0 +   X 1 H o   o O O 9   O 0 . X ",
"  6 3 1 9 @   w X       1 1 1 O X X X X X X O O O 6 6 q       X O O 1 1 1 6 O O 1 1 O O 1 w 1 1 w 1 O 1 O 6 5 O 1   w 1 O 1 1 6 X   .     1 X O X O O O O O O O O O > O O > O O O O O 3   X X   O > O O O O > O O O : > O > > > O O O > O > 6   X .     6 : > : > > > o > : > > > > , > , , , > n , N < k l c .   . 4 > = > > O : > > o > > > , > , : > > 4 , , N * < . + : > O o > > > : > > : > , , > 3 < , , , 4 , N x <     > > : O > > O = > : > > > , > 4 : , , > 4 , C k z v r i i C.rXE.(./.(.:X/.,X;X,X,X7X>X,X,X:XXX(..X~.-X5X+.s $ t d p 5X<X)..X/.:X/.,X,X:X2X7X:X>X2X>X.X(.:X/.E.pXA.p # t i p %X3X/./.(..X.X>X,X;X,X7X:X>X2X>X.X/.XX/.^.pXA.{ D t i i OXuXE././..X:X;X,X:X2X2X,X:X7X,XXX.XXX(.Q.3X+Xp e C Z 7 4 4 4 , O   ! 7 0 6     7 0 9 6 6 7 9 o X 6 6 O 6 8 3 6 6 0 o   1 O 0 o   + O O 0   1 0 + O ",
"  6 1 1 0 O   1 X         X 1 1 > 1 1 O O 1 1 1 6 6 w       + O O 1 1 w 1 O 1 O 1 1 1 O O 1 X O 1 1 1 O 1 O O O 1   6 1 > O 1 6 X         1 O O O O O O O O O O > O O O O O O > > O O 3   X X   + 3 O > > O O O O O o O > O O O > O O O O O 4 +   o . . 6 : : > O > O > > > > > 3 , > , : , , 4 , , N < - j x . . + 6 : O : O : o : > : > > 3 4 , : , > > 4 n n N - = X + > > > > > : o : > > > , > 3 , : 3 4 , , 4 , N x = . . > > > O : > X > > > > > > , , , > 4 > , 4 , C m z z t t i C.iXE.(.(..XXX(.:X:X,X,X>X:X>X:X)..XXX~.~.W.wX#.F $ t d a %X3X).(.XXXX;X:X:X:X,X,XXX>X>X(.(.:X).~._.iXS.{ # t t p %X3X).(.;X:XXX:X:X:X2X,X:X>X:X(./.:X/.~._.pXA.{ v t i i [.uXE.XXXXXXXX(.:X;X,X,X:X:X>XXX/.;X(.~.W.1X@X{ r Z A M 4 4 4 4 :   ! 9 V 6     9 0 9 6 6 7 6 X + 6 6 O 7 6 6 7 3 9     O X 0 +   X O 1 0   O 0 + X ",
"  3 1 1 8 O   O X +         + 1 1 6 6 1 6 1 1 6 1 X         X O @ O 1 O 1 O 1 O 1 O 1 1 1 + 1 1 X w 1 1 6 O 6 6 O   1 1 1 6 6 6   +   X   1 O O O O O O O O O O O O : O O o > o O > o 3   . X   O 3 > O O > O O O > O > O O O > > O 3 1 > 3 6 + X . . . 6 > O O > : > > : : > > > > , : 3 > , 4 , , N - - j j .   . 7 : > O > > > > > > > : > > > > 4 , , 4 < , N * < .   > O = o > > > O > > > : > > > : 4 > > 4 , : N x -   + > > > : > O > > : > > : > > > > , > , 4 , < N k z k e i t &.wX^.~./.:X(.:X(.(./.:X).(.;X(.(.XX:X~..X X5X#.G @ t i y #X<X~.Q.:X(.(.(.(./.(./.Q.>X(././.,X/./.^.pXA.{ @ t i u #X1X~.Q.:X(..X(.(./.(.).E.>X(..X(.,X/.)._.pXD.} M r i i [.uX^.~..X(./.:X(.(./.:XQ.:X/.(.(.:X(.).~.1X&X{ r C C 4 7 4 4 > O   E 9 9 4   + 7 8 4 4 6 6 9 o X 6 6 O 6 0 7 6 6 9     O + 8 X   X O O 0   O 8 + O ",
"  1 6 1 0 o   1 O O X             + X O O O O             X O O O O 1 O 1 w 1 1 + 1 O % 1 O 1 1 1 1 O 1 1 1 O 6 O   O 1 6 O 3 6   X       6 O O O O O O O O O O O O > O O O > O O X O 6   . +   : 6 O > O > O O O O > O O > O O O > > O > > 6 .   .   X 7 = > > w > > > 3 > : > > > , 3 > , : 4 4 , m : - j k X   X 7 : > o O > > > > > > , > > , : , 4 > , , n N * = . X > > > > O > O > > > O > > 3 : , > 4 , , , , C x * X . 3 > > O > > > > > > : > > > , > > , 4 , , , N , z k t i t &.wXJ.!.!./.(..XQ.(./..X;X;X/.;X/.~.;X~. XW.%X#.F # y h y @X1XW.W.~./.:XQ./.(..X;X:X/.;X(.Q.;X/.~.J.pXA.{ @ t i i @X=XW.W././.XXQ.(..X(.;X;X/..X(.Q.;X~.~.J.pXA.| v t i t ].uXP.Q.Q.).;X/.~.(./..X:X.X/.XX~.~./.Q.!.1X&X{ e C C n 4 4 , > +   ! B 9 6     7 8 6 7 7 6 9 O + 6 6 O 7 9 6 3 3 9     O O 0 o   X X > 0   1 8 + O ",
"  1 O 1 8 o   O X X X + X                             X + X > O 1 1 1 3 O 1 1 O 1 1 O 1 O 1 1 w 1 O 1 6 1 O 6 O 1   6 6 O 6 6 6   X   X   1 O O O O X X O O O > O O O O O O O O > O X 6   . X   O > O O O O > O O > . O > O O > O O > > O : 6     X     4 > > O : : o : > > > > > 3 : > : 4 4 , 4 x N : - j x . + . 7 X > > > > > > : > > > > , > > > > , , 4 4 N : = X   1 O : > > > : > > > > > > > > > > , > = , , M x : X   > > > : > o > > > > > > > > 3 : > > , : 6 , N x z k r i t &.rXR.U.~./.~./.~.~.;X(./.;X~.!.~.~.Q.W. XW.wX+.F @ t t u @X=XJ.W..X~./.~.~.~.(.).;X;XW.!.Q..X!.!.P.uXA.{ # t t u @X1XL.W..X/./.~.~./..X).<X(.W.!.Q.(.!.!.J.uXA.{ v y t t A.uXR.W.~./.~././.~..X.X.X;X!. X~./.~.U.W.1X+Xa e C Z 9 n 7 3 > :   E 9 7 3     6 7 7 6 7 6 7 O O 6 3 O 6 9 3 6 6 0 O   O O 0 X   X O O 9   > 7 . X ",
"  O 1 1 8 o   O O O O X .                               X X O O O 1 1 w 1 O 1 O 1 O O 3 1 O w 1 O 1 1 O 1 O 6 O 1   > 6 O 6 6 6 X     +   6 O : O O O O O O O O O O O O O O O O O O o 3   X X   O 1 O : O > O O O O o > O O O O > > > > > > 7     X   + 7 O o O > O > > > > > > , : > , > > : , n , m : - j j .   X 4 O O : > O : > > : > > : > > > > 4 > , 4 x m : > .   > > > O O > : O : : > > > > , > > 4 , > 4 , C x * .   > > : O o > : O > > > > > > , > > 3 , : , , N x l k e t t &.wXR.!..X!.W.~.~.!.~.W.~./.!.~.!.Q.~.L.W.Y.%X#.g @ y d y @X1XP..X~.W.!.~.Q.~.Q.!.;XQ.!.!.W.~.U.U.J.iXS.{ @ r t u @X*XU./.~.U.W./.!.~.Q.Q.;X~.W.!.W.~.W.U.L.pXS.{ M e t t ].pXJ.!.;XU.W.~.Q.!.~.!././.W.!.W.Q.!.L.U.*X+Xp e C C 4 7 4 4 > >   ~ 9 9 7     7 V 6 7 7 6 7 O O 6 6 O 6 9 7 3 6 9     O O 0 o   + O > 0   O 8 . O ",
"  1 w 1 8 +   1 O O O X X + X   +                   X O X O O O 1 1 O O O 1 X 1 w 1 w 1 X 1 1 & 1 w 1 O O 1 O 6 1   6 6 3 O 6 6   .       1 O O O O O O O O o : > O O > > O O O O O : 3     X   O > O O O O O O O O O O O O > O O O > O > > 6 X . X . X 4 > : : > O > : > > > : > > > > > 4 3 , 6 , N < : j j .   X 7 > > O : O O > 3 : > : > > 4 > > > 4 , , , N * ; . + 1 > > : : + > > 3 > > > : > > 4 : > 4 4 , < M x : X X > > > : > o O > > > > > : > > 3 : 3 4 4 , > N x l k e i i &.wXR.U.!.!.~.~.~.~.!.W.!.!.!.W.!.U.W.W.!.Y.$X#.F & t t u @X*XP.!.!.~.~..X!.!.!.W.W.Q.!.!.!.U.W.!.R.iXS.{ @ t d y @X*XP.!.!.~.~./.!.!.!.W.W.!.!.!.W.W.W.W.R.iXS.{ v e i t Z.uXR.W.W.~.~.~.~.Q.!.W.W.W.~.W.!.W.!.W.Y.*X+X{ e Z C 4 4 4 , > O   E B 9 6   + 7 B 6 6 3 7 6 o O 6 > O > 9 6 6 3 9 @   O O 0 o   X O O 0   > 8 X X ",
"  X o O 6   + O O O X X + +   . +   +   X X   o   + O + X X O w 1 O O O 6 1 1 O 1 O 1 1 w 1 1 + 1 1 1 1 1 O O 1 O   1 1 O O 1 6     X     1 X O O O X O O O > o O O O O O O O O O > O 4   + X   O > O O O : O O O O o O O : O O : O > O > O 6     .   X 7 O : O : O > > > > > > > > > 4 = 4 4 > , , N < - j k X . . 8 X : : O O > > > > > O > 3 > 4 > , 4 > , , N . ; . X , > O O > : > O 3 > > : 3 > 3 3 < > , > 4 = m 4 < + X , > X : > O > : 3 > > : > > > > , , 4 : 4 > N n z k y y t *.4XR.I.G.I.U.I.U.U. XW.U.U.U.U.U.U.P.U.I.}.wX#.s & y e y @X*XI.G.I.I.U.Y.U.Y.!.W.U.U.I.U.W.U.U.U.F.aXA.p @ t e y @X}.I.G.L.Y.U.U.U.Y.!.W.I.U.U.U.U.U.U.T.G.pXA.p v y t y Z.rXK.I.K.I.W.I.U.U.!.W.Y.U.U.U.U.U.I.U.I.*X&Xi $ C C 7 4 4 , > :   ! 9 9 6     9 9 7 7 3 3 6 6 6 7 6 6 K 6 6 6 6 8     1 O 8 +   X O 3 7   O 0 . X ",
"                                                                  O O 1 1 O 1 6 1 O O 1 1 1 O 1 1 1 w O O @ 1 1 O   1 1 1 1 3 q X     +   1 X O O > O O > o O O > O O O O O O > > > o 3   X . + O > > O > O O > > > > > > O O > > > > > > 3 3   . X X + B O > : > > > > > 3 , > > , > 4 < 5 4 , , < M = * j - + . + B : o : O : . > > : : < = > : > - 5 , = > , n : < o   6 > : O O : o : : > : > : : : : > , > , > < M 4 * X   6 > : O O O : > : O : : < > < < : > 4 : : : m , j k t r r +.$X}.}.}.U.Y.I.}.}.U.Y.*XY.Y.T.I.Y.I.I.T.$XoXX.s $ r r y A.1X}.T.U.}.T.U. XY.Y.}.}.T.Y.T.Y.I.K.I.*XfX$.p # r e e A.1X}.T.Y.Y.T.Y. XT.Y.Y. XT.Y.I.Y.T.I.K.*XfX$.p v e e r *.iX}.Y.T.Y.Y.T. XY.T. X XT.Y.T.I.Y.L.I.}.wXA.d $ Z C M 4 4 6 > O   ~ B V 4     9 9 7 6 7 7 6 V ] ] _ _ T 6 7 7 6 9 +   1 O 8 +   X + 6 0   6 0 X X ",
"      E / W / ' _ ' ` ' ' 0.>.>.0.' >.>.>.0.8.0.0.0.0.e.d.u.d.g.q + O O O O O O O O w 6 + O O 1 O O O 1 1 w 1 1 1   1 1 O 1 1 6 X   .     X 6 O o X X + + X X . O + X X + o + o o o 6 3     X . X 7 O O O O o o + o o o o o O + o o o X o > 4 +   X .   7 : X o . + . . o o o : > . < . : > > > = , M : - : - X .   6 6 6 7 4 6 6 5 4 7 7 7 M 7 M 7 M 7 B B B C , * < X + X 6 , 7 6 7 6 4 7 7 7 4 7 4 7 7 n M B M B C N : : .   : 6 4 7 6 4 6 6 7 7 7 7 7 7 7 7 M B B B M C M < j ; $ e t i C.&X#X$X4X$X$X$X5X5X4X5X6X5X5X5X5X%X%X$XoX#. .s $ e y t +.D.+X$X%X$X%X%X4X5X5X5X6X5X5X5XwX5X%X%X#XC.{ p $ e y i +.{.+X%X$X$X$X$X$X5X5XwXwX5X5X5XwX5X%X$X@XC.{ p v $ r y | Z.+X+X$X$X+X$X%X5X5X5X6X5X5X5X5X5X5X$X$X[.O.o.$ C B 4 7 , 3 = O   E 7 9 4   + 9 7 6 6 6 6 7 6 O + + o O 7 7 7 6 9     O X V X                     ",
"mXmX  7 K q 9 6 6 7 7 8 7 6 7 q q 7 7 q q 9 7 7 7 8 q 0 0 0 0 T ' 0 o O 1 1 O 1 1 1 O @ 1 O 1 O 1 + X 1 O O O w w   O O O 1 + 3   .   .     O 1 3 4 7 7 7 7 7 7 7 9 7 7 7 7 7 7 7 7 7     X X     > 7 9 7 7 B 7 9 7 7 9 7 9 8 B B 7 7 B 8 9 >   . X X   X 7 B V C K B V B Z V B B Z V Z V Z Z L Z Z < . - - - X X .   > 7 V 7 B 7 9 B 9 B 9 B 7 B V C V B B B , X * : . .   o 6 B 7 V 7 7 7 B B 9 C V B V B V C B B 7 X . : . . + o 6 7 B V 7 7 9 9 B 9 B C B B V B B B B 7 . . j k $ e r t y { o. .o.X.o.o.X.X.X.O.O.O.O.O.O.O.O.X.f i i s $ $ r r t p  .o.o.o.o.} o.O.X.O.O.O.O.O.O.X.O.X.p i i i % % e e y p o.o. .o.o.o.X.O.X.O...O.O.O.O.X.O.X.p i i i 2 $ r e y a { o. .o.o.X.X.X.X.X.O.O.O.O.O.O.X.O.o.i i i s ! M 7 4 3 3 > o   E 9 9 6     7 9 6 7 7 6 7 9 7 6 9 7 6 6 6 6 6 9 o   X O 0 o                 +   ",
"mXmX  mXO 6 1 1 O O w 1 O O 6 O O 1 1 1 1 O 6 O > 6 O 1 1 w O o 0 ] / O o o @ + + + + + + @ + + O O @ + + + @ + O + O + + O O + o   + . X       + X X + X X X X X X X X X + X X : X     . X X       X O X X o X o o X X o O O O : X X o X + . . . . . .     : > O O : O O : = > > > : : > > = > > X   * - - - o .                                               * * * . X                                             . - * + . .                                           . * j ; $ $ $ $ $ e $ $ $ % $ $ % $ % $ % % % r r r e e r t y 2 & $ $ $ $ % r % $ % % $ $ $ % % e e e % r e r r e y y y @ $ $ $ # e r % $ $ # # % % $ % $ r % e % r e $ t e y t = $ # # $ e e % $ $ % % # $ % % $ e % % e e r % e y t r [ V , 7 , 4 3 > :   W 7 9 6     9 7 6 7 7 7 6 6 6 6 3 6 6 7 6 6 6 7 +   X 1 0 X     O 7 1 +     .   ",
"mXmX      X 6 > 6 1 O 1 > 6 O 6 1 1 w 1 1 1 6 1 1 O 1 > 3 % 6 1 6 0 0.u.e.u.d.e.e.d.d.d.d.u.d.d.r.u.d.u.d.d.g.g.g.g.g.g.d.g.g.g.' 6       .                                             . . . .                                           + . . . X . . .         +           .   +     .   .   .   . * : * -   . .                         .       .   .   . . * . : . .                         .     .     . . . . * * * . .       .           .     .     .   .   . . . . * - - ; - - = = * = ; - = ; * * ; ; = ; = = < = < < - ; ; ; k ; - = = = ; = * = = - = - ; > = = < ; * = ; = ; = ; < ; - ; * - ; = = ; = * > = < : = ; = ; ; ; ; ; < = ; ; 2 ; - ; = : = * = - = * = < = * = = = * = : = * = = X X 8 _ B , M 6 6 , , > +   ~ B 9 6     7 7 6 6 6 6 7 7 6 7 7 3 6 6 6 6 6 9     O O 0 X   O w.g.0.] 1       ",
"mXmXmX      o 6 O O 1 O O 1 > 1 O 1 1 O O 6 O 6 6 6 O O 1 O 1 1 O O + 6 6 7 6 7 6 6 8 6 q 7 7 8 9 6 7 q q 9 9 9 q 8 8 6 8 8 8 q 9 ~ >   .     .             .             X .   .         X X .   . .     . .     . . . .     . .     .   . . . . . . . .   . .   . . . X   . . . *   .   . * . * . * * * * * * * * * * * * * * * * * * - * * * * * * - - - - - - - - * - - * - - * * * * - * - - * - - * * * * * - - - - - - - - * - * * - * * * * - * - * * - - - - * - - - - - - - - * * * * * * * - * - * * * * * * - * * * - - - j j - - - - - * * * * * * * * * * * * * * * - - - - - - - - - - - - - - * - - * * * * * * * * - * * * * - - * - - - * * - : * * * * * * * * * * . . * . * . . * . * * . 0 7.7 , 7 6 , 4 4 > > o   ~ B 7 6     6 9 9 9 6 6 7 7 7 6 3 3 3 7 6 6 6 9 X   1 1 0   O ' ) 6 6 8 E X   + ",
"mXmXmX          6 1 O 1 O 1 O 1 O 1 O 1 w O 6 > O O > 6 O 1 O w 6 6 6 6 6 3 6 6 6 6 6 6 6 6 6 6 6 6 6 7 6 5 6 6 q 7 6 6 7 7 8 7 6 > ~ 7       X .   . . .   . .   . .       . .     X .   .   . .   X     . . .   .     . . .     . .   . . . . . . . .   . . . . . . . . . . . . . . * *     * . * * . . * . * * * * * * * * * - * - * - * * - - - - - - - - - - * - - - - - - - - - - - * - * - * - - - * - - - - - - - - - - - - - - - - - - - - - - * - - - - - - - - - - - - - - - - - - - * - - - - - - - - - * - - - - - - - - - - - - - - - - - - - - * - - * - - - - - - - - - - - - - - - - - - - - - - - - * - * - * * * - - - - * * - - - - - - - - * * * * - * * * * * * * * * * * * * * * *   7 <.7 7 7 M 7 , 6 4 4 > o   R 7 9 3     7 7 6 6 9 6 6 7 6 > 7 3 3 6 6 3 6 7     O 6   + ) ) 6 6 6 1 T 0 mXmX",
"mXmXmX            O O > O > > O > O 1 X O 1 O O w O O 1 O O 1 1 1 O 1 3 O > 6 1 O > 1 6 1 1 6 1 6 > 6 1 > 6 6 6 6 6 6 6 6 7 7 6 6 6 1 T 6 X o O X X @ + O o + O @ + o o o o o O X @ + + O @ o o O O o + O O + + + O @ + O O o O o O + O + O O O O O O O O O O O O X X > X O O O > O O > O O O O O : > : O O O > > ; > > , 1 = 1 , 6 ; 1 ; , 2 > > > = 2 , 1 , , = , , , , , , < , , , , , > 4 4 < , , , , , , , , , , , , , 2 , 4 , , > , < < , > , , < , > , 6 , ; , , 1 , , , , , , , , , , , , , , , , , , < , , < , , , , , , , , , , , , , , , , , , , < , , > , < , > , , > , , , , , , , , , , , , , , , , , ; , , ; 6 , , , , > , , , , , , , , > , , , , , , , > , , > , > , > > = > > > > > , > V ;.V 4 B M 7 7 4 3 4 4 > X   E 7 7 6   + 7 9 6 7 7 6 6 7 6 7 6 6 6 q 6 6 6 8     O + O / ' 6 6 3 1 3 7 0 mXmX",
"mXmXmXmX            O 6 3 O O X > 1 O 1 1 O 1 1 1 1 > O 1 O 1 O O > O 6 > 6 > 1 6 3 6 6 6 > 6 6 6 6 6 6 6 6 6 6 1 1 7 6 7 7 6 6 6 6 6 6 V W ' 0.>.>.' ' ' ' 0.0.8.0.0.0.0.0.0.0.0.0.0.0.r.0.0.0.0.0.w.0.r.r.e.0.r.r.r.0.q.0.r.r.r.r.r.e.e.e.e.r.q.w.w.q.r.r.e.u.e.u.u.u.u.u.u.u.u.u.d.u.u.u.u.p.g.u.u.u.u.p.u.i.p.d.d.f.p.p.d.h.p.p.d.p.d.f.p.p.p.p.s.h.p.p.h.k.k.k.f.f.f.f.p.p.p.p.j.k.s.s.j.j.k.k.k.p.j.j.k.k.p.p.h.h.f.h.h.h.k.k.k.s.h.f.j.h.h.k.h.p.h.p.h.p.p.h.h.p.h.h.h.h.s.s.s.s.f.p.p.p.p.h.k.h.h.h.h.p.j.p.p.p.p.h.k.h.k.p.f.f.k.k.h.i.p.h.i.h.h.p.s.h.p.h.p.p.p.i.p.h.p.p.h.h.p.p.h.h.h.h.h.p.i.i.h.h.p.p.p.i.p.p.h.p.i.p.i.i.i.i.i.i.i.i.i.i.y.p.i.a.i.t.i.i.a.i.a.t.a.i.i.y.y.y.y.p.p.i.i.y.a.t.V 4 4 7 4 4 4 6 4 4 > > X   E 7 9 6     9 0 7 7 7 8 7 6 3 6 7 6 6 6 6 1 6 7       O ] ] O 6 6 6 6 6 6 1 mXmX",
"mXmXmXmXmX            + o + X + X + O o X X X X   X o X X + + +   + X X O X X o X + o o X O O X O O O o O X O O X O + O X O X 6 6 1 6 6 6 0 K 0 V K 0 0 0 K 0 K K K K K K T T T K K K K K K T T K K T T 0 T T K T T T K Z T H T K T T T T T T T H K T T T T T T T T T T T T T R E T E T R E T T T E T T R E R R T W T T H E R R R T R Q R R R Q Q R R E R E Q R R R R R Q E R R R Q R R R R P E R Q R Q Q Q P ! Q Q Q Q Q L Q Q R Q Q P ^ Q Q Q Q R Q Q Q Q Q Q Q L Q P L R Q L Q Q Q R Q R Q Q Q R Q L R Q Q Q Q Q A Q Q Q Q Q Q ^ Q Q Q Q Q Q R Q P L Q Q R P P P R L L R L L R L R P Q R R L R L R R L L L Q P T L L L L L L Z R R Z T L L T L Z Q Z L Z T Z L H V L T L Z L T T L Z L L L Z H L Z V Z 8 6 M B 4 4 7 7 3 4 6 > > o   E 5 7 6     0 7 6 6 6 7 7 3 6 3 7 6 6 6 6 3 6 q     + ) W O 6 6 6 6 > 6 1 mXmXmX",
"mXmXmXmXmX                                                                                                                      O 7 6 6 % 6 6 6 6 1 6 1 q 6 6 6 1 1 1 6 6 1 6 7 6 6 6 6 6 7 6 6 4 7 6 6 6 q 7 7 7 6 7 7 7 6 7 7 6 6 8 6 6 7 0 q 7 7 7 7 7 6 6 7 7 7 7 7 7 8 B 7 7 7 7 8 8 8 B B B 7 B M 7 7 7 M M B M B N 7 7 N 7 C B C V B B B B V B M B N C M C C Z C V D B M B B B B C C C M M B B M C M B B B B B M C C C B B C C C B C C V B C Z B M N C B C C C C D M C C M M M C M C C B B D Z C M C C C C B B C C C V C C N B C C C B C N M D Z M B C C C C B C M D B C C C C C N M m M D N B N C C M M N N M N N C B N B M B M B N M D B M B B M M M M M M M N B M 7 M M N 7 M M 7 7 M 4 7 7 B 7 7 M 7 M 7 4 7 4 4 4 > > , O   E 9 7 6     8 0 7 7 7 9 7 9 9 7 9 7 8 8 9 6 6 6   o _ [ X 6 6 6 6 6 6 6   mXmXmX",
"mXmXmXmXmXmXmX                                                                                      .                   .         O 7 6 3 3 7 1 1 1 1 1 6 > 1 1 1 1 6 4 4 > 6 > 6 7 3 > 6 1 O 6 6 1 , 4 , 6 > , 6 1 6 4 , > 1 6 6 , , 1 7 6 4 7 7 , 4 4 7 7 7 4 7 6 4 6 4 7 4 , 7 , 6 B 6 7 7 4 , 4 4 7 n 4 M 7 7 , M M 7 M N 4 M M M M 7 M M 7 M N M M M 7 m M C n M M M M M M M M M B M M M M M C M C C 7 m m M m M M C M M n M m B M M C N M N N M C M m C N M m M m n M M m C M N N N N M N M M M M N N N M M M M M C C N N M C M N M m C C M N N m m M m C M M n m M M M n N m B M m n M N M M M M n M M n B x x M N M M M M n M M M n M M m n M M x 7 4 n M M M , x 4 n 4 n 4 n , n x 4 4 n 4 M 7 M 4 7 4 4 4 4 4 4 6 , 6 3 > :   R 7 9 4     + O O O O O O w O O + O + + O + o   + W _ O 6 O 6 6 6 8 > mXmXmXmXmX",
"mXmXmXmXmXmXmX                  .       . .   X     + .   X X .   . X . . . X   X   . . . X . . X . .     X . X X . X X .           X 1 3 7 3 1 > > > 1 1 > 1 1 1 1 1 > 6 > 4 3 3 6 6 > 6 6 6 7 3 6 6 6 6 7 6 6 3 6 , 6 7 6 6 1 4 6 6 6 6 7 4 4 7 6 4 6 , 4 7 7 7 M 7 M 7 7 7 M M B M 7 M 7 M 7 7 M , M 7 4 7 n N B B N B B B M M M M M N M M M B M M N M M M M 7 M B C C M B N N B C M N C C M m N C N M N N N m N C M N M C M N C M N N C N M N N C C C C C N C C C N C N N M M N M N N C N C C C N N N N N N N N C C N N C C N C N N C m N N N m N C C N N C N C M N C N C M M M n M M m N B n M M C M M N N N M C C N M M n M M M M M M n x M n M M M M M M M M M M M 7 M M M M n M 7 M M M 7 n 4 M 7 7 M M 4 9 4 4 6 4 4 6 3 > O   K 9 7 7 8 0 0 0 0 7 6 6 6 7 7 q 8 8 0 0 0 0 0 0 ~ _ 1 3 6 6 1 6 7 > mXmXmXmXmXmX",
"mXmXmXmXmXmXmXmX                X X       X +   X X   . X +   X + . . X X . + . .   . X X   X + . X + . . + X X . o X X X . X .         X O + + + X . + X X + . + + X X O X X X O o X O O X O O O X X O : O X O O O O O : O X O : O X O O O = O O X O O : O O O O O : : O O O O : O O O O O O : = + : > O O O : O > : O O : : : O : & > O > : > > : X > O : : : > = : > = > > : : : = 3 > , > = > > , : > = > > w > > = = > = > < > > = > , < > > > > = : > < > > : = 3 = < > > > : = > : 4 , , , = 3 > : > , > : > = 4 , < > , < , , , > > < = = > , = > = > , > > , > > = : = , = > = > > : : : : : = > : > > = > > , > > = > : > > = X : < : X : > : : : O : : : : > O : > : : O O = O : : O > O > > O O : O > B 7 3 4 3 , 6 3 > :   K V 7 7 ~ ) ) / ) / W ~ W W W / W W W W / W / / / 7 6 6 3 6 6 7 1 mXmXmXmXmXmXmX",
"mXmXmXmXmXmXmXmXmX                X X X X X . . X X X X X . X X X + X X X X X X X + X X X X X X X X X X X . X X o X X O X + X + X                                                                                                                                                                                                                                                                                                                       +         +     +                                                                                                     +                                                                                                                                 + o 7 3 6 4 6 , 6 > o   K 9 7 6 6 0 6 6 6 7 7 6 7 6 8 6 7 7 6 6 6 6 7 6 6 6 6 6 6 > 8 O   mXmXmXmXmXmXmX",
"mXmXmXmXmXmXmXmXmXmX                + O O + X +   . X X + X X o X + +   X X X X X X X + X   + X + .   X + X X X X X + X X X X X + + .                                                                                                                       .           .     .     .   .     .         .   . .   . . . . . . *   . .   . .   . . . . . . . * . . * . . * . *   . . . . . . * . * . . *   * * . . * . * . . . . . . * * . . * . . * * . * . * . . . * . . . * * . * . * * . . . * . . . . . * . *   . * . . * . * . * * . * . . . * * . . * . * * * . * * . * . . * . * * . * * . * * . * . . . . . . *   . . * . *   * . . *   . . . . .   . . . . * . . . * . . . . * . .   *   .   * .           O 6 , 3 6 , 4 > :   T 9 9 7 6 7 7 6 6 7 7 7 7 6 7 6 7 7 7 6 6 7 7 6 6 7 1 6 6 9 O mXmXmXmXmXmXmXmXmX",
"mXmXmXmXmXmXmXmXmXmX                  O > O > O > > > 1 > > 6 O > 1 1 1 > > 1 > O > > > 1 1 > 1 1 > 1 1 1 6 O 6 > 3 6 6 6 > 3 3 > > > 1 O > X   . X : X X O X : : X : X X : X = : X = X : X : : : X = X : : X = = : : = : = : = = O < : = > < = = > < < > = = < < : = > , = = < = , < , , , , = < , , , < = < , , , , , , < , , , , , < k , < , , , < , , k , , , < , x , < , k k , k n , k , , , x , , k , , , k , , , , k k < , k , , , k , x < , , k , k , , , k 4 k k , < , , , , , , x k , , , x x k , x , , k x , x x k , , , , , , , x x k x , x , x < , , , , , , , , k x < , , , , < , < , < , < , k , - , , , , x , - < , , ; , ; , , - - , = - , k , , , , < , ; < , , , < , , - , < = - , = < = , < = .   O 6 3 6 > 3 > +   T 7 7 7 6 7 7 7 7 6 7 6 7 6 6 6 6 7 6 7 1 6 6 6 6 6 6 1 7 > mXmXmXmXmXmXmXmXmXmX",
"mXmXmXmXmXmXmXmXmXmXmX                  X X X X + X + X o o o o O X O O O O + X O o X O X O O + X O O X X O X X O X O X o O O O O O O X X X O mXmX                    +       +       +               +       +     +         + +           +   +     +     +       +     + + + +     X   . . + + + .     + . . +   . X   X         X X   X .   X     + . +   X   X   X X   . + . .   X . . + X . . X   . + X   . . + X + X . . .     X   X   .   . . X     . + . + . . X +   X   X   . X     X   .   . . + X   . . + X + X . + X     +   . . X . + X     . X   . .   . X     + . .   . . +   +   X X   . + +     . X . + . +   .     +   X   . X . +   . + X     .   . .     . X   +     X     +   +     +     mXmXmXmX: 6 , > > > :   V 8 7 9 7 7 B 7 7 7 7 7 7 9 9 6 8 0 7 7 7 7 7 7 0 6 6 6 O mXmXmXmXmXmXmXmXmXmXmX",
"mXmXmXmXmXmXmXmXmXmXmXmX                                                                                  X                               +   mXmXmXmXmXmXmXmXmXmXmXmXmXmXmXmXmXmXmXmXmXmXmXmXmXmXmXmXmXmXmXmXmXmXmXmXmXmXmXmXmXmXmXmXmXmXmXmXmXmXmXmXmXmXmXmXmXmXmXmXmXmXmXmXmXmXmXmXmXmXmXmXmXmXmXmXmXmXmXmXmXmXmXmXmXmXmXmXmXmXmXmXmXmXmXmXmXmXmXmXmXmXmXmXmXmXmXmXmXmXmXmXmXmXmXmXmXmXmXmXmXmXmXmXmXmXmXmXmXmXmXmXmXmXmXmXmXmXmXmXmXmXmXmXmXmXmXmXmXmXmXmXmXmXmXmXmXmXmXmXmXmXmXmXmXmXmXmXmXmXmXmXmXmXmXmXmXmXmXmXmXmXmXmXmXmXmXmXmXmXmXmXmXmXmXmXmXmXmXmXmXmXmXmXmXmXmXmXmXmXmXmXmXmXmXmXmXmXmXmXmXmXmXmXmXmXmXmXmXmXmXmXmXmXmXmXmXmXmXmXmXmXmXmXmXmXmXmXmXmXmXmXmXmXmXmXmXmXmXmXmXmXmXmXmXmXmXmXmXmXmXmXmXmXmXmXmXmX+ 6 6 > > >   mXO O + X O X + O + X X + + o o O + O + O X + X O o O + mXmXmXmXmXmXmXmXmXmXmXmX",
"mXmXmXmXmXmXmXmXmXmXmXmXmXmX                                                                                                        mX    mXmXmXmXmXmXmXmXmXmXmXmXmXmXmXmXmXmXmXmXmXmXmXmXmXmXmXmXmXmXmXmXmXmXmXmXmXmXmXmXmXmXmXmXmXmXmXmXmXmXmXmXmXmXmXmXmXmXmXmXmXmXmXmXmXmXmXmXmXmXmXmXmXmXmXmXmXmXmXmXmXmXmXmXmXmXmXmXmXmXmXmXmXmXmXmXmXmXmXmXmXmXmXmXmXmXmXmXmXmXmXmXmXmXmXmXmXmXmXmXmXmXmXmXmXmXmXmXmXmXmXmXmXmXmXmXmXmXmXmXmXmXmXmXmXmXmXmXmXmXmXmXmXmXmXmXmXmXmXmXmXmXmXmXmXmXmXmXmXmXmXmXmXmXmXmXmXmXmXmXmXmXmXmXmXmXmXmXmXmXmXmXmXmXmXmXmXmXmXmXmXmXmXmXmXmXmXmXmXmXmXmXmXmXmXmXmXmXmXmXmXmXmXmXmXmXmXmXmXmXmXmXmXmXmXmXmXmXmXmXmXmXmXmXmXmXmXmXmXmXmXmXmXmXmXmXmXmXmXmXmXmXmXmXmXmXmXmXmXmXmXmXmXmXmXmXmXmXmXmXmXX > 3 mXmXmXmXmXmXmXmXmXmXmXmXmXmXmXmXmXmXmXmXmXmXmXmXmXmXmXmXmXmXmXmXmXmXmXmXmXmXmXmXmXmXmX",
"mXmXmXmXmXmXmXmXmXmXmXmXmXmXmXmXmXmX    mXmXmXmXmXmXmXmXmXmXmXmXmXmXmXmXmXmXmXmXmXmXmXmXmXmXmXmXmXmXmXmXmXmXmXmXmXmXmXmXmXmXmXmXmXmXmXmXmXmXmXmXmXmXmXmXmXmXmXmXmXmXmXmXmXmXmXmXmXmXmXmXmXmXmXmXmXmXmXmXmXmXmXmXmXmXmXmXmXmXmXmXmXmXmXmXmXmXmXmXmXmXmXmXmXmXmXmXmXmXmXmXmXmXmXmXmXmXmXmXmXmXmXmXmXmXmXmXmXmXmXmXmXmXmXmXmXmXmXmXmXmXmXmXmXmXmXmXmXmXmXmXmXmXmXmXmXmXmXmXmXmXmXmXmXmXmXmXmXmXmXmXmXmXmXmXmXmXmXmXmXmXmXmXmXmXmXmXmXmXmXmXmXmXmXmXmXmXmXmXmXmXmXmXmXmXmXmXmXmXmXmXmXmXmXmXmXmXmXmXmXmXmXmXmXmXmXmXmXmXmXmXmXmXmXmXmXmXmXmXmXmXmXmXmXmXmXmXmXmXmXmXmXmXmXmXmXmXmXmXmXmXmXmXmXmXmXmXmXmXmXmXmXmXmXmXmXmXmXmXmXmXmXmXmXmXmXmXmXmXmXmXmXmXmXmXmXmXmXmXmXmXmXmXmXmXmXmXmXmXmXmXmXmXmXmXmXmXmXmXmXmXmXmXmXmXmXmXmXmXmXmXmXmXmXmXmXmXmXmXmXmXmXmXmXmXmXmXmXmXmXmXmXmXmXmXmXmXmXmXmXmXmXmXmXmXmXmXmXmXmXmXmXmXmXmX",
"mXmXmXmXmXmXmXmXmXmXmXmXmXmXmXmXmXmXmXmXmXmXmXmXmXmXmXmXmXmXmXmXmXmXmXmXmXmXmXmXmXmXmXmXmXmXmXmXmXmXmXmXmXmXmXmXmXmXmXmXmXmXmXmXmXmXmXmXmXmXmXmXmXmXmXmXmXmXmXmXmXmXmXmXmXmXmXmXmXmXmXmXmXmXmXmXmXmXmXmXmXmXmXmXmXmXmXmXmXmXmXmXmXmXmXmXmXmXmXmXmXmXmXmXmXmXmXmXmXmXmXmXmXmXmXmXmXmXmXmXmXmXmXmXmXmXmXmXmXmXmXmXmXmXmXmXmXmXmXmXmXmXmXmXmXmXmXmXmXmXmXmXmXmXmXmXmXmXmXmXmXmXmXmXmXmXmXmXmXmXmXmXmXmXmXmXmXmXmXmXmXmXmXmXmXmXmXmXmXmXmXmXmXmXmXmXmXmXmXmXmXmXmXmXmXmXmXmXmXmXmXmXmXmXmXmXmXmXmXmXmXmXmXmXmXmXmXmXmXmXmXmXmXmXmXmXmXmXmXmXmXmXmXmXmXmXmXmXmXmXmXmXmXmXmXmXmXmXmXmXmXmXmXmXmXmXmXmXmXmXmXmXmXmXmXmXmXmXmXmXmXmXmXmXmXmXmXmXmXmXmXmXmXmXmXmXmXmXmXmXmXmXmXmXmXmXmXmXmXmXmXmXmXmXmXmXmXmXmXmXmXmXmXmXmXmXmXmXmXmXmXmXmXmXmXmXmXmXmXmXmXmXmXmXmXmXmXmXmXmXmXmXmXmXmXmXmXmXmXmXmXmXmXmXmXmXmXmXmXmXmXmXmXmXmXmX",
"mXmXmXmXmXmXmXmXmXmXmXmXmXmXmXmXmXmXmXmXmXmXmXmXmXmXmXmXmXmXmXmXmXmXmXmXmXmXmXmXmXmXmXmXmXmXmXmXmXmXmXmXmXmXmXmXmXmXmXmXmXmXmXmXmXmXmXmXmXmXmXmXmXmXmXmXmXmXmXmXmXmXmXmXmXmXmXmXmXmXmXmXmXmXmXmXmXmXmXmXmXmXmXmXmXmXmXmXmXmXmXmXmXmXmXmXmXmXmXmXmXmXmXmXmXmXmXmXmXmXmXmXmXmXmXmXmXmXmXmXmXmXmXmXmXmXmXmXmXmXmXmXmXmXmXmXmXmXmXmXmXmXmXmXmXmXmXmXmXmXmXmXmXmXmXmXmXmXmXmXmXmXmXmXmXmXmXmXmXmXmXmXmXmXmXmXmXmXmXmXmXmXmXmXmXmXmXmXmXmXmXmXmXmXmXmXmXmXmXmXmXmXmXmXmXmXmXmXmXmXmXmXmXmXmXmXmXmXmXmXmXmXmXmXmXmXmXmXmXmXmXmXmXmXmXmXmXmXmXmXmXmXmXmXmXmXmXmXmXmXmXmXmXmXmXmXmXmXmXmXmXmXmXmXmXmXmXmXmXmXmXmXmXmXmXmXmXmXmXmXmXmXmXmXmXmXmXmXmXmXmXmXmXmXmXmXmXmXmXmXmXmXmXmXmXmXmXmXmXmXmXmXmXmXmXmXmXmXmXmXmXmXmXmXmXmXmXmXmXmXmXmXmXmXmXmXmXmXmXmXmXmXmXmXmXmXmXmXmXmXmXmXmXmXmXmXmXmXmXmXmXmXmXmXmXmXmXmXmXmXmXmXmXmXmXmX",
"mXmXmXmXmXmXmXmXmXmXmXmXmXmXmXmXmXmXmXmXmXmXmXmXmXmXmXmXmXmXmXmXmXmXmXmXmXmXmXmXmXmXmXmXmXmXmXmXmXmXmXmXmXmXmXmXmXmXmXmXmXmXmXmXmXmXmXmXmXmXmXmXmXmXmXmXmXmXmXmXmXmXmXmXmXmXmXmXmXmXmXmXmXmXmXmXmXmXmXmXmXmXmXmXmXmXmXmXmXmXmXmXmXmXmXmXmXmXmXmXmXmXmXmXmXmXmXmXmXmXmXmXmXmXmXmXmXmXmXmXmXmXmXmXmXmXmXmXmXmXmXmXmXmXmXmXmXmXmXmXmXmXmXmXmXmXmXmXmXmXmXmXmXmXmXmXmXmXmXmXmXmXmXmXmXmXmXmXmXmXmXmXmXmXmXmXmXmXmXmXmXmXmXmXmXmXmXmXmXmXmXmXmXmXmXmXmXmXmXmXmXmXmXmXmXmXmXmXmXmXmXmXmXmXmXmXmXmXmXmXmXmXmXmXmXmXmXmXmXmXmXmXmXmXmXmXmXmXmXmXmXmXmXmXmXmXmXmXmXmXmXmXmXmXmXmXmXmXmXmXmXmXmXmXmXmXmXmXmXmXmXmXmXmXmXmXmXmXmXmXmXmXmXmXmXmXmXmXmXmXmXmXmXmXmXmXmXmXmXmXmXmXmXmXmXmXmXmXmXmXmXmXmXmXmXmXmXmXmXmXmXmXmXmXmXmXmXmXmXmXmXmXmXmXmXmXmXmXmXmXmXmXmXmXmXmXmXmXmXmXmXmXmXmXmXmXmXmXmXmXmXmXmXmXmXmXmXmXmXmXmXmXmXmXmXmX"
};
