/* XPM */
static const char *enemy8_xpm[] = {
/* columns rows colors chars-per-pixel */
"394 80 228 2 ",
"   c #020402",
".  c #040A04",
"X  c #080B07",
"o  c #070C08",
"O  c #0A0E0A",
"+  c #060607",
"@  c #160605",
"#  c #1A0706",
"$  c #150E05",
"%  c #1C0A06",
"&  c #1E0A08",
"*  c #031303",
"=  c #091505",
"-  c #041A03",
";  c #091905",
":  c #061409",
">  c #0B130C",
",  c #071809",
"<  c #0B1A0D",
"1  c #10140F",
"2  c #1A1C0A",
"3  c #181508",
"4  c #0F1410",
"5  c #0E1A10",
"6  c #08131A",
"7  c #111612",
"8  c #141A15",
"9  c #181C17",
"0  c #171D18",
"q  c #191E19",
"w  c #070C10",
"e  c #230604",
"r  c #2A0705",
"t  c #230907",
"y  c #240A08",
"u  c #2D0C0A",
"i  c #2C0907",
"p  c #330906",
"a  c #340D0B",
"s  c #3B0D0B",
"d  c #3D0A07",
"f  c #34100E",
"g  c #3A110F",
"h  c #2C120F",
"j  c #052403",
"k  c #062B04",
"l  c #092C06",
"z  c #0C220D",
"x  c #092707",
"c  c #192C0C",
"v  c #17270B",
"b  c #093406",
"n  c #0A3A06",
"m  c #0A3707",
"M  c #1C300C",
"N  c #0E2311",
"B  c #0F2812",
"V  c #132415",
"C  c #132915",
"Z  c #162319",
"A  c #1B231C",
"S  c #162A19",
"D  c #1A2B1C",
"F  c #192217",
"G  c #1B331E",
"H  c #18341D",
"J  c #20241F",
"K  c #20281F",
"L  c #0A1A25",
"P  c #0C212D",
"I  c #1F2520",
"U  c #1D2C20",
"Y  c #1D3420",
"T  c #1E3921",
"R  c #0C2638",
"E  c #102B3F",
"W  c #212622",
"Q  c #242B24",
"!  c #272E28",
"~  c #292E2A",
"^  c #282B27",
"/  c #253325",
"(  c #273329",
")  c #2A322C",
"_  c #253926",
"`  c #2E3630",
"'  c #2F3931",
"]  c #313632",
"[  c #343A35",
"{  c #393D3A",
"}  c #373C38",
"|  c #343229",
" . c #440C0A",
".. c #4A0E0B",
"X. c #51100D",
"o. c #4C120F",
"O. c #6F1E1B",
"+. c #772722",
"@. c #0D4109",
"#. c #3B433D",
"$. c #38443C",
"%. c #0E2D44",
"&. c #133857",
"*. c #113048",
"=. c #3E4541",
"-. c #3E4B42",
";. c #414642",
":. c #444B45",
">. c #464D49",
",. c #494E4A",
"<. c #445549",
"1. c #4B534D",
"2. c #465A4B",
"3. c #495C4E",
"4. c #425246",
"5. c #4E5651",
"6. c #4E5B52",
"7. c #515552",
"8. c #525C54",
"9. c #595E5A",
"0. c #565E59",
"q. c #5B635D",
"w. c #566A5A",
"e. c #5A6B5E",
"r. c #556358",
"t. c #546A57",
"y. c #5E6C62",
"u. c #5E6661",
"i. c #5E7262",
"p. c #626C65",
"a. c #656B67",
"s. c #627465",
"d. c #647469",
"f. c #6B736D",
"g. c #657869",
"h. c #657868",
"j. c #6E7671",
"k. c #737B75",
"l. c #727874",
"z. c #60665F",
"x. c #8C2B26",
"c. c #9A3E39",
"v. c #95312C",
"b. c #BD2B28",
"n. c #A53C35",
"m. c #AA3C36",
"M. c #A2332E",
"N. c #81231F",
"B. c #C42E2B",
"V. c #CB2E2A",
"C. c #D12F2B",
"Z. c #CD312E",
"A. c #C7312E",
"S. c #D2322E",
"D. c #D9312D",
"F. c #D53632",
"G. c #DB3632",
"H. c #DC3A35",
"J. c #DB3A36",
"K. c #CE3532",
"L. c #E1322E",
"P. c #EB3632",
"I. c #E43A36",
"U. c #EA3A36",
"Y. c #E43C39",
"T. c #EC3D39",
"R. c #E43431",
"E. c #F33E3A",
"W. c #F53B38",
"Q. c #9C413C",
"!. c #A4433D",
"~. c #AB413B",
"^. c #BA423B",
"/. c #EB423D",
"(. c #F5413D",
"). c #F9433E",
"_. c #C1463F",
"`. c #AD4944",
"'. c #AA4641",
"]. c #B14944",
"[. c #B94B46",
"{. c #DA4A45",
"}. c #CB544D",
"|. c #D5544C",
" X c #CE5952",
".X c #D35B54",
"XX c #DA5E57",
"oX c #C94B44",
"OX c #E84C46",
"+X c #FB4641",
"@X c #FC4A44",
"#X c #FE4F48",
"$X c #F44843",
"%X c #E4544D",
"&X c #EC534D",
"*X c #F3524C",
"=X c #FE534C",
"-X c #EB5651",
";X c #E85952",
":X c #F35A54",
">X c #FE5B54",
",X c #F85A54",
"<X c #DB635D",
"1X c #D4615B",
"2X c #FE645B",
"3X c #FA625A",
"4X c #DC6760",
"5X c #FE6C63",
"6X c #FE6E67",
"7X c #FE736B",
"8X c #FF776D",
"9X c #FF7B74",
"0X c #FF7F78",
"qX c #FE7770",
"wX c #E66E66",
"eX c #748579",
"rX c #FF837C",
"tX c #FF8077",
"yX c #7B8F81",
"uX c #FF8681",
"iX c #FF8B85",
"pX c #FF8E89",
"aX c #FF928D",
"sX c #FF9691",
"dX c #FF9995",
"fX c #FF9D99",
"gX c #839689",
"hX c #000001",
/* pixels */
"hXhXhXhXhXhXhXhXhXhXhXhXhXhXhXhXhXhXhXhXhXhXhXhXhXhXhXhXhXhXhXhXhXhXhXhXhXhXhXhXhXhXhXhXhXhXhXhXhXhXhXhXhXhXhXhXhXhXhXhXhXhXhXhXhXhXhXhXhXhXhXhXhXhXhXhXhXhXhXhXhXhXhXhXhXhXhXhXhXhXhXhXhXhXhXhXhXhXhXhXhXhXhXhXhXhXhXhXhXhXhXhXhXhXhXhXhXhXhXhXhXhXhXhXhXhXhXhXhXhXhXhXhXhXhXhXhXhXhXhXhXhXhXhXhXhXhXhXhXhXhXhXhXhXhXhXhXhXhXhXhXhXhXhXhXhXhXhXhXhXhXhXhXhXhXhXhXhXhXhXhXhXhXhXhXhXhXhXhXhXhXhXhXhXhXhXhXhXhXhXhXhXhXhXhXhXhXhXhXhXhXhXhXhXhXhXhXhXhXhXhXhXhXhXhXhXhXhXhXhXhXhXhXhXhXhXhXhXhXhXhXhXhXhXhXhXhXhXhXhXhXhXhXhXhXhXhXhXhXhXhXhXhXhXhXhXhXhXhXhXhXhXhXhXhXhXhXhXhXhXhXhXhXhXhXhXhXhXhXhXhXhXhXhXhXhXhXhXhXhXhXhXhXhXhXhXhXhXhXhXhXhXhXhXhXhXhXhXhXhXhXhXhXhXhXhXhXhXhXhXhXhXhXhXhXhXhXhXhXhXhXhXhXhXhXhXhXhXhXhXhXhXhXhX                                                        hXhXhXhXhXhXhXhXhXhXhXhX",
"hXhXhXhXhXhXhXhXhXhXhXhXhXhXhXhXhXhXhXhXhXhXhXhXhXhXhXhXhXhXhXhXhXhXhXhXhXhXhXhXhXhXhXhXhXhXhXhXhXhXhXhXhXhXhXhXhXhXhXhXhXhXhXhXhXhXhXhXhXhXhXhXhXhXhXhXhXhXhXhXhXhXhXhXhXhXhXhXhXhXhXhXhXhXhXhXhXhXhXhXhXhXhXhXhXhXhXhXhXhXhXhXhXhXhXhXhXhXhXhXhXhXhXhXhXhXhXhXhXhXhXhXhXhXhXhXhXhXhXhXhXhXhXhXhXhXhXhXhXhXhXhXhXhXhXhXhXhXhXhXhXhXhXhXhXhXhXhXhXhXhXhXhXhXhXhXhXhXhXhXhXhXhXhXhXhXhXhXhXhXhXhXhXhXhXhXhXhXhXhXhXhXhXhXhXhXhXhXhXhXhXhXhXhXhXhXhXhXhXhXhXhXhXhXhXhXhXhXhXhXhXhXhXhXhXhXhXhXhXhXhXhXhXhXhXhXhXhXhXhXhXhXhXhXhXhXhXhXhXhXhXhXhXhXhXhXhXhXhXhXhXhXhXhXhXhXhXhXhXhXhXhXhXhXhXhXhXhXhXhXhXhXhXhXhXhXhXhXhXhXhXhXhXhXhXhXhXhXhXhXhXhXhXhXhXhXhXhXhXhXhXhXhXhXhXhXhXhXhXhXhXhXhXhXhXhXhXhXhXhXhXhXhXhXhXhXhXhXhXhXhXhXhXI ` Q ! I I I q I A A W W W ~ ~ ~ I Q Q Q ^ ! ~ ~ ^ ! ] { hXhXhXhXhXhXhXhXhXhXhXhX",
"hXhXhXhXhXhXhXhXhXhXhXhXhXhXhXhXhXhXhXhXhXhXhXhXhXhXhXhXhXhXhXhXhXhXhXhXhXhXhXhXhXhXhXhXhXhXhXhXhXhXhXhXhXhXhXhXhXhXhXhXhXhXhXhXhXhXhXhXhXhXhXhXhXhXhXhXhXhXhXhXhXhXhXhXhXhXhXhXhXhXhXhXhXhXhXhXhXhXhXhXhXhXhXhXhXhXhXhXhXhXhXhXhXhXhXhXhXhXhXhXhXhXhXhXhXhXhXhXhXhXhXhXhXhXhXhXhXhXhXhXhXhXhXhXhXhXhXhXhXhXhXhXhXhXhXhXhXhXhXhXhXhXhXhXhXhXhXhXhXhXhXhXhXhXhXhXhXhXhXhXhXhXhXhXhXhXhXhXhXhXhXhXhXhXhXhXhXhXhXhXhXhXhXhXhXhXhXhXhXhXhXhXhXhXhXhXhXhXhXhXhXhXhXhXhXhXhXhXhXhXhXhXhXhXhXhXhXhXhXhXhXhXhXhXhXhXhXhXhXhXhXhXhXhXhXhXhXhXhXhXhXhXhXhXhXhXhXhXhXhXhXhXhXhXhXhXhXhXhXhXhXhXhXhXhXhXhXhXhXhXhXhXhXhXhXhXhXhXhXhXhXhXhXhXhXhXhXhXhXhXhXhXhXhXhXhXhXhXhXhXhXhXhXhXhXhXhXhXhXhXhXhXhXhXhXhXhXhXhXhXhXhXhXhXhXhXhXhXhXhXhXhXA u.j.r.9.8.0.0.7.5.5.5.6.<.>.:.:.>.-.,.1.>.>.=.1.,.;.>.:.-.} w hXhXhXhXhXhXhXhXhXhX",
"hXhXhXhXhXhXhXhXhXhXhXhXhXhXhXhXhXhXhXhXhXhXhXhXhXhXhXhXhXhXhXhXhXhXhXhXhXhXhXhXhXhXhXhXhXhXhXhXhXhXhXhXhXhXhXhXhXhXhXhXhXhXhXhXhXhXhXhXhXhXhXhXhXhXhXhXhXhXhXhXhXhXhXhXhXhXhXhXhXhXhXhXhXhXhXhXhXhXhXhXhXhXhXhXhXhXhXhXhXhXhXhXhXhXhXhXhXhXhXhXhXhXhXhXhXhXhXhXhXhXhXhXhXhXhXhXhXhXhXhXhXhXhXhXhXhXhXhXhXhXhXhXhXhXhXhXhXhXhXhXhXhXhXhXhXhXhXhXhXhXhXhXhXhXhXhXhXhXhXhXhXhXhXhXhXhXhXhXhXhXhXhXhXhXhXhXhXhXhXhXhXhXhXhXhXhXhXhXhXhXhXhXhXhXhXhXhXhXhXhXhXhXhXhXhXhXhXhXhXhXhXhXhXhXhXhXhXhXhXhXhXhXhXhXhXhXhXhXhXhXhXhXhXhXhXhXhXhXhXhXhXhXhXhXhXhXhXhXhXhXhXhXhXhXhXhXhXhXhXhXhXhXhXhXhXhXhXhXhXhXhXhXhXhXhXhXhXhXhXhXhXhXhXhXhXhXhXhXhXhXhXhXhXhXhXhXhXhXhXhXhXhXhXhXhXhXhXhXhXhXhXhXhXhXhXhXhXhXhXhXhXhXhXhXhXhXhXhXhXhXhXq y.i.) I I I I I I 0 0 A 9 0 8 8 8 7 9 8 8 8 8 4 4 4 4 4 4 8 ! [ 7 hXhXhXhXhXhXhXhXhX",
"hXhXhXhXhXhXhXhXhXhXhXhXhXhXhXhXhXhXhXhXhXhXhXhXhXhXhXhXhXhXhXhXhXhXhXhXhXhXhXhXhXhXhXhXhXhXhXhXhXhXhXhXhXhXhXhXhXhXhXhXhXhXhXhXhXhXhXhXhXhXhXhXhXhXhXhXhXhXhXhXhXhXhXhXhXhXhXhXhXhXhXhXhXhXhXhXhXhXhXhXhXhXhXhXhXhXhXhXhXhXhXhXhXhXhXhXhXhXhXhXhXhXhXhXhXhXhXhXhXhXhXhXhXhXhXhXhXhXhXhXhXhXhXhXhXhXhXhXhXhXhXhXhXhXhXhXhXhXhXhXhXhXhXhXhXhXhXhXhXhXhXhXhXhXhXhXhXhXhXhXhXhXhXhXhXhXhXhXhXhXhXhXhXhXhXhXhXhXhXhXhXhXhXhXhXhXhXhXhXhXhXhXhXhXhXhXhXhXhXhXhXhXhXhXhXhXhXhXhXhXhXhXhXhXhXhXhXhXhXhXhXhXhXhXhXhXhXhXhXhXhXhXhXhXhXhXhXhXhXhXhXhXhXhXhXhXhXhXhXhXhXhXhXhXhXhXhXhXhXhXhXhXhXhXhXhXhXhXhXhXhXhXhXhXhXhXhXhXhXhXhXhXhXhXhXhXhXhXhXhXhXhXhXhXhXhXhXhXhXhXhXhXhXhXhXhXhXhXhXhXhXhXhXhXhXhXhXhXhXhXhXhXhXhXhXhXhXhXhXhX7 w.j.U 0 I Z A Z 0 Z 8 0 q q Z 8 A 0 0 q q 0 0 0 0 8 q 0 9 0 q 7 ^ ;.7 hXhXhXhXhXhXhXhX",
"hXhXhXhXhXhXhXhXhXhXhXhXhXhX                                                                +                                             hXhXhXhXhXhXhXhXhXhXhXhXhXhXhXhXhXhXhXhXhXhXhXhXhXhXhXhXhXhXhXhXhXhXhXhXhXhXhXhXhXhXhXhXhXhXhXhXhXhXhXhXhXhXhXhXhXhXhXhXhXhXhXhXhXhXhXhXhXhXhXhXhXhXhXhXhXhXhXhXhXhXhXhXhXhXhXhXhXhXhXhXhXhXhXhXhXhXhXhXhXhXhXhXhXhXhXhXhXhXhXhXhXhXhXhXhXhXhXhXhXhXhXhXhXhXhXhXhXhXhXhXhXhXhXhXhXhXhXhXhXhXhXhXhXhXhXhXhXhXhXhXhXhXhXhXhXhXhXhXhXhXhXhXhXhXhXhXhXhXhXhXhXhXhXhXhXhXhXhXhXhXhXhXhXhXhXhXhXhXhXhXhXhXhXhXhXhXhXhXhXhXhXhXhXhXhXhXhXhXhXhXhXhXhXhXhXhXhXhXhXhXhXhXhXhXhXhXhXhXhXhXhXhXhXhXhXhXhXhXhXhXhXhXhXhXhXhXhXhXhXhXhXhXhXhXhXhXhXhXhXhXhXhXhXhXhXhXhXhXhXhXhXhXhXhXhXhXhXhX9 y.k.U 5 0 4 4 + + + + + + + + + + + + + + + + + + + + + + + + 0 7 4 Q :.O hXhXhXhXhXhXhX",
"hXhXhXhXhXhXhXhXhXhXhXhXhXW [ ` ` ] ~ ) ~ ` ] ] ] ] } } } { { { { } } { } { #.{ #.;.=.=.=.;.;.=.=.=.;.:.:.:.;.;.;.:.:.:.:.:.:.;.:.>.,.:.,.W hXhXhXhXhXhXhXhXhXhXhXhXhXhXhXhXhXhXhXhXhXhXhXhXhXhXhXhXhXhXhXhXhXhXhXhXhXhXhXhXhXhXhXhXhXhXhXhXhXhXhXhXhXhXhXhXhXhXhXhXhXhXhXhXhXhXhXhXhXhXhXhXhXhXhXhXhXhXhXhXhXhXhXhXhXhXhXhXhXhXhXhXhXhXhXhXhXhXhXhXhXhXhXhXhXhXhXhXhXhXhXhXhXhXhXhXhXhXhXhXhXhXhXhXhXhXhXhXhXhXhXhXhXhXhXhXhXhXhXhXhXhXhXhXhXhXhXhXhXhXhXhXhXhXhXhXhXhXhXhXhXhXhXhXhXhXhXhXhXhXhXhXhXhXhXhXhXhXhXhXhX> hXhX> hXhXhXhXhXhXhXhXhXhXhXhXhXhXhXhXhXhXhXhXhXhXhXhXhXhXhXhXhXhXhXhXhXhXhXhXhXhXhXhXhXhXhXhXhXhXhXhXhXhXhXhXhXhXhXhXhXhXhXhXhXhXhXhXhXhXhXhXhXhXhXhXhXhXhXhXhXhXhXhXhXhXhXhXhXhXhXhXhXhXhXhXhXA i.eXq 4 0 8   1 7.0.5.5.1.7.7.5.5.5.7.5.5.7.5.5.7.7.8.,.1.1.9.{ w 0 q 7 A ,.7 hXhXhXhXhXhX",
"hXhXhXhXhXhXhXhXhXhXhXhX9 | ` ] ] ] ) ] ] ~ ` ] ) ] ] [ ] { { [ [ ] [ } [ } } } } } { #.{ =.=.{ { #.;.{ =.=.=.=.;.#.;.;.;.;.:.:.:.,.:.>.:.=.Q hXhXhXhXhXhXhXO hXhXhXhXO hXw 1 7 O 1 7 7 w 7 1 O 7 1 7 1 7 7 7 1 4 7 1 1 7 7 7 7 w 7 7 1 4 7 4 4 7 7 7 O 7 7 7 1 7 7 7 4 7 7 7 7 7 7 7 4 8 7 7 4 7 8 7 7 8 7 8 8 8 8 7 8 8 7 8 8 7 8 8 8 8 8 7 9 9 8 8 8 8 8 8 8 8 9 8 8 8 8 8 9 8 8 8 8 8 9 8 8 8 9 8 8 9 8 9 8 8 9 8 8 9 8 8 9 8 8 9 8 8 9 8 5 9 8 9 8 9 8 9 8 8 9 8 8 9 8 9 7 8 8 8 8 8 8 0 S 9 8 9 8 0 8 9 8 8 0 8 7 9 8 8 8 8 8 8 8 8 9 8 7 8 8 9 8 9 7 9 7 8 9 8 8 9 8 8 9 8 8 8 9 8 9 8 0 9 8 9 8 9 8 8 8 8 9 8 8 8 8 8 9 8 8 8 8 7 8 8 8 8 8 8 8 8 8 8 7 8 9 7 8 7 7 8 7 7 7 7 7 7 7 7 7 7 7 7 7 8 7 7 4 hXhXhXI y.g.I 4 q 8 8   ,.j.f.f.f.f.f.j.f.j.l.f.j.l.f.f.f.a.f.f.f.f.a.a.a.A 4 0 8 7 Q #.8 hXhXhXhXhX",
"hXhXhXhXhXhXhXhXhXhXhX7 Q 9 7 7 7 7 1 1 7 7 7 1 7 7 7 7 9 7 7 1 7 7 8 7 7 7 8 9 8 8 8 9 9 7 8 8 9 9 8 9 8 9 9 7 8 8 8 8 9 8 7 7 8 7 7 7 4 8 W q 7 9 Q ( ) ' ] ) ] ] ] [ ' [ [ $.#.$.#.$.#.$.[ $.#.$.$.#.$.$.#.-.=.=.-.-.;.:.-.-.-.-.$.#.$.;.;.-.-.$.$.$.$.$.$.#.-.:.-.-.$.-.-.-.-.-.<.-.:.-.4.>.-.<.4.<.<.<.2.2.<.<.2.2.-.2.<.<.2.<.<.3.3.2.2.2.3.2.<.<.2.2.2.6.5.6.3.2.<.-.3.2.3.3.2.2.-.3.3.2.2.2.3.-.2.3.3.3.5.6.3.2.3.3.3.3.2.3.3.3.3.3.3.2.3.3.3.3.3.6.3.2.2.2.5.3.6.2.2.2.2.2.2.3.-.3.3.-.3.-.3.3.3.3.3.2.6.6.3.3.3.3.2.3.2.2.2.2.3.3.3.<.2.3.2.2.2.2.2.2.6.2.2.3.3.3.3.2.2.2.2.3.3.2.-.2.2.2.3.3.2.2.2.<.2.2.2.<.<.2.2.<.2.4.2.2.-.2.<.<.<.<.<.<.<.<.<.4.4.2.-.-.-.-.-.-.-.-.-.-.$.$.$.-.$.$.$.$.$.$.$.[ q hXU d.y.Q 4 0 Z 8 8   [ Z 8 q F 8 0 0 9 8 8 8 0 9 9 9 9 8 8 8 8 9 7 7 7 q 8 8 8 8 7 W } 8 hXhXhXhX",
"hXhXhXhXhXhXhXhXhXhX7 Q 9 9 9 9 9 9 9 8 9 q q 9 q q q q 9 q q q 9 A q q q J q q q q q q A A I A A A A J A J J J J W J W J J q q q 9 9 q 0 9 8 8 7 O > 7 8 8 7 5 8 8 7 8 8 8 8 8 8 9 8 8 9 9 8 F 8 8 F F A A A 9 Z q A A A A Z A A 9 A A F A 9 A A A A F A F A F 9 A 8 Z 0 F F F S Z Z I D A A D D A A A A A A S Z I A I U U I I D U U I I I A U D D D D S D D D D D U S D D G D U U S I U S Y S U Y Y U S U S U U S U U S S S Y D D D D D U U C D D D D D U G D D D D U D D S D S S D Y S U Y Y Y U U U U S U S D S U S G S S U U D D D U S D D S S D D D D D S I D U S D D S D S I Z U U S Y S D D D A S S D D A A S S S A S F S S I D Z S D Z Z Z D Z S Z Z A 0 Z Z F F F S Z S Z 0 Z V 8 8 V V 8 Z 7 8 7 4 4 + ` eXr.! 0 0 0 8 8 5   [ I A A I A I I I I I I I q I q A A 9 I q A A q q 0 9 8 8 8 9 7 W { 7 hXhXhX",
"hXhXhXhXhXhXhXhXhX4 W 9 9 9 8 8 9 9 8 9 9 q q 9 q q q q 7 9 q 9 q 9 9 q q q q q 9 9 q q 8 A q A q q q J q A J J 9 J q A I q q 9 8 8 7 X + + X > X + + + . o + + . o . X X O O O X X X > O O O O > > > X X o O > o X o o o O X O > O O O . o : O o > X > O : : O * O : o o > : o o : : + : : : > : : : : > > , > : : > : : : : : : : : : : : : : < : > < : : , < < < : : < : : : < : : : < : , < : , : , , , < : : , 5 , , , , , , , < < : : < < < , , < < , < : : , : < : : : : , : : : : : , , , , , , , , , 6 : : : * , : : : , , : : : : , : : : , : : : : : : , : : : : * : : : : : : : , : : * : : o : : : : : : : : : o o : : : : : : o o * * * * . * * * . * o o * . o . . . . . . . . . . .   . .       ! yXi.I 0 q Z 0 8 7 >   ` U 0 I I A I I I I A I I I I A A A I A I A I I I 0 8 8 8 8 8 7 8 q ;.7 hXhX",
"hXhXhXhXhXhXhXhXhXW 0 8 7 8 8 8 8 9 9 9 9 8 9 9 9 8 9 7 9 9 9 q 9 9 9 9 8 8 9 q q 9 q 9 q q 8 0 q W 9 J A q q q q q q q 9 q 9 9 9 7 + I } ;.;.#.=.=.:.:.:.:.;.;.;.;.;.-.;.;.:.:.:.:.;.;.;.:.:.:.;.:.:.:.:.:.:.>.>.:.>.>.>.:.:.>.;.:.:.1.1.>.:.:.:.:.,.,.,.:.>.>.1.>.1.,.>.>.,.<.<.,.5.<.1.1.1.3.1.5.5.1.1.<.1.1.5.5.5.<.5.5.6.2.5.5.5.6.6.5.6.8.6.5.6.6.6.0.6.5.6.6.6.r.6.6.6.5.6.6.8.8.6.6.6.5.6.6.r.6.6.r.6.8.6.6.6.6.8.r.8.8.6.6.6.6.8.8.6.0.8.8.6.r.6.6.8.8.6.5.r.r.r.r.8.8.8.8.6.6.8.8.8.r.8.6.8.8.r.6.8.6.6.8.6.8.6.8.8.6.8.8.5.6.6.6.6.3.5.8.8.6.6.6.6.5.3.8.6.6.6.6.6.6.8.6.6.3.6.6.6.r.6.6.6.8.6.5.8.6.6.8.6.r.8.8.8.6.6.8.5.5.5.5.6.6.5.6.8.5.8.5.1.5.2.5.5.6.8.6.6.6.5.5.6.6.6.5.1.5.3.1.8.1.8.1.>.6.gXi.I 5 Z Z F 5 8 8 O   ` A 0 Z Z 0 0 0 0 0 8 9 8 8 0 8 9 0 0 8 0 q 8 8 A A 8 9 7 0 9 7 8 8 9 =.7 hX",
"hXhXhXhXhXhXhXhXJ q 9 7 8 9 7 9 9 7 9 9 9 8 7 9 8 9 q 8 8 9 7 7 9 9 9 9 9 9 8 9 9 9 9 9 q q 9 9 q q 9 q q J q J q q q q 9 q 9 q 7 + { 9.7.7.9.8.5.8.8.0.0.9.0.0.0.9.0.8.0.0.0.9.q.0.0.9.9.r.q.9.r.q.q.9.q.9.q.q.q.q.q.q.q.q.q.u.q.q.q.q.q.q.q.q.q.q.u.q.q.p.q.q.q.z.z.u.q.q.u.q.u.u.u.u.y.u.u.u.q.u.y.y.u.q.y.u.y.y.p.p.y.y.y.p.y.y.d.d.y.d.d.d.d.d.d.p.s.d.p.p.y.y.s.i.p.s.s.d.i.i.i.i.i.d.y.d.i.i.d.i.i.i.i.i.i.i.d.i.i.d.d.i.d.d.d.d.d.i.g.d.s.d.d.d.d.g.g.s.d.d.d.d.i.g.d.d.i.d.i.d.d.d.i.i.g.i.i.d.i.g.d.i.d.i.i.i.i.i.d.i.d.y.d.i.d.i.i.i.i.i.d.y.y.y.i.y.u.i.i.y.y.i.i.y.y.y.y.y.y.y.i.w.y.u.i.y.u.i.i.y.y.y.i.y.i.y.i.p.u.y.y.y.y.y.i.y.i.y.y.y.u.e.y.e.w.u.u.e.e.e.e.q.e.w.e.y.q.w.w.q.0.r.t.q.y.w.q.q.-.U 5 S A F 5 0 8 5 >   ` A q 7                     +                     O 9 8 0 q 7 7 7 8 0 J [ 8 ",
"hXhXhXhXhXhXhXA 9 9 7 8 8 7 9 7 9 7 7 7 8 9 9 9 9 9 8 9 8 8 9 q 9 8 9 8 8 8 8 9 8 8 8 9 9 9 9 9 9 9 9 q q q q q q J q q q q 9 8 4 ~ [ q 8 8 8 8 7 7 7 7 7 7 7 1 7 7 8 7 7 7 8 8 7 7 7 7 7 7 8 7 7 7 7 1 1 7 7 7 7 1 1 7 7 7 7 7 1 8 7 8 8 8 8 7 7 7 4 4 1 5 8 1 7 7 7 < 7 0 8 1 5 5 8 8 0 5 7 8 5 8 8 8 Z 8 7 V 8 8 V 8 8 0 8 Z 0 5 8 5 F 5 V 8 8 V 8 V Z Z Z C Z Z 5 N Z C Z C Z S V N 0 Z V N Z N S Z N N S 8 Z V V N Z V Z S C N C N Z N C N N C N N N C V N C N N N Z N V C Z S N N Z S V N S S S V N N V Z V Z Z N V S V S C N Z C S C Z 5 C C Z N V C Z V 8 S V N V N P N N N V N V Z 6 N 8 N N Z V C Z Z Z N Z Z V Z Z N N N S Z Z V V N Z C V V N C 8 N V 5 V C V V 8 V Z 8 8 V V 8 5 5 8 8 V 8 5 5 5 5 5 0 q Z 0 0 Z 0 0 4 >   ` A Z 7     + X 4 w O O O O > w X X > X O O X +     O 8 7 8 0 8 8 7 7 6 W ~ ",
"hXhXhXhXhXhX9 8 8 9 8 7 7 8 9 7 9 9 7 9 7 9 9 7 7 9 9 9 8 9 8 9 9 q 9 8 8 7 8 8 9 8 9 8 9 8 9 8 9 8 9 9 9 q 9 q J q 8 q 9 9 7 1 ` ^ 9 9 q 9 9 9 9 8 9 9 8 9 9 8 9 8 9 0 q q q 9 9 9 8 9 9 9 9 9 F 8 9 F q q F 9 F A J A F A A A 9 A F A A A A 8 8 Z A 9 F 0 A 0 A F F Z A A A A Z F A A S I A U A D A A A K A D D D D D D D U U D D U D U U U S U U S G S D G D S Y S Y G U Y D U Y U U U S Y H Y S U Y Y S H U Y Y H S Y Y Y Y G H G G G Y Y G Y S Y Y G G G G D S Y G Y G D Y S Y G Y Y Y S Y Y Y Y U Y Y Y Y Y Y Y H H Y Y U G S G Y U Y Y H G Y Y G G Y G G Y S Y H Y H U Y U S Y H Y H Y U D G Y U G Y Y Y G S S G G Y S U C U Y S D Y S G S S D S S G S S D S D S D D G S S S D Y D S U S D D S D S D I S I Z Z 0 0 5 8 8 5 5 >   ` A 0 7     > 8 8 4 8 7 7 8 8 4 7 7 7 7 7 4 w 7       X 9 7 6 7 7 0 8 8 8 q ",
"hXhXhXhX    + +   +     +   + + +     +     +     +         +   +     + + + +   +     + +   +   +   + +   +     +   +   + + O ` W 7 9 9 9 q 9 9 8 8 9 9 0 0 9 9 A 0 9 0 q q 9 q A A A 9 A A A 9 8 0 9 A A q F J 8 A A A A A A A q A A F A A A F A A A A A A A A A A A A A S A Z A I A S A Z D A D A U D D A D U D D D D U U D D Y U U Y S U U Y Y Y S G G G G D Y S Y Y G G Y D Y Y Y Y Y U Y Y Y Y Y Y Y Y S Y Y Y Y S Y Y T T H H Y H Y Y H Y H Y Y Y G G G H Y H Y Y G G G G Y Y Y H Y Y Y Y H H Y H H H Y Y Y Y H Y H Y Y Y G H H H H G Y Y H G Y H T H G H Y Y Y Y Y Y H H Y Y H Y Y S Y Y H Y H H Y H G T Y Y Y G G Y H Y Y H Y Y G G G G Y G G G H D G G G S G G S G Y Y Y Y Y S D S S Y D D D D U S Z Z Z S Z Z F Z 0 5 8 5 >   ` S 0 7     7 9 8 4 9 8 8 7 8 8 8 8 8 7 7 7 7 8         + q 9 9 8 7 8 7 8 8 ",
"hXhXhXhX) p.9.a.f.a.a.a.q.q.a.a.z.a.a.a.p.a.a.f.f.f.f.f.f.l.f.f.f.f.f.j.j.k.l.l.f.l.l.l.l.l.f.l.l.k.l.k.k.k.k.k.k.k.j.k.eXl.,.^ 7 9 9 0 q A 9 8 9 9 9 A 8 9 9 8 9 9 0 8 9 9 9 8 9 9 9 7 8 8 8 8 A 9 8 8 9 8 8 9 8 9 A 8 A A 9 A A A 9 A A A 9 A 8 A A 9 A A F A A A D 8 9 Z A A A A A Z Z A A S D A D D D D D D U U D G G D U / G S / D G Y G G G D H G G Y G G G G H H G G G G G G G G Y G Y T Y Y T G G G T G G G G G G G G _ G H G G T H G _ T Y Y G T T H H G H H H G H G H H H G G G G T G T H T Y G T @._ _ G H T T G T T T _ H H G H S H H H T H H G T G G T H G H H G G T H G H G H G H G Y G G G G G T G G Y G G G D G G G G H S S H H S H G S G G S G S S H G G D G S D D D G G G D C S D D C C S / S A Z S q 0 0 8 8 8 7 >   ` A 0 7     7 q 7 8 4 8 0 4 0 8 8 8 8 8 7 1 7 7     +     + 0 7 8 8 8 7 8 1 ",
"hXhXhXq ` ~ ^ W W W W W W W W W W W W ^ W W ^ ^ W ^ ^ ^ ^ ^ ^ Q Q Q ^ Q ^ ~ ) ~ Q ^ ! ^ ~ ^ ^ ^ Q ^ ~ ~ ^ ^ ~ ^ ~ ~ ^ W ^ ^ q 7 9 9 9 0 O                                                                                                                                                                                                                   .           .       .                       .     . .     .         . .   . . . . . . . .   .   .   .   . . . . .   . . .   . .     +     . .   w + .     . .     .     . .   . .   .   . .   . .       .     . . . .     .   . .   .       .           .     .         .       .                                                               O S Z Z F F 5 Z 8 5 5 5 >   ) 8 A 4     8 q 8 7 0 9 8 0 8 8 8 7 8 7 7 7 7 8 + + 9 1     + 8 8 8 8 7 7 + ",
"hXhX9 W 9 8 8 9 8 8 9 7 8 8 8 7 8 9 8 9 9 8 9 9 8 q q 8 9 9 9 9 7 8 9 9 0 0 9 9 9 8 8 9 0 9 9 9 9 9 q q 9 9 9 9 9 9 8 9 8 9 9 q 9 0 9 X                                                                                                                                                                     . . . * . . * . . * * . . . . . * . . . * * * . . . * . * . . * . * * * * * * * * * * * . * * * * * * . * * * . * * * * * * * * * * * * * * * * * * * * * * * * * . * . * * * * * * * * * * * * * * * * * . * * * * * * * * * * * * * * * * * * * * * * * * * * * * * * * * * * * * * * * * * * * * * * * * * * * * * * * * * * * * * . * * . . * * * * * * * . * * . * * * . . . . . . . * . . . . S S F V Z 8 5 8 5 8 >   ) Z A 8     8 0 8 9 8 9 8 8 8 0 9 7 7 8 8 7 7 8 +   1 A O     + O O O O +   ",
"hXq W 9 9 9 9 9 9 9 9 9 9 q q J q q J q q J q q 9 q J q q q q W A q q q q I q 9 q A W I 9 A W q q I A I q q q q 9 A q q q q 9 9 9 q O                                                                                                                         . .     .       . .   . . . . . . . . . . * . . . . . . * . * * . . * * * * * * * * * * * * * * * * * . * . * * * . * * * * * o * * * * * * * * * * * * * * * * * * * * * * * * * * * * * * * * * * * * * * * * * * * . * * . * * * * . * * * * * * * * * * * * * * * * * * - - - - - - - - - - - - - - j - - - ; - - - - - - - - * - - - - - - - ; - - - - - - - - - - - - - - - - - * ; - - - - - - - - - - - - - - - - - - - - - * * * . * . . + S D 8 N 8 8 5 5 4 >   ) F q 4     8 q 7 0 0 q 0 0 q q 9 9 8 9 8 8 7 9 +   O 7 W +         +       ",
"8 Q q A J q q A 9 A A q q A 9 q q q W J J q J W J J J A q A W A I I I I J W A W W J A A A J J A W W A I A A q A I A A 9 9 A 9 I q X                                                     .                                                   . . .   .   .                                           * * * . * . . .   X * O o O O w O > w O O O > > O O > > : o * * . . .   . > * o O O > O O O O o O O X > O > > O : * * *   .   + O O o X X > O > O o O O o > > > > > > : * * - . . .   + X O o o O O O w > X O O > O > > > X > * o * - - ; ; - = ; < 2 v 2 v v 2 2 2 2 2 2 2 2 v 2 3 v v 2 3 3 ; ; ; - = X 3 2 2 2 v 2 2 2 2 2 2 2 2 2 2 3 2 2 v 2 ; ; ; - = * = = = 2 2 v 2 2 2 v 2 v 2 2 2 3 2 2 3 2 3 $ $ @ + A U 8 V 5 8 8 5 4   ` Z q 8     9 9 O + X + + + X X + + X + + O 8 9 +   O O J O             +   ",
"    +     +   +     +   +                                                   +                     +     +               +     +             + O 7 O 8 8 8 8 8 9 8 8 8 8 0 8 7 9 9 9 O     . . .   X 8 9 8 8 8 0 0 0 8 9 0 q q Z 9 9 0 A 0 >   . . .   .   8 A A A Z A A U U A A A D U U Q Y U U G V * * * * -       + F A F Z F S A A A A S I Z A D D U U D G C * * *     + 7 A A F F Z A A A S A I S D D U A U D D D > . . .   . 7 I S Z Z Z A A A Z I I S A U D S U D U S : . j . .   . 8 D F F Z Z A D A Z A I S A U D D U D D S * * j j # & e y o.oX%XOX%X%X%X%X%X%X%X;X%X%X%X%X-X%X%X{.{.O.i s # # e y o.oX|.%X&X%X%X%X%X%XOX;X;X%X%X%X-X;X%X{.{.O.a f $ t e y p m.%X%X%X%X%X%X%X%XOX&X;X%X;X%X&X;X%XOX%XM. .a $ U Z 0 8 5 5 5 >   ) q Z 4     8 7 X + O X + + w + + + X + + X 8 9 +   O > W +   O 7 W q   w q ",
"                                                                                                                                            > > > 1 1 7 7 7 7 > 7 7 7 7 7 7 4 7 1 7 4 X   . .   . 8 8 1 5 7 7 8 5 8 8 5 4 5 8 5 8 8 8 8 8 7 .   . . .   X 8 8 5 5 4 8 8 7 5 5 7 8 5 8 V N 8 Z N V C > . * - - . .   5 o o X + o O o o : o X : : > * : > > o > < , . *   + : > o o o X o O > o o o O : o > : > : : : > z . *   . : O o o X X > X o : o o : o > o o : X > : > B . j . .   > > . . + X > O X : X o o : > : o : > : > < < . j k @ y u r ~.OXB.A.A.A.Z.B.b.Z.Z.F.S.Z.B.B.F.B.b.b.A.;XX.g @ t y i ~.&XV.A.A.Z.S.B.b.Z.F.F.S.Z.B.V.S.B.b.b.A.-XX.s = y y y +.5XC.A.B.A.S.A.b.B.Z.Z.F.Z.B.A.S.A.b.B.b.{.x.a @ Z U N 8 5 8 4 >   ) Z q 4   + 7 9 Q 8.8.9.q.q.9.q.a.9.a.9.5.~ 9 q     O 7 A X   O 1 9 ^   7 ! ",
"                              +                           +   +                                                       + .     +           X o X + +   X + + + + . + + + + X . . + o . 4   .     X >   . O + + + . o + + + X + X + X o o . . >           5 o o . + o . : : o o o : > X . o o o o o , < * - - - .     4 o > : 4 : > : > : > > 4 : > > > > : : > 5 z * *   + o O > : o 4 : : : > : > > > > > > > > : > < C * * .   O > > O : > : > > : > > : 4 : 5 > > < : > > B * j *     > > > > > : o : > > > > : 4 > > > > > : : < V - j k # y u y }./.F.H.H.I.H.H.H.G.I.J.I.F.T.I.J.F.J.J.b.3Xx.u $ y h e }./.F.J.H.H.H.J.H.H.I.J.I.F.Y.I.H.K.F.J.B.3Xx.i v y i t Q.>XC.H.H.H.H.H.I.H./.H.J.F.I.U.H.F.F.G.K.{.^.u @ F S 0 N 8 5 4 :   ) q q 4     q I I A q W W W A W W q q A 0 9 8 q + + > > W +   + X O q   $ q ",
"+             +   + + + + + X X . X X X O X O X O + X O + X X + +   + + . + + . + .   X +     . +   .     +   .     O X X O O O           > X X X X X X o X O + X > O O O O X o o o O 4 + + +   X 4 o X O O X O O o o O o > o O : > : w > o 4     .   + 7 > > o > > > > : > > > > : 4 : 4 : < > > < B * - - ; . .   8 > * : o : > > : > : > > > > : > : < > < < B o . + . > > : > : o o 4 : > > > 4 > : : < > : > < : B , * .   4 > : o o : > > o > > > > > : : > > < > < : B < j *     7 > > o : o : 4 > O > > > > > : 4 : > < < > B , k k @ i f y  X/.H.Y././.T.T.I.I.I.U.Y.U.U.U.I./.S.F.V.5Xx.r $ i h y  X$XF.I.T.T./.U.I.Y.I.I.U.Y./.U.I.U.F.F.V.5Xx.p c u u y Q.3XD.H.T./.P./.I.I.H.U.U.U.I.T.I.Y.I.F.F.{.[.i $ A D V 8 5 5 5 >   ~ A Z 7   + 0 A q q q q A K A 9 0 8 7 9 7 8 7 q +   7 4 W X   + X 4 q   O A ",
"  +   .       X X o O O + w X X O O X X w w O O O O O O w $ O X O X X X > X O > X > O O O O X O X O O O O O O X +   O O O O O 7           1 X X o O > > o O O O X . O O X O X O O O X 4   . .   X 4 > O X O O O > o O O o o o > o O o > > X 4 +   .     5 o : : : > > : o > > : > : : 4 : 5 : > 5 , C * ; j j .   . 5 o > > O > > o > > > X > : < < > 4 : : < < V * *     > > : o > 4 > o o > : > : > > > > > < > < , C < :     > > > : > O 4 o : > > o > : 4 > > < : > < : C < x . .   > > : X > > > o : > : : > : : < : 4 > : < > C * k k @ u u i  XOXU.P.W.P.T.I.U.U.Y.U.U./.U.U./.U.H.H.S.5Xx.d # i h i  XOXI.U.E.T.U.Y.U.U.T.I.U.(.P.U.U./.H.H.S.5Xx.p v y a u Q.2XD./.E.T./.U.U.U.U.U.U.W.U.T.T.T.I.H.F.OX_.p % A D V V 5 5 5 >   ) Z q 7   + 0 I 9 A I I K A q 9 9 0 9 8 q 9 9 q +   O > A X   X X 7 W   O q ",
"  + 7 O $ + + O O O > X 1 $ w @ O O > 7 w @ O 1 7 O $ O w O @ w X + + + + + + . + + X + X X X + . . + + . + + +     > O O 1 1 8 +     .   O O X w X O w O O o > > X O O X O O o X > > 4     .   X > X > > O X O O X o O O 4 o o > O > O > o 7 .   .   . 5 > > > > > > o > > : O : 4 > : > > : : 7 < B . - j z .   + < > : > > > o > > > : > > > > : : > : < 5 z z * = . + > X > : O o > o > : > > > 4 : > : > : < < > C , * .   > O > : 4 : > o : > : 4 : 4 : 4 > > > : < , C , j * .   1 > > > : w > o > > : 4 > 4 > 4 > < > < < , C > j k $ p f i  X*XI.U.)./.(.U.+XE.E.(.E.(.(./.U.(.I.U.D.6Xv.p @ u u p  X&XI.T.).T./.U.+XE.E.(.U.).(./.(.P.I.Y.D.5Xv.p v u f i Q.7XL.U.).U././.(.(./.(./.).(.E.T.T.I.I.R.OXoXp # Z D Z 7 V 8 5 >   ) Z I 4     0 I 9 9 q q 9 0 0 9 9 8 9 9 8 8 8 q +   O > A X   + X 7 q   O q ",
"  ~ { [ #.O + 1 O > O > O w 4 4 7 7 O 7 4 7 4 1 7 7 w 4 1 1 w 4                                                     7 > 1 O 1 8 .         > O O O O X o O O O O O O O O O X > w X X > 7   + .   X 4 O X O O O O > o > > O O > O O O > O > X 5 +   .   . 7 o : X X : > O : > : 4 > < 4 < 4 < < < < < C * - j x .   . 7 o O > O o > : > > > 4 < > 4 > 5 < > 5 5 < C * * + . > X > : 4 o > > > > > 5 > : 4 > 5 5 > > z < C < * .   > o > O o : > > > > : > > < 4 : < 5 < < 5 < C < j -   . > X > : 4 X > O : > : 4 > > > : < 5 : < 8 , C , k b @ p f d .X$XP./.U.).(./.U.(.).@XW.(.(.(.(.(.(.U.L.5Xv.d # u a d .X$XP.E.U.).(.E.U.(.).@XW.).(.(.(.(.E.U.I.5Xv.a v u a a !.2XR.E.U.(.(.).P./.).).).(.(.(.(.W.E.E.P.*XoXp e F D Z 5 8 7 > X   ) Z 8 4     8 I 9 q 8 q 9 0 0 8 8 9 9 8 8 8 7 9 +   O 4 W +   + X 7 q   O q ",
"  9 7 7 9 X + O O O O 1 1 1 1 1 7 7 O 1 7 7 7 7 1 7 1 1 1 1 1 7       +   .   + + +   +   +   + + +   .       + +   1 1 1 O 7 9 +   .     4 O O X o X O O O O O O O O O O O O O O O > 7   + .   X 4 O O o O O O o > O > > O > > O O > X X > 5 +   .   . 5 O > > w : > > > > : 4 > 5 : : 5 > > < 5 < C * - j x +   . 8 O > > 4 > > > > : : 4 4 4 > : 4 : < < 5 5 V * ; .   > > > w > > > : > > : : 4 5 > 4 : < 6 5 5 < C , *     > > > w > > > > > : > 4 > 5 : 4 > < > < 5 < C , k >     4 O > w > 4 > : 4 : o > < 4 : < > 5 > 5 5 < C , k b @ a h d  X*XP.).).).(.(.(.(.).).(.).).).(.(.U./.R.7XM.d @ a a p .X*XU.).).(.W.(.).W.(.).).@X).).(.).U./.R.7XM.p v y a p !.7XR.W.).+X(.(.(.(.(.).).@X(.@X(.(.U.T.U.*XoXp % D D Z N 7 5 5 >   ) F 0 7     9 A q 8 q 8 8 0 0 0 8 7 9 8 8 8 8 9 +   O 1 K +   + X 7 q   7 q ",
"  9 7 7 A O   7 O 7 1 O 1 1 1 O + + + + + + + w O 7 1 1 1 1 1 9                                           +         7 7 w 1 7 9   .       4 o O O O o O O O + O O O O O > O > O O O O 7   . .   o 4 O O O X > X O > > O o O O O O > O > X > > + + .   . 7 > > X > O : > > > > > 4 : 4 4 < < 5 < < N C * - j x     + 5 > O O > o > : > : 4 > : : 5 5 < 5 < < < N B * * +   > > > O > > > : > > > 4 : : 4 4 5 < < < < < C < ; . + > 4 > o > > : : > 4 > > : > 4 5 < < < < < < C , l *   + 4 > > O > : o > : 4 4 4 : 4 4 5 < < < < < < C * b b @ p f d 1X:X/.@X).).(.).).#X=X=X).=X(.(.).).P./.P.7XM.d @ u f d .X:XE.@X).+X(.+X+X+X=X=XW.=X(.(.).).U.U.U.7XM.d v u a p !.qXP.+X(.+X).(.).).@X>X).#X(.(.).).E.U.T.:XoXd & S D V N 8 7 5 >   ` F 0 7     8 A 7 q 0 8 8 8 8 0 0 9 0 0 8 8 8 9   + O O J X   X X > 9   7 q ",
"  8 7 7 q O + 7 1 O 7 1 7 1 + + q ;.,.;.,.z.;.& + + 9 7 1 7 1 ~ { ] ] ] ] ] [ [ } { { { { } { { [ } } ] ] { ] J 7   7 7 7 O 4 8 +         > o O O O O O X X O O O O O O O O O O O 4 X 1   . +   X > O O O X > O > O O O O O O > > O 4 O X O 4   . .   + 5 > X > > > > : > > : > 4 4 5 : < < < < 5 < V * - k k .   + 5 O O > > 4 > > : > : : > 4 4 < 5 : < > z < V * * +   > > > O : > > 4 : > > : > 4 4 > < < > < 5 < B < - +   > > > O > > 4 > : > : : > 4 > : < 5 < < 5 < C z x = + . > > O : > > 4 : > : < o > 4 4 : 5 5 : 5 7 , C , k n $ p s d .X*X(.#X).).).=X>X).=X3X@X#X(.(.).).(.W.P.8XM. .# a f d XX:XW.#X(.).+X=X,X).=X>X@X=X/.).).).W.(.P.7XM. .c u f s ~.8XP.@X+X(.).@X>X@X=X>X=X=X(.W.+X).E.T.E.*X|. .y D D 8 8 < 5 4 o   ) Z 0 7   + 0 A 7 7 6 0 0 8 7 0 0 0 8 8 8 7 8 9 +   O 1 A O   X X 4 q   O 9 ",
"  8 7 7 q O + O 1 O 7 7 + + J [ ;.q 9 9 q q ^ 9.7.q + 1 7 7 7 7 q 9 9 9 9 8 9 8 q 9 q 9 9 7 7 8 8 8 9 9 8 8 8 7 7 + 7 7 1 O 7 8 +     + + O X O O o O O O O O O O O O O O O O O O > X 7   . .   X 4 > O O > O > X > O > > O > O X > O O > > 8 + . .     > > > > > > > > > : 4 : : 4 : 4 > < > < V < C * - j x +   . 4 : > : > > > > > : 4 4 4 : : 5 : 5 < < 8 < C * ;     > > > > > > > > > : 4 > > : : < < < < < 5 < B < -     > > : > X > > > > > > > > > : 4 < > < < 5 , B < k -     > > > > : > > 4 > : > > : > : 4 : : 5 < < < C , m n $ a g d 1X*X/.).@X).#X>X=X).=X=X=X@X=X).#XU.).).U.8Xn. .# a g d XX&XT.+X@X@X@X,X=X@X>X=X=X@X=X).#XP.).).W.qXn...c u a s !.qXL.+X+X@X#X=X=X).=X=X#X@X>X@X@X(.+X).E.,X|. .y D S V C 8 5 > >   ` Z 9 4   + 8 A 9 4 9 0 0 0 0 7 8 8 8 8 8 8 7 q +   1 O I +   + O 7 q + 1 q ",
"  9 7 7 W + + 3 O 1 O + 7 ~ ^ 7 O O O 1 7 > O X W 7.=.1 O 8 7 1 O O O O O $ O O O w + O O O O O O O O O O O O O w   1 7 O 1 7 8 +     .   1 X O O O X > O X O O X O O O O O O O > O > 7   + .   X > O X o > O > O O 4 O O O > o > X > X > > 8     .   . > > > X > > > > > > > > > : : 5 : : 5 5 < < B : j k x +   + < O X > > > > > > > : : 4 > 4 : < 4 5 < < z B * * .   > > > O > > > > > > : 4 : : > < > < < 5 5 , C < * .   > O > o : > > > w : > : > : > < > 5 < 5 5 < B , k >     > > > X > > > > 4 : w > > > < < > > 5 5 < < C ; b n @ a g d .X*X(.>X@X).2X>X>X3X>X2X#X3X2X3X#X).#X).P.tXn...@ a a d XX:XW.>X#X#X2X>X>X>X3X3X=X>X2X>X=X).).(.P.tXm. .c u a d !.qXP.#X=X).>X2X>X>X3X2X>X>X2X2X=X@X#X).W.:X|. .y C D V 5 8 5 > >   ) I Z 4     8 q 8 8 9 0 0 0 0 8 8 9 8 8 8 7 7 9 +   O O A X   X O 7 q   O q ",
"  7 9 7 q + + 1 1 O + 7 ^ 9 7 7 9 7 8 8 1 O 7 1 @ w ] =.7 O 7 1 7 w O O O 7 1 w 1 w O O 1 1 7 O 7 O O 1 1 1 1 1 O   1 7 7 7 7 8 X         1 X > O O O O O X O O O O O O O O O O X > O 4   + .   X 4 O > > X O O O O O O > O > o > X > > X O 8 . + . . + 5 O > : > > > o w : > > : 4 4 : 5 5 5 5 5 z B * * k k .   O 7 > > > > . > : X : 4 4 : 4 4 > < < 5 5 < 5 C * , + . > > O > > O > o : : 4 > > < < > > < 5 < < , B z = . + > 4 > > > o > o > : 4 4 > < > > < > 5 < < < B < k * . + 1 > O > > X > : : : > 4 : < > : 5 < < 5 5 , B < b n % a g  .<X>X@X=X).>X2X5X5X7X6X7X7X7X7X7X3X>X).).(.rXn...# a g  .<X,X#X=X+X=X2X5X5X6X5X8X8XtX8X7X3X>X#X(.(.rXn. .M u g s ~.qX(.=X+X=X3X2X5X6X5X6X7X7X8X6X6X>X=X).(.3X X .y S D 8 8 5 5 5 X   ( I Z 6   + 0 A 8 7 8 8 9 0 8 9 8 0 8 7 8 8 8 9 +   O 1 A +   X X w 0   O 9 ",
"  8 7 4 q O   1 1 + 1 ^ 7 8 8 8 9 8 1 O O 7 7 1 4 4 1 W { 1 O 7 O 7 O 1 1 1 1 w 1 4 1 w $ O O w w w 1 O 1 1 7 O O + 1 O 7 7 7 9       .   > X O O O o O O O O O O O O w O O > O > O X 7 + + .   X 4 O O O O > O 4 > O > O > O > X > X > > O 8   . + . + 7 > > > > : > : : 4 4 : 4 < : 4 5 < < < 5 < B * - k l o . . 8 > > > > > > > > > 4 : 4 : < < 5 : < < 5 z B * ,     > > > > > O : : 4 > > > > 5 > 5 5 > < < 5 5 V z ; .   > > > > > > > : > > > > > 5 < 4 5 > < < < 5 B z l = . + < O > > > > > > 4 > > > > 5 > 4 5 > < < < 5 B , n @.% a g  .<X>X@X>X>X3XqXtXrXuXrXtXrXrXrXtX2X#X>X#X(.rXn...% a g  .<X>X@X=X>X>X8X0XuXuXtXtXrXrXrXtX5X=X=X#X(.rXm...M u g  .].9X).=X>X>X5XtXrXuXrXtXtXrXuX0X7X>X>X#X).3X.X .r C D V 8 5 7 < >   ( 0 I 4   + 8 A 8 8 8 9 9 w O X X + 7 8 8 7 8 q +   1 O A +   X O w q   O q ",
"  9 9 4 J O   1 + + J 1 8 7 8 9 X +       + + 4 4 1 7 1 ^ W + 7 7 O O 7 w O 7 O w $ w 1 w 7 1 1 7 $ 1 7 O O 1 7 7   7 7 O O 1 9 X   .     1 X O X w O O O O O O O O O O O X 7 O > X > 7   . .   X 4 O > O X > O > O O > > O o O > X X O > O 9 . X . + . 8 X > > o > X > 4 > : 4 : 4 4 5 5 < > < 5 5 B - - k x X   + 8 > > > X O > > > > o 4 : 4 4 < 4 < < , 5 5 B * ; . + 5 1 O > > X > > 4 > > 4 : > > > 5 > < < < , C z * . + 4 > o > > o > > 4 > : 4 > : > 5 5 > < < < , B < b -   . 7 > > > : X : > > > : 4 > > > 5 5 : < < < , C , b n % s g  .<X>X@X).2X7XtXiXuXuXiXaXpXpXpXrX5X>X=X=X).tXm.X.t s s  .<X:X@X@X2X7X0XiXuXuXiXaXrXpXpXrX5X>X=X=X).rXm.X.M a g s ].9XW.@X>X5XtXrXiXuXuXaXpXaXpXiX8X2X#X>X#X2X.XX.y S D C 5 5 5 > X   ) 0 0 8     9 A 8 9 7 9 9 + + X X + 1 8 7 7 8 q +   O 1 q O + X X 7 q   O q ",
"  7 7 7 q O   1 + 1 8 7 7 9 9 +   + w 6 4 w   + $ 6 O 1 7 ~ O w 7 w 1 1 1 1 1 O 1 1 1 O 1 w O 1 1 O O O 7 7 7 O O   7 O 1 O 1 9 +   .     4 O O O O X O O O O O O > O O > > O O > O > 7   . .   X 4 > O O O 4 O X w > X O O O > O O > O > O 8 . . . .   7 > > > > > > > > > : 4 : > > < 4 < 5 : < < B , j k x X   + 5 > > > O = > > 4 : : 4 : 4 4 < 4 5 < < 6 < C * , . + > > > > > > > > > > : 4 : 4 < < 5 > 5 < 5 , C z : .   > > > > > > > > > > : > : 4 > > 5 < < < 5 , C z b : . + 4 4 > > O > > > > > > > : 4 : 4 5 5 5 > < < B z m n # s g ..1X3X+X2X5XqXrXaXiXaXsXaXaXfXsXaXtX3X>X).).rXm.X.% s  . .<X3X@X2X5X8XrXpXpXpXsXaXsXfXsXsXtX>X>X).).rX~.X.M a g  .`.rX(.>X2X7XrXiXaXpXsXaXaXfXsXsXuX2X2X+X).5XXXX.y A D V N 5 5 5 X   ( F 0 4     q A 8 0 8 8 9 + O 4 4 O 8 8 8 8 8 q +   O O q O   + X 4 q   1 q ",
"  7 7 7 q O + O + 7 7 8 7 8 + + L R E %.*.R L +   4 1 1 7 W 9   7 7 O 1 O 7 O 1 w 1 O 1 $ 1 O 1 1 1 1 w 7 O O 7 1 + 7 1 1 1 7 8 +     .   7 X O O O > O O O O O O O O O X O O O O O X 8   . +   + 4 o X O 4 O O O O > > 4 > > O > > O > O > 8     O   . 5 > > > > O > > > > : > 4 w < < : 5 < 5 N < C ; - k l .   . 8 > O : : > : > > : : > 4 : : < < < < < 5 z C - ; .   4 > O > o > > : > > : o 4 4 : > < < < < 5 < C z ; .   5 > > > o > > o < > : > 4 > > < < > < < N < C z l =     4 > O > X > > > > : : > 4 > > 4 < : < 5 5 < B z n n % a g ..<X6X>X3X>XtXpXsXsXsXsXsXaXaXpXrXqX3X3X>X@XrXm.X.% s g  .<X6X,X>X>X9XpXsXsXsXsXsXaXaXaXrX8X3X3X=X).rXm.X.M a s  .~.rX=X>X>X7XuXaXaXsXsXaXsXaXaXuX0X5X>X=X=X3X.XX.y S D Z 8 5 7 > o   ! F q 8   + 0 q 4 8 8 8 9   > 4 4 X 7 0 7 7 7 A +   O 1 A O   X X 7 A   O q ",
"+ 7 7 4 q +   + + 9 7 7 8 1   R *.%.%.*.&.&.*.L + + 7 1 O 9 W   O 7 1 O 4 $ 1 1 1 1 O 1 w 1 1 1 O 1 $ 4 O O 1 O O + 7 1 7 O 7 9   .   +   > > O O O > O O O O O X O O O O O > O X > > 7   . +   X > > O O > O O O > O > 4 X O O O > > > 1 O 7   + . + + 8 : > O > > o O > : > > > > 4 > 5 : < < 5 < B ; j k k o   + 5 O > O > > : O > : 4 4 : 4 5 o < : : < < z B ; , .   > : 4 > > > . X > : > 4 4 o 4 > 5 > < < < < B z ; +   > O > > > > : O > : 4 4 4 : < > 4 : > < < < B z b * + . < o O > > > : o > > < 4 : > 4 : 5 : < < < < B < m @.% s g ..<X2X=X2X2XtXpXaXdXaXfXsXaXsXaXiX5X3X3X=X).rXn...% s  ...<X5X=X2X2X0XpXsXdXpXdXsXaXsXaXrX7X>X3X=X).rXn. .M a g  .].tX#X>X3X8XaXaXsXaXsXsXsXaXsXiX0X2X2X>X@X3X.X..t S D V 8 8 5 < >   ) Z I 5     0 q 0 0 7 8 9 + 4 4 4 O 8 0 7 7 7 9 +   O O q +   X O 4 q   1 q ",
"+ 7 4 4 q O   + O 8 7 1 8 w 6 %.%.&.&.&.&.&.%.R 6 + w 1 O 7 W   O O w 1 w 1 w 1 7 1 1 O 1 w 1 7 1 1 w 7 7 7 7 O O + 7 1 O 7 O 8 +       + O O X O O O O O O w O O O X O O O > O > X O >   +     X 4 > O > O O > O O O O O O > O O O > O O = 7 + + . + . 7 . > : > > > : > < > 4 4 : > < < 5 : < < z C > j k k X . . 5 > > > > > > : > 4 > 4 > : > 5 < 4 < < < N C * ; . + > > > : > > > > > > > < : 4 : > < < , < < < C z ; .   > : > O o > 4 O : 4 : > > > : 5 5 5 < < < < C z b * . + > > : > > > > > > > : > > > < : 5 5 : < < z C z m @.t a  . .<X2X=X2X2X7XrXaXsXaXdXaXsXdXsXpX8X2X=X#XW.iX~...& a g ..<X2X=X5X2X7XrXpXdXsXdXsXdXsXsXpX8X2X=X=X).aX~...M a s  .~.tX#X3X2X2XrXuXsXsXsXfXaXdXdXpXrX5X>X=X+X5X.XX.t C S V N 5 7 < :   ) Z q 4   + q q 7 7 8 8 9 + O 5 7 O 0 9 7 8 7 A +   O O A +   X X 1 q   7 A ",
"  7 8 7 q O     1 8 7 1 q + L %.R &.&.&.%.&.%.%.P + w 7 O 7 W + + 1 1 1 w 1 4 1 4 O 1 1 O O 7 O w 1 O 1 7 7 O 7 O + 1 > 7 1 > 8 +     .   1 O > O O O O O O O O O O O O O O O O O O > 8   . O   + 4 O O O X > X O 4 > O O > > > > O 7 O > > 8 + . .   + 5 > O > > > > > > > > > : 4 > 5 : , 5 < < < C , j k l X + X 5 O o > > > : > > > > > > 5 > < : < 5 5 < z B , , . + > > X O > > > > : > : : 4 5 > > < : 5 < < < C N - . . 4 > > o > > : > > > > > > < > > : : 5 5 < < B N b , . + 5 > : > > > > > > > > > : 5 > > < : 5 5 < < B j m n t a  ...4X2X>X#X>X7XrXpXiXfXsXpXfXsXsXsX0X5X>X>X).0X!...t a  ...4X5X>X=X>X7XrXpXpXfXsXaXfXaXsXaXtX6X>X>X).9X!...M f g  .].rX=X>X=X6XqXpXiXfXfXaXsXsXpXfXiX8X2X>X#X,X.X .y D D V 5 5 5 > o   ( 0 Z 4     0 9 8 8 8 8 8 + 1 7 7 X 8 8 7 8 7 A +   1 O A +   X X > q   1 q ",
"+ 7 O O 8 +     O 7 7 1 J   L *.R *.&.&.&.&.R %.L + + 7 O > W     1 7 O $ 1 1 O w 1 1 O 7 7 O 7 1 w $ 1 O O 7 O $   1 7 O 1 O 8 + + .     1 O O O O O 1 1 O O O O O O O O O > O 1 O O 1   . .   o 4 O O > X > > O > O O O O O O 1 w O O O O 7 +   X . X 7 O > > > O : : > > > > > > 4 : > 5 5 < < N C ; j j b .   X 5 > > > > O > > > > > > > > 5 < > < 5 < 5 N B ; ; . . > > > > > : o > > > > : 4 > 5 5 : < 5 5 z 5 B z ; . + > > > > > > X > > > : > < > 5 < > < N < 5 5 B z m * . . > > > X > X : > > > > , < 4 5 4 : 5 N < N 5 B < m n # s g ..4X5X>X>X5X9XiXaXfXaXsXaXsXdXpXpX9X2X3X>X>XtXm...% a g ..<X5X>X>X5X9XpXaXdXpXaXaXsXdXpXaX9X2X3X>X>XtXm...M u g  .`.rX@X>X2X7XrXaXsXaXaXaXaXdXpXpXuX5X2X>X>X5X.X..y D U F 5 5 5 4 >   ( I q 4   + 8 A 8 8 8 8 8 + > 7 7 X 0 9 8 7 7 9     O 1 q O   + X 1 q   1 q ",
"  7 7 7 9 O     O 9 8 O q X 6 %.R %.&.%.*.%.%.R L   + 7 1 O W   + 1 $ w 1 w 1 O 1 1 1 O w O $ w 1 1 1 1 O 7 O 1 1   7 7 1 1 7 q +   .     1 O O O O O O O O O O O > O O O > O O O O O 7   + .   X 4 > > > O O O O O O O > O O 4 > > O > > > 7 + . X   . < > > O > > > > > > > , 5 4 < 5 < < 5 < N 5 B , - k l +   . 5 O > > O : X > > > > : 5 : o < < < < < 5 z B , ; . + > > > > O O > > 5 > > : > 4 : : 5 < < < 5 < C z * +   > > > > > o > > > > > > > > : > 5 < < < z < B z m - +   4 > > > > > > > > > > > : 4 : : 5 > < < < < C j m n $ a g  .<X5X=X>X5X7XiXiXaXaXsXaXpXaXaXpX0X2X2X>X+XuXm...& a g  .<X5X=X>X>XqXuXpXsXsXaXaXaXaXaXpXtX2X3X>X+XuXm...M u g  .`.rX@X>X2X5XiXiXaXaXaXaXaXaXsXpXuX5X2X>X=X5X.X..y S C V 0 5 4 > o   ) Z q 8   + 7 A 4 9 9 8 8 + > 7 7 X 0 8 7 8 9 q +   O O J O   + X 1 q + 1 9 ",
"  7 4 O q +     + 7 7 O q 9 w P %.%.%.%.%.%.R L 6   7 7 O 7 9     O O 7 1 1 1 7 w 1 w 1 1 1 w 1 O w O 1 O 1 1 O w + 1 O 1 O 1 9   .   .   O X O O O O O O O O O O w O O O O 1 O O O X 7   + .   X 4 X O O O O > > O O > O O O > O O O O > > 8 +   X   . 8 : > > O : : > > > > > : > : > 5 < < < < N B ; - k l o + . 8 : O > > 4 > : : 4 > < > > 4 > < > < < < N B * ; .   > > : > > > 4 : : > > 4 > : > > < > 5 < < < C z - + . > > : > 4 > 4 : > > < > < > < > < > > 5 < 5 C z m -   + 4 : X > O > > o : < > > 4 : > 5 < : < 5 < 5 C , m @.% a g ..4X2X#X>X>XqXrXaXaXiXpXpXpXiXuXuX0X=X#X=X(.rXm.X.% a g ..<X2X#X>X2XqXuXiXpXpXpXaXiXiXrXrX9X>X=X=X(.uX~.X.c a f  .].tX@X=X>X6XrXuXaXaXiXaXpXiXiXrXrX5X#X=X+X3X.X..y S S 8 5 8 4 < o   ( 0 q 8     8 A 7 8 9 8 8 + > 7 7 > 8 0 7 8 7 9 +   1 O q +   X O 1 q   w 9 ",
"  8 7 O 9 X     + 1 7 7 4 W + L %.L R R R R L L + + 8 w O 1 7   X O w 1 w 7 7 O $ 4 $ w w 7 1 1 1 O 1 1 7 O 7 7 O + 1 1 1 O 1 9 .   .     4 > O O O O O O O w O O O > O O O O O O O > 7 + + .   O > O O O 4 O O > X O X > X O O X > X O > > 5     O . + 7 . o > > > > > : > > > > > < > < < < < < < C , - j l .   . 8 * o > O O > 4 > : > > > : < < < < < < 5 5 B ; , o . 4 > o O > O : < > > > > > > < < < < > < N < C z , .   4 > X : > > : 4 > > > > > > < > < < < < 5 < C z b = .   5 O X > > O > 4 > > > > > > > < < > < < N < B z m @.% a g  .<X2X+X#X#X5XrXaXuXiXuXuXiXpXuXuX7X=X).@X).rXm.X.% a g  .<X2X+X=X#X5XtXpXuXiXuXuXiXiXiXrX7X>X).@X).rX~.X.c h f s ~.rX).#X#X2XqXiXiXiXuXuXuXpXuXiX9X>X+X+X@X2XXXX.t S S N 5 5 5 4 :   ( F 0 7     0 Z 7 8 9 7 8 X O 7 7 O 8 8 7 7 8 A +   O O q +   X O 1 q + w 9 ",
"  7 7 1 9 +   + + O 7 7 4 ^ I + 6 R R P L P L w   7 7 $ O 8 O   O O $ 7 7 O O 7 7 w 1 7 7 O 1 1 1 1 1 w 1 O O O O + 1 1 1 1 1 7 +     +   4 O O O O O O O O 1 O O O O O O O O O O 4 X 7   . .   X 1 1 w O O O X X > > > O O > O > O > O O O 8 . . .   . 8 O > > w > > > > > : > : 5 > < > < < 5 z < C - x k l .   + 5 > > > > > > > > > : 4 > 5 > 4 > < < 5 < < C * - + + > O O > > O > > > > > > > < < > < 5 < < 5 , C z * . . > O > > o > O 4 > > : , > > 5 < < > > < < , B z b = . . 1 O X > > : > > > > : < > < < < < 5 < < < , B < m n # a g  .<X,X+X#X#X5XqX0X0XuXtXtXqXrXtX7X,X=X+X).E.0X'...# a g  .<X>X+X#X#X5X9X0X0XiXtXtXqXrXrX7X>X#X+X).W.tX!...c u g  .`.qXW.#X#X>X8X0X0XpX0XtX0XtX0X0X2X=X@XW.).,X1X .y S U N 8 5 5 > o   ( 8 Z 8   + 8 0 8 9 9 8 0 + O 7 7 X 8 0 7 7 8 9     O O A +   X X w 9   O 9 ",
"  7 8 7 q O   +   + 7 4 4 4 ] A   + 6 L 6 w + + 7 J O O 1 7     O O O O O 7 1 O 1 1 O 1 O 7 O O O w 1 O 1 1 O 1 O + 1 1 1 O w 9 .     +   4 O O X O O 1 O O O O O > O O w O O 1 O O o 4   + +   X 7 > > O O O > O O O O X > X > O O O > > > 8     + . + < > > : > > > > > > > > > < > < < < > < < < C * - k x +   . 7 X : O > > > > > : 4 : 4 < < > < > , 5 5 z B , ; .   > 4 : > o > > > > > > > < 5 > < < > 5 < < < C z = +   > > 4 o > > > > > > > > < > > < 5 > < 5 5 < B z b =   + > O > > > > : > > > > > > < < > 5 < 5 > 5 < B < b n % a g  .<X>X+X$X@X=X2X2X6X5X2X7X5X6X5X5X@X#X).).P.8X!. .% f g  .XX>X@X).@X>X2X2X5X5X2X7X5X6X2X2X).=X+X).P.8X!. .M a g g ].qX).+X).=X2X2X2X7X>X6X6X6X5X5X>X@X@XW.).:X.Xs y D D 8 5 5 5 > o   ) 0 8 4     0 q 9 7 8 8 8 + O 4 4 > 8 9 7 7 7 9 +   O > q X   + X 7 9   7 9 ",
"  7 7 O 9 +   X   + 1 4 w 1 7 =.` 0 X + + X 7 I W w 1 1 7 1   + O O O 1 7 O O 1 w O 7 O 7 O O 7 1 4 w $ 1 O 7 1 O   w 1 1 1 1 7 +         4 O O X O O O O O O O O O O O > O O O O 4 > 4     .   X 7 O O O O O X O X O > O X > > O > 1 O > O 8 .   . . . 7 X X O > X > > > > < > 4 < 5 > < > 5 < 5 z C ; ; k k + . + 8 > > X > X > > > 4 4 : : < 4 < < < < 5 5 z C ; * . + > > O o > o 4 > > > > > > > < > > > < < 5 < C B * . + > > o o > O > > > > > > < > < < > < < < 5 < C B k : .   5 > X > O X 4 > > > > : < > 5 > > > < < 5 < C N b n # a g s <X>X+X).).@X@X=X>X>X2X>X=X2X=X>X@X@X).).W.7Xn. .@ f g s <X>X+X).E.@X@X=X>X>X2X>X=X2X>X3X@X@X).W.W.8X~. .c u s g ~.qX).).).@X+X=X>X=X2X2X=X2X=X>X=X@X+X).W.*X.X .y S D V V 5 5 > X   ) 0 8 4   + 0 q 7 8 8 7 9 X + 7 7 O 8 9 7 7 7 A + + O O q +   + O O 8   O 9 ",
"  7 7 1 9 +   X +     8 1 1 O 1 | { } [ ] ] ` q O O 7 7 7 +   X w $ O 1 $ 1 O 1 1 O 1 w O 1 7 O 1 w w 7 1 O 7 1 $   1 7 1 1 O 8 +   .     1 O O O O O O O O O O O O O O O O O O O O O >   . X   X 4 O > O O > O O O > X > O O > O > 4 w > > 7 +   .   + 8 : > > X > > > > > > > > > < > < 5 5 < 5 < C - ; k k +   + < : X > o : o > > > o , > > < < < < 8 < < < C ; ; . + > : > > > o > X > > : > < > > < 5 < 5 5 < < S z ; o   > > > o > : O O > > : > > > < > 5 < 5 5 < > S z k - . + > : X > : X > > > > : > > > > 5 < < 5 5 < > S z b n # a g s .X=XW.@X+X#X#X#X=X>X>X=X@X>X>X=X=X#X+XE.P.qXn. .& f g d XX:XE.@X+X#X@X@X>X=X>X=X@X>X>X=X#X#X+XW.P.9Xn. .c u g s `.6X/.).).#X@X@X=X>X>X=X@X>X2X=X@X=X@XW.E.:X|. .y S D V 5 8 < 4 >   ! F 0 4     8 q 8 8 8 8 8 + O 7 4 O 8 9 7 7 7 9 +   O > I O   + X w 9   O q ",
"  7 1 1 q + + O +     + 7 1 1 > O 7 q J q 7 w O 7 1 1 9 +     X O 1 O O w w 1 O 1 1 w $ O 7 O 7 $ 4 O 7 O 1 1 O w   w 1 1 > O 8   .       1 O O O O O O O O O O O O > O > O o O > > X 4   + +   X 7 > X > O O O O 4 O > O > > o O O O : > O 5 + . .   . 7 X > O > > > . > : > > < > > < 5 < < < < < C , z k k .   . 8 > > > > > > > > : > > > < > > > < , < < N C ; : .   > > > O > > > > > > : < > > , > < < > < < < C z ; .   > > > > X > > > : > > > > < > < < < , > < < c N k - .   > > > > > > > X O : > > > < < > > 5 , < < < C z b b % a f  .XX&XU.(.).).(.#X#X#X=X=X=X#X>X#X+X@X+X).P.7Xn. .& u f  .XX$XP.$X).E.+X#X#X#X>X=X#X#X>X=X@X@X+XE.P.7Xn.s c u a a `.2XL.(.).(.+X+X#X+X2X=X=X@X>X=X@X@X).).W.*X Xd y S D 8 5 5 5 > X   ! 0 Z 4   + 8 A 8 8 4 8 9 + O 4 4 w 8 9 7 4 7 A +   O O 9 O   + O O 9 + 1 9 ",
"  9 7 1 q O + w X +     + 7 1 O O O O O @ 4 7 1 O 7 9 +     + X O w 7 O 7 1 1 1 O 1 1 w 1 O O O O 7 O 1 O 7 O O 7 + O 1 1 O 7 8 +   .     1 O O O O O O O O O O > O O X X O O > O O X 5   . . + O 5 O O O O O o X O > O O > > O 4 O X 4 > > 7   + . . . 5 > > > > > > > > > > > > 5 > < > < > < N N C ; ; j x +   . 8 X X > > > X > > > > > < > > < > 5 < 5 z 5 C * , .   > > o O > > : > > > > > < < > < : > < < 5 < S z * .   > > > X > > : > > : > > < 4 > < > > < < V , C z k = . . 4 > X > > > > > > > > 4 > < > < : < < < z < C < b n # u f d XX#XW.E.E.+XE.+X#X+X#X=X).@X@X).E.W.W.T.I.6Xn. .@ u a s XX$XE.W.E.+XE.@X#X+X@X=XW.@X#XE.E.W.E.T.R.7Xn. .C u a a ~.5XP.W.W.).(.(.@X+X@X=X@X+X=X+XW.W.W.E.I.*X Xd y S S 8 N 8 5 < >   ( 0 q 5     8 9 9 8 4 7 9 + O 7 7 O 8 8 7 8 4 0 +   X X 9 X   + O 7 q   O q ",
"  4 1 1 q + + O X           1 7 1 1 1 O w 7 O 7 8 7         + O O O O 1 O w 1 O 1 w 1 1 O 1 1 7 7 O w 1 7 O 7 7 4   7 1 1 1 1 8 +   .     1 O O O O O O O O O X O O O O O O O > O 1 > 7   . .   O 4 O O > O O 4 O o o O O O O O O O > > O O 8 +   . .   < O > . o > O > : > , > > < < > > < , 5 < < C ; ; k k . . + 5 : > > X > > > : > < > > < < > < > < 7 < < C ; ; . . > > > : > X > X > : > > > > < > > 5 < 5 < , C N - o   > > > > > > > X > > > : > > < > < < < 7 < , C z b * + + > > > > > o > > > : > : > 5 < > 5 > < 5 < , C z b n @ i a p .X*XT.E.).).).).E.+X@X+XW.@X+XW.E.@XW.T.D.7Xn. .# u a p XX*XE.E.).E.).E.W.$X@X+XE.@X).E.E.@XE.T.L.7Xm...v y a p !.6XP.(.).).).).).(.@X+XW.@X).(.(.+X(.U.P.&X|. .& S G V 5 5 7 5 >   ! 0 q 7   + 8 0 8 4 8 7 7 + O 8 7 O 7 8 7 8 7 9     X X q +   X O w q   O q ",
"  1 1 O q O + O X X +         X O 1 > 1 > 1 7 O X         + O O O O 1 O 7 O 1 1 O 1 1 O $ 4 4 O O O 1 1 $ w O 7 O + 1 7 1 1 O 7 +   . .   7 O O O O O O X O O O O > O O O O O O X O O 7   + .   O 4 O > X > O O X > O > > > O O O O 4 > > > 5   . + . . 7 > O > X > > > > > > : > < > < 5 > < 5 < < C , - j j . . . 7 > > > > 4 : 4 > : > > > > > < > < < < < 5 C * ; .   > > > > : O > > > > > > > > < > < > < > 5 < C z - .   > > > O O > o 4 > > : > > > > < > < < 5 5 < C z k :   . 5 > > > > > > > > > > > > > > < > < 5 > 5 < C ; b b @ u f i  X$XY.U.E.W.E.P.W.).).E.E.(.(.(.T.+XE.T.L.7Xn. .@ u f p  X*XU.Y.E.E.W.E.E.E.E.).E.(.).E.E.$XE.T.L.7XM. .c y a u Q.5XR.U./.W.W.(.E.(.T.(.(.(.E.+X(.(.(.T.U.&X|. .y Z S 5 5 < 5 5 o   ( Z 0 4     8 9 7 5 8 7 q O X 7 4 > 7 9 7 7 7 0 +   O O q X   + X 4 0   O 9 ",
"  1 7 w q +   $ > X . +             + + + +               X O O O 7 1 1 O w O 1 1 1 w 1 1 1 w w 7 7 O 7 O 7 w 1 O + O 7 w 1 1 8 + +     + 7 O O O O X O X O O > O w O O X > O O > O X 4   X +   X 4 o > O O O X O O O O O O O > O > > O X > 7 + . X +   5 > > > > > : > > > > > > < > > > < < < < 5 C * * j z .   + 8 > > o > : > : > > > > > < > > < < < < 5 N C * , . + > > > > O > O > : > > > > > < > > < 5 < 5 5 C z = . + 4 : > > O : > : > > > > > < > : > < < < 5 < C z l : X   7 > > X > o o : : > : 4 > < > > > < < < 5 < C z b b @ u a p  X&XG.I.T.(.+XY.E.+X).E.#X(.T.T.I.(.Y.T.D.6Xn.s # u a p  X&XG.I.T.E.+XT.E.W.).E.#X(.T.T.Y.(.Y.T.S.6Xn. .c y a u Q.6XD.I.U.(.+XE.T.E.).(.+X+XY.T.U.T.T.U.Y.OXoXd y D D V 8 8 4 > o   ! 0 0 4   + 7 0 7 8 8 8 0 + O 7 7 O 7 9 7 7 7 8 + + O O q X   X X 4 0   7 9 ",
"  7 O 7 q O   O X O X + X                               X O X O $ 1 1 1 1 1 O w w 1 $ w 1 O 7 O O O O 7 7 7 1 O 1 + 1 w w 1 1 7   +   +   > O O O O X X X O X O O O O O X O w O O O o 5   . .   + 4 > o O O O O O O o > O O o O O > > O > > 5 +   + . . 7 X > > > o > > > > > > > > < > > > : 5 8 < V ; - j j + + . 8 O o > > o > > > > > > > > < > > > > < 8 z C * = +   > > > > > : > : > : > > < > > > > < > > < < V z * X   4 > o > > : > > > = > > > > > > > > > > < < V < k * + . > X > > > > > > > > > : > > < > > > > > < < z z k n @ u u i }.OXF.T.+XI.Y.(.T.Y.E.Y./.(.I.T.T.(.H.I.F.6Xn. .@ u y p }.OXG.Y.+XU.Y.$XE.Y.E.Y./.(.I.Y.T.E.I.I.G.6Xn. .v y u r c.2XS.H.(.T.I.T.(.Y.E.U.T.+XI.Y.T.(.Y.G.I.&X X .y S S 8 N 5 5 > o   ! q 0 4     0 q 7 8 8 7 8 + O 8 4 O 4 0 7 7 7 8 +   O O q +   X X 4 8   O 9 ",
"  O O 7 9 +   O X X X X X +                           X X X O O w w 1 O w O 1 4 $ 1 O 1 O 7 O O O 7 7 O 1 O O 1 O   1 1 7 1 4 7 +   .     1 O O O O O O > X > O O O O > > O O o O X > 4   . +   O 4 o > > O O > O O O o o o 4 O O O 1 > > > 7 + . .   X 8 = X > > > . > : > > > > > > > > < < : < z C * * j x . . + 5 o > o > o o > > : > > > > > > < < < > < < C = = . . > > > o > O o > > > > > > > > > > < 5 < < < C z = X   > > > > O O o O > > > > > > > < < > 5 < < < C z x = .   5 X > X : X o > > > > > : > > > > < 5 < < < C < k b @ u h p  XOXR./.Y.I.T.T.I.T.Y.Y.W.Y.Y.I.I.Y.I.H.S.6Xm. .@ y f i  XOXG.E.Y.I.U.T.I.T.Y.Y.E.U.Y.Y.I.Y.I.H.S.6Xn. .v y a u c.6XD.T./.H.I.T.Y.T.Y.I.T.Y.Y.Y.I.I.Y.F.J.OX|. .& S S N 8 5 5 > 4   ! Z q 5   + 8 q 7 7 7 8 8 O O 8 8 4 4 0 8 7 7 9 +   O O Z O   + + 4 0   1 9 ",
"+ w $ 7 8 +   1 O O X O X X + + + + + +   + + + . + O + O O 1 O 1 1 w 1 O 1 O O w 7 1 1 w O 7 1 7 O 7 O 1 1 O 7 O + 7 7 O 1 O 8 + .       1 O O X O O o O O O O 7 O O O O O + 4 O > X 4 + + . + O > > o O > O O O O O > X O > > O > O > O O 7 . . . . . 7 > > > : o > > : > 4 > > : 4 4 > 5 5 5 < < C = * j j . + . Z X : O > > > > : > > > > > > > > < 5 > < < C * > . . < > X > > o > > > > > : > 5 > < > > < < > = C z * . + 4 > > > > o 4 : > > > : > < > > > < 5 > < > B N k : X X 7 > > * > o : > > > > * < > : 5 : < 4 < < > C , k m @ u u p oXOXJ.F.J.Y.Y.Y.H.Y.Y.Y.I.I.H.Y.I.H.I.H.Z.7Xm.s @ u h r }./.J.F.J.Y.Y.Y.Y.Y.Y.Y.H.I.I.Y.I.J.I.H.A.6Xm.s v y u i Q.3XD.J.F.Y.Y.Y.Y.Y.Y.Y.Y.I.I.I.I.H.I.I.J.OX Xd % D S 8 5 5 > > >   ! Z 0 8   + 8 0 7 8 4 4 8 X + o X X 7 9 4 7 4 q +   X O 0 +   + X w 8   w q ",
"      + X   + O X X + + + +   .   +     .         + + + + + + + O O O w 7 O 1 7 w 4 O 1 1 1 O O O 7 O 7 O 1 O 7 $   7 7 O 1 1 9 +   . .   1 X O > w o o O O O X O O O o > O O O O > O 7   + .   O 4 O O > X O O > w X > > X O O > > > > 4 > 4 +   + . + 8 o : > O > > > 4 > > : > > < 5 > < < > < < C * - j < . + . Z > > > O > : 4 4 4 > > < < 5 5 < 5 5 > < < V - , . + 7 > > > > > : : : 4 > > < > : 5 < 5 < 5 5 > V < ; . + 5 > > o : > > : > 4 > > < > 5 5 5 5 5 4 < : B < k * +   7 > > > 4 > > > > > > > < < 4 5 4 5 < 5 5 : B , k b # y y e [.OXS.B.Z.S.V.S.G.Z.F.S.F.V.S.A.S.Z.B.Z.B.rXx.s @ y t e [.OXS.A.Z.Z.Z.Z.F.Z.S.S.D.Z.S.B.F.S.A.Z.B.rXx.s v r t e v.3XB.A.A.S.F.B.F.Z.S.S.D.Z.S.S.V.S.B.Z.A.;X[.d # D S N 8 5 5 < o   ) 0 0 4     9 0 9 7 4 8 8 9 Q Q W W Q 4 8 7 8 0 +   O O 9 +   X O 4 q   1 q ",
"      7 q q q W I I I W W W W W W W W W Q W ^ ^ ^ Q ^ ~ ` ~ ` ] O + O $ O O O 7 1 @ 1 w $ w O O 7 O 1 w w O 1 O 1   1 O O 1 1 7 +     .   > 1 X o o X X O X X X X + o X o + X o X > > 7   . . + X 7 o o O X X O X o X o o o O X : o X o o : 5 + . + . . Z > o o o o o o o : * > o : : : : < > > > , C : ; - ; . .   Z . . . . + + X + o . o * . o o : : > : > < V - > .   > > X + + . + o o o o o o . o o o o > > : < C < * . . 4 > . . . . . + : . o o o o . * o o : : : > S , j * .   8 : O . . + . o o o o o o o * o o o : : : > C ; l k $ y y u +.3X:X-X,X:X-X-X,X:X:X,X,X:X:X:X3X-X-X&X8X X.. .% y y a N.3X:X-X,X-X-X-X,X,X:X3X>X:X:X:X:X;X;X&XqX X..s v e t u o.%X5X;X:X*X-X-X:X>X:X3X3X:X:X:X:X-X;X%X:XwX+.g % A Z 8 V > 5 > X   ( 0 q 7     9 0 7 8 7 8 8 9 I I A I 0 4 7 8 4 0 +   O O A X     + X 1   O O ",
"hXhX+ q ^ J J W W W W W W Q W Q ^ ^ W Q W Q ^ ^ Q ^ W ^ ` | ) { ] O + 1 7 7 O 1 w 1 1 4 4 w 7 7 O 7 w $ 1 1 w $ w   O 7 w 1 1 7   .   +     O 7 5 4 7 8 8 7 7 8 7 8 8 8 8 8 4 5 7 8 8 +   . . . + 7 0 8 8 8 8 8 8 8 8 8 8 8 8 0 8 8 8 8 8 0 4   O . +   > 8 8 8 8 Z 8 0 F 0 F Z Z Z Z F Z Z S Z S D N o - - - . .   > 8 F Z A A Z Z Z S D A D A D I S U D G D S > * ; . + + 5 V A S A F A Z Z A A D I S D D U D D D D V . ; +   X 5 0 A A A Z A S A A A S D A D D U U D D G N o j - +   . 8 8 A q S F Z A A D A D A A D D U U U D G 5 . k k & y y u s O.c.!.Q.~.'.'.'.'.`.].].].`.`.`.`.].'.v. .s s % % y i s O.c.Q.'.'.'.'.'.`.`.`.].].`.`.`.`.`.~.v...g s v % y u u o.v.!.!.~.!.'.'.'.~.`.].].`.`.].`.`.~.Q.O.d s % / C 8 7 4 > > X   ! 0 0 7   + 8 0 8 7 7 4 8 8 7 4 8 4 4 7 8 8 4 9 +   $ O q X       +         ",
"hXhX  + 8 1 O O O O O O > O O O O w 1 $ O O 1 O O w 1 O 1 O 1 + ) { + + + X +   + + + + + + + + + + + + + + + +     + + +   +     +   .       + O w 1 4 O > 7 O O > > > 4 4 w 7 > > +   . . + +     > 7 > 7 7 O 7 > 4 > 4 4 7 7 > 4 4 4 7 >     . . + .   . 8 8 8 F 7 8 8 F 8 8 Z 0 8 Z Z F Z Z Z > . . - - - . + .   . X > > > O w > > > O > > > > > > > > : + . * - + .     X > > > > X > > > > > > > > > > > > > . . * * + .     X > > > > X w > > O > > > > > > > > > . . * k * + .     X > w > X > > X > > > > > > > > > > : o . * k j $ $ & % t e e # e # # e e e y e r r e r r r r r e y u u % % % % e y e e # % # e e e e e r r r r r r r r t y u u 3 % % % # y e e # # e # # e r e e r y y r i r r e y u u | _ 5 8 5 5 5 > o   ! 0 Z 4     9 0 8 8 0 8 4 8 7 8 7 7 7 9 7 7 8 9     O O q +   + +         + ",
"hXhXhXhX+ 1 7 1 7 O 7 7 > 7 7 7 1 8 1 1 7 1 7 7 4 4 1 1 w 7 7 O O ] ,.^ 9 9 q q 7 9 q q q q q q q q q q q q J q J J q q J J J J 8 +   .   .                                             + . .   .                                             * . . . .                                             * * * * - o . .               +         .         . . . . . * * * . .         +               .         . . . . . . - * . . .   .             . +   .           . .   . o * - * . . .         +         +     .     +     . . . o * j x $ $ $ $ $ $ $ $ $ $ $ $ $ $ $ $ $ $ $ $ $ % $ 3 % $ 3 & $ $ $ = $ $ $ $ $ $ $ $ $ $ $ $ $ $ $ $ $ $ 3 % 3 % % 3 ; $ $ $ $ $ $ $ $ $ $ $ $ $ $ $ $ $ $ $ $ $ % % & $ $ h ] , V 8 1 < 4 > X   ) 0 0 4     7 9 4 4 7 7 7 8 7 7 7 6 7 8 4 7 4 9 +   O O A X     A ] W 8     ",
"hXhXhXhXhX+ 7 7 1 O O 1 7 O O 1 7 O w 1 1 1 7 O 4 7 O 1 4 O O 7 1 O ~ :.,.,.,.,.;.,.,.,.,.,.,.,.:.,.,.,.,.1.7.7.7.,.7.7.,.7.,.,.{ W +   .     .           .           .           . . . . . . . .       . . . .   .   . .         . .   .   . . . . . . . .   .   . .     . . . . . . . . . . . . . * . * * * * . * * * * . * * . * . * * * . * * * * * * * * - * - * * * * . * . * * * * . * * * * * * * * * * * * * - * - * - * * * * . * * * * . * . * * * * * * * * * - * * - - * * * * * . . * * * * * . * * * * * * * * * * * * - - j j - j - * - - * - - - * - - - * * , - - - - - - - j j - - - - - - - - - - * - * * * - - - * - - - - - - - j - - - - - - * - - - * - * - * * * * * * * * * * * * * > ' ' : 8 7 8 < < < > :   ) 8 0 8     7 9 9 8 8 7 8 8 7 7 4 7 4 7 7 7 7 9 +   O > 9 +   W 1.>.} [ q   ",
"hXhXhXhXhXhX  O 7 O 7 O O 7 O O O O 7 w $ w > 1 O O 1 O 1 O 7 O 1 1 w $ w 1 w $ 4 4 4 @ 1 1 1 4 1 1 7 3 1 1 1 O 1 1 7 1 7 7 1 1 7 A W X   . . + . .   . .   . . . +   . . .   . . .     . . .   . . . .     . .     .   . . . . .   . . . . . . . . . . . . + . . . . . . . . . . . . . . . . * * * * * * * * * * * * * * * * * * - - * * - - * * - * - - - - - - - - - - - - - - - * - * - - - * * - - - - * * - - - - - - - - - - * - - - - * - - - - * - - - - - - - - - - - - - - - - * - - - - * - - - - - - * * - * - - - j - - - j - - - - - - - - - * - * - - * - - - - - - - - - - - - - - - - - - - - - * * - - - * - * * - - - - * - - - - - - - - * * - * - * * * * * * * * * * * * * * * * * * > ) ) 5 8 5 8 < 5 5 > 4 o   ( 8 0 4     8 8 7 8 8 7 7 8 8 4 7 4 4 8 7 7 7 8 +   w 7 O + A { q 4 4 8 ^ 7 ",
"hXhXhXhXhXhXhX  X 7 O 7 > O O 4 w O 1 O 1 O 1 4 O O 1 O 1 O 1 w 7 O 7 7 w 1 7 7 7 7 7 7 1 7 1 1 7 7 7 7 7 7 7 7 9 1 7 7 8 8 2 8 7 7 8 W O                                                             +           +                                   +   .                                 .   . . . . . . . . . . . . * . . * * . * * * . * . * . . * * * * * * . * * * * * * * * * * * . o * * * * . * . * * * * * * * * * * * * * * * . * . * * * * . * . * * * . * * . * * * * * * * * * * . * * * * * * * . * * . * . * * * * . * * * * * . * * * * . * . * * . * . . * * . * * * * * * * * * * * * * * * * * . * . . * . . * * . * . * * . . * * . * * * * * . . * . . . . * . . * . . . . . . .   O ' ( 5 5 V 8 8 8 7 5 5 > X   ~ 8 0 4     0 8 7 8 8 7 7 8 8 7 7 7 7 7 7 7 7 8 +   O O   8 ;.q 7 4 7 4 9 A ",
"hXhXhXhXhXhXhXhXhXX > O O O X O O 1 O O O O $ w 1 O 1 O O O O 7 O O O 7 > O O 7 O O 1 7 1 7 7 1 7 > 1 7 > 7 7 7 1 1 1 7 1 8 8 1 7 7 7 8 ^ q 9 9 9 9 9 9 9 9 q J q q 9 9 q 9 q q q q J q q q q q q q q q q q J q q q q q J q q J q q J q q J J q W q I q A 9 W q q J A J A J J A A J J K A A A W A I A K A A D W D / K Q Q / K K Q ^ / K U / K Q K / U ^ / K Q / / / / ^ Q / / K K / / / / / / _ / / _ _ / / / / / / / / Q / / / _ / / Q / U / U U / / / / / / / / / _ / / / / / / / / / / Q / / / / Q / / / / Y / / / / _ / / / _ ( / / / / / / / / _ Y _ _ / / Q / / / / G _ _ / _ / / / / / _ / / / / / / / _ / _ _ _ _ _ / _ / / / / / _ ( / _ _ / / / / / _ / / _ ( / / _ / _ / / Q / D Q ( / / Q / / 3.' < 8 V 8 5 5 5 4 5 4 > o   ! 8 7 4   + 7 8 7 7 8 8 7 1 7 8 8 7 8 8 7 7 7 8 +   +   7 9.7 1 7 7 7 4 8 7 ",
"hXhXhXhXhXhXhXhXhXhX+ > > O 1 X 7 O 1 1 O 1 > 1 1 O w O 1 O O O O O > 1 1 7 7 1 7 O 7 1 1 1 1 7 7 8 7 7 7 1 7 7 7 7 7 7 1 8 7 1 7 > 7 7 7 ] 7.7.7.7.7.1.1.7.7.9.9.9.9.7.9.0.9.9.9.9.9.9.9.9.9.z.9.9.q.q.9.p.q.9.9.9.q.9.9.q.q.z.p.z.9.p.q.p.p.9.q.u.q.q.u.u.u.p.p.a.p.p.p.p.p.p.a.d.d.a.s.a.p.a.a.p.a.a.a.s.p.y.p.s.p.a.p.s.p.s.s.s.s.p.s.d.h.s.s.s.h.s.s.s.h.h.s.h.h.d.h.h.h.s.s.s.h.d.i.s.d.h.d.h.s.s.g.h.g.d.s.s.h.s.h.h.s.h.g.g.g.s.h.h.h.g.h.h.i.s.h.s.h.i.i.s.s.h.i.g.i.s.h.s.d.s.s.s.h.s.s.h.i.h.s.h.s.s.i.i.i.i.i.h.i.h.g.i.s.s.s.s.s.i.i.i.i.i.s.h.i.i.i.i.i.i.i.e.e.i.s.i.h.i.i.i.i.s.i.s.i.e.i.e.y.y.e.e.e.w.e.i.i.e.e.i.e.w.w.w.w.w.w.w.w.w.t.w.t.t.t.r.t.w.t.w.w.r.r.r.t.t.r.r.t.e.w.w.w.r.r.( > V V 0 5 8 5 8 5 4 > > o   ! 0 0 4     0 q 8 8 8 8 8 7 7 8 8 7 7 7 7 7 7 8     + q ,.1 1 7 7 7 4 7 8 + ",
"hXhXhXhXhXhXhXhXhXhXhX  +   +         +         +   +   +     +                 +     + +           +     +               + + O 7 7 7 7 7 1 O + X X X X + + X X X + X X X . O : + O X + + O + + + X X X X X + X O O + w X X X O + X O X + O X X X X X X X X X o X + O X O X > : O > X > > X > X o > X * > X > : > > : : O : : : = : > > = > > = > > > : : : : : > * , > > : > * > ; * > > : : : > * > * , , : : * > : ; > , : = > : , , ; , > < > > , * , , , > * , ; , , * , ; * > : : : > , , , , , ; , , , , * , , < < > , , < < , ; < < , , , ; , ; , > , , ; , , < ; = > = , > * : * : * , ; * > , , : , : , > = ; ; > , * > : : > * > * < , : > , > > : : > * : : > * . > > * : : : * > . . : : . > < 8 V Z 5 5 8 5 4 5 5 > > w   I 0 0 7   + q q 7 7 8 9 8 7 7 7 8 8 7 7 7 7 1 7 +   q { 9 O 7 7 7 7 7 8 + hX",
"hXhXhXhXhXhXhXhXhXhXhXhXhXhX                                                                                                    + 1 7 7 7 7 7 7 1 1 7 1 7 7 7 7 7 7 7 8 7 7 7 7 7 7 7 7 7 8 1 8 7 7 7 5 7 8 7 7 8 8 8 8 5 5 5 8 8 5 8 5 8 8 8 8 8 8 V 8 8 8 8 8 7 8 8 5 8 8 8 8 8 8 8 Z Z 8 Z V V V V 8 V V 8 8 8 V V Z V V Z N 8 Z Z Z V Z V V C C Z Z Z V Z C S V Z Z Z Z Z Z C C F Z Z Z C Z C S Z Z S V 8 C B Z Z V C C Z C Z C Z Z Z S S Z C C S C Z C S S C Z S C C N C C Z Z C C Z S C S C Z Z C C C C Z V C C Z C S C S C S C Z S C Z C C C C C C C C S C C C C C C V V C V Z Z C Z N C C C V C V Z C V C C V C C C Z C Z V C V V V C C C C C Z V N 8 N V V Z V N V V V V V V 8 8 N V N 8 5 8 V V 8 8 8 5 0 5 5 7 7 5 > 5 > >   ! 8 0 4     O 8 4 > 7 O w 7 > 1 O 7 O 7 1 O O O + 9 } q O 7 7 7 4 8 7 + hXhX",
"hXhXhXhXhXhXhXhXhXhXhXhXhXhX  .       .     + +   .         + +   .   . .   + .     .   .   . .   . .     + . . . .   X   .         > 8 7 7 7 O 1 > > 1 1 1 > 1 4 4 1 1 < < 7 7 8 8 7 7 1 1 1 8 5 7 8 5 5 5 5 < 1 1 5 5 5 1 1 5 7 1 5 1 7 7 5 5 8 < < < < 8 5 5 V 8 5 8 8 V 5 N 5 V 5 V 5 8 5 8 5 8 5 5 < 5 N V V V V V Z 8 Z V N V Z v V V V V Z N V C N B V V V V Z C C V V C V Z Z C C S C N B C C C C C C C B C N C C C C 5 V C C C C C C C C C C C C C S C Z C C C C C C N V C C C B C C S S C C C C C C C C C Z S C C S C V C C C C B V C V C C C C C V S C V V V C V C V C V N C N N N C V C C V N N C N V z V V B V z N N V V N V V N < V N z V V V C 5 V V C z V 5 5 N z V B z V N 5 V N V 5 V V 5 8 N 5 5 4 5 5 7 4 8 > > X   I 8 8 8       + +       + +     + + X + + +   + 7 #.q w 7 > 1 7 8 7 + hXhXhX",
"hXhXhXhXhXhXhXhXhXhXhXhXhXhXhX+ X +   + + + . +   X   X . + . . + O . + . + + . + . . . + X   . X + X + . . + X . . . + + . . .       + 1 7 7 7 1 > > > > > > > > > 7 > 1 4 > 7 < 5 > 7 1 7 7 8 7 7 8 7 8 8 7 8 8 8 7 7 9 7 7 8 8 5 7 8 8 8 V 8 7 8 8 8 8 8 8 8 8 8 F 5 7 8 8 8 8 Z 8 8 7 Z V Z 7 5 V Z 8 8 V 8 Z Z Z Z V V Z Z V V C Z 8 Z Z Z Z V V V V 8 V V V Z C S Z C Z V V V C D C Z Z C V Z S C Z V Z C Z C V C C Z S C C C Z C C S V C V Z S S S S Z C C C Z S C C D Z V C C Z S C C S D C S Z Z C S Z C S C S G C S G C G S S S Z C C C C C Z Z C Z C Z C Z C S Z Z S Z C C Z S C V C V V V C S C Z Z C S Z S S A S Z V V Z V N V N V V 8 V V V 8 N V V 8 Z Z 8 N 8 V F V 8 N 8 N Z Z V 8 Z 8 8 0 Z 8 S 5 8 5 5 5 > 8 4 > >   U A 8 0 >.,.,.,.,.;.=.:.;.;.;.:.;.;.:.:.,.,.,.,.7.A > 7 7 7 7 7 9   hXhXhXhX",
"hXhXhXhXhXhXhXhXhXhXhXhXhXhXhXhX+ X . + . . . + + X . X X . . + . . + . + . + X + . + O X . X + . + . X O . + X . O X O . + + + +                                                                                                                                     +                                                                                                                                                                                           +                       +                                                                                                                                                                                                                     + 8 5 4 7 4 5 5 5 > o   I 0 8 4 7 9 8 8 8 9 8 7 7 8 9 8 9 7 1 7 7 7 7 7 4 4 7 7 7 7 7 8 + hXhXhXhXhX",
"hXhXhXhXhXhXhXhXhXhXhXhXhXhXhXhXhX+ X O o X + X + . X O X X + + X X + X X X X X X X X X X X X X X X + X X X X X X O X O X X O X + .                                                                                                                                                               .     .     . .     .   . . .       .   .     . .   . .   . .   . . .     . . .   . . .   . . . . . . .   . .   . .   . .   . . .   . .   . . . . . . . . . .   . . . . . . . . . . . . .   . . . . .   . . .   . . . . . . . . . . . . . . . . . . . . . . . . . . . . . . . . . . . . . . . . . . . . . . .   . . .   . . . . .   . . . . . . . . . . . . . .   . . . . . . . .   . . . .       . . .           > 7 < 5 7 5 7 > X   Q 9 8 7 8 8 8 8 8 8 8 5 7 7 9 4 8 8 4 5 7 7 8 8 7 8 4 7 7 8 7 + hXhXhXhXhXhX",
"hXhXhXhXhXhXhXhXhXhXhXhXhXhXhXhXhXhX  X > O X O X > O O O O 4 O O 1 O O O O O O O O O O O O O O X > X > > O O 4 O O O 4 > O w > X > > O X X       + . . . . . . . . . . . . . O + . . . . . . . . . . . . . . * . . . : . O . * . X . * O * . . * * . . > * . * * o * > * * . : > * * : = * * > : * * > * * : * : : * : * * * > > * * : * , ; * > * * : > * , * * ; * ; ; - ; * ; , ; , - ; ; , * , ; > * - ; : : ; ; , ; * - ; , , ; ; - ; ; > - ; ; , * , ; , ; , - ; ; > ; * ; - ; * , , ; , ; , * > , - ; ; ; ; , ; ; , ; - , ; - ; ; - ; , - , ; , * , ; * ; ; ; - > , - ; - ; - ; , * ; - - ; * , - * ; > ; * = = * ; * * , * * * * - * * * * * , - * * , , * ; , * * * ; > , ; : * * * , * * > * * * * . .   + < 7 4 7 < 4 4 o   U 8 8 8 4 8 8 4 7 5 8 7 7 7 7 4 8 8 6 8 7 8 7 7 7 7 7 7 8 7 + hXhXhXhXhXhXhX",
"hXhXhXhXhXhXhXhXhXhXhXhXhXhXhXhXhXhX  + O O X O O X O O O O O 4 O O > > 4 O O O w > X > w 7 O > O O > 1 O > > 1 > O 4 4 > O 1 > > > > X O O O     +   + +   . + + . + + . + + . . + + + . + . . + . . . . + . + . + . . + . + + + O + . X o . . X . . o . o . + + . + . . O . X o o . > o o o o . X > . X . o o > o X . X X : o * . X > > o : . X > * o * > * > : . > > > . o : : X * > : o : > : : > * : : > * : : . > o : o * * X . > * > o * o * * X * > : o : > o : > * X : > : : o : X X : o : : : * : > . . : > > : > : . . : : X : > * > : : : . * > > * . : : o o * X : : o : o o : o : . : > . o : : . . : o : o o : * * o . O O * X > . : . . + . o o > O . . o . . : : . . > . o . X . o . o . + X + + .   + < 7 > > > > :   U q 0 q 0 8 0 0 0 8 0 0 9 9 8 9 9 9 8 8 8 8 8 8 9 8 7 8 7   hXhXhXhXhXhXhXhX",
"hXhXhXhXhXhXhXhXhXhXhXhXhXhXhXhXhXhXhX                                                                                                      .   hXhXhXhXhXhXhXhXhXhXhXhXhXhXhXhXhXhXhXhXhXhXhXhXhXhXhXhXhXhXhXhXhXhXhXhXhXhXhXhXhXhXhXhXhXhXhXhXhXhXhXhXhXhXhXhXhXhXhXhXhXhXhXhXhXhXhXhXhXhXhXhXhXhXhXhXhXhXhXhXhXhXhXhXhXhXhXhXhXhXhXhXhXhXhXhXhXhXhXhXhXhXhXhXhXhXhXhXhXhXhXhXhXhXhXhXhXhXhXhXhXhXhXhXhXhXhXhXhXhXhXhXhXhXhXhXhXhXhXhXhXhXhXhXhXhXhXhXhXhXhXhXhXhXhXhXhXhXhXhXhXhXhXhXhXhXhXhXhXhXhXhXhXhXhXhXhXhXhXhXhXhXhXhXhXhXhXhXhXhXhXhXhXhXhXhXhXhXhXhXhXhXhXhXhXhXhXhXhXhXhXhXhXhXhXhXhXhXhXhXhXhXhXhXhXhXhXhXhXhXhXhXhXhXhXhXhXhXhXhXhXhXhXhXhXhXhXhXhXhXhXhXhXhXhXhXhXhXhXhXhXhXhXhXhXhXhXhXhXhXhXhXhXhX      > 8 > > > X   4 0 4 4 4 8 7 7 7 4 4 7 4 4 8 4 4 7 7 7 7 7 7 1 7 7 7 >   hXhXhXhXhXhXhXhXhX",
"hXhXhXhXhXhXhXhXhXhXhXhXhXhXhXhXhXhXhXhX.     .     .   +   .     +   + .   .     +         .     +   + .   .         + . . .     + +   .     hXhXhXhXhXhXhXhXhXhXhXhXhXhXhXhXhXhXhXhXhXhXhXhXhXhXhXhXhXhXhXhXhXhXhXhXhXhXhXhXhXhXhXhXhXhXhXhXhXhXhXhXhXhXhXhXhXhXhXhXhXhXhXhXhXhXhXhXhXhXhXhXhXhXhXhXhXhXhXhXhXhXhXhXhXhXhXhXhXhXhXhXhXhXhXhXhXhXhXhXhXhXhXhXhXhXhXhXhXhXhXhXhXhXhXhXhXhXhXhXhXhXhXhXhXhXhXhXhXhXhXhXhXhXhXhXhXhXhXhXhXhXhXhXhXhXhXhXhXhXhXhXhXhXhXhXhXhXhXhXhXhXhXhXhXhXhXhXhXhXhXhXhXhXhXhXhXhXhXhXhXhXhXhXhXhXhXhXhXhXhXhXhXhXhXhXhXhXhXhXhXhXhXhXhXhXhXhXhXhXhXhXhXhXhXhXhXhXhXhXhXhXhXhXhXhXhXhXhXhXhXhXhXhXhXhXhXhXhXhXhXhXhXhXhXhXhXhXhXhXhXhXhXhXhXhXhXhXhXhXhXhXhXhXhXhXhXhXhXhXhXhXhXhXhXhXhXhX  > 7 4 > > + hXhXhXhXhXhXhXhXhXhXhXhXhXhXhXhXhXhXhXhXhXhXhXhXhXhXhXhXhXhXhXhXhXhXhXhXhXhX",
"hXhXhXhXhXhXhXhXhXhXhXhXhXhXhXhXhXhXhXhXhXhXhXhXhXhXhXhXhXhXhXhXhXhXhXhXhXhXhXhXhXhXhXhXhXhXhXhXhXhXhXhXhXhXhXhXhXhXhXhXhXhXhXhXhXhXhXhXhXhXhXhXhXhXhXhXhXhXhXhXhXhXhXhXhXhXhXhXhXhXhXhXhXhXhXhXhXhXhXhXhXhXhXhXhXhXhXhXhXhXhXhXhXhXhXhXhXhXhXhXhXhXhXhXhXhXhXhXhXhXhXhXhXhXhXhXhXhXhXhXhXhXhXhXhXhXhXhXhXhXhXhXhXhXhXhXhXhXhXhXhXhXhXhXhXhXhXhXhXhXhXhXhXhXhXhXhXhXhXhXhXhXhXhXhXhXhXhXhXhXhXhXhXhXhXhXhXhXhXhXhXhXhXhXhXhXhXhXhXhXhXhXhXhXhXhXhXhXhXhXhXhXhXhXhXhXhXhXhXhXhXhXhXhXhXhXhXhXhXhXhXhXhXhXhXhXhXhXhXhXhXhXhXhXhXhXhXhXhXhXhXhXhXhXhXhXhXhXhXhXhXhXhXhXhXhXhXhXhXhXhXhXhXhXhXhXhXhXhXhXhXhXhXhXhXhXhXhXhXhXhXhXhXhXhXhXhXhXhXhXhXhXhXhXhXhXhXhXhXhXhXhXhXhXhXhXhXhXhXhXhXhXhXhXhXhXhXhXhXhXhXhXhXhXhXhXhXhXhXhXhXX 4 O : > hXhXhXhXhXhXhXhXhXhXhXhXhXhXhXhXhXhXhXhXhXhXhXhXhXhXhXhXhXhXhXhXhXhXhXhXhXhX",
"hXhXhXhXhXhXhXhXhXhXhXhXhXhXhXhXhXhXhXhXhXhXhXhXhXhXhXhXhXhXhXhXhXhXhXhXhXhXhXhXhXhXhXhXhXhXhXhXhXhXhXhXhXhXhXhXhXhXhXhXhXhXhXhXhXhXhXhXhXhXhXhXhXhXhXhXhXhXhXhXhXhXhXhXhXhXhXhXhXhXhXhXhXhXhXhXhXhXhXhXhXhXhXhXhXhXhXhXhXhXhXhXhXhXhXhXhXhXhXhXhXhXhXhXhXhXhXhXhXhXhXhXhXhXhXhXhXhXhXhXhXhXhXhXhXhXhXhXhXhXhXhXhXhXhXhXhXhXhXhXhXhXhXhXhXhXhXhXhXhXhXhXhXhXhXhXhXhXhXhXhXhXhXhXhXhXhXhXhXhXhXhXhXhXhXhXhXhXhXhXhXhXhXhXhXhXhXhXhXhXhXhXhXhXhXhXhXhXhXhXhXhXhXhXhXhXhXhXhXhXhXhXhXhXhXhXhXhXhXhXhXhXhXhXhXhXhXhXhXhXhXhXhXhXhXhXhXhXhXhXhXhXhXhXhXhXhXhXhXhXhXhXhXhXhXhXhXhXhXhXhXhXhXhXhXhXhXhXhXhXhXhXhXhXhXhXhXhXhXhXhXhXhXhXhXhXhXhXhXhXhXhXhXhXhXhXhXhXhXhXhXhXhXhXhXhXhXhXhXhXhXhXhXhXhXhXhXhXhXhXhXhXhXhXhXhXhXhXhXhXhXhXhXhXhXhXhXhXhXhXhXhXhXhXhXhXhXhXhXhXhXhXhXhXhXhXhXhXhXhXhXhXhXhXhXhXhXhXhXhXhXhXhXhX",
"hXhXhXhXhXhXhXhXhXhXhXhXhXhXhXhXhXhXhXhXhXhXhXhXhXhXhXhXhXhXhXhXhXhXhXhXhXhXhXhXhXhXhXhXhXhXhXhXhXhXhXhXhXhXhXhXhXhXhXhXhXhXhXhXhXhXhXhXhXhXhXhXhXhXhXhXhXhXhXhXhXhXhXhXhXhXhXhXhXhXhXhXhXhXhXhXhXhXhXhXhXhXhXhXhXhXhXhXhXhXhXhXhXhXhXhXhXhXhXhXhXhXhXhXhXhXhXhXhXhXhXhXhXhXhXhXhXhXhXhXhXhXhXhXhXhXhXhXhXhXhXhXhXhXhXhXhXhXhXhXhXhXhXhXhXhXhXhXhXhXhXhXhXhXhXhXhXhXhXhXhXhXhXhXhXhXhXhXhXhXhXhXhXhXhXhXhXhXhXhXhXhXhXhXhXhXhXhXhXhXhXhXhXhXhXhXhXhXhXhXhXhXhXhXhXhXhXhXhXhXhXhXhXhXhXhXhXhXhXhXhXhXhXhXhXhXhXhXhXhXhXhXhXhXhXhXhXhXhXhXhXhXhXhXhXhXhXhXhXhXhXhXhXhXhXhXhXhXhXhXhXhXhXhXhXhXhXhXhXhXhXhXhXhXhXhXhXhXhXhXhXhXhXhXhXhXhXhXhXhXhXhXhXhXhXhXhXhXhXhXhXhXhXhXhXhXhXhXhXhXhXhXhXhXhXhXhXhXhXhXhXhXhXhXhXhXhXhXhXhXhXhXhXhXhXhXhXhXhXhXhXhXhXhXhXhXhXhXhXhXhXhXhXhXhXhXhXhXhXhXhXhXhXhXhXhXhXhXhXhXhXhXhXhX"
};
