/* XPM */
static const char *enemy9_xpm[] = {
/* columns rows colors chars-per-pixel */
"394 78 228 2 ",
"   c #020402",
".  c #040A04",
"X  c #080C07",
"o  c #070B08",
"O  c #0A0D0A",
"+  c #030609",
"@  c #170605",
"#  c #1A0706",
"$  c #1C0807",
"%  c #1D0A08",
"&  c #140B05",
"*  c #031403",
"=  c #0C1305",
"-  c #031A03",
";  c #081A06",
":  c #071309",
">  c #0B130C",
",  c #071908",
"<  c #0C1A0D",
"1  c #111205",
"2  c #10140F",
"3  c #15180A",
"4  c #0F1510",
"5  c #0E1B11",
"6  c #08151C",
"7  c #111612",
"8  c #131B14",
"9  c #181C17",
"0  c #171D18",
"q  c #191E19",
"w  c #1D1310",
"e  c #060E13",
"r  c #230A08",
"t  c #2C0C0A",
"y  c #270906",
"u  c #330906",
"i  c #340D0B",
"p  c #3B0D0B",
"a  c #3A0906",
"s  c #3B110E",
"d  c #33100E",
"f  c #31110D",
"g  c #052403",
"h  c #062B04",
"j  c #082C06",
"k  c #0C210D",
"l  c #092807",
"z  c #192C0C",
"x  c #17270B",
"c  c #063304",
"v  c #093406",
"b  c #093B05",
"n  c #093907",
"m  c #1C300D",
"M  c #0E2311",
"N  c #0F2811",
"B  c #122415",
"V  c #132A15",
"C  c #162219",
"Z  c #1B221C",
"A  c #162B19",
"S  c #1A2B1D",
"D  c #1B321E",
"F  c #18321D",
"G  c #20251F",
"H  c #342C11",
"J  c #0A1C27",
"K  c #0A1F30",
"L  c #0C212D",
"P  c #1F2420",
"I  c #1D2C21",
"U  c #1D3421",
"Y  c #1D3921",
"T  c #0C2639",
"R  c #102A3B",
"E  c #222522",
"W  c #242A25",
"Q  c #272D28",
"!  c #292D29",
"~  c #2A2A25",
"^  c #233324",
"/  c #273329",
"(  c #2A342C",
")  c #2B3A2D",
"_  c #203A22",
"`  c #2E3531",
"'  c #2D3B31",
"]  c #313632",
"[  c #333B35",
"{  c #353E38",
"}  c #3A3E3B",
"|  c #353229",
" . c #440D0A",
".. c #4A0E0B",
"X. c #410B07",
"o. c #52100D",
"O. c #541A17",
"+. c #5D1C19",
"@. c #591815",
"#. c #48120F",
"$. c #631D1A",
"%. c #593523",
"&. c #64251D",
"*. c #324336",
"=. c #35433A",
"-. c #3B443D",
";. c #364B3B",
":. c #3A4B3E",
">. c #344837",
",. c #39503F",
"<. c #0A4005",
"1. c #5D4529",
"2. c #5D4427",
"3. c #604428",
"4. c #0E2D44",
"5. c #11324D",
"6. c #133959",
"7. c #0F3048",
"8. c #3F4440",
"9. c #3D4B41",
"0. c #3B5241",
"q. c #414642",
"w. c #444B45",
"e. c #464C48",
"r. c #494E4A",
"t. c #435445",
"y. c #465847",
"u. c #465548",
"i. c #4A544B",
"p. c #475949",
"a. c #49594A",
"s. c #485547",
"d. c #4E5551",
"f. c #4D5C52",
"g. c #515651",
"h. c #535A54",
"j. c #585E5A",
"k. c #5B635D",
"l. c #56635B",
"z. c #5E6661",
"x. c #5E6A62",
"c. c #616C64",
"v. c #666D68",
"b. c #637167",
"n. c #65746A",
"m. c #69756D",
"M. c #69796D",
"N. c #67786C",
"B. c #6D7A71",
"V. c #707572",
"C. c #983D38",
"Z. c #932E29",
"A. c #A63C35",
"S. c #A93D37",
"D. c #A2332E",
"F. c #C72E2A",
"G. c #CC322E",
"H. c #C5312D",
"J. c #D3322E",
"K. c #DC322E",
"L. c #D43632",
"P. c #DB3632",
"I. c #D53935",
"U. c #DC3A36",
"Y. c #DC3C38",
"T. c #D03330",
"R. c #EC3632",
"E. c #E43A36",
"W. c #EB3B36",
"Q. c #E53C39",
"!. c #EC3D39",
"~. c #E53431",
"^. c #F33E3A",
"/. c #F93F3B",
"(. c #F23A36",
"). c #E2332F",
"_. c #9C413B",
"`. c #A6433D",
"'. c #BE453E",
"]. c #CC443E",
"[. c #ED403C",
"{. c #F5413C",
"}. c #F9423E",
"|. c #AC4742",
" X c #B24944",
".X c #D2544C",
"XX c #D9564F",
"oX c #D35C54",
"OX c #DC5A53",
"+X c #CE504A",
"@X c #EB4E49",
"#X c #E84A45",
"$X c #FB4641",
"%X c #FC4B45",
"&X c #FE4E48",
"*X c #F44A44",
"=X c #EC514B",
"-X c #F3524B",
";X c #FE534C",
":X c #FE584F",
">X c #E35B55",
",X c #E55E58",
"<X c #EB5D56",
"1X c #FE5B53",
"2X c #F85953",
"3X c #DA635D",
"4X c #FE635B",
"5X c #FF665D",
"6X c #E8605A",
"7X c #DD6760",
"8X c #FE6B63",
"9X c #FC6A63",
"0X c #FF746C",
"qX c #FF776D",
"wX c #FF7B73",
"eX c #FC7A73",
"rX c #75877B",
"tX c #FF837C",
"yX c #FF857C",
"uX c #7A8F81",
"iX c #FF8681",
"pX c #FF8A84",
"aX c #FF8E89",
"sX c #FF928D",
"dX c #FF9691",
"fX c #FF9894",
"gX c #889F90",
"hX c #000001",
/* pixels */
"hXhXhXhXhXhXhXhXhXhXhXhXhXhXhXhXhXhXhXhXhXhXhXhXhXhXhXhXhXhXhXhXhXhXhXhXhXhXhXhXhXhXhXhXhXhXhXhXhXhXhXhXhXhXhXhXhXhXhXhXhXhXhXhXhXhXhXhXhXhXhXhXhXhXhXhXhXhXhXhXhXhXhXhXhXhXhXhXhXhXhXhXhXhXhXhXhXhXhXhXhXhXhXhXhXhXhXhXhXhXhXhXhXhXhXhXhXhXhXhXhXhXhXhXhXhXhXhXhXhXhXhXhXhXhXhXhXhXhXhXhXhXhXhXhXhXhXhXhXhXhXhXhXhXhXhXhXhXhXhXhXhXhXhXhXhXhXhXhXhXhXhXhXhXhXhXhXhXhXhXhXhXhXhXhXhXhXhXhXhXhXhXhXhXhXhXhXhXhXhXhXhXhXhXhXhXhXhXhXhXhXhXhXhXhXhXhXhXhXhXhXhXhXhXhXhXhXhXhXhXhXhXhXhXhXhXhXhXhXhXhXhXhXhXhXhXhXhXhXhXhXhXhXhXhXhXhXhXhXhXhXhXhXhXhXhXhXhXhXhXhXhXhXhXhXhXhXhXhXhXhXhXhXhXhXhXhXhXhXhXhXhXhXhXhXhXhXhXhXhXhXhXhXhXhXhXhXhXhXhXhXhXhXhXhXhXhXhXhXhXhXhXhXhXhXhXhXhXhXhXhXhXhXhXhXhXhXhXhXhXhXhXhXhXhXhXhXhXhXhXhXhX{ f.w.9.8.8.-.-.-.-.=.8.} =.8.8.=.} 8.8.8.8.8.9.q.8.8.8.e.P hXhXhXhXhXhXhXhXhXhXhXhX",
"hXhXhXhXhXhXhXhXhXhXhXhXhXhXhXhXhXhXhXhXhXhXhXhXhXhXhXhXhXhXhXhXhXhXhXhXhXhXhXhXhXhXhXhXhXhXhXhXhXhXhXhXhXhXhXhXhXhXhXhXhXhXhXhXhXhXhXhXhXhXhXhXhXhXhXhXhXhXhXhXhXhXhXhXhXhXhXhXhXhXhXhXhXhXhXhXhXhXhXhXhXhXhXhXhXhXhXhXhXhXhXhXhXhXhXhXhXhXhXhXhXhXhXhXhXhXhXhXhXhXhXhXhXhXhXhXhXhXhXhXhXhXhXhXhXhXhXhXhXhXhXhXhXhXhXhXhXhXhXhXhXhXhXhXhXhXhXhXhXhXhXhXhXhXhXhXhXhXhXhXhXhXhXhXhXhXhXhXhXhXhXhXhXhXhXhXhXhXhXhXhXhXhXhXhXhXhXhXhXhXhXhXhXhXhXhXhXhXhXhXhXhXhXhXhXhXhXhXhXhXhXhXhXhXhXhXhXhXhXhXhXhXhXhXhXhXhXhXhXhXhXhXhXhXhXhXhXhXhXhXhXhXhXhXhXhXhXhXhXhXhXhXhXhXhXhXhXhXhXhXhXhXhXhXhXhXhXhXhXhXhXhXhXhXhXhXhXhXhXhXhXhXhXhXhXhXhXhXhXhXhXhXhXhXhXhXhXhXhXhXhXhXhXhXhXhXhXhXhXhXhXhXhXhXhXhXhXhXhXhXhXhXhXhXhXhXhXhXhXhXhX[ B.f.8.8.8.8.-.{ [ [ [ [ ( ` ! Q ! ! ( ( I ! P Q W W Q P Q { P hXhXhXhXhXhXhXhXhXhXhX",
"hXhXhXhXhXhXhXhXhXhXhXhXhXhXhXhXhXhXhXhXhXhXhXhXhXhXhXhXhXhXhXhXhXhXhXhXhXhXhXhXhXhXhXhXhXhXhXhXhXhXhXhXhXhXhXhXhXhXhXhXhXhXhXhXhXhXhXhXhXhXhXhXhXhXhXhXhXhXhXhXhXhXhXhXhXhXhXhXhXhXhXhXhXhXhXhXhXhXhXhXhXhXhXhXhXhXhXhXhXhXhXhXhXhXhXhXhXhXhXhXhXhXhXhXhXhXhXhXhXhXhXhXhXhXhXhXhXhXhXhXhXhXhXhXhXhXhXhXhXhXhXhXhXhXhXhXhXhXhXhXhXhXhXhXhXhXhXhXhXhXhXhXhXhXhXhXhXhXhXhXhXhXhXhXhXhXhXhXhXhXhXhXhXhXhXhXhXhXhXhXhXhXhXhXhXhXhXhXhXhXhXhXhXhXhXhXhXhXhXhXhXhXhXhXhXhXhXhXhXhXhXhXhXhXhXhXhXhXhXhXhXhXhXhXhXhXhXhXhXhXhXhXhXhXhXhXhXhXhXhXhXhXhXhXhXhXhXhXhXhXhXhXhXhXhXhXhXhXhXhXhXhXhXhXhXhXhXhXhXhXhXhXhXhXhXhXhXhXhXhXhXhXhXhXhXhXhXhXhXhXhXhXhXhXhXhXhXhXhXhXhXhXhXhXhXhXhXhXhXhXhXhXhXhXhXhXhXhXhXhXhXhXhXhXhXhXhXhXhX  ` rXf.0 0 0 6 8 4 4 > 4 4 7 4 4 7 4 5 4 4 4 8 4 4 4 7 7 7 9 8 Z 8.P   hXhXhXhXhXhXhXhXhX",
"hXhXhXhXhXhXhXhXhXhXhXhXhXhXhXhXhXhXhXhXhXhXhXhXhXhXhXhXhXhXhXhXhXhXhXhXhXhXhXhXhXhXhXhXhXhXhXhXhXhXhXhXhXhXhXhXhXhXhXhXhXhXhXhXhXhXhXhXhXhXhXhXhXhXhXhXhXhXhXhXhXhXhXhXhXhXhXhXhXhXhXhXhXhXhXhXhXhXhXhXhXhXhXhXhXhXhXhXhXhXhXhXhXhXhXhXhXhXhXhXhXhXhXhXhXhXhXhXhXhXhXhXhXhXhXhXhXhXhXhXhXhXhXhXhXhXhXhXhXhXhXhXhXhXhXhXhXhXhXhXhXhXhXhXhXhXhXhXhXhXhXhXhXhXhXhXhXhXhXhXhXhXhXhXhXhXhXhXhXhXhXhXhXhXhXhXhXhXhXhXhXhXhXhXhXhXhXhXhXhXhXhXhXhXhXhXhXhXhXhXhXhXhXhXhXhXhXhXhXhXhXhXhXhXhXhXhXhXhXhXhXhXhXhXhXhXhXhXhXhXhXhXhXhXhXhXhXhXhXhXhXhXhXhXhXhXhXhXhXhXhXhXhXhXhXhXhXhXhXhXhXhXhXhXhXhXhXhXhXhXhXhXhXhXhXhXhXhXhXhXhXhXhXhXhXhXhXhXhXhXhXhXhXhXhXhXhXhXhXhXhXhXhXhXhXhXhXhXhXhXhXhXhXhXhXhXhXhXhXhXhXhXhXhXhXhXhXhXhXW B.l.4 0 Z q Z I C P Z Z Z Z Z 0 P 0 Z 0 P Z P Z Z 0 q 9 q q 0 4 0 d.Z   hXhXhXhXhXhXhXhX",
"hXhXhXhXhXhXhXhXhXhXhXhXhX2 hXhXhXhXhXhXhXhXhXhXhX7 7 2 7 7 2 w e 4 w 7 7 7 7 7 7 7 w 7 7 7 7 7 7 9 8 8 7 7 8 7 7 9 7 w 0 7 7 7 9 7 7 7 hXhXhXhXhXhXhXhXhXhXhXhXhXhXhXhXhXhXhXhXhXhXhXhXhXhXhXhXhXhXhXhXhXhXhXhXhXhXhXhXhXhXhXhXhXhXhXhXhXhXhXhXhXhXhXhXhXhXhXhXhXhXhXhXhXhXhXhXhXhXhXhXhXhXhXhXhXhXhXhXhXhXhXhXhXhXhXhXhXhXhXhXhXhXhXhXhXhXhXhXhXhXhXhXhXhXhXhXhXhXhXhXhXhXhXhXhXhXhXhXhXhXhXhXhXhXhXhXhXhXhXhXhXhXhXhXhXhXhXhXhXhXhXhXhXhXhXhXhXhXhXhXhXhXhXhXhXhXhXhXhXhXhXhXhXhXhXhXhXhXhXhXhXhXhXhXhXhXhXhXhXhXhXhXhXhXhXhXhXhXhXhXhXhXhXhXhXhXhXhXhXhXhXhXhXhXhXhXhXhXhXhXhXhXhXhXhXhXhXhXhXhXhXhXhXhXhXhXhXhXhXhXhXhXhXhXhXhXhXhXhXhXhXhXhXhXhXhXhXhXhXhXhXhXhXhXhXhXhXhXhXhXhXhXhXhXhXhXhXhXhXhXhXhXhXhXhXhXhXhX[ rXf.8 4 0 O O 9 9 9 9 8 0 9 7 9 q 9 9 w q q q 8 0 7 7 7 q w 6 7 6 4 0 w.E hXhXhXhXhXhXhXhX",
"hXhXhXhXhXhXhXhXhXhXhXhX( } [ [ [ ] { ] ] { } ] { } } } 8.q.8.8.} 8.} 8.8.q.8.q.q.q.e.q.e.e.e.w.q.e.e.r.r.r.r.r.r.r.r.r.r.d.d.g.d.d.g.g.{ 7 hXhXhXhXhXhXhXhXhXhXhXhXhXhXhXhXhXhXhXhXhXhXhXhXhXhXhXhXhXhXhXhXhXhXhXhXhXhXhXhXhXhXhXhXhXhXhXhXhXhXhXhXhXhXhXhXhXhXhXhXhXhXhXhXhXhXhXhXhXhXhXhXhXhXhXhXhXhXhXhXhXhXhXhXhXhXhXhXhXhXhXhXhXhXhXhXhXhXhXhXhXhXhXhXhXhXhXhXhXhXhXhXhXhXhXhXhXhXhXhXhXhXhXhXhXhXhXhXhXhXhXhXhXhXhXhXhXhXhXhXhXhXhXhXhXhXhXhXhXhXhXhXhXhXhXhXhXhXhXhXhXhXhXhXhXhXhXhXhXhXhXhXhXhXhXhXhXhXhXhXhXhXhXhXhXhXhXhXhXhXhXhXhXhXhXhXhXhXhXhXhXhXhXhXhXhXhXhXhXhXhXhXhXhXhXhXhXhXhXhXhXhXhXhXhXhXhXhXhXhXhXhXhXhXhXhXhXhXhXhXhXhXhXhXhXhXhXhXhXhXhXhXhXhXhXhXhXhXhXhXhXhXhXhXhXhXhXhXhXhXhXhXhXhXhXhXhX-.B.f.8 5 0 5   ` V.V.v.m.v.m.V.m.v.V.V.V.V.v.V.v.v.V.V.v.V.v.v.k.7 7 0 7 9 =.Q hXhXhXhXhXhXhX",
"hXhXhXhXhXhXhXhXhXhXhXE E q q q q 9 q q q q q 9 9 q P P q q P q q Z q q P P Z P P P P P P P P E E E E P E E P P P P P E E P P P P P P P W ! 8 hXq Z E E ` ! Q Q ! ! Q Q ! ` ` ` ` ` ] ( ] ( ( ] ` ` ] ` ] ` [ [ [ ] [ ] [ ' [ [ ' ' ] ` [ ' ] ] [ ' ` ' ` ' ' ] { { [ ' ' [ [ [ [ { [ =.[ { { =.=.=.=.{ =.-.-.=.8.=.=.=.=.=.8.8.:.-.-.:.-.-.:.:.:.-.-.:.-.9.9.9.9.9.:.-.=.:.:.9.9.-.-.:.:.-.-.:.:.:.:.9.9.w.9.9.w.0.9.9.:.:.9.:.8.9.9.9.9.9.9.9.w.9.:.9.9.9.9.:.:.9.9.w.:.:.-.-.:.-.9.;.:.9.9.9.9.:.9.9.:.9.-.9.9.9.9.9.9.9.:.9.:.-.9.9.w.:.;.9.:.:.:.:.:.:.:.9.9.9.9.9.9.9.w.9.9.9.9.9.9.:.9.9.w.9.9.9.9.9.8.9.:.9.9.8.9.9.:.8.9.9.9.8.:.9.:.-.-.9.-.9.8.=.=.-.9.{ =.{ { =.=.=.=.=.[ ' ] =.=.[ { [ [ { { [ ( 8 hXhX9.B.t.7 8 C 0 0   8.{ ] [ ' ] [ ] ] ] { ] [ [ ] ] ] ] ] ] ] ] ! ! ] P 7 9 9 8 8 { W hXhXhXhXhXhX",
"hXhXhXhXhXhXhXhXhXhXE Z 9 9 9 9 0 9 9 0 q q q q q 9 q q Z q 9 q P q q q q Z Z q q P P P q P Z Z P P E P E P P P P P P E P P P q P q q 9 9 8 Z 7 8 P P P P Q I Q Q ! / / Q ( ` ` ` ` ) [ ` ( ` [ ' ' [ [ [ *.{ ' { =.=.=.8.=.=.{ { =.[ [ =.{ { =.{ [ ' [ [ ' =.=.=.=.' *.[ =.*.=.;.=.*.;.=.=.-.=.-.=.;.9.:.9.=.;.*.9.;.8.9.;.0.0.9.9.9.0.:.0.:.,.9.:.:.,.;.,.9.:.0.,.0.;.;.9.9.9.9.0.;.;.:.0.,.,.9.0.;.;.,.,.;.:.,.:.;.,.;.,.,.:.;.0.0.0.9.;.;.:.,.0.0.0.0.0.:.,.,.:.0.,.0.;.;.,.;.;.0.0.>.:.0.;.0.,.0.0.0.0.:.0.0.0.,.0.;.,.,.9.0.,.;.,.:.,.;.;.:.;.:.;.;.;.:.0.;.;.0.0.0.9.>.>.;.;.,.:.,.>.;.;.>.0.0.;.>.;.;.;.>.>.*.>.=.>.*.;.*.;.;.>.*.*.*.*.*.>.*.*.*.*.;.*.*.' ' ' ' ' *.' ' ' ) ( / ( ) ) ) ' ) / ( / W 5 hXe.rXu.0 0 8 0 0 4   ` Q P W E P W W W E P E E E E P P P q P P P P Z Z 9 9 9 9 8 7 7 q.W   hXhXhXhX",
"hXhXhXhXhXhXhXhXhXZ W 7 q 9 9 9 q q 7 7 q 9 9 q q 0 q q q 7 q 9 q q 9 q q q 9 0 0 q 9 q P P 0 P P q G q q q E Z Z Z P q P q 9 9 8 9 8 9 8 8 7 7 o o O O 4 + o O O O : O O 7 O > O O O O O O 2 O O O X > 2 O : > O > O O O O O > O > 2 > O > O O > O > = O > : > O O X > > X > : : X > < 2 > 2 > > > > > > > = : > > > > > o > : > > < > > > > > > < > : < < , < > , < < > = , > < > > : < < ; > , < , , < > > < > < , , , < < > < > ; < < < > , > < < > > , , : > , < > , > < < , > , , : < , < < : > < < : > : > , : : , : , < > * > > , > < : : , : < < > > < , < > = , > : > : o > , : > < : > : : > < > > > 4 > 4 > : > > > > < > * > > * > < : = > , = : : > > > > > > : = > > > > : X : X > o o . . . o o i.gX9.8 Z 8 8 8 8 4   ] Z Z Z Z Z G q P Z q q Z q q J q q q q q q q q q 9 9 9 7 8 0 8 7 8.E + hXhXhX",
"hXhXhXhXhXhXhXhX9 G 7 8 9 7 7 9 q 7 q q q 9 q 9 0 q 9 7 q 9 9 9 q 9 9 9 9 q q 9 q 0 q 0 q q q q q q q q Z P q q P q P q q 9 8 9 9 O O 8 7 9 q q 8 q q q q 9 0 9 0 0 0 0 q q q q q q q Z 9 Z Z Z Z Z Z Z 9 q Z Z 0 q q q Z Z Z q q 9 q q q Z Z Z Z Z Z Z Z Z Z Z Z Z 9 Z Z Z Z Z Z Z C Z Z Z S Z Z Z Z P S S Z S P I S P I I S I P Z S Z S S I P S I S I I I E P P S P I S S I I S I I U S S I S I P S S D S S S I S I I I I I I S D W S S S I I S S I U I I I S S I W I I P S S I I S I S I I I I S I I I I S I P S S S I I Z S S S S I S S Z S S I S I S S I C S P S S S L S S I S S S A I I I S I S C Z Z S S S I C I S C Z S Z S S Z S Z Z S S S C Z Z Z C S V Z Z Z A Z Z C 9 C Z 9 Z 9 C 9 9 9 9 9 9 8 q u.uXt.5 C Z 0 0 8 8 >   ( P 9 Z Z Z q E P E q P Z q P q P Z Z P Z P Z q P 9 8 7 9 7 8 7 7 4 } Q hXhXhX",
"hXhXhXhXhXhXhX9 Z 9 8 8 0 7 9 9 q 0 9 9 7 q q 7 7 q 9 9 q 7 9 q 9 9 9 9 9 0 q 7 q 9 0 9 w 7 q q q q q P P q P q q q q q q q 9 9 O q q.g.g.j.g.g.h.j.j.j.j.j.j.j.j.j.j.j.h.j.c.j.j.j.k.j.j.k.k.l.k.k.k.k.k.k.k.k.z.z.k.c.k.k.c.j.k.c.z.c.k.k.c.k.k.c.c.z.z.z.k.c.c.c.x.z.k.c.k.x.c.x.x.c.c.c.c.c.c.b.c.c.x.v.v.v.b.b.c.x.v.n.c.b.n.n.n.n.n.m.m.m.m.n.n.n.N.b.n.n.n.N.N.n.n.n.m.n.n.N.b.n.M.n.n.n.N.M.b.n.m.n.N.N.n.n.M.N.m.N.N.M.N.N.M.M.m.M.M.M.M.m.N.M.M.M.N.n.N.N.N.N.M.M.M.M.N.n.n.n.N.N.N.N.b.N.N.N.M.N.N.m.M.m.N.n.N.N.N.N.n.m.n.N.n.N.b.b.N.n.n.b.b.n.b.b.b.n.b.b.b.b.n.n.n.b.b.b.n.b.m.x.b.n.n.n.n.n.b.n.n.n.b.n.b.N.n.b.n.v.b.b.b.b.b.b.b.n.b.b.c.c.c.k.x.b.c.c.n.b.c.c.c.c.c.b.c.z.x.k.x.x.c.c.c.j.c.M.t.0 0 Z C 8 B 8 5 >   ` P 0 9 O O O 2 O O O O O O O 2 O O O O O O O O O 9 q 7 8 0 7 8 8 7 0 ` E hXhX",
"hXhXhXhXhXhX7 E 9 8 8 8 9 7 9 7 7 9 7 7 q 7 7 q 9 9 q 7 9 7 7 q 7 0 9 9 q 7 q q 0 q 7 0 q q q q q 9 q P q q q q q P q q q q q X w w.[ Q ! ! ! W W ~ ~ Q Q Q ~ Q Q Q Q Q Q Q ~ Q ~ Q Q ! Q Q Q W ~ ~ Q Q Q ~ Q ~ Q ! Q Q Q Q ! ! Q / ~ Q ! ! ! ~ Q W ~ ! ! ! ~ ( Q Q ! / ( ( / ~ ! / ( ( Q ( ( Q ( ( ( ( / / / ( / ( ` ` ( ( ( ( ( ( ( ) ( ) ( ) ( ) ) ( ' ' ) ( ) / ) ) ) ) ) ) ' ' / ) ( ) ) ) ) ' ) ) ) ) ( ) ) ) ( ' ) ) ) ) ) ) ) ) ) ) ) ) ) ) ' ) ) ' ) ) ) ) ) *.) ) ) ) ' ( ` ' ' ' ' ' ' ) ) ) ' ) / ' ) ) ) ) ' ' ) ) ) ' ) ) ) ' ) ) / ' / ) ) ( ( / ' ) / ) ) ) ) Y / ) ( / ( ) ( Y ( / ( / ) ) ) ) ) ) ` ) ' ) / ) ) ( ) ) ( ) ( ) ) ( / ) ) / ) / / ) / / / / / / / ( / ( / / / Q / / ( Q ( ! ^ I Z 0 C C C 9 8 8 4 O   ` Z C 7         o   +   +   X     +     + + +     + 8 9 8 9 0 8 7 8 8 4 ` W . ",
"hXhXhXhXhX6 E 7 q 7 7 7 7 0 9 9 q 7 w 0 9 9 9 9 q 9 9 9 9 7 9 9 9 9 9 7 9 9 9 9 7 0 q 7 q 7 q 9 9 8 9 q q q q q q q q q q q O 9 -.q q q Z Z 9 9 q q q q q q q q 9 Z Z q Z G q Z Z q 9 q Z G 0 Z Z C C Z Z Z Z G 9 Z Z Z G Z Z Z Z Z G Z P Z Z Z Z Z 9 Z C Z Z Z Z Z Z Z Z Z Z Z P P S Z S G Z S Z S S E G S D S D G S S S W G U S S W S D W S I ^ D S U D D ^ D D D D D ^ ^ S U U U D ^ U ^ U ^ F U D D D U D D D D D D U U U U D _ D D D D D D D D D D Y D S D D D S D D D ^ U U U D U Y D D _ Y Y D U D D Y F D Y D F U Y U U D D Y D Y U F Y U U F F U U D Y U U U U I F U I U U U U U I A I U U U S U U D S S U U I U S U S D ^ D U D D D U U D S D D S S S S D D U W D D D S D S G D S S S S Z S S S S Z C C C C 8 0 C 0 5 5 4   ` P 0 4     O 8 8 4 7 7 4 7 7 7 7 4 4 4 4 2 O O       8 9 7 6 9 7 7 7 8 9 Q hX",
"hXhXhXhXhXw 7 7 7 7 7 w 7 7 4 7 7 7 7 7 w 7 2 7 7 7 7 7 7 9 9 q 7 9 7 7 7 7 7 7 7 7 q 7 7 q 6 w 7 9 7 9 9 7 q 9 9 9 9 7 7 O w } q 8 9 q q 8 q 7 9 7 9 9 8 8 8 8 8 8 8 9 q 8 q 9 9 8 9 9 9 9 0 9 8 9 9 9 9 9 9 9 Z Z q 9 9 9 Z 9 9 9 9 Z Z 9 8 9 9 9 C 9 Z C 9 9 9 9 C C C Z C C C C C Z Z Z S Z Z Z C Z Z Z S Z S C S S S S S S S S S S S S U S S C S A S S S A S S D S S D S D I S S S S S S D S D U S A A D S D F F D S D D D F F F D F D D S D D D D F S F S V D D D D S D V A U D F D S D D F S D S D D D D D S F F U S A F F F D S A S F F U U S S D F S F F S U A F U F F A F V U V I U F S F D S Y F U S S A D F F S A A D D A A S A S A A A A A S A A A V S V S V S S S S S S A A A V S S V S S B S B Z C C 8 C 8 8 8 8 5 >   ( C 0 7     O 9 7 7 9 8 8 9 9 7 4 8 7 4 7 7 2 8         8 8 7 9 7 8 9 9 8 7   ",
"hXhXhXhXE P E E E E P P P P P P P P P P P E E E E ~ W E E E E E E E W W ~ ! W E ~ W W ! W W E ~ ~ W ~ ~ ! ~ W W E E ! ~ W P ` q 7 9 q q 9 q q q q q 9 0 q q 9 9 9 9 9 9 q q q q Z q q G 9 Z q 9 9 Z Z Z G 9 Z 9 Z G G Z G Z Z Z Z Z Z Z Z Z Z 9 Z Z Z Z Z Z Z Z Z Z Z Z Z Z Z Z Z S Z Z S S S Z G I S S S P S S G S U ^ I S S U S U D D U S D D U D D U D Y D D D D D U D U U _ Y Y U D D _ U U D D U U _ D D D ^ U D D D _ Y D D Y Y D Y D D Y Y D D U Y D Y D D D Y D U U Y D Y Y Y Y Y Y Y D D Y D D D Y Y Y Y Y Y D Y Y Y Y D D D D D Y Y F F Y Y Y D Y Y F U Y F Y U Y Y Y Y U Y U F Y Y Y Y D D Y D Y Y U Y Y Y F Y F Y U F D D D D D D D D D F D D D D D S D D D D ^ D D D D D S D S D S D S S S S S S C B C 8 C C 8 5 5 5 >   ( Z Z 7     4 0 7 7 8 7 8 7 8 7 8 0 8 7 8 7 O 8 +         7 9 7 9 8 8 7 8 8   ",
"hXhXhX] r.q.e.r.e.e.q.e.q.q.e.e.e.e.e.e.e.r.d.r.d.r.d.d.g.r.g.r.r.d.d.d.g.h.g.d.g.g.g.g.g.d.d.g.g.g.g.g.h.g.g.h.g.g.g.g.g.[ q 9 9 8 q 8 O 7 2 O 2 O O e 2 > O o O 4 O 7 O 2 O O 2 O O O O O O 2 2 O O O O O O 2 O O > O 2 2 O 2 2 2 > 2 > 2 2 2 > > > 4 7 2 > O 4 > > > > > 2 2 > 4 > > > > > 7 < > 4 7 > 3 5 5 5 5 7 < 7 5 5 7 > 7 5 < 8 7 7 5 < < 5 5 7 M < < < < 5 5 5 5 5 5 5 < < 5 < < B 5 B 5 B 5 M 5 5 M 5 3 5 5 M 5 5 B B 5 5 B < B M B M 8 < B M < k k < < N B 5 k 3 k 5 M 5 5 5 < 5 M 5 M 5 M B M 8 M 5 5 5 M 5 M 5 8 B 5 k 5 k < < 5 5 M < M k 5 M < 5 5 k 5 , 5 5 < < 5 < 5 5 5 < < M 5 5 < 5 5 8 < 5 5 5 5 5 > 5 5 < 8 < < < < < < > < > < < < < , < < 5 5 5 < < > 3 < < 5 < > > > < > < > > C S Z B Z C B 8 8 8 8 4 4   ( C Z 4     8 q 8 7 9 9 8 9 8 0 9 7 8 8 7 7 7 8     2 +   + 7 0 7 7 8 7 q O   ",
"hXhXW q q q q q 9 9 7 9 9 9 9 q q q q q 9 9 q q q q 9 q q q 9 9 q q q q Z Z 9 q q q q q q q q q q Z P 9 q q q 9 q 9 q 9 9 9 9 9 8 q 8                                                                                                                                                                                               . .   .     .   .     .         .     . .   .   . . . . .     .     .   . . . . .     . . . . * . . * . . . . . . . . .   . .   . .         .   . . .   . . .   . .   *     . .   . * . . . . . . . . . . . .   . .   . . . . . . . *   . . .   *   * . .     .   . .   . .     .   *     . . .   . . .   .   . . .   .   .               .                             8 D V C B 9 B 8 5 8 5 >   ! 0 Z 7     7 0 8 8 8 8 8 8 8 7 9 7 8 8 7 7 7 8 X   9 q       O q 7 8 8 2     ",
"hXQ q q q q q q 9 q 9 9 q 9 q Z Z q q q q P P q P Z q P P q P q q q q P P q q P q Z P Z E P G P q P P q q P q P q P Z Z q q 9 9 q 8                                                                                                                                                                 .     . * . * * * * * * * - . * * * * * * * * * * * * * * * * * * * - * - * - * - * - * - * * - - - - - - - * - - * * - - - * - * * * - - - - * - * - - - - - - - - - * * * * * - * * * - * - * - - * * - - - * * * * * * - * - - * * - - - - * * - * * - * * * - * * - - - - - * * * * * * * - - * - * * - - * - - - * - - - * - - * - * - * * * * * - * * * * - * - * * * - * * * * * * * * . * * *     8 U 8 8 8 8 7 8 7 8 >   ( Z q 4     9 0 7 q 8 8 9 9 0 9 q 9 7 7 9 7 4 9 +   O q 8                     ",
"W q q q 9 9 q 8 q q q q 9 q q q q P P q P q q w q Z q 9 q Z q Z P q q q Z q Z q G Z q 9 q P q q P P q q q q q q q q q 9 q q q q q                                           .                                   .   .             .     .                 .   .               .       * . . . . * . * . . * . .                                             . . * .   .                                             . * .     .                                           * * * .                                                 . * -   .                                               * * - - - - - ; ; - - g g - - - - g ; - - - ; - ; - - g - - ; - - - g g - ; - - g g - - g g - - - - * - , * *   * .   7 I C C B 7 < 5 5 >   Q C 0 7   + 9 0 7 9 q 9 8 9 0 9 8 8 7 8 7 7 8 q     O > W +                   ",
"9 8 9 9 9 8 7 8 8 8 7 7 7 7 w 7 9 7 7 9 7 9 7 9 8 9 9 7 9 w 9 9 9 9 9 9 9 9 9 7 9 8 w 7 9 9 8 8 9 7 9 9 8 9 7 7 w 8 7 7 7 7 8 8                   X + . o o o o o . X o . . o o o                 . o o X o o . o o o o . o o o . o o o   .     .   .   . o o o o > O O O > o > o > O O > : : O X . * * * * .   .   < Z 9 C 9 C 0 Z C C C C C Z S Z S A A A < * * *       > 0 C 0 B 0 C Z C 0 C C C C Z S C S C C B * * *       O C 9 C 8 9 Z C C Z 0 C C C Z S C S C C B * * - * .     > C 0 C 8 9 Z C Z 0 C C C C Z S A Z A A B . * - .   .   > C C 9 0 C 0 Z C C C Z C C Z I Z A V S 5 * * - g = = 3 x m H 2.3.1.2.2.2.1.1.1.2.2.3.1.1.1.1.%.%.O.1 1 1 ; = 3 x x m 2.1.1.2.2.2.2.1.2.2.2.2.2.2.%.2.%.%.%.r $ & 9 S B C B 8 7 7 >   ( 0 Z 7     8 9 O     .       +       +   o 7 q X   e O E o     . X o     O   ",
"                                        +                                                                                                 O O 7 7 8 0 0 9 9 8 8 8 q 8 9 9 8 8 8 8 7 . . .   . . 4 0 0 9 8 q 9 9 0 C Z 0 0 C 0 Z 0 Z Z C 8 .           . 0 Z C C B C Z Z Z C Z Z C S S P I I A S V * . * * - .     : Z Z 8 8 5 B 8 C C C C C B A Z C S S B S A : . *     o C Z 0 8 8 B 0 B 0 0 C C 0 N S Z A S C A S < . * .   o C C 0 5 8 B 0 C B C C C B B S A C S C A S < . - .     X Z C 0 0 8 B C C B 8 0 C C B C S Z I C A S < . g       > Z C 8 8 8 B C B C B C C M A C C A S B S A < . g g # % t t &.2X*X@X-X-X-X@X=X-X*X-X-X-X-X-X-X-X@X#X=XD.p p 1 r r y s OX2X@X@X-X-X@X@X=X*X-X-X-X-X-X-X-X@X[.#X].@.p & Z S 8 8 7 8 7 >   / Z 9 >     8 8 9 [ } } } } } } } } } } ] P 9 q     O 4 Z o   O w E E   w W + ",
"                                                                                                                                        X O o o X X + o o o O o o o o o o . o O o O O   .     X > o . X o o O o : o o . o O o O o o O O : :     .   . < > o O o O > > : : : > o > : : > : > : > < < * * - g .     4 . . . . . o o . . . o o o o . . . o . o : < . *     O O . . . . o . o . . . o o o . . . X . . : N o .     > o . . o . o . X . . . o o o . o X . o . : N * g *     > o . .   . o o . . X o o o o . . . . . . : M * g .     4 .   . . o o X .   X . . o o o . . X . o , < * g l @ r r y  X#XJ.G.G.G.J.G.F.J.K.J.J.G.J.J.J.F.F.F.F.2X&.u k r r y Z.4XF.G.G.G.J.G.G.G.K.L.J.G.J.J.J.G.F.J.S.].D.i & C B B 5 5 5 > >   ( C 8 7   + 0 q W ] [ { } 8.{ -.q.} 8.} ] P 7 q     4 4 P o   o o 2 P   O P @ ",
"                  .       .   .   . X   . X   . . . . .   . .   . .       o X   .         . .     . .     . .     . o X o o o           2 X + o X o @ O o o O O O O o X O O O O O o 2   X     o > O O O o o O O O o O : > O : O > > > o > > .   .   . > > > : O : o : > : > > > > > > > < > : > < M . * - ;       5 : > O : > > > > : > : e > > , > < > > > < M . : .   : O : 4 O : > : > > > : : > > > > > < > > < N : *     > : > 4 O O : : > > : > > e > > > > < , > > N : g * . . > : > : O > > : > : : > : > > > : > < < > , M * h .     5 > > O > > O : > > : > > > > > , > < > > > M * j h & t t r +X#XL.U.W.[.E.E.E.U.E.Q.Q.I.W.[.Y.I.I.I.F.6XZ.t x r t $ _.4XJ.I.Q.[.E.[.E.U.E.E.E.P.E.W.U.U.L.K.L.+X'.y # C S B 5 0 5 5 >   Q Z 0 7     q P q q 9 q 9 9 8 Z 8 7 7 7 7 7 9 Z o   O 4 P o   . + 7 q   O P   ",
"            . . X X X   X X o o X X O X o O o o o o @ o o o + + X . X .   . X   X X . . . . . . + + . .   .   .   o X X X X 2           O X O O o o + O o o O o o o O O X o o O O o 7     .   o > O O O O O O > o O O O O o o > O : O O O > .   .     8 : X > o o > > O > : > > > : : > > : < > < M * - g ; .   . 8 O O : O : > O : > : > > : , > > < : : < k N * * .   4 : O O : O > > : : > > e : : < > < > : > : V < * . . > > o : O : > O : : > > > : > > > > > : 5 , N < g X     5 O O : O o > > o > > > > > > < > > : > 5 : V > h .   . < O : : o : > > o > > > > : < > > > > : 5 < V : h h # t i r .X#XP.E.[.E.[.E.P.Q.E.E.E.[.W.U.~.[.~.I.G.8XZ.t x t t r _.1XK.E.[.W.Q.W.P.W.U.[.~.[.E.W.E.!.E.P.J.#X].t # S S C 0 5 5 7 >   / Z C 4     q Z q P q G G W P 9 9 7 9 9 9 8 7 q     O > E o   X o 2 P   O q o ",
"  + .     + O O O O O O O O O O X O 2 O O O O O O O O O O O O @ o o X O O X O O O O O O X O O O O o o o O O o     O O O 2 7 7     .     O X O O o O O O o O O O o O o o O X O O O o 7   . .   o > O O O O O O O X o > X > o o O O o > O O 4     .     7 o : > : > > o > : : > > > > > : > > > < < V * , g g .     5 > : > > > : O > > > : > > > > > > : , < < M . *   . > : > : > > > X : > > : : > > > : 5 > : < < N < *     > : : : > : O O : 4 : : O > > > : < : > < < N < g *   . 4 O > : 4 : > : > < > : > < : < : > > , 5 , V : l .     8 > : : 4 > : : > > : : : 4 > > > > > , < < V * l h @ t t t .X@XE.^.^.!.!.W.{.W.(.W.!.{.!.{.[.R.P.E.J.5XZ.u z t i t _.8XK.^.{.!.W.W.!.W.(.W.W.{.[.^.^.W.E.E.P.#X'.u # Z S B 8 8 5 5 >   ( Z 0 4   + 9 Z 8 q q P P Z 9 9 9 9 0 8 9 9 9 0     O 4 P o   X X 7 G   O q o ",
"q ` ! ! @ + O O O O O 2 O O 2 2 2 O 2 7 7 O 7 7 7 O 2 2 7 O 2 +           + +         + o                         2 O 2 2 O 9           > X O O O o O O O O > O O O O O O O O O O O 4   . .   o 7 O O > O > O O O O > o > O > O O > O O O 8 . . .   . 7 o > > > > : : > > > > > < > > < > < , 6 < k : - g ; . . . 8 o > O O O > O : > > > > > 5 > > < 5 < < < V . :   . > > 4 O : o > O > : > > > < > < > > > < 5 : N , *   . > O 4 > O O 4 O : : 4 4 4 < > < : 5 < < > : N > h *   . > o > : O : > o : : > > > < > > > < > < 5 : V : h .     7 o e O O O 4 O > > > 4 < > > > < > < < 6 , N : c h @ t d i oX-XE.!./.!.{.!.{.^.{.{.{.}.{.[.[.{.E.E.K.8XZ.u x t t t `.8X).W.{.!.{.{.{.{.{.{.{.}.}.^.!.^.E.E.E.@X].u $ S S C 5 B 5 4 >   / Z 0 7     0 P 0 q 8 9 0 8 0 9 8 0 9 9 7 7 7 q +   2 O P +   . X e P   & q + ",
"q q q W O   2 O e O 7 O % 4 7 2 2 7 7 7 7 7 4 4 2 2 7 2 7 O 7                                                     7 O O 7 O 9     .     2 O O o o O o O O O O O O O O > O O O O O > 7   . .   o > O O X O O O > O O > O o > O > O O > O O 8 .   X   . 5 o > e O o > > > > : > > > > > < < < < 5 < V * , g l .     5 + > e : O > > > > : 5 > < > > 5 < > < 5 5 V * *     > O o > e > O 4 > > > 4 > > > > < 5 < : < < A k :     > O O > e O : 4 > > : : > 5 > > < > > < < < V k g *     > O O > > O > > > e > > > > > > 5 < > > 5 , V , h .     5 o > 4 O o : > : : O 4 > < > > < > < < 5 5 V : c h @ t s u .X-XW.^.^.}.{.{.!.{.}.}./.{.}.}.{.(.{.[.K.8XD.i x t i u `.9X).(.^.}.{.{.^.^.^.}.}.}.}.*X/.^.^.^.R.@X+Xu $ S S V 5 8 < 4 >   Q C 0 4     0 q 0 0 9 0 0 8 0 9 8 8 8 0 4 7 9 q     7 O W o   X o 7 q   O q o ",
"q 8 8 P O + O 2 2 O 2 7 e 2 7 7 2 2 2 O 4 4 7 7 w e 2 2 7 O 7     X . . . o @ X o o + + @   o o X X X X . . o +   7 7 7 O 2 9 +         > o X O O o O X > O O O O > O O O O O 4 O > 7   . .   o > O O o O > o o > O > > > O > O > > O O O 7 +   .     5 > > > > > > : > : : < 4 4 > : < < > < < < N X , g g .   . 8 > > > O 4 : > > : > > > > > > < > < < 5 k k : = .   > > : > O 4 : > > : : > > 4 < > < 5 e < < < N < = .   4 > > O > > : O : > > 4 : > 5 e > < < 5 5 < N < l X . . 4 > > O > 4 : > > : > < > > < e < < < < < < V > c *   . 7 > > O > : 4 : > > > > > > > > < < < < < < N * j h @ t d i oX-X!.%X/.*X^.{.}.}.}.%X}.:X}.}.}.}.W.[.W.0XD.p x t i i _.qXW.}.}.*X{.^.{.}.}.%X}.&X}.*X/.$X!.!.!.&X+Xa $ S I C B 8 7 > >   ` 0 0 4   . q P 9 8 9 0 7 8 0 9 0 8 0 0 9 8 9 q     O O E +     X 7 Z   O q . ",
"q 7 7 q O + 7 O 2 e O 7 2 O + + O O e O 2 @   @ 7 7 2 7 w 4 9 O + + @ + o o o O e X @ + + @ O + o o o X + @ +     7 7 2 7 7 8   .       > O X o O o > O X O O O O O O e O O O > O O 7   .     @ > > O O O O O > > O > o > o O O O O > > O >   . X   . 7 > O O > > > : > > > 4 > : < 6 < > 5 < < k V * - g l .   . 5 > O O > > > : 4 > > : > > < > 5 > < , 5 < V : * o   > 4 > O > > O : > > : e > < < > 5 < < < < < N < ,     > > > O > > : > > > > > > 4 > < < < < < < < N < h * . . 4 O 4 O : > : : 4 > > : > > < > < < < < < < N : h X   . 4 : O O > 4 : > > > > > > < > < < < < < 5 < N : c c @ t s X.oX-X!.%X}.%X*X$X*X$X1X:X/.}.[.{.}.{.(.W.).0XD.X.z t i p `.qXR.$X}.%X$X*X%X{.:X1X&X$X!.W.$X$X^.E.E.-X+Xp r A A 8 8 7 5 7 >   ( 0 0 4   . 9 0 7 0 0 8 0 8 9 9 9 8 8 q 7 7 8 q o   O > E @   o X 2 q   2 q . ",
"8 7 7 q @   7 O O % 7 2 & e 9 ! } 8.} 8.d.8.] E @ e 9 7 7 O E } ] ` ` ` ! ` ` ] ] ] ] ] ] ] ] ] ] ] ! | ` ` P 7   7 7 2 O 7 9 +     .   7 . > o O O O X O O O O O O O O O O O O 4 o 4   . .   o > O > O O > O > O O O > O O O > > > O O O 7   . .   . 7 O > O > 4 > > > > > : > < > > < < < , 8 < N : , g l . .   > > : > > > > > : : > : < > > < < > < < 8 k V * : .   O > > O > > 4 : : : < : : 4 > > > < > < 5 < N k * . . O > > > : > 4 : : : > : > 5 > > > > < > 5 < N 5 j *     4 : > O > 4 > : O > 5 > > > : > < < > < 5 < N , v .     4 O > : > > 4 > O : < e > > > e > > < > 5 < N : c c # t s p oX-X^.%X}.}.$X1X1X$X;X1X;X&X}.}.}.{.{.{.R.0XA.X.z t s p `.qXR.$X*X{.$X%X1X%X;X:X:X;X}./.$X}./.^.^.2X+XX.r S S B B 5 5 < O   / Z q 4     9 P 8 8 7 8 0 0 8 8 9 8 8 0 0 8 7 q     2 O Z +   o X 7 q   O q   ",
"8 7 8 P O   2 2 7 2 O + q Q W W 7 7 7 w 7 q | 8.q.q + 7 7 7 4 7 2 2 7 7 2 w 2 7 7 4 O 7 O 7 2 4 2 7 7 7 7 2 2 >   7 7 O 2 7 9       .   > o O O O o O O O o O O O O O O O O O O O > 7   . o   o > O O O O > O O > O > O > O O O O O o > > 7   . .   . < > > O > : > > : : 4 : > > > < < < < < 5 < V * ; g l X   + 7 > > > > > > > > o 4 4 : > > 4 , < < < < < N : : .   > > : > O > > > > > > > > > > < < : 5 < < < N < * .   O > > > O > > 4 4 > > > > > > > , > < 5 < < N < h * .   4 O 4 4 O : > 4 > : e > > < > 5 > < < < < < N < v .     5 O > > O > O 4 > : 4 > > > > 5 < < < 5 < < N , n c @ i s a 3X-X^.&X&X$X;X;X;X;X1X:X;X&X4X&X&X{.&X{.R.wXA.#.z t i i `.qX~.*X&X$X;X1X;X;X:X1X;X;X1X;X&X$X*X$X^.2X.XX.r S S B 8 5 5 > >   ( Z C 4   + 9 q 8 7 0 0 0 0 7 8 8 6 0 7 7 7 8 q     2 > Z o   o o 2 q   2 q   ",
"8 7 7 q o + 7 O 7 o   ~ W 9 7 7 7 e 2 2 e e e w E j.! + 7 7 4 e 2 O O O O O e O 4 O 4 2 O O 2 O 2 e O O O 2 O O . 2 7 O 2 7 q   .       2 o > O O O O O X X O X O O O O O O O > O > 4   o     o 2 O O O O O O O o > O O O > > O O > O O O 8 . o X   . > O > > : O > > > > > > > > > > > > 5 < < < V * - g g . . . < O > O > o > 4 : : 4 : 4 > < > < < 6 < < < N : *     > O 4 O > : : > : > > > > > < > > < < 5 < < N < , . . > O > O > O : : O > : > > > < > < < < 5 < < N k h :   . 4 O O O : > O > : > > : > > > > > < 5 6 < < M , c . . . 4 O > > > : : : : : > : < > > : < < < 5 5 < N : n b @ i p X.oX2X*X1X$X;X4X4X1X4X4X5X4X5X5X5X1X:X}.{.(.tXD. .z t p p `.qX(.;X&X&X:X5X1X4X4X9X4X4X9X9X1X;X&X$X!.2X.X .r A S B 5 8 5 > O   / P q 4     0 0 7 9 7 9 0 0 0 8 8 q 8 7 0 8 8 q +   O O E X   o X 2 q   O q   ",
"7 0 7 Z O + 2 2 O   ~ P 2 9 7 2 8 q 9 w 7 > 4 8 e + e.E @ 7 2 e O O O O O O 7 O e X O 2 7 O 2 O 7 O O 4 2 O 2 O + 7 7 7 7 7 q +   .     2 X O O O O O O O O O O 4 O O O 4 > O O > o 7   . .   o 7 > O 4 O O > O O O O > > > O > > O > O X 8   X . . . 5 > O > > O : O > > < > > > < > < < 5 < 5 < N , - h l X   o 5 > > > > : > : > > > 5 > > > < < < < < < < N * , . . > O > > > O > : > > > > : < < > < 5 < < < < V < : . . > 4 > > > : > > > : < > > > 5 > < < < < < < N < h * . + > > > > > o > > > > 4 > > < > > < < < < < < N , n X   . 5 > > > > : > : > > > 4 : > < > 5 > < < 5 < N , n c $ i s #.OX2X$X&X%X;X9X0XeXeX0XqXtXwXtXwX5X:X}.}.^.yXA...m t p X.|.qX/.;X$X&X1X0XqXqXqXqXwXwXwXqX0X1X&X}./.4XoXX.t V S B 8 5 7 > >   Q C Z 4     0 q 4 8 8 9 q q q 9 8 8 q 7 9 8 8 q +   O O q +   @ O O q   2 9 X ",
"9 7 7 q O   O 2 + w P 2 7 7 9 9 7 O + O O 4 7 O 7 7 2 8.7 O 7 O 2 e 2 7 2 2 O 4 7 2 2 O 2 O O O O 2 7 O O 2 O 2   7 O 2 O 7 q     . .   2 o O O O O O O O O + O O O O > O O > O O O 7   . o   o 7 O O O > > O > > > > O O O O O X O O > O 8     .   o 5 O > > : : > : 4 > > > > < > < < > < < 5 5 N , - h h .   o 8 o > > o > O > > : > > > > 5 < 4 > < < 5 5 N * , . . 7 > O > : O O > > > > < e > > 4 5 e < < 5 > V g = . . 4 O O : > O O : > > > > > > e < < > < < < < M k j * . X 7 O > > O > : > > > > > > > < 5 < > < < 5 < N , n :   . 8 X > > X > > > > > > 4 > 4 > 4 < < > < 5 < M , n c r i s  .7X1X&X:X4X9XwXtXpXpXpXyXyXpXyXtX5X;X1X;X{.yXS...m i s p  XqX$X;X1X4XqXiXiXaXpXiXiXpXaXtX0X1X:X;X%X4XoX .r V S B 5 < 5 < >   / 0 C 5   . 0 P 8 8 8 0 0 o         7 8 7 7 7 q X   2 O E o   + o 7 q   O q + ",
"7 q 7 q @   O o o q 2 8 7 9 7 +       +     @ 4 w O 7 Z Q + 7 2 O e w O 7 O O 7 O 2 2 O e O 7 7 7 O 2 O O 7 7 O   7 7 7 O 2 q   .       > O O o O O O O O O O O O O O O O O O O O > 7   . .   o > O O O O O O O O O > O O O O > > o O O O 9 + X o . . 9 O > > o > : 4 : > > > > > > < < < < > < < N , ; h j o . o 7 > > > > > > > 4 > > > > > 5 > 5 < > < < < N * = X   4 4 > > > > > > 4 > : 4 : > > < 5 > < : < < V k * . . 7 > O O > > > > 4 > e > > > < < 5 < 6 < < < V k v = . . 7 > > > > > > > > > : > > > > < 6 < < > < < V , b . . . 8 O > > > > > > > > O 4 > > 4 < 5 < < > < < V , <.b $ p s  .3X2X%X&X9X0XtXpXpXpXaXsXsXsXsXpX0X1X;X;X}.yX`.o.m i s a |.wX/.&X1X8XtXiXpXpXpXsXaXdXsXaXwX4X:X:X%X9XoXo.r Z S C 5 7 5 > O   Q 0 0 7   . 9 q 9 0 7 8 0   o O >   7 8 7 7 7 q     O O Z o   o o 7 q   O 9   ",
"7 7 7 q o + 2   7 9 7 7 9 7 + + J J L L J e   X 7 > O 2 ! 2 o 7 2 2 O 2 7 4 O 4 2 2 O 2 2 O w O O O 2 4 2 7 O 4   7 2 O 2 2 9 +     .   2 O O O O > O O O O O O O O O O > O O > O > 7   + .   o > O O O > > > O O 4 O 4 O > O > > > > O > 9   X .   . 7 O > > > O > > 4 > > > > > < > 6 > < < 5 < N , g h j .   . 5 O > > O > o > > > : > > > > > < < < < < M V : : .   > > O > > o > > > > > > > > < > > 5 < < < > V k : .   > > > > > O > : 4 > > > > > > > > > < < 5 , V k h *   . < O > > O o > > > > : > > > < > < > < 5 5 , V , b .   . 7 > > > O o > > > > : > : > < > > < 5 < 5 < N , <.n $ s s ..oX9X&X1X1XeXpXdXaXsXdXsXdXfXsXyXwX4X:X;X}.pXS.o.m i s  .|.yX*X1X4X0XyXsXsXsXdXdXdXdXdXaXtX8X4X&X%X4XoXo.r S S B 8 5 5 5 >   Q C 9 7   + q q 8 8 8 8 9 . > 7 7 o 8 q 7 7 9 q +   O 2 q O   o o 7 q   O q . ",
"7 7 7 q O   O + 9 7 7 7 9 + e T R 4.7.5.4.R e   O 7 7 O Z q   O 4 7 7 O O O 7 e 2 O 7 7 O 2 7 O 7 O O 7 O 2 7 O   2 7 7 2 7 9 + . .     4 O O O O O O O O O O o O O O O O O O O > O 7   . X   o 7 O O O > O O O O O > 4 > O O > O O > > O 8 X   .   . 7 > > O > > > > > : e > > : > < > < < 5 5 < N , - h h X   . 8 > O O > > > > > : e > > > < > < < < < < 5 N , ; .   > > > > O > > : > > > > 5 > > > < > < < < < N k ;   . 4 > > O : > > o > : : e < > > < < : < < < < N k v =   . 7 o > O > > > > > > > > 4 > 5 < > < < < 5 < N k c .   . 7 O > : O > > > > > > > > > > < < < < < < 5 N ; b b $ p s ..7X9X;X1X1XiXpXsXfXdXdXfXsXsXsXpXqX4X1X:X{.yXA...m d  . .|.yX%X1X1XwXaXaXfXdXdXfXdXdXdXpXtX4X1X:X;X2XoX..r A S B 8 7 5 > >   Q C Z 7   + 0 q 8 8 7 0 0 + O 7 4 O 7 0 7 7 7 q o   O O q O   @ + 2 q   O q + ",
"7 7 2 q O   + @ 9 7 O 9 e + 4.7.4.5.5.6.6.4.R X   7 2 2 7 W   O O O 2 2 2 2 e 2 7 O O O 7 O 2 2 7 7 O w O 2 O 7   2 2 7 O 7 9           > O O > O O O O O O O O O O O O O > O 4 O O 7   .     X > > O > O > O > 4 O O O O O O O O > > O O 8 .   o . . 7 o > > > > : O > > < 4 > > 5 e < > , < < k N ; g h h X   . 5 : > > > > O > : < > < > > > > < e : < < M N * , . . > o > > > > > o : > > > > > > < < , > < < < V k ; . . > O 4 > O > > : > > < 4 > > > > < < < < < < N M v : . . > : > > > > : : > : > 4 > > e : < > > < < < V k b o . . 5 o > O > > > : > < e < > > < : < < > , < M N - <.<.$ i #...7X4X:X8X9XwXaXdXdXsXfXsXdXfXsXpX8X4X4X;X}.yXA...m t s  . XwX;X4X4X8XsXaXfXaXdXfXaXdXdXpXwX4X4X1X*X4XoX..r A V B B 5 5 < >   / C Z 7     8 P 9 8 7 7 8 o O 7 7 O 8 q 7 7 8 q +   2 > q +   o > 7 q   7 9 . ",
"7 7 2 q o     O 8 7 4 q + 6 4.4.6.6.6.5.6.7.4.J   O O 4 7 W   @ 7 O 2 O O 7 w 2 O 2 e O O 7 2 O O O 7 2 7 7 O O   2 2 O 2 2 7 +     .   4 o O O O O O O O O O O O O O O o > O O O O 7   . .   o 2 O O O O O O O > O > O O > > O > O O O O 8 .   . . . 7 o > : > O > O : > > > : > > 4 < > < < < M V , ; h v . . o 7 > o > : > > > > > > > > > > < < < < < > M N > ; . . < > > o > > > > > > : > : > > < < > < < < 5 V l =   . > > O O > > > > : > > : > > < < < > < 5 < 5 V k v : . . 4 O > o > > > > > > : > > > > < < > < < < k N < c . . . 7 O : > > > : > > > : > > < > > < > < < < < N , b b r i s ..OX9X:X4X9X0XwXaXdXdXdXsXfXdXdXaXwX5X&X;X{.yX`...m i p p  XyX&X1X4X5XwXpXdXfXdXfXdXfXdXdXiX0X:X;X%X4X3X..r V S 8 5 8 5 > >   / C Z 7     0 P 4 7 9 9 0 . O 7 4 O 9 q 7 8 7 q     2 X q .   o O 7 q   2 q . ",
"9 7 e q o     2 8 7 4 q + J 4.T 6.6.6.5.6.R 4.L + o 8 O O P +   2 7 7 O 7 2 O 2 w e 2 7 4 O O w 2 O 7 e 2 O 2 O   2 O 2 2 2 9     .     4 O O O O > O O O O 7 O O O O O O O O 4 O O 2   . X   X > O O O O > O O > O > O O O > O > O O > O 8   . . . . 8 > O > O > : > > > > > > > > < : < 5 , < < N , g l j o   . 8 > > > > O : : o > > > > > < > : < < < < M V * , .   4 > > > > o : > o > > > 4 < > > : < 5 < < 5 N M : . . 4 > : 4 : O : > : > > > > > > > > < < < < < V < v * . . 5 O > > > > O : o > > > > > < > : < 5 , < < V < v X . . 5 O > > > o > > o > > > > > > > : < 5 < < M V , <.b $ d #...7X9X1X;X1XeXpXsXsXfXdXsXfXdXsXsXtX5X4X:X%XtX`...m i s  . XyX&X1X1XqXwXaXaXfXfXaXdXfXaXdXtX0X4X1X;X4X.X..r S S B 5 5 5 > >   Q 0 0 7     0 q 7 9 7 8 8   4 8 4 o 8 q 7 7 7 q X   O 2 q o   o o 2 q   2 q   ",
"7 e O 9 +     2 8 7 O W   J 7.T 7.6.5.6.5.4.R K + + 7 2 O E     2 O 2 2 4 O O O 7 O 2 2 2 O w e O 4 O 2 O 7 O 7   2 O 7 O 7 q +   .     2 o O O O O O O O O O o O O O > O O O > > O 7   X .   o 2 > O > O O > O > O > > O O > > O O O > 4 7     . . . 7 > > > > > : > > > > > > < < < > < 5 < 5 M N , g g j . . X < o > > > O : 4 > > > > < < < < < 5 5 < M 5 N * , . . O > > O > > : 4 < > > > 5 > 5 < < > 5 < M 5 N k , . . > > > O > > o 4 > > > < < > 5 < > > 5 5 M 5 N k n * + . > O > > > 4 : > < > > > < > 5 < < > 5 5 M 5 N < n . . . 4 O > > > > > > > > > : < < 5 > < 5 5 < N M N , <.b $ i s  .3X9X;X1X9X0XpXaXfXsXsXsXdXfXaXaXwX4X4X1X;XiXS...z i s s |.iX%X1X1X9XpXaXdXdXaXsXsXfXsXaXiX9X4X1X1X9XoXo.r A S C 0 5 5 > O   ( Z Z 7   + 9 0 8 0 0 4 0 X O 7 7 O 9 9 7 8 7 q o   O 2 Z o   o X 7 q   2 q   ",
"w 2 4 q O     o 9 O O q 2 e K T 7.5.7.4.R R L 6   O 7 X 7 q     O 2 7 O 7 O 7 7 e 2 2 O 2 O e O 7 O 7 O 7 O 2 O   7 2 2 7 O 9 +     .   2 X O O O > O O O O O 7 O O O O O O O O O O 7     .   o 2 O > O o O O O O O O O O O O > > O O 4 > 8   o . .   7 O > > O > > > > > > > 5 > > > 5 < < < M 5 N , ; h j X     7 : > > O > > > > > > > > > > < 6 > < < k M N * > . . > > O > O o > > 4 > > > > > : > 5 < < < < < N k , . . > > O > O > > > > > > > > > : > 5 < , < < < V M n * .   4 : > O > O : > > > > > > > > : 5 < < < < < N k c .   . 5 : O > O > > > > > > e < > : > 5 < > < 5 M V , b <.$ i s ..7X9X:X:X9XeXiXpXsXdXdXdXaXpXsXpXtX4X1X:X{.pXS.o.z t s #. XwX;X1X4X8XiXpXaXdXdXdXsXpXsXaXtX0X1X1X&X9XoX..r B A 5 5 5 4 < o   / C 0 7     9 P 4 0 0 8 8 + O 7 7 O 8 q 7 8 8 q     O X q o   o X 2 q   O q   ",
"7 7 O 0 O     o 7 7 4 9 Z + T 4.T T 4.4.4.L L e   7 4 % 7 q     w e e 2 7 4 7 O 2 O O 7 O 2 2 2 O 7 2 2 2 O O 7   7 2 7 2 2 9   . .     O O O O O O O O O 7 O O O O > O O 4 4 O O O 4   . .   o 4 O O O O O 2 O > O O > O O O O O O O > > 7 + . . . o 5 : > > > > > : > < > > > > > < : > < < , M N , ; g j .   . 8 O > > O > > > > > > > > > > > < > < < < 5 N * ; X   4 > O > 4 > > > : > > > < > < > < > < < < < V k * .   > > o > > > > > > > > > > > > > < > < < < < N M j > . . 5 : o O > : 4 > > > > > > > > < < > < 5 < < N < v X   . 7 o > O > > > > > > > > > > > < < < < < < < N , b b # i s ..3X4X&X:X1XeXiXaXsXpXpXpXpXpXtXiXwX;X%X&X/.yX`.o.z t i s |.wX$X;X1X9XtXpXaXpXiXaXaXaXiXwXiX4X%X&X$X4XoXo.r S U M 8 8 5 > >   Q C 0 7   . 0 0 4 4 0 8 9 o O O 4 O 8 8 7 7 7 9     2 O P +   X o O q   O 9   ",
"7 7 7 9 o       7 7 7 7 ! 2 e T K T K K K J 6   o q O e 7 7   . o O O 2 O 7 O 7 2 2 e O e 2 2 O 7 O O 7 O 2 2 O   7 2 O 2 2 9       .   7 O O O O O O O O O O O O > O O O O O O O O 7   X +   O > > O > > > O O X X > O O > O > > O > O > 8   . o   . 7 X O O > O : > > > > > : < > < < < < < 5 < N , g h l X . X 5 o O > > > > > > > : < > < < < < < > M < M N * > .   > O O > > > > > > > : < : > > < < < > 5 k < V k , . . > O O > > > > > > > > > : < < < < 5 < < 5 < N k n * . . > o O > > : O > > > > < > < < < > < < 5 < < N k v . . . 5 o O > > > O > > > : < > < > < > > < < 5 , N , b b & i s X.3X4X}.&X&X9XwXpXtXpXiXiXtXpXpXwX9X;X}.$X/.yX`.o.z f p p |.tX/.&X%X4X0XpXiXpXiXiXwXpXiXiX0X1X%X{.$X4XoX..r C S B 5 5 4 > >   / C 0 7     9 0 8 9 9 4 9 o O 8 2 O 9 8 7 7 9 P +   O O q X   X o 7 q   7 q . ",
"8 7 4 9 @ +     O 7 7 O q ! O + J J K J J 6   o q 2 O O 8 o   o o O 2 2 O 2 4 O 2 2 7 2 O 4 O 2 O 7 O 7 2 O O 7   7 2 7 O O 8     .     4 o O O O O O O O O O O O O > O O O > O O > 7     X   o 4 > > O O O O O O > O O > O O O > O O O O 8 .   .   . 5 O > O > > > > > > > > > 5 < < < < < 6 < < V , ; g l .   . 7 > : : O > > > > > > > > < > < < < > < < < N * , X . 4 O : > O > O > > > > > : < < > < 4 < 5 < , A k : . . > > o X > : > > > : > 4 > > 5 > < < > < < , V k c =   . 7 O O > > : O > > > > < > < < > < 4 < < < , V < v . . . 5 > : O > > : > > > > > > < > < < < < 5 < < N , b b $ i s  .,X1X%X%X%X9X0X0X0XwX0XwXqXwXqX0X;X;X$X$XR.eX`. .m t p p  X0X$X%X%X1X0X0X0XiX8XeXwXeX0XqX1X;X&X/.{.-X3XX.r S S M 5 5 4 > :   Q 0 0 7   + 8 0 8 7 8 8 9 + X 9 7 O 7 9 7 7 7 q +   O 2 q +   o O 7 q   O 9   ",
"7 4 4 9 +   +   + 7 O 7 7 W } 4 + o e O .   O P 8 O O 2 7     X O 2 O 2 O 2 7 O O 2 O 2 2 O 7 O 7 O 4 O 7 O 7 O   O 7 O e w 9 +   . .   > O O O O > O O X 2 O O O > O O O O O > O O 4   . .   o 4 O O O O O O O o O O O O O > > O O > > > 7 . . . . . 8 > o > > O > > > : > > < > > > < > < < < g V , ; h l X . . 7 O > > > o > > > : < > < < > > < > 5 < 5 M N * ; . . 4 > O > : O > > : > > > > 5 > < < : > < < < N k * . . > > : > > O > > > > > > < 5 < > < > < < < 5 V k j , . . > O > o > O 4 > > : > : 4 4 > < > > < < < k V g v .   . 7 O > O > O > > O : < > 5 > < > < > > < < M N , c n % i d  .3X2X{./.$X&X;X1X9X4X4X8X1X8X4X4X$X}.{./.(.0XS.#.m t s p  X0X(.{.}.&X;X1X1X9X1X8X1X8X1X8X;X$X}.^.{.2XoX .r S S C 5 4 5 > >   / C 8 4     0 0 8 7 9 4 0 . O 7 7 O 9 9 7 7 7 q o   O O q o   o + O q + O q . ",
"7 7 4 q O   o     O 7 7 7 O W r.} 7 O e 7 | ! 8 O 7 O 8 O   X o O 7 O O 2 7 2 7 e O 2 O 2 7 O 7 2 7 O 7 2 2 7 O   2 > 2 7 O 7     .     7 O O O O O O O O O O O O O O o O O O + 4 O 4   . .   O 7 O O > O O O > O O O O O > > O > O 2 > O 8     .   . 8 O : o > O > > > > 4 : < < 5 > > > < < M < V , , h l .   . 5 > o > X > > > > > > : > < 5 > < < > < 5 M V : , o   > > O o > > > > : > > > < > 5 > > > < < 5 < A k = .   4 > O O > > > > > > > : < > < < > < > 5 5 < V M c * . . 4 > O > > O > > > > > > > > < > < 4 < < < , V < v X   . 5 > O > > : > > > > 4 : > > 5 > > 5 < < 5 < F , n b # i s a 3X4X&X}./.$X$X&X&X;X4X;X&X1X&X1X&X;X$X$XR.qXS. .z t s u |.eX&X$X}.$X}.%X;X;X4X1X%X1X&X;X1X&X%X$X^.-XoXX.r A A B 8 5 4 > O   Q 0 0 7     0 0 0 0 8 7 9 + o 4 7 O 8 9 7 9 7 q     O O q o   o @ O q   2 q   ",
"7 7 e 0 @   X .   + 7 7 O 7 @ + ] g.j.h.q.P o 2 2 e 9 w     o O O O 2 2 O O O O w O O 2 2 O 4 O O O 7 O O 2 O O   7 7 7 2 4 w + . .     2 O O O O O > O O O O O O O 4 O O > O > O O 4   . o   O 4 O O > O > O O > O O > O O O O O 7 O > O 8     X .   > > O > > > : O > > : > > > > < < 5 5 < < < V , - h l o   . 5 > > > > X O O > : > < > > > > 5 < < < < M V * : .   > : > > O o > > > > > > > > > < 5 < < 5 < < V M * .   > > > > o > O O > > : > > > > > < < < < 5 , A k h - .   2 O > O > : > O > > : > < > > < < < < 5 < < V < h + .   4 : > O O O > O > > : > > < > < 5 < < < 5 < N , b c $ i s X.oX-XR.%X}.&X%X&X1X:X:X;X%X1X1X;X&X%X}.^.R.wXS. .z t s p |.9XR.}.$X%X%X%X;X:X:X;X&X;X9X;X&X&X$X^.R.-XoX .% A S 8 M 7 5 < :   Q 0 9 4     0 Z 8 7 8 4 0 o O 7 7 O 9 8 7 7 7 q +   O 2 q o   o e O 9   O q o ",
"7 7 O q +   O o       7 7 2 O 2 X   X X   O e 2 w 7 8       o o O 7 O 7 2 O O O w O 2 e 7 O O 2 2 O 7 O 7 7 O O   7 7 O 7 7 7 +     .   2 o O O O O O O O O O X O O o > > o O O X O 7   . o   O > O O > O O O O O > > O > > O O o O 4 > O 8 .   o .   7 : > O O > > o > : > > > < > < < < > > < < V , - h l       8 > : O > > : > > : > > < > > < : < > < < < V * , .   > > > O > > > O > : > > > < > < : < < < 5 < N k , .   > > O > > > > O > > : > > > > < : < < < < < V k v : . . > > : > > > > o > : > 4 > 4 > < : < < < < < V ; c X . . 2 > : O > > > O : : > > > < > < > < < < < < V , n b # t s p >X-X(.{./.}.{.%X&X*X;X:X%X%X;X%X}.^.}.{.R.0XA.p z t d i |.9XR./.^.$X{.$X*X$X;X;X;X%X;X&X$X/.$X/.W.-X.Xp r C S B 5 5 5 > >   Q 9 0 7   o 0 0 8 4 8 8 0 + o 7 7 o 8 9 7 7 7 q +   O o q X   X o O q   2 q + ",
"7 2 7 q @ + O O .       X 7 2 O O 2 X O 2 2 2 2 7 O       + o o O O 7 O 2 2 7 4 O e 2 O O 7 O O O 7 O 7 O 7 7 2   O 7 O O 7 9   . .     7 X O O O O O O O O O 2 O O O o O O > > O O >   o o   O 7 > O O O O O O O O O > O O O 4 > O > O O 7 +   X   . 7 > X > > > o > > > > < > < > > > < < < M M V , , g l : . . 5 > : > O > O > : > > > 4 5 < > < > < 5 5 M V = , .   > > > > > O O > > > > > > 5 < > > < > < 5 , A k , . . > > O o > > o : > > > > > 5 > > < 5 > < 5 < A k j : . . > O > o o > O > > : 4 > > 5 5 : < 4 > < 5 < A k v . . . 2 O > O > > O > > > < > < 5 < > > > > < 5 < A , n c # t t i OX-X(./.{.}./.$X$X$X&X%X}.$X%X/./.}.^.W.K.0XA. .z t i u |.8XR./././.$X{.$X$X;X&X$X%X*X}.^.$X/.W.E.@X.XX.r A S 8 M 5 5 > >   / 8 C 7     7 9 0 8 4 4 8 o O 8 > O 8 7 7 7 7 9     X o q X   o o 7 q   O q   ",
"7 O 2 q o   O o + .       o 2 7 7 7 2 2 7 7 7 2 X         @ O O e 2 2 O O 2 w O 2 2 7 O O 7 O 7 w e 7 O O O 7 O   2 7 O 7 4 8           7 O o o O O O O O O O O O > O O o O O O 2 O 7   . o   O 4 O > O O O > X > O O O o O > O O > > O > 7 .   :   . 7 O > > O > > > : > > : > < > > 5 > < 5 < < V , , g g .     8 > > > > : > > > : > : > > > > < > < 5 < < N * , . . > > > o > : > O > O > o > > > > < > < < < : N k , .   > 4 : O > > > > O > > : > > < > 5 > < < < : V < j * .   7 > > > > o > > > 4 : : > > < > 5 > < 5 < , V < v . . . 5 O : > > : > > : : 4 o > > > > < < < 5 < < V , v c @ t d u oX-X!.W.$X/.}././.{.}.(.W.%X^.{./.%X^.^.).0XD. .x r i u `.8X~.!.$X}./.}././.^.$XE.$X/././.$X{.!.^.=X.X .r A S 8 5 5 5 5 >   W 0 9 7     0 0 7 4 0 4 0 o o 7 7 O 7 9 7 8 7 q +   O O q X   X o O q   O q + ",
"7 2 2 9 O . O O X o             o O O o O O +           + O O O O 2 2 O 2 O O 2 O 7 O 2 O 7 7 O O 2 2 e 7 O 4 4   2 2 7 O O w + X   .   7 X O O O O O O O O > O O O O o > O O O O O 7   o     O 4 O > O > O O O O O > O > > O O O 7 O > > 7 .   .   . 8 > > O : > > > > > > > > > > < < < < 4 < < N , - g g X   X 7 O O O > > O > > O > > > < > > < 5 < < < M V : ,   . > > > > O 4 : > : 4 : 4 > > < > > 5 < < 5 5 A k * . . > O 4 : > > : > > > > > > > < > > > < < 5 < V g l = . . < O > o > > : > > : : > > > > > > 5 < < < < V ; c X . . 2 O > > O > : > > O : < > > > < > < < < < k V * n c & t i u .X@XE.E.!.^.}.W.{.^.{.}.*X^.{.{.W.*X!.!.K.0XA. .x t i t C.8XK.E.W.!./.^.!./.^./.$X/.!.$X!.!.{.W.E.@X.Xp r A A B < 5 > > >   Q 0 9 4     9 Z 7 0 4 8 0 o o 7 7 O 8 9 7 7 2 9     O O q X   X o 4 q   7 q   ",
"2 O 7 q o   O O o o . .                               . X X O 2 2 7 7 o 7 O e e O 2 O 7 2 O 7 7 O 2 7 O 2 2 4 O   7 7 O 7 7 7 +   X     7 O O O O o O O O O O O O o O O > O O > O . 7   o     o > > O O O O O O O > O > o O O O O 4 4 O O 7   . . . . 8 O > > > > : : > > > > > 4 > : > 5 5 < < < V , , g l . . . 8 o > O : : : > > > > > > < > > > < > < < < V : = o . > > > > > : O 4 > > > > > > > > < > < > 5 < V k : . + 2 : > O > O : : > > > > > 5 > > < < > < 5 < V k j * X   7 o > > > : > : 4 > > > > > > : > > < < < < V , v o . . 8 O > > O : > > > > > > > > > > < > < < < < V , c c @ t t u .X@XJ.E.^.^.{.!.!.{.{.^.%X{.Q.!.W.{.E.E.K.0XA.a x t t t A.9XJ.U.!.!.{.!.!.{.$X{.{.*XE.Q.W.^.W.E.E.@X+Xp r S A B 8 8 > > o   Q 0 8 4     8 0 7 7 8 4 8 O O 7 7 O 9 9 4 7 7 q o   O O Z +   o o > q   O 8 . ",
"O 2 O q o   O O o O . + X                           X o X O O 2 2 O 2 O 2 O O 2 7 O 7 O O 2 O O 2 O 2 7 7 O O %   4 7 O 4 O 7 .   X .   7 O O O O O O o O O O o O > O O O O O O O O 4     X   X > o O O O > > O O o O o O > O > > O O > O 8     . . . 7 O > o > O : > > > > > : : < > > > , > 5 < V * , g g . . X 5 > : O 4 O O > > : > > > > > > > < > > 5 < V * > .   > > > O O > : O > > > > > > > > > 5 < : < > V k * . . > O O O > > > O > > > > > > > > > > < > 5 > V k l * . . 2 O : O > O : : > : > > > > < > > < > > 5 < V < h .   . 7 > X O > > O > > > > > > > 5 > > < > < 7 < N , c c @ t t y oX@XK.{.[.U.E.^.W.Q.!.Q.{.!.Q.Q.E.!.E.U.J.8XA. .x r i t C.9XK.E.$XE.U.!.!.Q.!.E.!.^.E.Q.Q.!.Q.L.E.@X.XX.r V Z 5 M 8 5 < O   Q C 0 4     0 0 8 7 8 7 0 o O 7 7 O 8 0 7 7 7 q     O O q X   . O O 9   4 q X ",
"7 e 7 9 o   2 + o o o o   .                       . o X O O w O e 2 O 2 O 7 7 7 7 O O e 2 O O 2 O 7 O O O 7 O e   7 4 4 4 7 8   .   .   2 o O O O O O O O O > > O > O O > o O O o > 4   X .   O 4 > O O O O O O O O O O O O O O > 4 > > 7 7   . X . . 7 O : O > O : > > : > > > > > > > < > < 5 < V , * g g X . o 7 > > : O o > > > : > > > > < > < < 5 < < < V : * . . > > > > > O : > > > > > < > > > > > 5 5 < > V k : X . 2 4 > > : O O > > > > > > > > > > > 5 5 < , V k h : . . 2 O > > o O O > > : > > > > > > < < 5 5 < < V < h o .   5 O > > : o o > > : 4 > > > > > < 5 5 < < < N : c h @ t f u +X@XP.Q.Q.!.!.[.Q.Q.E.E.W.E.Q.Q.Q.U.Q.Q.J.9XA. .x r t t C.8XJ.E.Q.E.!.!.!.Q.E.E.W.E.!.Q.Q.E.E.U.E.#X.X .r C A 5 5 6 < > >   Q 0 0 7     0 9 7 7 7 8 8 o O 7 O e 4 9 4 7 7 9 X   O X q     + o 4 q   O q   ",
"o o O w +   2 @ O X @ o o . . . X   X .   . . + . o o X O e O 2 e O O 2 O 2 O O O 2 O w 2 O 2 O 7 O 7 2 2 O 7 O   7 7 7 O O w +   .     2 X O O O O o O O O O O O O O O O O O O > O 7   X o   O > > O > O O O O > O O o > O > > O > O > O 7 . . X . . 8 O > > O O > > > > > > > > > 5 > < 5 > > < V = , ; ; o   . 9 o o > > > > : 4 > > > > : 5 5 > > < > < < N : , X . < > X o O : 4 : > > > O > > < 5 > < < > < = V < * . . 7 : O O O : 4 > 4 > > : > > < 5 : > < < > : V < l = . . 7 > o : > > > > 4 4 O O 4 > < 5 > > < > > * V < h o . o 8 X : o > > > > > > > : > > > 5 : > < > > < V : c c @ y t y +X+XP.G.L.Y.U.Y.Y.Q.Q.Q.U.U.U.E.U.U.U.Y.G.0XA.p x r t y C.<XG.I.T.Y.Q.I.Y.Q.[.Q.Y.U.U.Y.E.U.U.E.L.XX.Xa $ S S M 8 5 4 > O   / 0 9 4     0 0 8 8 7 4 8 7 7 7 7 2 q 8 7 7 7 9 +   O X q @   o o O q   O q . ",
"                    + +                               +         & O O > O 7 > 2 e > 2 7 7 O 2 2 O 7 O 7 O 2 2 O   2 7 O 7 7 8     . +   2 o O O O O O X O O o O O O O O O O O > O O 7   . .   O > > O O o O O > > O O O > O > > > > > > > 4   . o . . 9 > > > > e > > > > > > < > 5 4 < 5 5 > < , B : * - g . . . Z O > o O : : : 4 O : > > : > > > < 5 < > < B : , X . 5 > > O : O : o > O > > > > > 4 > > < > < > V < = o . 7 > > : o > : O : : > > : > , > > < < 4 > > M < g : . . 8 > O o > o > o > > > > > > > 5 > < 5 > < : M < h X . . 0 O > O O > o o > : > O > > > > < < > < < > N : c h $ r r y `.=XI.I.I.Y.I.I.Q.I.Y.Y.Y.I.Y.T.Y.I.T.P.].qX&.p x y r y &.9XE.I.Y.I.I.L.Y.I.Y.Y.Y.L.Y.I.L.I.L.L.I.>XA.i % S C 5 5 5 4 < >   / C Z 4     0 0 7 7 7 0 7 q ] ] ] [ W 2 7 8 7 9 +   O O q +   o O 7 q   7 q o ",
"    W ] ( ] } } } } 8.1.8.8.8.q.8.8.w.q.w.w.w.r.e.e.r.h.g.h.j.2 X O O e 7 O O O % e O O O O O 2 O O 7 O O O 2 O + O O O O 7 9     . .   X 8 X . o . . o . + . . + o . . + + . o + 7 7   . o   X 8 o . o . o o . o . o . o o   o o o . o : 8 .   o .   C o . . X . . . o . X o X . * . o * > : : < V * , - , . .   7 > 4 5 5 7 4 4 5 5 5 5 5 5 7 M 5 5 B 8 B A M . * . . > 7 > 7 4 5 4 5 5 7 5 5 5 5 5 5 5 8 B B B V V * * .   > 7 > 7 5 4 4 4 5 5 8 5 8 5 5 8 5 0 M M C A A , g * .   4 5 4 4 4 5 4 5 5 5 7 < 5 5 5 5 5 5 C 5 M A V : h . .   5 4 4 5 4 5 4 5 5 5 5 5 5 5 8 5 5 8 B B 8 C N : n c $ r r u +.'.XXOX>XOXOXOX>X,X>X6X<X,X,X,X,X>X>XXXoXC.#.p x r r t  .D.XXOXOX>XOXOX>X,X,X,X6X<X,X,X,X,X,XOXOX X+.s % Z V 0 M 4 5 > O   W 8 9 4     9 9 8 8 4 4 7 7 e X o . e 7 8 7 7 q +   2 2 q X                   ",
"    9 P 9 8 9 8 q 8 q 9 9 9 9 9 9 9 7 9 9 9 9 9 q 8 q q q q W -.9 + O 4 e 4 2 2 7 O O O 2 e > O 7 O O O 2 O e w   @ e O 4 O 2   .   .     o 7 7 8 8 8 9 8 q 8 9 0 8 8 9 9 9 9 8 8 8     . o .   4 8 9 q 0 C 9 9 8 9 9 0 0 0 0 0 8 0 C C 0 >   o . .   o 8 C Z Z Z 0 Z C Z S Z S I Z S S W S S S D < . , - - . .   . > 0 9 9 C 8 0 0 Z 0 9 C Z V C Z Z S C C 5 * . : . .   O 8 C 0 9 0 8 0 C C C C C C C S Z A C Z 8 : . * . .   o 7 9 C C 9 8 0 9 Z 0 C Z C V Z C C Z C B : . g * X     O 8 0 0 Z 8 8 9 C Z C C C C C Z P S C C B X * l . .     > 8 q 8 C 8 8 C Z 0 Z C C C C S Z C Z V 8 X * h j % $ r r u  .O.O.O.O.O.O.O.+.+.+.$.+.$.+.&.+.+.$.#.i i i 3 $ r r t p O.O.O.O.O.O.O.+.@.+.$.+.+.$.+.+.+.+.O.p i p w / B 5 5 5 > > o   Q 0 0 >     7 9 4 8 7 4 0 8 9 7 8 8 7 8 7 7 7 9 .   X O q o                   ",
"hX  hX2 7 O 7 O O 2 O O e 4 O O 2 2 e 2 O 2 O O 2 O O 7 O 4 O q } ~ O @ X @   + + + @ + + @ o o + o o O + @ + + o o o X O + @ +   .   .       o o o o o o o o X o o o o + X X o X     . . . .     o o o O o X : o O o o o O > o o o O > o     . . . .     O > > 4 > O 4 > > > < 4 > > 4 < > > > .   * - - ; X . .                                             . * : . .                                               - : X .                                             . * l * . .                                             . * g o . . .                                           * * g l & $ $ $ $ r r % % & % % % % % % % r $ r r r % r r y y y 1 # # # # $ r $ $ $ $ % % % % $ $ r r % r r r % r r r t | S 5 5 4 5 5 > O   Q 0 0 7     0 0 8 4 0 8 7 8 7 7 7 4 7 8 7 7 7 q     O O q X     O 7 X +     . ",
"hX      o 7 2 > 7 O 7 O O 7 O 7 7 O 7 7 2 7 7 O O 7 O 7 2 2 2 O q e.e.q.w.r.q.q.q.e.e.e.q.e.e.w.e.e.e.e.e.r.r.r.r.r.r.r.r.r.r.} 7     .                                               . . . . .                                     .     . . . . . .                     .               .   .   * * * * *   .   .     .         .   . . .   . . .   *   * . * * *   . .       .       . . .   . .   .   . . . * . * * : .   .     .   .       . .   .   . .   .   * . . . * - . . .       .             . . . . . .   . . . * . * * - . . . .       .   .     .   .       . . . . * . . * * g g = = = = = 1 = 1 = = = 1 = = 1 = 1 = 1 1 = 1 1 1 1 1 3 1 ; = 1 O 1 = = 1 = X 1 1 1 X 1 1 1 = 1 2 O = 1 1 & & w ~ G 5 8 5 5 4 > > :   Q 9 0 7   + 8 0 4 7 7 7 7 8 7 7 7 4 7 7 7 7 7 q     O o q X   X q.d.8.] O     ",
"hXhX      X 7 O O 7 O 7 7 O 2 O 2 O O O 4 7 O 7 7 O O O 2 O O 7 e 7 q q q q P q q P q P q P P q P q q P P P P P P P P Z P P q q ! O     . X .     .       .         .   . .   . .   . . X X     . .   . .         . .   .   .       .   . . . . . o . . . .     . . .   . . . . *   . * . * . . . * . : . * * * * * * * * * * * * * * * - * * * * * - - - - - - - * - - - - - * * - * * * - - * , - * - - * - * * , - - - - - - - - - - - - * - * * * - - - - - - - * - - - - - - - - - - - * * * - - - * - - * - * - * * * * - - g - g g - - - - * - - * * - - - * - - * , * - - - * - - * - - - - - - - - - - * * * * * * * * - * * * - * - - - - - - - - * * * * * * * * * * * * * . . * * . * . . * *   0 9.B 3 5 8 5 4 5 4 > X   / B 0 4     8 9 9 0 0 0 7 8 8 8 7 7 4 8 7 7 7 q     O 7 9   + } [ q 8 Z W o   ",
"hXhX        + 2 O > O O 7 O O O 2 2 2 O e 2 7 O O 4 7 2 O 2 2 O e 7 7 7 7 7 7 7 7 7 7 7 9 7 7 7 7 7 w 7 8 7 4 9 7 7 7 9 7 9 9 7 O ` 2     . X   .   . .   X .     .   X   . .   .   .     . X . . . .     . . .     . . .   . .   . . . . . . . . . . . . .   . . . . . . . * . . . . . . . . * * * * * * * * * * * * * - * * - * - - - * - - - - - - - - - - - - - - - - , - - - - - - - , - - - - - - - - - - - - - - - g g - , - - - - - - - - - - - - - - - - - - - - - - - - g - - - - - - - - - - - - - - - - - - - - - - - - - - - - - - g - - - - - - - - - - - - - - - - - - - - - - - - - - - - - - - - - - - - - - * - - - - - * - - ; - - - - - - * * - * - * - * - * * - * * * * * * * * * . 7 1.M 5 5 8 5 5 5 4 4 > O   Q 8 0 e     7 0 4 4 0 4 7 7 7 2 7 4 4 8 7 7 O q X   2 7 o   ` [ 2 8 7 4 W q   ",
"hXhX          o O 2 7 O O O O 7 O 2 O 2 O O O 2 O 7 O O o w e 2 O 2 7 O O O 7 2 7 e 7 O w 2 7 7 O 7 7 7 7 4 7 w 7 7 7 7 9 9 7 7 7 2 ~ 7 o   +   o   X .   o   X . . + . X X o + X o + + @     o   + X . o + . . X X . . X . . X o . o . X o o o o . X : o . X X X . o o . X o . . o X X . X : X X X . O X o : : : : : = : : * > : > * > * > : : * > * > * > : , = > , = * , , * : , , > : * = , , > , * > ; > ; > * , : = > , * , , : = : * * > ; , : * : = , > * , , , = > , * : ; > , , , > * ; : , , > , , > : * > ; , > , , > , * > , , > > * , , , , * > * > * = > * : , , > , , , , = , ; > < , * * > , , , = : > * > : = > * , > > * , : , , > = > , ; > : > * > = : * > = : : : : X : : O : : O C >.L M B 8 8 M 8 5 5 4 > :   Q 8 0 7     9 9 7 7 0 7 7 8 7 7 7 7 7 7 8 7 7 8     O +   ! 8.2 7 7 2 4 9 Z hX",
"hXhXhX            O > O O O X O 2 e > O O 2 O 2 O 7 O O O O 7 O O O 7 > 7 7 7 2 2 7 7 2 7 7 7 8 7 7 8 7 7 8 7 7 7 7 7 8 9 7 7 7 2 7 7 E ~ } } } } [ [ [ [ %.8.} } } } } -.} -.} %.9.8.} } } 8.8.-.8.q.%.9.9.8.8.8.8.8.8.1.8.8.8.8.8.q.q.q.w.q.8.q.q.q.q.q.q.w.q.q.w.w.w.w.w.e.e.e.r.e.e.w.e.e.e.e.e.e.w.e.s.w.t.r.s.r.s.s.s.s.s.s.s.s.s.s.s.s.s.s.a.s.y.s.a.a.a.a.a.i.s.s.a.t.y.p.p.a.p.s.a.a.a.a.a.s.a.p.a.a.y.y.a.a.s.a.a.a.a.a.a.p.y.a.p.u.p.p.p.p.p.a.a.y.y.y.y.p.p.a.y.y.y.p.p.s.a.i.i.p.u.p.p.p.p.y.p.y.p.t.y.u.p.p.p.p.p.p.a.a.a.a.a.t.y.p.0.y.p.p.p.p.t.u.p.t.t.t.y.p.y.p.p.p.y.y.s.y.y.a.y.y.y.t.t.p.y.t.t.y.y.y.y.y.t.y.t.t.t.t.t.t.y.y.t.u.t.t.t.0.y.t.0.t.0.t.t.:.t.t.t.w.0.9.w.y.t.0.w.w.0.t.P 5 8 B 8 8 5 7 5 5 > > o   Q 0 9 O     9 0 7 7 8 8 9 7 7 8 8 7 8 7 4 7 7 9       o ] } O 4 7 7 7 4 7 4 hX",
"hXhXhXhX            o X o o X X o @ o O o X o X o o X X o o o o X X o X o o X o o o X X X X X O O O O X O O O X X o O O X 2 7 7 > 7 7 7 q W E E ~ E E ~ W R ! ! ! ! W W Q ~ ! Q ! R ~ Q Q Q ! ~ Q Q Q Q ` R ! ! ~ W ! ! Q ! ( Q Q ` ! ! ! ! ! ! Q / Q ( Q ! ( ( | ( ( ( ( ( ( ( ( ( ( ( ( ( ` ( ( ( ( ( ( ( ( / ` ( ( ( ` ( ( ) ` ` ( ( ] ` ( ) ) ` ( ) ` ) ' ' ` ' ` ` [ ( ( ( ( ' ' ) ` ' ' ' ) ) ) ) ' ' *.) ) ) ' ' ) ) ) [ ) ' ) *.) ' ' ) ) ) ( ) ) ) ) ) ) ) ) ) *.) ) ) ) ' ) ) ) ' ) ' ' ) *.) *.) ) ) ) ) ) ' ) ) ' ' ) ) ) ) ) ' ) ) ) ) _ *.) ) ) ) ) ) ' / ( / ( ) / ) ) ) / ) ) / ) / / / ) ) ) ) / / / ^ ) / ) / / ^ / / ) ^ ^ ^ _ / / / / / ^ / / ^ / / / ^ ~ ^ / / ^ / / / / / / / ^ ^ C 5 8 B 8 5 5 5 5 5 7 > > o   Q 5 9 7     9 0 7 8 9 7 7 7 7 4 7 7 7 7 7 2 2 9     + | ] O 7 7 7 7 4 9 O hXhX",
"hXhXhXhXhX                                                                                                                    O 8 7 7 2 2 7 2 7 > 7 2 2 7 7 4 O 7 4 7 7 2 8 7 2 7 4 7 7 7 7 7 7 5 2 7 7 7 7 7 7 8 8 7 7 7 5 8 5 6 8 4 8 7 8 8 7 7 8 8 8 7 7 7 7 7 8 5 7 7 8 5 8 9 8 9 B 8 9 9 8 B 8 8 5 8 8 B 8 9 B 8 B 8 8 B 5 C B B C C B B B 9 B B 8 V C B B V C C V V 9 B B C B C B B B M B C B B V B 8 B M B C M B V B V V C A B B V B C C B V V B B B B B V V B B M B B V B B B B B B B B B B k N C B V V M B A A B B A B C B V V A B A B V B A B B B C V N C V B B B V C B B B B B M V B M B B V B B B B V B V B C B B C 8 B B B B 8 V 8 M B B B M 8 k < 8 B B 8 B 8 B 8 B 5 B 8 8 M 5 5 8 5 8 8 B 8 B 8 8 5 5 8 7 4 4 > > >   Q 0 8 7   + 9 P 9 7 9 9 7 9 8 9 0 0 8 0 8 7 7 7   + ] ] O 7 8 7 4 7 8 7 hXhXhX",
"hXhXhXhXhXhX                                                                                              .     .               X 8 8 7 7 8 7 O 2 2 2 2 O 7 4 4 4 7 8 7 > 7 < 7 7 4 4 4 7 > 7 7 7 2 < > 7 7 7 4 4 4 7 4 > 2 2 7 7 4 4 4 8 4 8 7 7 5 5 7 9 8 B 5 8 5 8 7 9 5 8 7 5 5 8 8 8 5 B 5 B < 5 8 M 8 8 8 M < 5 B B V < B B B B B 8 B 8 C V B B B B B B C B V B B B B C V B B B A C B B A A B A C M B N V B N M B B B M C B B B V A B V A B B B C V A B V B B B M N V M B V V B V V A B V V V M B B V B B M V B B A A V B V V C V B V N B V V V M V B V V N M M B B B M V V B V B M B B V B B B B B B k B k M M B V N B M B M B B B M M B 5 B B M M 8 B B B B k < M M 5 M V < < M M < M < 5 B 8 B B 5 5 5 8 5 7 4 5 4 4 5 > o   E 0 0 4       O O O + O O e + O O + O @ O O o     Q } e 4 O 7 4 7 0 4 hXhXhXhX",
"hXhXhXhXhXhX                .     .   X   .   X .     X .   X   . . o X o   . . . . X   X . X X . . X   X .   X X X   . . .       . 7 7 7 7 O 7 > > 2 > 2 2 7 > 4 > 7 > < 7 7 7 7 8 7 > 7 7 8 7 2 7 7 7 5 2 7 > 5 > 7 8 < 5 7 5 5 7 7 7 5 5 5 8 < 5 5 7 < 7 5 8 8 8 8 5 8 < B B B 9 8 8 B 8 5 5 8 5 B 5 < B B V C V C V V V C C C V V C V B B V C B V B M V V M B V Z V V V B B B A V B A V B M V V V V V V V N V V V B V V B V V V B V V V V V A A V A A A V V V V V V A B V N V V V V V V A A C A A V V V B V V V F V N A A N V V S V V V V V N V V V V V V V V V V V V V V C B B V V M V V M B V N B B V V V B V V V B V V B B V V B B M k V B V V V 8 B M V B B B B M M B B B M B 8 M B B 8 B 5 B 8 8 B 8 8 5 5 5 5 5 7 8 > > >   Z 0 0 4 0 7 9 7 7 4 O 7 2 7 2 2 7 e 7 7 7 7 7 w W } 4 4 4 7 2 7 8 > hXhXhXhXhX",
"hXhXhXhXhXhXhX                . X     X X   o   . X o   X . . X o     o X X       . o   X     o .   X X . X o .   X o X . . . .     . X O O o o o . X X X X o . o o o . O O o o O O O o O O O > O O > > > > > O > > > O > O O O : > > O > > > > > O O O > > > > > > > > > > > > > > > > > > > > > > > > > > > > < 4 > > > > > > > > > > < > > 2 > > > > > > > > > > 2 < < > > > 4 > 4 5 < < < > > < > < < > > > 4 > < < > 5 < > < < < < < < > > 5 < < < < > < < < < < > > < 4 > < , 4 5 < 5 < < < < < , > 5 5 , > < < < 5 5 5 < < < < < > < < , < > < < > < < > > < > > > > < < > , > < < < > > > > > < > < < > < < 7 < > > > > < , > > > > > , > > > , > > > > > > > > > > > > > > > > > > > > > > > > > > > < C 5 4 4 4 > 5 4 > >   W 0 7 0 ` { ] [ [ ` ` ] ` ( ] ] ] ` ` ] ] ] ] [ { 9 4 4 4 7 7 8 4 hXhXhXhXhXhX",
"hXhXhXhXhXhXhXhX                o o   o . X   o o X o o o   X   o X X X . o X X X o o X . o o o o X o o o X X o X o o o o o o .                                                                                                                                                                                                                                                                                                                                                                                                                                 .                                                                                                                                               O 5 4 5 5 5 4 4 > o   P 6 9 7 7 7 0 7 9 0 7 0 7 7 9 7 9 8 7 w 6 7 7 7 7 4 7 7 7 4 8 7 hXhXhXhXhXhXhX",
"hXhXhXhXhXhXhXhXhX                . X X + X o . +   o X o o o o X +   X o o X o X   o X   o X   o   o   X . o o X o o X X + . X . .                                                                                                                                           .         .         .       . .   .       . . . . . .     . . . . . . .   . . . * * . . . * .   * .   * . . . . * . *   . . . . * * . . * . . .   . . . * . . . * . . * . . * . . . . . * . . * . . . * . . . * . . . . . . . * . * . . . * . * . * . * . * . . . *   * . . * . * . . * . * . * . . * . * . . * . *   * . . . . * . . .   * . . . . . . . . . .     . . . . . . * .   * . . * . * . . . . . .   . .   *             > 8 4 5 7 > 5 5 O   W 0 8 0 7 8 0 7 7 7 0 4 7 4 9 7 7 8 7 8 7 7 q 7 7 8 7 4 7 q O hXhXhXhXhXhXhXhX",
"hXhXhXhXhXhXhXhXhX                  o 2 O 2 7 O > 7 2 O 7 2 O 7 7 2 2 4 > > 7 > 7 O > 2 7 7 7 > 2 7 7 7 7 2 7 7 > 7 7 7 2 7 4 > > 4 O O O O . . X X O X . X O O : > X X : X > O : X O : X : O = O X : X : : > : O > : > X > > > : > : = > > : > > : X = > > : > : , > > > > > < < > < 4 < < > < < < < < > 5 < < < 5 < > < < > 5 < g < < < < < < < < < < 5 < 5 < < g 5 k < g 5 k < k M 5 < k B < < B M < k k k k < k < < k < k < < k k < k k < < < k k < k 8 k k l < B < < k 5 k < k k < < 5 k 5 k M k < < M M < < k M M k < k < < < k < k M M k V < k < k < k < g 5 k < < k k k k M 5 M 5 < k < k < k < < k < < < g < < < < < , < < g < < < < < < > , < < 5 < < g < < < < , 5 < < < < > < < < > , < < , > > > : . hX> 8 4 7 4 7 > o   P 8 8 5 4 7 8 7 7 8 7 4 8 7 7 7 7 8 7 9 O 7 7 7 7 4 4 7 8 2 hXhXhXhXhXhXhXhXhX",
"hXhXhXhXhXhXhXhXhXhXhXhX              X o o . X o o o o o X O o X o o O o o X o o O X X o o o o o X X o o O o O o O O O O O O O O O O o o O hX          .     .       . .     .   .   . .         .           .   .   .   . .   .   .   . .     . .     . .   .   .   . . . . .   o . . . . . .   . . . .     . . . . . . . . .   . . o . . . . . . . . . . . . . . . o   X . . X . . . . . . . . . . . . .   X . . . . X .   . . . . . . . . . . . . . . . . . . . . X . . X . . . . . . X . . . . . X . . . . . . . . X . . . . . . . X . . . . . . . . . . . . . . . . . .   .   .   . . . . . . . X   .   . . . . . . . . .   . . . . . . . . . . .   . . . . . . .   . . . . . . .   .   .     .   . . hXhX  hXhXO 5 > > > > :   Z 0 9 0 0 8 q 9 0 8 9 0 9 8 0 8 9 9 7 0 9 8 8 9 9 8 7 8 O hXhXhXhXhXhXhXhXhXhX",
"hXhXhXhXhXhXhXhXhXhXhXhXhXhXhX                                                                                      .               .   .   hXhXhXhXhXhXhXhXhXhXhXhXhXhXhXhXhXhXhXhXhXhXhXhXhXhXhXhXhXhXhXhXhXhXhXhXhXhXhXhXhXhXhXhXhXhXhXhXhXhXhXhXhXhXhXhXhXhXhXhXhXhXhXhXhXhXhXhXhXhXhXhXhXhXhXhXhXhXhXhXhXhXhXhXhXhXhXhXhXhXhXhXhXhXhXhXhXhXhXhXhXhXhXhXhXhXhXhXhXhXhXhXhXhXhXhXhXhXhXhXhXhXhXhXhXhXhXhXhXhXhXhXhXhXhXhXhXhXhXhXhXhXhXhXhXhXhXhXhXhXhXhXhXhXhXhXhXhXhXhXhXhXhXhXhXhXhXhXhXhXhXhXhXhXhXhXhXhXhXhXhXhXhXhXhXhXhXhXhXhXhXhXhXhXhXhXhXhXhXhXhXhXhXhXhXhXhXhXhXhXhXhXhXhXhXhXhXhXhXhXhXhXhXhXhXhXhXhXhXhXhXhXhXhXhXhXhXhXhXhXhXhXhXhXhXhXhXhXhXhXhXhXhXhXhXhXhXhXhXhXhXhXhXhXhXhXhXhXhXhXhXhXhXhXhXhXhXhXO 7 7 > > >   O O O O o O O O O o o O O o O o O O O o O O o O O O O o hXhXhXhXhXhXhXhXhXhXhX",
"hXhXhXhXhXhXhXhXhXhXhXhXhXhXhX                                        .                                                                   hXhXhXhXhXhXhXhXhXhXhXhXhXhXhXhXhXhXhXhXhXhXhXhXhXhXhXhXhXhXhXhXhXhXhXhXhXhXhXhXhXhXhXhXhXhXhXhXhXhXhXhXhXhXhXhXhXhXhXhXhXhXhXhXhXhXhXhXhXhXhXhXhXhXhXhXhXhXhXhXhXhXhXhXhXhXhXhXhXhXhXhXhXhXhXhXhXhXhXhXhXhXhXhXhXhXhXhXhXhXhXhXhXhXhXhXhXhXhXhXhXhXhXhXhXhXhXhXhXhXhXhXhXhXhXhXhXhXhXhXhXhXhXhXhXhXhXhXhXhXhXhXhXhXhXhXhXhXhXhXhXhXhXhXhXhXhXhXhXhXhXhXhXhXhXhXhXhXhXhXhXhXhXhXhXhXhXhXhXhXhXhXhXhXhXhXhXhXhXhXhXhXhXhXhXhXhXhXhXhXhXhXhXhXhXhXhXhXhXhXhXhXhXhXhXhXhXhXhXhXhXhXhXhXhXhXhXhXhXhXhXhXhXhXhXhXhXhXhXhXhXhXhXhXhXhXhXhXhXhXhXhXhXhXhXhXhXhXhXhXhXhXhXhXhXhXhXhXhXhX. > > > O X   +   .       .             +     .     hX      hXhXhXhXhXhXhXhXhXhXhXhXhXhXhX",
"hXhXhXhXhXhXhXhXhXhXhXhXhXhXhXhXhX    hXhXhXhXhXhXhXhXhXhXhXhXhXhXhXhXhXhXhXhXhXhXhXhXhXhXhXhXhXhXhXhXhXhXhXhXhXhXhXhXhXhXhXhXhXhXhXhXhXhXhXhXhXhXhXhXhXhXhXhXhXhXhXhXhXhXhXhXhXhXhXhXhXhXhXhXhXhXhXhXhXhXhXhXhXhXhXhXhXhXhXhXhXhXhXhXhXhXhXhXhXhXhXhXhXhXhXhXhXhXhXhXhXhXhXhXhXhXhXhXhXhXhXhXhXhXhXhXhXhXhXhXhXhXhXhXhXhXhXhXhXhXhXhXhXhXhXhXhXhXhXhXhXhXhXhXhXhXhXhXhXhXhXhXhXhXhXhXhXhXhXhXhXhXhXhXhXhXhXhXhXhXhXhXhXhXhXhXhXhXhXhXhXhXhXhXhXhXhXhXhXhXhXhXhXhXhXhXhXhXhXhXhXhXhXhXhXhXhXhXhXhXhXhXhXhXhXhXhXhXhXhXhXhXhXhXhXhXhXhXhXhXhXhXhXhXhXhXhXhXhXhXhXhXhXhXhXhXhXhXhXhXhXhXhXhXhXhXhXhXhXhXhXhXhXhXhXhXhXhXhXhXhXhXhXhXhXhXhXhXhXhXhXhXhXhXhXhXhXhXhXhXhXhXhXhXhXhXhXhXhXhXhXhXhXhXhXhXhXhXhXhXhXhXhXhXhXhXhXhXhX. > > > > hXhXhXhXhXhXhXhXhXhXhXhXhXhXhXhXhXhXhXhXhXhXhXhXhXhXhXhXhXhXhXhXhXhXhXhXhXhXhX",
"hXhXhXhXhXhXhXhXhXhXhXhXhXhXhXhXhXhXhXhXhXhXhXhXhXhXhXhXhXhXhXhXhXhXhXhXhXhXhXhXhXhXhXhXhXhXhXhXhXhXhXhXhXhXhXhXhXhXhXhXhXhXhXhXhXhXhXhXhXhXhXhXhXhXhXhXhXhXhXhXhXhXhXhXhXhXhXhXhXhXhXhXhXhXhXhXhXhXhXhXhXhXhXhXhXhXhXhXhXhXhXhXhXhXhXhXhXhXhXhXhXhXhXhXhXhXhXhXhXhXhXhXhXhXhXhXhXhXhXhXhXhXhXhXhXhXhXhXhXhXhXhXhXhXhXhXhXhXhXhXhXhXhXhXhXhXhXhXhXhXhXhXhXhXhXhXhXhXhXhXhXhXhXhXhXhXhXhXhXhXhXhXhXhXhXhXhXhXhXhXhXhXhXhXhXhXhXhXhXhXhXhXhXhXhXhXhXhXhXhXhXhXhXhXhXhXhXhXhXhXhXhXhXhXhXhXhXhXhXhXhXhXhXhXhXhXhXhXhXhXhXhXhXhXhXhXhXhXhXhXhXhXhXhXhXhXhXhXhXhXhXhXhXhXhXhXhXhXhXhXhXhXhXhXhXhXhXhXhXhXhXhXhXhXhXhXhXhXhXhXhXhXhXhXhXhXhXhXhXhXhXhXhXhXhXhXhXhXhXhXhXhXhXhXhXhXhXhXhXhXhXhXhXhXhXhXhXhXhXhXhXhXhXhXhXhXhXhXhXhXhXhXhXhXhXhXhXhXhXhXhXhXhXhXhXhXhXhXhXhXhXhXhXhXhXhXhXhXhXhXhXhXhXhXhXhXhXhXhXhXhXhXhXhX"
};
