/* XPM */
static char *result[] = {
/* columns rows colors chars-per-pixel */
"29 58 17 1 ",
"  c #000001",
". c #0B0500",
"X c #05050B",
"o c #190B05",
"O c #361205",
"+ c #202036",
"@ c #45200B",
"# c #6D2E19",
"$ c #3D365D",
"% c #205565",
"& c #C23D19",
"* c #B14D2E",
"= c #F76D27",
"- c #F79F45",
"; c #207597",
": c #3DC2E5",
"> c #000000",
/* pixels */
">;:%>>>>>>>>>>>>>>>>>>>>>>>>>",
">%:;>>>>>>>>>>>>>>>>>>>>>>>>>",
">>%:;>>>>>>>>>>>>>>>>>>>>>>>>",
">>>;:%>>>>>>>>>>>>>>>>>>>>>>>",
">>>>::%>>>>>>>>>>>>>>>>>>>>>>",
">>>>%::>>>>>>>>>>>>>>>>>>>>>>",
">>>>>%:;>>>>>>>>>>>>>>>>>>>>>",
">>>>>>;:%>>>>>>>>>>>>>>>>>>>>",
">>>>>>>::%>>>>>>>>>>>>>>>>>>>",
">>>>>>>%:;>>>>@@@>>>>>>>>>>>>",
">>>>>>>>%:;>>@&==&@>>>>>>>>>>",
">>>>>>>>>;:%@======#@>>>>>>>>",
">>>>>>>>>>%OOO@&&==#@O>>>>>>>",
">>>>>>>>>>OOOOOOO@@@O>>>>>>>>",
">>>>>>>>>>>O##OOO@*#>>>>>>>>>",
">>>>>>>>>@OO#@O##--@>>>>>>>>>",
">>>>>>>>>OOOO#O.*$$+++ >>>>>>",
">>>>>>>>>>OOoo@#X+$$$$+o#>>>>",
">>>>>>>>>> o#***o+$$$$+#*#>>>",
">>>>>>> XX#*****@ $$$$$X**@>>",
">>>>> X++X@#####@ +$$$$+o#@>>",
">>>>> X +Xo#####oX++$$$X o.>>",
">>>>> XXX+ @###@ X+++$+   >>>",
">>>>>X XX+XX#@#o +++$+ >>>>>>",
">>>>>o XXXX  o# X++++ >>>>>>>",
">>>> oX XXXX  X ++++o >>>>>>>",
">>>> oooX  XX  X+++#@@>>>>>>>",
">>>> o.@@#oXXX +++***@>>>>>>>",
">>>> oo@#**#      o@#o>>>>>>>",
">>>> oo##***o         >>>>>>>",
">>>>> o@@#@@          >>>>>>>",
">>>>>>  .o.  XXX@@@oo >>>>>>>",
">>>>>>>>>>>>XXX#****@ >>>>>>>",
">>>>>>>>>>>> XX#****@#>>>>>>>",
">>>>>>>>>>>> Xo*****#>>>>>>>>",
">>>>>>>>>>>>  o*****#>>>>>>>>",
">>>>>>>>>>>> Xo****##>>>>>>>>",
">>>>>>>>>>>>> o#***##>>>>>>>>",
">>>>>>>>>>>>> @#***#*#>>>>>>>",
">>>>>>>>>>>>> o#***#*#>>>>>>>",
">>>>>>>>>>>>> o#***##*#>>>>>>",
">>>>>>>>>>>>> @#***##*#>>>>>>",
">>>>>>>>>>>>> @#**# @#@>>>>>>",
">>>>>>>>>>>>> @***oX++++>>>>>",
">>>>>>>>>>++Xo***#X$$$$+>>>>>",
">>>>>>>>>+$$$X#**XX$$$++>>>>>",
">>>>>>>>X+$$$+Xoo X+$$$+>>>>>",
">>>>>>>X+++++++ >> +$$$+>>>>>",
">>>>>>X+++++++X>>> X$$$+>>>>>",
">>>>++$+++++X >>>> X+$$+>>>>>",
">X++$$+++++X>>>>>>>X+$$+>>>>>",
"X+$$$$$++X >>>>>>>> +$$+>>>>>",
" +$$$$$+X>>>>>>>>>>X+$$$++>>>",
">++++$$+>>>>>>>>>>>X+$$$$++>>",
">X+++++X>>>>>>>>>>>X+$$$$$$++",
"> +++XXX>>>>>>>>>>>X+$$$$$$+ ",
">>X+X+$+>>>>>>>>>>>  XXXX++X ",
">> X++X >>>>>>>>>>>>>>>>>>>>>"
};
