/* XPM */
static char *attack_5_xpm[] = {
/* columns rows colors chars-per-pixel */
"62 48 19 1 ",
"  c #000001",
". c #100800",
"X c #080810",
"o c #201008",
"O c #401808",
"+ c #502810",
"@ c #783820",
"# c #282840",
"$ c #484068",
"% c #B85838",
"& c #C84820",
"* c #F87830",
"= c #F08840",
"- c #F8A850",
"; c #2880A0",
": c #48C8E8",
"> c #78F8F8",
", c #F8F8F8",
"< c #000000",
/* pixels */
"<<<<<<<<<<<<<<<<<<<<<++++<<<<<<<<<<<<<<<<<<<<<<<<<<<<<<<<<<<<<",
"<<<<<<<<<<<<<<<<<<<<+@&*&+<<<<<<<<<<<<<<<<<<<<<<<<<<<<<<<<<<<<",
"<<<<<<<<<<<<<<<<<<+@&*****&+<<<<<<<<<<<<<<<<<<<<<<<<<<<<<<<<<<",
"<<<<<<<<<<<<<<<<<<+*******@@++<<<<<<<<<<<<<<<<<<<<<<<<<<<<<<<<",
"<<<<<<<<<<<<<<<<<<OO@&&*&++@&O<<<<<<<<<<<<<<<<<<<<<<<<<<<<<<<<",
"<<<<<<<<<<<<<<<<<<OOOOOOO%-OO<<<<<<<<<<<<<<<<<<<<<<<<<<<<<<<<<",
"<<<<<<<<<<<<<<<<++O&@@O@=%%O<<<<<<<<<<<<<<<<<<<<<<<<<<<<<<<<<<",
"<<<<<<<<<<<<<<<<O@*@O+%=, <<<<<<<<<<<<<<<<<<<<<<<<<<<<<<<<<<<<",
"<<<<<<<<<<<<<<<<<O@O@o%=%%+<<<<<<<<<<<<<<<<<<<<<<<<<<<<<<<<<<<",
"<<<<<<<<<<<<<<<<<OOO%+o==-@<<<<<<<<<<<<<<<<;<<<<<<<<<<<<<<<<<<",
"<<<<<<<<<<<<  ###X+%O%#+=%.<<<<<<<<<<<<<<<<<<<<;;;:;<<<<<<<<<<",
"<<<<<<<<<<<<ooX$$$Xo%@@Xo#+ <<<<<<<<<<<<<<<<<<<<<<<;:::;;<<<<<",
"<<<<<<<<<< o@@oX$$$X@%@X$$@%@<<<<<<<<<<<<<<<<<<<<<<<<<::::;;<<",
"<<<<<<<<< +@@@ooX$$$X@@+#$#%%@<<<<<<<<<<<<<<<<<<<<<<<<<<:>>>;<",
"<<<<<<<<o@@@@@oooX$$$#+@+$#+%%o<  oo<<<<<<<<<<<<<<<<<<<<<:>>>:",
"<<<<<<<o@@@@@+ooooX$$$ @@#$X@%+.oo.o <<<<<<<<<<<<<<<<<<<<;>>>>",
";:;;<;Xo@o+++oo.oooX$$#@+#$X++o#.o.%+<<<<<<<<<<<<<<<<<<<<<>>>>",
"<::::;;:;o    ooooo #$#@+$$Xo....oo+o<<<<<<<<<<<<<<<<<<<<:>>>:",
"<<::::::; <<<<  oooo##$oo$$  oo...o.. <<<<<<<<<<<<<<<<<<:>>:;<",
"<<;::::; <<<<<<< .ooX##X#$$ <    .oo. <<<<<<<<<<<<<<<<::::;;<<",
"<<<::::;<<<<<<<<<  XX#$XX## << .ooo <<<<<<<<<<<<<<<;:::;;<<<<<",
"<<<X;:;<<<<<<<<<<      XXX <<<<<   <<<<<<<<<<<<;;;;;<<<<<<<<<<",
"<<< XX<<<<<<<<<<<      $$X <<<<<<<<<<<<<<<<;<<<<<<<<<<<<<<<<<<",
"<<<<<<<<<<<<<<<<< XoXX#o## <<<<<<<<<<<<<<<<<<<<<<<<<<<<<<<<<<<",
"<<<<<<<<<<<<<<<< o++#$$#$$# <<<<<<<<<<<<<<<<<<<<<<<<<<<<<<<<<<",
"<<<<<<<<<<<<<<<< o+##$$##$#o<<<<<<<<<<<<<<<<<<<<<<<<<<<<<<<<<<",
"<<<<<<<<<<<<<<<<.@@@##$##$+%@@<<<<<<<<<<<<<<<<<<<<<<<<<<<<<<<<",
"<<<<<<<<<<<<<<<<o@%%%@#Xo@@%%%@<<<<<<<<<<<<<<<<<<<<<<<<<<<<<<<",
"<<<<<<<<<<<<<<< +@%%%%oooo@@@%%@<<<<<<<<<<<<<<<<<<<<<<<<<<<<<<",
"<<<<<<<<<<<<<<< @%%%%o oooo@@@%%@<<<<<<<<<<<<<<<<<<<<<<<<<<<<<",
"<<<<<<<<<<<<<<<.+@%%%+<  oo.o+@@%@<<<<<<<<<<<<<<<<<<<<<<<<<<<<",
"<<<<<<<<<<<<<<<o+%%%@<<<<  .oo+@%%@<<<<<<<<<<<<<<<<<<<<<<<<<<<",
"<<<<<<<<<<<<<<<o+%%%+<<<<<<< ..o@%+<<<<<<<<<<<<<<<<<<<<<<<<<<<",
"<<<<<<<<<<<<<<< @%%@<<<<<<<<<  o+o <<<<<<<<<<<<<<<<<<<<<<<<<<<",
"<<<<<<<<<<<<<< o@%%+<<<<<<<<<X#XX#X<<<<<<<<<<<<<<<<<<<<<<<<<<<",
"<<<<<<<<<<<<< Xo@@@<<<<<<<<<  ####X<<<<<<<<<<<<<<<<<<<<<<<<<<<",
"<<<<<<<<<<<< X o+@o<<<<<<<<< XX##X<<<<<<<<<<<<<<<<<<<<<<<<<<<<",
"<<<<<<<<<<<< XX  X <<<<<<<<< XX##X<<<<<<<<<<<<<<<<<<<<<<<<<<<<",
"<<<<<<<<<<<< XXXX# <<<<<<<<< XX##X<<<<<<<<<<<<<<<<<<<<<<<<<<<<",
"<<<<<<<<<<<< XXX# <<<<<<<<<< X###X<<<<<<<<<<<<<<<<<<<<<<<<<<<<",
"<<<<<<<<<<< XXXXX<<<<<<<<<<< X###<<<<<<<<<<<<<<<<<<<<<<<<<<<<<",
"<<<<<<<<<<< XXXX <<<<<<<<<<< X##X<<<<<<<<<<<<<<<<<<<<<<<<<<<<<",
"<<<<<<<<<<<X#XX <<<<<<<<<<<< X#####<<<<<<<<<<<<<<<<<<<<<<<<<<<",
"<<<<<<<<<< #$$$X<<<<<<<<<<<< ##$$$##<<<<<<<<<<<<<<<<<<<<<<<<<<",
"<<<<<<<<<< $$$$#<<<<<<<<<<<<X##$$$$$##<<<<<<<<<<<<<<<<<<<<<<<<",
"<<<<<<<<<< #####<<<<<<<<<<<< ####$$$# <<<<<<<<<<<<<<<<<<<<<<<<",
"<<<<<<<<<< X#$$X<<<<<<<<<<<< XXXXX##X <<<<<<<<<<<<<<<<<<<<<<<<",
"<<<<<<<<<< XXX#X<<<<<<<<<<<<<<<<<<<<<<<<<<<<<<<<<<<<<<<<<<<<<<"
};
