/* XPM */
static char *result[] = {
/* columns rows colors chars-per-pixel */
"57 47 19 1 ",
"  c #000001",
". c #0B0500",
"X c #05050B",
"o c #190B05",
"O c #361205",
"+ c #202036",
"@ c #45200B",
"# c #6D2E19",
"$ c #3D365D",
"% c #205565",
"& c #C23D19",
"* c #B14D2E",
"= c #F76D27",
"- c #EE7E36",
"; c #F79F45",
": c #207597",
"> c #3DC2E5",
", c #F7F7F7",
"< c #000000",
/* pixels */
"<<<<<<<<<<<<<<<<<@@@<<<<<<<<<<<<<<<<<<<<<<<<<<<<<<<<<<<<<",
"<<<<<<<<<<<<<<<@@===#@<<<<<<<<<<<<<<<<<<<<<<<<<<<<<<<<<<<",
"<<<<<<<<<<<<<@@&======@@<<<<<<<<<<<<<<<<<<<<<<<<<<<<<<<<<",
"<<<<<<<<<<<<<OOO@#&=&@@#@<<<<<<<<<<<<<<<<<<<<<<<<<<<<<<<<",
"<<<<<<<<<<<<<<OOOOOOO*#&@<<<<<<<<<<<<<<<<<<<<<<<<<<<<<<<<",
"<<<<<<<<<<<<<@O&#@O#*;*O<<<<<<<<<<<<<<<<<<<<<<<<<<<<<<<<<",
"<<<<<<<<<<<<O#=#$#-;##+<<<<<<<<<<<<<<<<<<<<<<<<<<<<<<<<<<",
"<<<<<<<<<<<<O@&@O@;;, @<<<<<<<<<<<<<<<<<<<<<<<<<<<<<<<<<<",
"<<<<<<<<<<<<<OO@@#**;-@<<<<<<<<<<<<<<<<<<<<<<<<<<<<<<<<<<",
"<<<<<<<<<<<<<o@@$$XX#;@<<<<<<<<<<<<<<<<<<<<<<<<<<<<<<<<<<",
"<<<<<<<<<< o###+$+@##@<<<<<<<<<<<<<<<<<<<<<<<<<<<<<<<<<<<",
"<<<<<<<<X+X@#oX++X@***@<<<<<<<<<<<<<<<<<<<<<<<<<<<<<<<<<<",
"<<<<<<<XXXX@oX X++o#***###<<<<<<<<<<<<<<<<<<<<<<<<<<<<<<<",
"<<<<<<< XXXooo XXXX@##****##XXXX %%%%%%%%%%%%%%%%%%%%%%%<",
"<<<<<< XXXX oo XXXX oo@*#***@++$+%::::::::::::::::::::::%",
"<<<<< o XXXX o XXXX  oo@####o$++++%::::::>>>>>>>>>>>>>>>:",
"<<<<<.oo XXX oXXXXX o*# ooo@oXX+XX%:>>>>>>>>>>>>>>>>>>>>:",
"<<<< ooo      X XX o#*#<< XXX*<$X%:>>>>>>>>>>>>>>>>>>>>:%",
"<<< ooooo@@##o XXXo##*@<<<<<X+oX%::>>>>>>>>>>>>>>>>>>::%<",
"<<< oooo***@*@ XXo####.<<<<<<%%%:>>>>>>>>>>>>>>>>>:::%%<<",
"<<<< o@##*#.<   o@@##o <<<%%%:::>>>>>>>>>>>>>:::::%%<<<<<",
"<<<<< o@@#@<<         <%%%:::>>>>::::::::::::%%<<<<<<<<<<",
"<<<<<<  .. <<  %%%%%::::::::::::%%%%%%%<<<<<<<<<<<<<<<<<<",
"<<<<<<<<<<<<< o##@@o  <<<<<<<<<<<<<<<<<<<<<<<<<<<<<<<<<<<",
"<<<<<<<<<<<<< #****#.<<<<<<<<<<<<<<<<<<<<<<<<<<<<<<<<<<<<",
"<<<<<<<<<<<< o#****++o#<<<<<<<<<<<<<<<<<<<<<<<<<<<<<<<<<<",
"<<<<<<<<<<<< @#***#..**#<<<<<<<<<<<<<<<<<<<<<<<<<<<<<<<<<",
"<<<<<<<<<<<< o****#.#***#<<<<<<<<<<<<<<<<<<<<<<<<<<<<<<<<",
"<<<<<<<<<<<< @#****@@#***#<<<<<<<<<<<<<<<<<<<<<<<<<<<<<<<",
"<<<<<<<<<<<< @*****o###**##<<<<<<<<<<<<<<<<<<<<<<<<<<<<<<",
"<<<<<<<<<<<< @#***#.o@##**#<<<<<<<<<<<<<<<<<<<<<<<<<<<<<<",
"<<<<<<<<<<<< @****#<<  o@*#<<<<<<<<<<<<<<<<<<<<<<<<<<<<<<",
"<<<<<<<<<<<< ##***@<<<X++XX<<<<<<<<<<<<<<<<<<<<<<<<<<<<<<",
"<<<<<<<<<<<< #****#<<X$$$$X<<<<<<<<<<<<<<<<<<<<<<<<<<<<<<",
"<<<<<<<<++  o#***@<< +$$$$X<<<<<<<<<<<<<<<<<<<<<<<<<<<<<<",
"<<<<<<<++$$ #***#@<< ++$$+<<<<<<<<<<<<<<<<<<<<<<<<<<<<<<<",
"<<<<<++++$$X@*##@<<< ++$$+<<<<<<<<<<<<<<<<<<<<<<<<<<<<<<<",
"<<<<++++++++ o#@<<<< ++$$+<<<<<<<<<<<<<<<<<<<<<<<<<<<<<<<",
"<<+++++X++++X  <<<<< +$$$+<<<<<<<<<<<<<<<<<<<<<<<<<<<<<<<",
"<++$++XXXXX  <<<<<<< +$$$+<<<<<<<<<<<<<<<<<<<<<<<<<<<<<<<",
"<++$+XXX   <<<<<<<<<X+$$+<<<<<<<<<<<<<<<<<<<<<<<<<<<<<<<<",
"+++$$+X <<<<<<<<<<<<X+$$$+<<<<<<<<<<<<<<<<<<<<<<<<<<<<<<<",
"++++$$$X<<<<<<<<<<<<X+$$$$++<<<<<<<<<<<<<<<<<<<<<<<<<<<<<",
"X+++$$+X<<<<<<<<<<<<X++$$$$$++<<<<<<<<<<<<<<<<<<<<<<<<<<<",
" +++$+++X<<<<<<<<<<<X++$$$$$++<<<<<<<<<<<<<<<<<<<<<<<<<<<",
"< X++$$++<<<<<<<<<<<XXXXXXXXXX<<<<<<<<<<<<<<<<<<<<<<<<<<<",
"<<<XX++XX<<<<<<<<<<<<<<<<<<<<<<<<<<<<<<<<<<<<<<<<<<<<<<<<"
};
