/* XPM */
static char *_3e22c55a08348d2ea4fa7e4aeac9f51iN2k5RtuKGPgBU8N[] = {
/* columns rows colors chars-per-pixel */
"364 132 249 2 ",
"   c None",
".  c #020302",
"X  c #0C0200",
"o  c #050906",
"O  c #0B0B05",
"+  c #040609",
"@  c #060A0A",
"#  c #0A0D0C",
"$  c #09060A",
"%  c #130400",
"&  c #1A0400",
"*  c #130C01",
"=  c #1B0C01",
"-  c #120E0B",
";  c #1A0D0C",
":  c #0C1204",
">  c #0D110C",
",  c #071109",
"<  c #131304",
"1  c #1B1303",
"2  c #1C1A03",
"3  c #12130C",
"4  c #1B150B",
"5  c #14190B",
"6  c #1C1A0C",
"7  c #151903",
"8  c #0C0E12",
"9  c #0C0D18",
"0  c #110E12",
"q  c #150E16",
"w  c #0E1212",
"e  c #0A1117",
"r  c #121413",
"t  c #1A1512",
"y  c #161815",
"u  c #1A1B15",
"i  c #141519",
"p  c #161A1A",
"a  c #1A1D1C",
"s  c #1A141A",
"d  c #230B01",
"f  c #231401",
"g  c #231B02",
"h  c #221C0C",
"j  c #271905",
"k  c #231B13",
"l  c #241817",
"z  c #331D00",
"x  c #1E201E",
"c  c #1B2212",
"v  c #1F220F",
"b  c #282208",
"n  c #352500",
"m  c #3B2B00",
"M  c #372702",
"N  c #3C3201",
"B  c #22231D",
"V  c #282416",
"C  c #342B18",
"Z  c #1B1E21",
"A  c #161920",
"S  c #110E21",
"D  c #1D2223",
"F  c #1E2529",
"G  c #222524",
"H  c #262925",
"J  c #292B25",
"K  c #212629",
"L  c #242A2C",
"P  c #2A2D2B",
"I  c #2C2224",
"U  c #2D302D",
"Y  c #32332D",
"T  c #262D31",
"R  c #292E31",
"E  c #2B2D31",
"W  c #2D3132",
"Q  c #2C3234",
"!  c #2E3639",
"~  c #313536",
"^  c #323434",
"/  c #343739",
"(  c #35393B",
")  c #3A3C3D",
"_  c #363936",
"`  c #302F2A",
"'  c #251D21",
"]  c #433400",
"[  c #4A3901",
"{  c #473403",
"}  c #413F33",
"|  c #3E403E",
" . c #4C4400",
".. c #554A00",
"X. c #5A4C00",
"o. c #544503",
"O. c #5B5100",
"+. c #595516",
"@. c #655802",
"#. c #6B5509",
"$. c #776502",
"%. c #766814",
"&. c #444336",
"*. c #43443C",
"=. c #49473A",
"-. c #4B4A3D",
";. c #47483A",
":. c #50513F",
">. c #756A29",
",. c #3B3E40",
"<. c #363E41",
"1. c #3E4142",
"2. c #434542",
"3. c #4C4D42",
"4. c #4B4D4A",
"5. c #464846",
"6. c #514E42",
"7. c #4E5144",
"8. c #525344",
"9. c #58574B",
"0. c #585A56",
"q. c #4E5151",
"w. c #615E50",
"e. c #5E615C",
"r. c #656254",
"t. c #6E6A5A",
"y. c #686659",
"u. c #716E5D",
"i. c #6B6857",
"p. c #666866",
"a. c #75756E",
"s. c #5F6261",
"d. c #89770D",
"f. c #8C7927",
"g. c #8E792B",
"h. c #7E807D",
"j. c #978810",
"k. c #A59416",
"l. c #988831",
"z. c #AB9630",
"x. c #BCA727",
"c. c #B6A538",
"v. c #AFA02A",
"b. c #BCA519",
"n. c #D9BA0B",
"m. c #DDBC14",
"M. c #DBBA19",
"N. c #CFB513",
"B. c #E2BC0D",
"V. c #E3BC15",
"C. c #E4BD1B",
"Z. c #EABE1C",
"A. c #E8BD15",
"S. c #F0BF1C",
"D. c #C4AC29",
"F. c #CFB731",
"G. c #E4BE22",
"H. c #EBBE23",
"J. c #E6BC2A",
"K. c #F1BE2E",
"L. c #DCC50C",
"P. c #DDC213",
"I. c #DCC31B",
"U. c #DDC813",
"Y. c #E4C40E",
"T. c #E3C314",
"R. c #EBC416",
"E. c #E5C31B",
"W. c #EBC41C",
"Q. c #E5CA1B",
"!. c #ECCA1C",
"~. c #E6CA15",
"^. c #F1C51D",
"/. c #F2CB1D",
"(. c #F3CC17",
"). c #EDD21C",
"_. c #DDC325",
"`. c #D6C239",
"'. c #E5C323",
"]. c #ECC423",
"[. c #EDCA23",
"{. c #E5C42A",
"}. c #ECC52A",
"|. c #ECCA2A",
" X c #E5CA28",
".X c #F1C523",
"XX c #F2CA24",
"oX c #F2C52A",
"OX c #F3CB2B",
"+X c #F9CD2A",
"@X c #ECD329",
"#X c #F5D429",
"$X c #E9CA33",
"%X c #F5C932",
"&X c #EBD638",
"*X c #F3D53C",
"=X c #F7DA38",
"-X c #FEE33C",
";X c #FCE538",
":X c #F7E034",
">X c #B09944",
",X c #BBA847",
"<X c #BDAE53",
"1X c #908C61",
"2X c #C3AD48",
"3X c #C6B24B",
"4X c #C9B555",
"5X c #D3BB55",
"6X c #CCB44D",
"7X c #D3BF60",
"8X c #D9C557",
"9X c #D9C546",
"0X c #F7DB46",
"qX c #EAD759",
"wX c #F3DB58",
"eX c #E6CF4F",
"rX c #FDE443",
"tX c #FDE44B",
"yX c #FBE748",
"uX c #FCE553",
"iX c #FDEA54",
"pX c #FCE55C",
"aX c #FEEC5B",
"sX c #F6E557",
"dX c #FFF25A",
"fX c #F4E955",
"gX c #D7C86C",
"hX c #E9D664",
"jX c #F3DC66",
"kX c #EAD46E",
"lX c #FCE463",
"zX c #FEEC63",
"xX c #FAE969",
"cX c #FFF367",
"vX c #FAE875",
"bX c #FEF476",
"nX c #ECE569",
"mX c #898B86",
"MX c #93948D",
"NX c #9B9B94",
"BX c #999A95",
"VX c #8E918E",
"CX c #9EA19A",
"ZX c #A3A39C",
"AX c #ABABA3",
"SX c #A7A8A2",
"DX c #B1B2AA",
"FX c #A0A19D",
"GX c #F5EB88",
/* pixels */
"                                                                                                                                                                                                                                                                                                                                                                                                                                                                                                                                                                                                                                                                                                                                                        ",
"                                                                                                                                                                                                                                                                                                                                                                                                                                                                                                                                                                                                                                                                                                                                                        ",
"                                                                                                                                                                                                                                                                                                                                                                                                                                                                                                                                                                                                                                                                                                                                                        ",
"                                                                                                                                                                                                                                                                                                                                                                                                                                                                                                                                                                                                                                                                                                                                                        ",
"                                                                                                                                                                                                                                                                                                                                                                                                                                                                                                                                                                                                                                                                                                                                                        ",
"                                                                                                                                                                                                                                                                                                                                                                                                                                                                                                                                                                                                                                                                                                                                                        ",
"                                                                                                                                                                                                                                                                                                                                                                                                                                                                                                                                                                                                                                                                                                                                                        ",
"                                                    ) 1.L L ~ P W W P P P P R W P W W W P P R W E W Q Q W W W W R W W W R W W P W W Q W R P P P W W W W W W W W W R P P R W ~ / P Q ~ ~ ~ / ~ W ~ W P Q ~ ~ W W ~ ~ ~ ~ Q W W W Q ~ _ ~ ! ~ Q W P Q / / ~ Q Q ~ ~ ( ~ P P ~ ( ~ ( ( ~ ~ ~ / / / P ( / ~ ) W L ~ 1.~ W / ( ( / ( / ( / ~ ~ ~ / ( ( ( ( ( / ~ Q W ~ ~ / ( / ~ / W ( ~ ~ ( ( ( ( ~ / ~ ( ( ( ~ Q Q ~ ~ ~ ~ ~ Q W ~ W ~ ^ ~ ~ ~ / / / ) W ( ( P ( ^ ~ / ( ( ( ( ( / Q ~ ~ ~ ~ / ( ~ / ( ( / ~ ~ / ( ~ ~ ~ ~ ~ ~ ~ ~ ( ( / ( ( ( ~ R ( Q ~ ) / ! ~ ( ~ / / / / / / ( ( ) ( / ~ / ( ( ( ( ( / ~ ~ W W ! R W W R W ! W W W ! ~ W P W ~ W P W W P L P W P P P P P L K K W P P L K P 1.4.                                                        ",
"                                                  a p / G a a a D p G p Z a G a D D D G G G D G p D D Z D D D K a D D a D L G a a Z a G D K G K Z D G G D D D D D D a D G D a G L a K K D G a a D G G G D L G G G G Z D Z G G L D L D D L D a G D D D L D D D K G a L D D D G D K D L D G D L G K G G L L W D K D D K W P G G L D D P D L P K D L D D D G K D K D L a K L K G K W K L K a D L K G P D x L G D L L D G K a K P D L D D L G G D D L D G K G G L D L G G G D G L D D K K L D K L K G L L L L K K K G K D L D L D D L D D K K D D L G p D L D D G G K D L P D D K G D D D D D K p D L a a G D D K a D a D r a D D a D D D D a a D D D a D a D a D D a p D a Z p p a a D p p D ! <.D P                                                       ",
"                                                D Z @ p 1.Z L D D a D p a D D D a a a D D D a a p a a Z D a a p a Z D D a i p D G a D p G a D a Z D D Z a Z a p D a a D D D D G D a D a a D p D D D D a a p a D a a Z D Z D Z D K D D D a D G D a D D L D D x D G D D K a K D D D a D D K D G D K K D D a D x K D D D G D D D G G G D D a G D D D D L K D G D L a K D G D D D G D D K L D K L D G K D K L K D D G L G D K K D G D K K L D D K L D D D L D D G L D D D D D D G D K D K D K D L D D G G D G G D D D L G L a K K P a P L G D D D G a G L D G D D L D D L L D D D D G a G D K D D K D L D D D Z p D K D D D D D a D D Z D a a a D D a p a D D D a a D p a p a D p p p a D i D / D e p (                                                     ",
"                                              D i w @ # P Q D D K D D D D G D K D D D D K K D D L G D D D D G D K D D K G D D G Z K D L p D Z K K K D D D K K D K D Z Z D D D D Z F L Z D D p K K D K D K Z K L D D D D L K D Z K F K F Z D K K K K D K D K D K K D K D D D D D K D K L L K D D D K D K R K F D D K K K K K K D K K D L K K F K K L Q L K K K L D K K L K K T R L K K K D D L K L K K L K D L D D D K L K K K K K K D F D R L D Q K D L L T K D D K K K K K K L Z Q K Z L K a L D D D D L T L K K R L L Z K K L D L L L D K R Z i Z D D K D D W K K L L L L L T K D K D K D K L K D Z D D R L Z D D Z D D Z Z Z K D K D D Z D D K D D L D F D K D D D D D D D L D a D D W L w a p D W                                                   ",
"                                            a e # # r r @ ) ! D D D D D D K x G a D D D D D D a D a D G D D D p G D a a D L G a K Z Z a K K K Z D D D D D K K D K K D D D K K K D K K D D K Z D D Z D D K D F K K D K D K K K D a L K D K K Z D D K D D D K D D L D L D K D K K D K K K D K K D K K Z D R L R F K K L K K K K K D K K L W D L K L K K D D D K K K Z D R L L T T D K L R T L R K L L L L K D L T K K L L K K L D K L L L D K L L K K K L K K L L D K K K L K D L K K L ! Z K T L R R L K K L D Z K K D K D K D D K L K K R L Z K Q D L W L K K K D D D D D F F K K D D K D F D K K D D L p D D a D L D K D D K D K D K D D a D D F D Z D a p Z D D D D D a D D L D D a ! / a p D p w G G                                                 ",
"                                          a e # w r w w @ D q.R D G L D K L G K G K K K G G K K L D D D x D K G G L L D D G K D L D D D L L K Z L L L L K K K K D D D D D D L K K D L L K R L D L L K L K L K D K K R K K D L R Z L L F T L D K D K L L L L K D L Q L W K L K T D K L K K L R L K L K F T F T L T T L L L K L Q L T L K L F W L R K K K L K L L L D L T L L L K L R L Q W L R K K R L R R K L R L ! L K W L K K L K F L D D F L F L W K L L T T K L K L R L K L L a K K K K Q D F L L L R Q Q R T K K R W R K K R Z Q Q F K D L / K K L K L K D L L L L L F D F T L F T F L K F K R K K L F p K F R D K Z D K D D D L K F D L L D D F L L Z K D D D p x a D a a p G L ! G r a r a w w G L                                               ",
"                                        D r @ # w 8 8 w e + Q 1.D D G D G G D D L L K K G D D K D D K L K G D D K D K K G D D L Z K K R Z D D K D K K K K D D K K K L L F K L K L D K L K L L Z T L K L K L K D K D D D K K K D F D K L F F L F F D F D K L L F K R K L K D D K K D K L K D K K D K F F L L L F F F F L L F F L K L D F D K L K L K L L R Z K K D K R D D L L D K L Z D D D L K L L D D L K K K K L D K K K L D Q L F T K L F L K L L F L L D D L K K L L L K L D W K D ! R D Q L R R L K K K D R L L R L K K L D D L D K L Z L D L L D K Q L R Q L K K F K L T W K K K L F L D L D Z D R L D D L L D L L K K L D D K K D D D D D D F K L Z L D D K D D D D D D D D ~ L r r w r p p w p D                                               ",
"                                      D i # w 8 w # r p i e 8 <.! K G L K L G L P K G K L G D K K L K K K K K L L D D K L K L L L K L K Q L R K K K K L L K K L Q L T Q F L T L W T L T T T L K R L K L L L L L Q T K L R Q T K W L L T L L T L T L L F L L W T W Q T L ~ F T L T K T T Q K L L Q T F F L ~ Q Q L L T W Q T L F T T L W L Q L L T W ! W Q D T L L T Q F T ~ Q T D L F Q ! Q ~ Q ~ Q L T T T ! W Q L L ~ L T <.L L T Q ~ F F L Q D Q L ! K T K ~ Q T T W T T W Q T T L ~ L Q T Q L W Q T T Q Q W T Q Q T T L T T W L L T T Q ~ T T ~ Q L L W K T ~ L L L F L Q Q Q L L L T L ~ F Q L Q T T F T K T D F L T L K T L L L W F L F F L T D F D D W K a G G K G D K G L L W D w r w a w a p # p D G                                           ",
"                                    a w # w w w w e # # r r 8 p ^ a w D p x r a D y r p a p y p r a a a D x p a a a y r p a a p a a p a p p p y D a a x D a a a a r p a p p D a w p r p D p p D D p p a D i p a p Z a Z r p p Z a x y p D p w x p y a p D p p y p a w a D a p a a p D p D a G a r a D D a G p D D a p r p D a p L a D a D a p a p a a p D r D a K p p p K D a D D K p D D p D a a r a K i r D p p D p a p w a r p a D D a D D a D D # D y D w D a p p a p p a D D p a p D D D p a D D a a D D D w a a p p a D a p D r p p w a p D w p D p p y p D p Z D a a a p a p w D w a D p a D p # K D Z a a r D p a a p r p p p D p D a p a D p x p p D w p p y r a w p > p W G p p a x w w a w p w w L                                           ",
"                                  y w # # > w # w w w # # p # . ) 4.G G u G G P a H P G a G H B B x u x x B G J u G H B B H J x G G J B G B G J B J G B a J J G B J P J H J J G ` u J J J a _ u J ` B J P B ` a J J P a J B B J J a B J B x B B P J H P B B Y B P B P _ u B J a J B G Y B J Y H H J x U H H J a U G U Y B x J x P G B G H H J U B U J B H G B J B J J ` J B H J J G J G G J G J J P P J J G G J B J ` J B G ` _ G J P _ U J Y J B _ P Y ` J J J J J P _ a P P G _ B J _ G B U P G H J a P B G J _ J G Y Y Y G J P _ Y P U Y J H U P _ G / P ^ H H J G U H U G G J U J G P H G U y J Y G G H U H x B H P G a x H P B G H a u G H G H a B G B J G u u Y H G U G U 4.~ . # a p p a 8 p Z w a a # L P                                       ",
"                                a r > > > # # w w # a w y . @ H VXNXmXMXMXBXBXNXBXMXBXBXMXMXNXNXBXVXBXMXCXBXZXZXmXBXBXNXNXNXNXMXBXNXNXmXCXmXVXBXNXNXBXNXBXBXBXZXMXBXNXNXMXMXBXMXNXMXZXNXNXMXZXBXMXZXBXZXNXBXZXNXZXZXDXZXAXZXNXZXDXBXNXDXAXNXZXDXAXAXZXAXZXZXDXZXNXMXZXZXNXZXAXCXZXNXZXAXMXNXZXZXZXAXmXDXMXSXMXmXMXCXSXNXVXZXSXMXBXNXNXNXBXBXNXZXBXNXBXBXSXSXZXZXZXZXNXNXNXBXAXAXBXNXAXZXBXNXNXAXAXAXAXAXAXAXAXAXCXZXSXAXAXDXDXDXZXZXCXZXBXBXZXZXNXDXZXAXAXZXZXZXAXAXSXAXNXZXSXCXNXAXNXNXDXZXMXAXNXAXSXBXDXZXBXZXZXZXDXAXZXBXZXDXMXMXZXAXSXZXZXMXBXZXAXMXNXMXNXMXNXCXBXZXNXSXZXSXCXSXCXNXDXDXNXmXSXNXCXmXNXBXAXZXCXNXNXCXCXCXZXSXZXMXVXBXBXNXBXmXNXNXMXMXMXBXZXZXZXBXNXmXmXMXMXCXNXp.1.# r a p r Z 8 p Z p p e r G                                       ",
"                              a y > # # > > # w # w @ # a . G a.O y O 3 r 3 r u a y i u p u a B u y u u a u a B y a a B B B B a B G B 3 P a a B B a u B a a u G a B B B B B B a a B H B B y B B y x B G B a J H B G J B J B a B B y u B a y a B a B u a u y B u B u B B B x G u B B B G y u B B H G B x B y B y x y a B B a B B r a B u y u a x G B u u G B u a y u u B B u a u u u B a u x B G a u u u u u u u u u u a B G G x B B u a u y B u 3 B y u u u u y u u u y y u a u y B y y G a 3 a u u a u a u y 3 x 3 u 3 u y u a u u y y y 3 3 u O y x 3 y y a u u a y u 3 y r y y a y 3 y y 3 u B y y y G x a y u y 3 3 y a a a B y y x x x a y B a u u u x B H B B G x u a u a @ 2.FXq.. r Z a p p p p w w r w a L D                                   ",
"                              # @ # # # # w w # w r p r . / p.a o # o . o . . . . . . . . . . . . . . . . . . . . . . . . . . . . . . . . . . . . . . . . . . . . . . . . . . . . . . . . . . . . . . . . . . . . . . . . . . . . . . . . . . . . . . . . . . . . . . . . . . . . . . . . . . . . . . . . . . . . . . . . . . . . . . . . . . . . . . . . . . . . . . . . . . . . . . . . . . . o . . . . . . . . . . . . . . . . . . . . . . . . o . . . . . . . . . . . . . . . . . . . . . . . . . o . . . . . . . . . . . . . o . . . . . O . . . . . . . . . . . . . . . . . . . . . . . O . . . . . . . . . . . . . . . . . . . . . . . . . . . . . . . . . . . . . . . . o . L SX4.o i p i Z p p a p r w r 8 H G                                 ",
"                            @ > # > w # # w w # > . > . ) mXi o i p i r r # 8 # 0 # r r r # 8 @ r # i @ i @ r r 0 0 # # 8 @ 8 # # @ # r # # 8 # # r r # # r r # > # # # @ # # @ r # # > # w w # r @ # # # r # # # # 8 # r # > # # # # # # # > r # w # # r # # w # r # r # r # r > # # > r r r # w r + r # r 8 > # i r @ # r r # r # # # r r r # @ r r 0 # # r r r r > # # 8 r i r r 3 3 > # # # # # > > > w r w > w > # # # # > r w 8 # r r r r w r # # r w > # > r i # i # # # r r r > # w r r # r @ # # r @ r # # r r # r # r @ $ r r # # i @ i r # r r 0 @ # # # # r 8 r 8 r # r r # r r 8 @ 8 # i @ r o r r # r r w # # 8 # r # # # # - r 3 r # r # # - # i r y > 3 r > y r r @ . a VXq.. a D p r a a p p w # w > L x                               ",
"                          # > # w # # w w # # r y # . 5.a.# # p a a i # # 0 r 0 i # 8 i r # 8 r # # r # r # 0 8 8 r 8 r r # r 8 # r r # i 8 8 r r r r 8 r 8 r r r r r r 8 8 r 8 r # r r # w r 8 r 8 r r 8 8 8 r 8 8 8 r r 8 r # r 8 8 r r 8 # r r r 8 8 r 8 # r 8 r r # r # 8 8 8 # 8 # 8 # r r r w r # i # r w r 8 # r r # # r 8 # # 8 8 # # r r r r # # 8 8 @ # @ w w 8 8 # # # r 8 w # # 8 8 # # w w w 8 w w e w 8 w r r w w r 8 8 # r r # r r 8 r 8 r w r # w r r # r # 8 r @ 8 8 # 8 # # w 8 r # r # r 8 8 r # r # r r r 8 i r r r 8 r r r @ r 8 # 8 r r r r r r w # # # 8 r r r 8 # 8 8 r @ # r 8 r 8 8 # r w 8 8 8 w r r 0 0 8 8 r r r r r r r r 8 r r i # # # 3 3 # @ o # p # . D BX( . e a a w w p i p w p w @ G G                             ",
"                        > # w # > @ @ > w # # w o o 5.p.. # p y i # o . . . . . + . . o . . . o . o . + . . . . . . . o + . . . . . . . + . . o . . . . + . . . . . . . . . + . . . # + . . . + + + + + . . + + + + . + . . @ . + + + . . . . . + . . . . . . . . . + . @ . + + + . + . . . + + . o o . . . . @ . . . . . . . . + . + + . . . + . . . . + + + + $ . + . . + . + . + . . + . + . + + + + + . + + + + + + + + . . + + + . @ # . + + . + . + . + . . . . . . . + + + . + @ + + + + + . . # . . + . + . # . . . . + . + . . # + . + . # # . . + + + . . . . . . o + + . . @ # . . . o + . o . @ . o + . . . o o o + . . + . . . . o . . . + o . . . o . . . . . . o # r w r . P FX) + p D p p a w e p w i w # D G                           ",
"                      w w w # # # w > # > w # o o 5.p.# r i x p 8 . . o . . . . . . . . . . . . . . . . . . . . . . . . . . . . . . . @ . . . . . . . . . . . . . . . . . . . . . . + . . . . . . . . . . . . . . . . . . . + . . . . . . . . . . . . . . . . . . . . . . . . . . . . . . . + . . . . . . o . . . . . . . . . . . . . . . . . . . . . o . . . . . . . . . . . . . . . . . . . . . . . . . . . . . . . . . . . . . . . . . . . . . . + . . . . . . . . . . . . . . . . . . . . . . . . . . . . o . . . . . o . . + . . . . . . . . . . . + . . . . . . . . . . . . . . . . . . . . . . . . . . . . . . . . . . . . . . . . . . . . . . . . . . . . . . . . . . . . # r > i . U BX( @ w a r p p p i e r p w 8 a D                         ",
"                  a w . w # @ w w w @ w # w r . 2.p.@ . a p a o . . . . . . . . . . . . . . . . . . . . . . . . . . . . . . . . . . . . . . . . . . . . . . . . . . . . . . . . . . . . . . . . . . . . . . . . . . . . . . . . . . . . . . . . . . . . . . . . . . . . . . . . . . . . . . . . . . . . . . . . . . . . . . . . . . . . . . . . . . . . . . . . . . . . . . . . . . . . . . . . . . . . . . . . . . . . . . . . . . . . . . . . . . . . . . . . . . . . . . . . . . . . . . . . . . . . . . . . . . . . . . . . . . . . . . . . . . . . . . . . . . . . . . . . . . . . . . . . . . . . . . . . . . . . . . . . . . . . . . . . . . . . . . . . . . . . . . . . . . o r y @ @ a VX1.. p p a r i w D p @ r p 8 D G                       ",
"                i p # # w # # w . > r > r # . q.s.o r a i a @ . . . . . . . . . . . . . . . . . . . . . . . . . . . . . . . . . . . . . . . . . . . . . . . . . . . . . . . . . . . . . . . . . . . . . . . . . . . . . . . . . . . . . . . . . . . . . . . . . . . . . . . . . . . . . . . . . . . . . . . . . . . . . . . . . . . . . . . . . . . . . . . . . . . . . . . . . . . . . . . . . . . . . . . . . . . . . . . . . . . . . . . . . . . . . . . . . . . . . . . . . . . . . . . . . . . . . . . . . . . . . . . . . . . . . . . . . . . . . . . . . . . . . . . . . . . . . . . . . . . . . . . . . . . . . . . . . . . . . . . . . . . . . . . . . . . . + . . . . . . . o # > # @ D VX( . D i 8 G D e p r r r i w a a                     ",
"              D r # @ w # @ w w w y w > > . q.s.# @ a a p o . . . o . @ . . > o @ @ # # # O O O # O O O O O O O # # O O O O O O o o o O O O O O O O O O O o o O O @ @ O @ o O O # # # # # # # # # # # # # # # # @ O # @ # > # # @ @ @ @ # # # # # # # # # # # # # o O # # o o @ # # @ # # # # # # # O # # O O # o O O O o o O O # # # # @ O O O # @ o O @ # # @ @ # # @ @ @ # # # # # # # # # # @ @ @ @ # @ @ @ O @ # # O O O # @ # # # # # # # # @ O O @ # # @ > @ @ # # # # 3 # # # # # # # @ @ # # # # # # # # # # # # # # # # # # # # # # # # # # # # # # # # # # # # # # O # # O O O O O O O O O O O O O O O O O O O O # # O O O O O # # # o o O O O O O @ . w + # r # # . . . . . @ r r o . L mXW @ r D # w w a p p p p w w D K                   ",
"            a p @ o # w # # y > w # p @ . q.a.# # a G r @ . . . . . 3 @ # # . r # # # # # # @ @ # # # O O O O # O O O # O O O O # # # # O O O # 3 > > # # # # # # # # # # # # # # # # # # # # # # # # # # # # # @ @ # # # > # > # # # # > > > > > # # # # # # # # # # # # # # > # # # # # > > > > # > 3 3 > # # # > 3 > # # # > > > > > > # # # > > # # > > > > > > > > > > > > # # # # # # # @ - # # # # # # # @ # # # # # # # # # # # # # # > # # # # # # # # # @ O @ @ o @ # # # # # # # # # # # > > # # # # > > > > # # # # > > > > > # # # O O @ # # # # # # # # O O # # O # # # # # # # # # # # # # # # # > > # # # # > 3 # # # O O O O O # # # # # # # # w # i @ + r o # o . . . o @ w r r . L BXL . a a e p a p p p w p w r a H                 ",
"          p p o @ > # w > # w w y # > . 2.a.> o G i p # . . . . . r @ @ r # . . o . . . . . . . . . . . . . . . . . . . . . . . . . . . . . . . . . . . . . . . . . . . . . . . . . . . . . . . . . . . . . . . . . . . . . . . . . . . . . . . . . . . . . . . . . . . . . . . . . . . . . . . . . . . . . . . . . . . . . . . . . . . . . . . . . . . . . . . . . . . . . . . . . . . . . . . . . . . . . . . . . . . . . . . . . . . . . . . . . . . . . . . . . . . . . . . . . . . . . . . . . . . . . . . . . . . . . . . . . . . . . . . . . . . . . . . . . . . . . . . . . . . . . . . . . . . . . . . . . . . . . . . . . . . . . . . . . . . . . . . . . . . . . w @ # . . . . . @ r p @ o ~ VX) . a K p r D w r w p a # r D H               ",
"        G r # r w w # w w # > y r y . 4.p.@ @ H r p o . . . . o # @ # @ @ . ) 5.) ) ) ) ) ) ) ) ( ) ) ) ) ) ) | | | | | | | ) ) ) ) ) ( ( ) ) ) ) ) | | | 2.2.2.*.2.2.2.2.2.2.2.) ) | 2.*.| ) ) ) ) | *.2.2.2.2.5.5.4.5.5.5.2.2.2.2.2.2.2.2.2.2.2.2.2.2.2.5.5.5.*.5.2.| | 5.5.2.5.5.5.5.5.5.5.5.5.2.2.2.2.2.5.5.2.2.2.2.2.2.2.5.2.2.2.2.2.2.2.2.2.2.2.5.2.2.2.5.2.2.2.2.2.2.2.2.*.| | *.2.2.2.2.5.5.2.2.2.2.2.2.2.2.2.2.5.5.2.2.2.2.2.2.2.2.2.5.2.2.2.2.5.5.2.2.*.2.2.| *.5.5.2.5.4.4.5.2.2.2.5.5.2.2.2.5.4.5.2.*.*.*.*.2.2.2.2.2.2.2.2.5.5.5.5.2.2.2.2.2.*.| | | 2.2.| *.2.2.*.5.5.5.2.2.2.2.2.2.2.2.2.2.2.2.2.2.2.2.2.2.2.5.5.| | | *.*.2.2.2.2.2.2.2.2.2.*.| ) 9.1.1._ # . # r @ o . . . o o # i . @ P BXW @ w p p p w a e w p a > w x G             ",
"        D w > a r w # w w > w w # . 5.p.# # a a G o . . . . . # + # # # . 5.D r i i i i i i i y r i p p p y p p p p p p p p y y y y y y p p p p r i i i i p p p y p p p p p p p i p p a p p p y p p a a a a a a y i p y p a p p a a a a a a p p y y y p p p p p p a a y y a a p p p a a p p p p a p y y p p p a p p p p a a a a p p a a a a a a p a a a a a a a p p p p a p p a a a a a a a a a a a a p a a a a r r y y p p p p p p y y i i p p i i i y p y i i p p p p p a a a y p a p y i i y i i i y p p p y G D a a a a a a y p y p p p p p a a a a a a p p a a a p p a a p y y y y y y y y p p p p p p p p i y p p p p p p p p p a a a a a p p p a p p p y p > y # P / . o # r # . . . . . # w > # . r BX/ + p a w p Z i w r y r r > a (           ",
"      G G r r w r r r r w r p . . 0.p.# @ a G a . . . . . . @ # o 8 . @ 5.a . . o o + + + + + o . o o o . . . . . . . . . . . o . . . . . . . . . o o . . o . . . . . . . . . o + o o . . . . o . . . . . . . . . . . . . . . . . . . o . . . . . . o o o o . . o o . . . . . . o o o o o o . . + + . . o o . . . . . . . . . . . . . . . . . . o . . . . o o . o . . o o . . o o . . . . . . . . . . . . . . o o o o o . . . . . . o . . . o . . . o o o . o . . . . o + . . o . . + + + . . . . . . . . . . . o o . . . . . o @ o o o . . + . . . . o o . . . . o + . . o . . . . . . . o o o . . . . . . . . o o o o o . . . . . . . . . . . . . . o o o o o . . . o . G ) O o # # @ o . . . . r # r @ . r VX! @ p a p w Z w p w w p p P (           ",
"      + # p x D y r w r u y . # p.4.# # r i p o . . . . . o r . # . # <.P . @ r @ w w # # w w @ # # # # # # # > # # # # # # # > 8 8 # # # # # > # # # # > > > # 8 8 # , > w 8 # 9 9 8 # > : : , > # # > # > w > w w > > > > w w w w e e # # # O > # # > > # 8 8 8 # # w w # # # w w w w w # # 8 e e w > > , > # r 8 # > > , > > > > , , > > > # 9 9 9 8 8 8 > > > w # # # # # > > # # # # # 8 8 w w w # # # > # # , , # # , > , > > w w w > > > w # > w # # # # # > > # e 8 O : w e e e 8 8 > # # > : : , > > > # 8 8 # # # > e 8 w : : , w S S 9 w 8 8 # # 9 9 > # 9 9 8 > : : > e 9 9 8 # > > # w w # # # # # # # # # > # w > # # # > w > # # w w # # # > > > # # w w @ . D 2.. . # @ # . . . . . . - r @ @ r BX/ @ r a p r p p x D L K a # i         ",
"      o @ # w w a r a a 3 O . y.5.# @ a G G . . . . . . @ > . r . @ 1.a . # # @ # 8 8 # # 8 # # # # # # # @ # # # # # # # # # # # 8 8 8 # # # # # # # # # # # # # # # , , , # @ 9 8 # # # O # , > # # # @ # # # # # # # # > > > # # w w > > 3 > # # # > > # 8 8 # # # # # # # # # # # # > # # 8 9 8 # , : O # 8 8 8 # # > , , > @ 8 > , > # @ # 8 8 8 8 8 8 # # w > w # # # # # > # # # # # w 8 # 8 8 # # # # > # > # # # , , , # # # # # > # # # # # > # # > > # > # # 8 8 O : # # 8 8 9 8 # O 8 # : , , , # # # 8 0 # O : # 9 9 8 : : : # 9 9 8 # # # # # 8 8 # # 8 9 8 # : : # 8 9 9 8 # # > @ # # # w w > w # # # # # # # # # # # # # # # # # # @ @ # # # @ # # # # # @ # a 1.o . # # . . . . . . @ # # @ @ p VX~ # p x p y K P L D @ . . D         ",
"      . . o . . # # r i 3 y p.) @ D p P a . . @ . o . # @ . w . @ 2.G . 8 @ @ 8 8 # @ 8 8 # @ # # # # @ @ @ @ @ # # # # # # @ @ # 8 # 8 # # # # # # # # # # # # 8 8 # # : : : O # # # # # 8 8 8 r - 0 r - # r # # # # # - # # 8 8 8 > 3 > > > > > # , > w > , , > # # # # # # > w # # # w w > # # 3 3 : : # 8 e 9 8 8 # # , , > 9 9 e w , , # # : > # 8 8 8 8 , > > # # # # # # # # # # # # > # @ # # 8 # 8 9 r 8 9 8 8 # # # # > # # # r w 8 # 8 # 8 w # # 8 > , > > 8 9 8 O : : : > > 8 w r 8 9 8 # , 8 8 # # # 8 9 # 3 : # 9 9 9 > : : : # # , : : # 8 8 # # : O # 8 8 # O O # # 8 # # # # 8 # w # # # # # # # # # # # # # # # # # # # # # # # # # # # # # # @ # # # > # o . D ) @ . o w @ . . . . . @ # # # o # BX) . > G U D w . . @ e # p         ",
"      + . o . o . @ o # . B q.# p D a r . . o . . . o @ # # . @ ( L . # 8 8 @ w # @ @ # # # @ @ # # # # # # # # # # # # # # # # 8 # # # # # # # # # # # # > > > # 8 # # : > > : > # # # 0 0 9 0 # # # # # # - # 3 3 3 3 - # # # 0 8 > 3 # # w # > # # > > > : : > # # # > # # > w > > w w w w > > 3 3 > # > e e e 9 8 8 > > > > r i r w > > w > : : # 8 8 8 # , # # # # # # # # # # # # # # # # # # # # # 8 9 e e e 9 8 8 # # # w > 8 # w r w # r # w r 8 # w > > > w 9 i 0 # : < : : > # # 8 # 0 8 > > 8 8 # # # # r w > > # 8 9 9 # : : > > > > , : , 8 9 > : : : # 8 # > # # # # # # , # # # # w # # # # # # # # # # # # # # # # # # > > # # # # # # # # @ @ @ > # @ # # # # . r 1.# . w # # . . . . . @ r i p @ w a.q.G K # . + + # @ @ + a         ",
"      + o @ @ # # o @ @ . i H a a D D . . . . o . > o . r . . 1.L . 8 8 @ # # @ # # # @ # # # + # # @ # # # # # # # # # # # # # # # # # # # # # # # # # > > > > - - # # > w w # w > # # - 3 # > # @ , > > , > , > > > > > , > > # # # r 8 e i 9 9 8 8 8 w # # # # # # w w # # # > # > w # # # > # - - # # 8 e 8 w w 8 > # 3 3 > 3 - O O : > 8 8 : : , # # # # # > > > > > > > > # # # # # # > > # # O O > > w 8 e w > > > > 8 8 # # # # # # # # # # # 3 > > r r # > 8 9 e 8 # 3 3 > r w 8 8 > # 3 > > > 8 8 # > > > > > 3 > 8 8 9 8 > > > 8 9 e w > > > > > > : : : w 8 , : # # # # # 8 # # # # @ # # @ # # # # # # # # # # # # # # # # # # # # # # # # # @ @ @ # > # @ @ @ # w @ . r ) r . # # @ o . . . . o # p a . y p.w . # # # @ # # # + p         ",
"      o o o o @ # . o @ . u q.p G G r . . . @ . @ o # r . > ) G . e @ @ w + @ # # 8 # # # 8 # @ # # @ # # # # @ # # # @ # # # # @ # # # # # # # # # # # > > > # - - # # 8 r w # w > # # > > > > > , > > > > > > > > , , , , > > 3 # 3 w e e i 8 e w w > > # # # # # # w w # # # # # > > # # # 3 # - # # 8 r w , > > > # > 3 3 3 3 O O < 3 r 9 8 > : > > w > , : > w > > > > > > # > > > # # # > 3 # # # > > , # > > > > > > # - # # > # # # # > # # # > # # > > # > 9 9 8 > # 3 3 > r r w w w > > > > # 8 8 # > : : > > > > 8 # # # > # 8 8 8 8 8 > : : # # # : : : 8 8 , : # # # # # # # # # # @ # # @ # # # # # # # # # # # # # # # # # # # @ w w > # # # # > # # @ # # # # > r . . r ) w . . # $ . . . . . . p G a a 4.p . @ # # # > @ @ @ Z         ",
"      o o o . o . @ o > . a 2.a a L D . . . . o # # @ . p | D . @ w @ 8 @ w @ # 8 # # # # # @ # # # @ # # # # @ # # # # # # # # # # # 8 # # # # # # # # > > > # > 3 3 # 8 w > > > , > > 3 3 3 3 > # > 3 # # 3 # 3 3 3 3 3 3 3 3 y 3 3 3 > w w # 3 : : > > > , , # # # # # # # # > > > > > # > 3 # 3 r r 3 r 3 > > > > > > 3 3 3 3 < < < r i 9 9 w > > > e > : : # # # # # # # # # # > > # # > 3 3 # 8 8 > , : : : : > w r > > 3 > > > > > > > 3 3 # > 3 # # # > : 3 8 8 w > > 3 O O : 3 # > 8 # > 3 3 # 9 8 > 3 : : > > > > > # > : > > > > > > > , , > e e w # w w 9 e e 8 8 8 # # @ # , > # @ # > # # # # # @ # # # # # # # # # # # # # # # @ @ # # @ @ @ # # @ # @ # > > # # # @ # . y ( r . o @ $ o . . . . G a p w 0.r o w > # # # # # + i         ",
"      + @ @ o @ # @ # o o > 4.a G G G . . . . # o # . r ~ x . @ r . # @ 8 8 w @ 8 @ @ 8 # + @ # # # # # # # # @ # # # # # # # # w 8 # # # # # # > # # # # # > , > 3 y 3 3 3 3 > : : : > 3 3 3 3 3 3 3 3 3 3 3 3 3 3 3 3 3 3 3 3 3 > 3 3 3 3 3 > > : : : > # O # > # # # # # # > r > > > # # # # O 3 y 3 3 3 3 : < < > > 3 3 3 3 3 < < < - 9 r r 8 > , , 8 8 O O > w # # # # > > # # > > # # > r # > r e w , : : : : > r r 3 3 3 3 3 > > 3 3 3 3 3 # 3 3 3 3 3 3 < < r 8 > > > 3 3 < < < 3 3 r 0 3 3 3 3 r r 3 3 > : , > > 3 3 > > : > > : > > > > > > 3 r r r r r r r r i 9 0 # # # # # , # # @ # # # # > w # # # # # # # # # > # # # # # # # # @ # # # # # # # # w # @ @ @ @ # # w @ @ . p P p . @ # o . . . . p G a x 9.r @ @ @ # # # @ # + a         ",
"      o o o @ @ # @ o @ . i 2.x G L G . . . . # @ . # ^ r . @ # w # @ @ # # # # 8 8 # # # # # 8 # # @ @ # # # # # # # # # # # # 8 @ @ # > > # @ @ # # # > > > > > > 3 3 O O 4 O < < < < < < < < 3 3 4 3 - 3 3 3 3 3 4 3 3 3 t u 3 3 y > O 3 > : # 8 e # 3 O r 3 # # > # # # > 3 > > # r # 3 # r , y > O : < < 7 < < < < : O < * : 4 7 < X 3 X O > r , # 9 9 3 # # # # 3 3 # > 3 # O O # > 3 3 # y O r > # # y , O 3 5 O O 3 3 # * 3 3 3 3 3 - 3 3 3 3 3 3 3 3 < < 6 3 r : 5 > y 3 3 < < < 4 - 3 < < : < 5 < : > 3 > > > > r - 3 > r w 3 : : > w 3 > : : < 3 3 3 3 3 O # S S X < < O O O # 8 w w @ # # @ # # # # @ # > > # # # w # # # # # # # @ @ # # # # @ @ # > # # # # # # @ @ > @ @ # . > ~ i . @ # . . . . a L a p q.r @ # # # # @ # @ @ p         ",
"      o @ o @ @ @ @ o # . i 2.a x P G . . . . @ @ . > P w . # # 8 # # # # # # @ @ # # # # # 8 8 @ @ @ # # # # @ # # # # # # # # 8 # # # # # @ @ # # # # # # > > > O O X X < < < * < < < < * * < * < 1 * * < 4 1 1 4 4 < * * 1 1 4 6 t u 3 < 6 3 p 8 i > 3 # # # > > > > # # # # # # # > # > > 3 r r X 5 < 1 1 < < < < < < 4 6 h 4 < 1 1 1 * * < > > > w r 0 0 O 3 # # > 3 > # # # # 3 3 # # # # # O O > y 3 . r 3 * * < 1 1 4 ; 4 4 4 4 4 4 4 6 < 1 1 1 1 1 1 1 1 X - # 5 O O O 8 - * < 2 1 * * 1 < < 2 * < O O 3 > , , > 3 - - > > # > : 7 3 # * * * < 1 < < < % 1 < h q 0 4 : : O # # # 8 # # # # # @ @ # # @ # # # # # # # # # # # # # # # @ # # # # # @ # # # # # # # # # # @ > # @ # o @ a P @ @ @ . . . . p G x i q.r . @ # # # @ @ @ @ p         ",
"      + @ o @ @ @ @ @ # . y 2.a a P L . . . . @ @ . r L @ @ # # # 8 # # # @ @ @ @ @ # # 8 8 # # o @ @ # # # @ @ # # # # # # # # # # 8 w # @ @ # # # # # # # > > > # X X X % X X X X X X X X X X X X X X X X X X . X . . X X X X X X X X t 3 X < 3 3 O . 3 i 9 i r > > > > > # # # # > > 3 # 3 r @ # X . % X X X X X X X X X X X X X X X X X X < # r e i r - 3 O 3 # # # 3 3 # # # # 3 3 # # 3 3 3 > O < : < u X X X X X X X X % X X X X X X X X X X X X X X X X % X X . O 7 7 3 s X X % X % X % X . % X X X X O 0 w > > 3 3 3 < : > r y 3 t . % % X X X X X X % % X X X X X . X O # 8 8 8 # O O > > # # # # # @ # # # # # # # @ # # # # # # # # # # # # # # # # # # # # @ @ @ @ # > # @ # @ . . _ # o o . . . . G G G r 4.p . w # # # @ @ @ @ p         ",
"      + @ o @ @ @ @ @ # . y 2.a a L H . . . . @ @ . r H @ @ # # # # 8 # # @ @ @ # # # # # # @ @ # # # # # # # # # # # # # # # # # # 8 w # # # w # # # # > > > > > . . { ] ] ] { { { ] ] ] ] [ [ ] ] ] ] ] ] ] ] ] ] ] ] ] ] ] ] ] g f % X * h * * < 4 3 # 8 8 9 r > > > > > > > > > r > r # 3 3 @ : X * [ m m ] m m m ] ] ] [ [ ] ] ] ] [ o.1 X < 3 9 e # > 4 3 # # # # 3 3 > # 3 # # > 3 3 3 3 # 3 * * 2 X X X X = f z m [ [ ] ] ] ] ] ] ] ] N ] ] ] ] ] ] ] ] ] ] { X O : O < s X m  .] m ] ] m ] ] ] N o.M X - r > > 3 3 4 3 5 < < X X % *  .[ [ ] ] ] ] ] [ ] o.[ [ N +.C . O # 8 8 8 # O O > # # # # # # # # # # # # # # # # # # # # # # # @ # # # # # @ @ # # # # @ @ @ # # # @ @ @ # @ . P # @ @ . . . . p H H x 0.a . @ # # # # # @ @ p         ",
"      + @ o @ @ @ @ o @ . i 5.B x L D . . . . @ # . r H @ o @ # # # # # @ @ # # 8 # # @ @ @ @ @ # # # @ @ @ # # # # # # # # @ # 8 # # 8 # # # # # # # > > > > > 5 X N GXbXpXpXzXzXzXaXdXdXaXaXzXaXaXaXaXaXaXaXaXaXaXaXaXaXaXaXaXsXaX`.k...% % % 1 < * s 9 9 a > # 3 3 3 # # # 3 > # r # r # > # - * X z.bXzXdXiXsXiXiXiXaXaXzXzXpXzXzXxXlXbXz.X < < 8 e , : 3 3 # # 3 3 > > > > 3 > > > > 3 3 O O * 6 % X & d X.d.x.qXzXaXaXdXdXaXaXaXdXaXaXaXiXaXaXdXaXaXiXaXdXfXbXGX% * < 6 X - % 4XbXbXlXbXzXzXlXzXsXzXGXgX* X < : > > > r - 4 O X 1 X d hXdXaXaXzXzXzXzXzXzXxXxXzXaXcXnXN . o # # # # # # # # # # # # # # # # # # # # # # # # # # # # # # # @ @ # # # # # @ @ # > > # # w w # @ @ # @ # # o P @ @ # . . . . x P a y 4.i @ # @ # # # # @ @ r         ",
"      + @ o @ o o @ o # . y 4.G H P G . . . . # # . > P @ . @ # # # # @ @ @ # 8 8 # @ @ @ # # @ @ # # # # @ @ @ # @ @ # # @ # # w 8 # # # # # # # > > > > > > > < X g hX*XP.U.P.P.U.L.L.L.L.U.Q.T.T.T.T.T.T.T.T.~.~.~.T.T.T.T.P.Q.@X;XyXlX,X[ % X 2 4 # 9 i 3 o > 3 r 3 # # # > # > r > r > 3 > O X * nXyXP.~.~.~.~.L.L.L.L.P.P.L.~.I.I.I.tXqXf * < 3 e 3 : - - 3 3 r 3 > > > > > , 3 3 O O 3 < * g X % f g.hXzXiXrX:X@X[.~.~.L.U.U.P.U.U.U.~.U.U.U.~.U.U.U.U.~.L.:XhX% 1 X < < l % F.rXI.P.P.P.I.I.L.Q.N.&X2X% % < : 3 3 r i - * < 2 X % 4XiXn.L.P.P.I.I.I.L.n.I.M.N.&XfXN O . @ # # , # # # > # # # # # # @ @ # # # # # @ @ # # # @ @ @ # # # # # # # # # # > @ # # # # # # > # @ @ # # @ @ o U @ o @ . . . . y P a a 4.y @ @ @ @ # # # @ + r         ",
"      + @ o @ o o @ @ # . y 5.G H U H . . . . # # o # P # . # # # # @ @ # # # # # @ @ @ # # # @ @ @ # # # @ @ @ # # @ # # # # # 8 # @ # # # # # > > > # # > > 3 t % n wX=X~./.R.W.Q.~.~.~.!.'.'.[.Q.W.[.[.W.Q.Q.W.!.W.W.W.W.W.W.C.[.m.'.@XiXcXl.% X 1 O 3 3 : 5 > 3 3 3 # # # # 3 r 3 r r y 3 - 6 X [ xX_.P.[.].}.'.!.~.~.!.[..XR.XXXX[.Q.@XaX@.X 1 > w y > # 3 3 r 3 # > > > , O # 3 3 O O 3 < * X * l.xXiX=XQ.E.M.M.M.E.Q.!.!.[.[.].!.].[.[.[.W.!.].!.W.Q.Q.E.m.0XkX& % * % % k % x.-XP.@XT.T.[.E.Y.~.#XrX3X% * 4 < 5 r > i # 3 * * = v.iX X!.XXXXOX}.}.[.!.!.!.[._.xX@.* X O # # > > # # > > > # # # # @ @ @ # # # # # # # @ # # @ @ @ # # # # # # # # # # > # # # # @ @ @ @ @ @ # # # @ @ o U @ o o . . . . G W x i 2.y @ w @ # # @ # @ @ p         ",
"      + @ o @ o . @ @ # . r *.a a P L . . . o @ @ @ # L # . w # 8 # @ @ # # # @ @ @ @ @ # # @ @ @ # # # # # # # # # @ # # # # w # @ @ @ # @ # # > # # # # > > 3 t X M qX=XT.R./.W.!.[.[.[.[.oXoX}.].].XXOX|.|.[.OXXXXX[.[.}.].}.C.oXOXXX~.L.@XcX3X= X 3 : 7 5 : 3 3 3 3 r r 3 3 3 r # r # y # O * % ,XaX XXXXXOX%XoX].R.!.!././././.]..X}.|.rXF.X 1 O # u 3 # y r 3 # # > 3 3 , > > : < < < < % X o.gXzX;XL.Y.!.W.}.}.}.OXOXXXW.]..X].]..X.X].]..X[..X[..X].].W.W.0XkX% % = 4 % k % D.:X[.E.XXXX[.W./.(.Y.yX6X% * t < 5 3 > y O 4 f % f.iX~.R.XX.X.XoX].}.XXXX/.T. XzXl.& X % : # w w w w # # # > # # # # # # # # # @ @ # # # @ # # # @ # # # # @ # # > # # @ # # # # # # # # # @ # # @ @ # @ @ P @ @ # . . . . a P H p 5.a . @ # # 8 # # @ @ p         ",
"      + @ o @ . . # # o . y 2.G a P G . . . . # # o > P @ @ # . @ @ # # # # 8 8 @ @ @ @ @ @ @ @ # # # @ @ # # # @ # # @ @ # # # @ # # # # # # # # > > 3 > > 3 O s X M qX*XW.W.W.T.R.'.OXH.Z.OX].].+X]..X].}.}.}.XXW.W.W.].W..XOXOXZ.W.^.T.XX'. XiXD.% = O : 5 > 3 3 3 r 8 # : : y # 3 r r y 3 < X X xX@XY.R.OXOXJ.oXH..XW./.!.W.R.^.oX}.}.'.#X0Xf % k * 3 3 3 # r # > 3 3 3 # > : : : < < % % % j.aX0X_.[.XX!.W..X}.].C.}.[.[.W.W.W.XX.XW..XXXW..XXX.X]..X.XW.W.E.0XkX= = 1 * < k % F.-XE.[.].R.!.!.XX^.E.uX3X% X u 3 4 4 6 O 3 * % X.zX'.R.XXV.XXE.|.|.'..X.X^.~.dXc.% * - . > , > w # # @ # r # # # # # # # # # # @ # # # # @ # # # # # # # # @ # # > # # # # @ # 8 # # # # @ w 8 # @ @ @ @ . P o @ # . . . . a P G a 2.p . > # # # # # @ + i         ",
"      + @ o @ . @ . @ # . p *.a a P L . . . . # # o # P . . # @ # # # @ @ @ @ @ @ @ # # # # # # @ @ @ @ @ @ @ @ @ # # # @ # # # # # # @ @ # # # # > # > # # 3 # r . M wX=X].}.[.#XY.}.}.H.+X]..XW..XZ.].].}.}.].W.W.W.]..X+XW..X].W.^..X].OX'.[.~.aX%.% % : u > 3 3 3 r 8 > < < O # r r 8 y < < X o.uX)./.T.E.'.].oX.X.XXX].W.R././.}.%X}.[.~.iXf.X = % 3 t 3 y r w 3 3 < < # > 3 O < * 1 % % ,XuX#XP.@XXXW.'.].oX].R.W.}.'.'.]..X.X.X].Z.].XX].Z.]..X].W.W.W.[.m.0XhX% = * 4 < v X F.-XW.[.[.[.!.E.W.W.V.uX<XX % 3 4 6 6 O B X X m lX Xn.XXA.+XXXQ.|.|.'.}.+XC.tX9X= X * r # 5 , , > 8 # @ # # # # # # # # # # @ # # # # # # # # @ @ @ # # # # # # # # # @ @ # # # # # @ # # # 8 # @ @ @ @ @ . P o @ # . . . . a H D a 4.a . # @ @ @ @ # @ + i         ",
"      + @ o @ o @ . o # o y 2.a a P L . . . . # @ o > P . . # # # # @ @ @ @ @ @ # # # # # # # # @ # # # # # # @ # # # # # # # # # # # @ @ @ # # # > # > # > 3 3 y X M wX*XC.C.C.T.~.}.}.}.XXV.W.].].E.E.[.W.[.!.[.OX}.|.].W.XXB.R.!..X.X}.}.Q.Q.m.0XkX% * 3 O 5 < 3 r r > > 3 3 3 3 3 3 # r < < X 4XtX!.R.V.[.Q.OXoXW.Z.OXZ.].W./..X].H.G.E.n.tX4X= * l 3 X 3 3 3 > 3 3 < < 3 w r r 3 1 X % l.bX$Xm.E.[.T.W.}.G.OX}.H.}.}.}.Z.Z.].W.].'.].'.'.}.'.}.}.[.[.].].[.V.0XhX% = 4 * * V X D.;XW.R.R.W.XX}.].!.L.yX,XX % 6 6 * 2 1 < X f jXeX X!.W.C.C.}.C.}.}.|.[.T.=XvXg X = r # > : : , # 8 8 # # # # # # # # # # # @ # # # @ @ # > # @ @ @ # # # # # # # # @ @ @ # # # # @ @ # # # # # @ @ # @ @ @ P o @ # . . . . H L a p 4.p . # @ @ @ @ # @ + i         ",
"      + @ o @ o @ . @ # . r 5.B a P G . . . . # @ . r U @ o # @ # # @ @ @ @ # # # # 8 8 # # @ @ # # # # # # # # @ # # # # # # # # # # # # # # # # # # > # # 3 3 6 X M jX0X}.}.].XXR.}.OXW.].OX|.].'.E.E.[.T.E.E.m.'.'.M.m.Q.XX!.~./..XoX].].].[.Q._.zX@.X 3 O < < 3 r r 3 3 r r 3 < * 4 r - < X 1 vX*XR.].W.[.W.OX.XW.W..X'..X.XC.W.XXA.XX}.E.0XlX[ X t O 3 u > 3 3 3 3 < < 3 r e 8 t % % g.xX_. X[.[.[.[.[.OX|.'.OXOXOXZ.].].].}.].'.].|.'.}.OX|.|.}.|.OX|.'.[.E.0X8X% * h = 4 V X D.;XR.W.R.].}.}.W.!.L.iX3X% * 2 < 2 < g % % hXwX_. X[.E.=X%XC.'.C.'. XP.&XcXf X = t 8 i > O , , # 8 w 8 8 # # # # # # @ @ @ @ # # # @ @ # # # # # # # # # # # # # # # # # # @ # # @ @ # # @ @ @ @ @ # # @ @ P o @ # . . . . P P G i 5.i . # @ @ # @ # @ + i         ",
"      + @ o @ o @ o # @ . r 4.x a L G . . . . # @ . > U @ @ # @ # # @ @ @ @ # # # # # # # @ @ @ @ @ @ @ @ @ @ @ @ # # # # # # # # # # # # # # # # # # 3 # # 3 : < . M jX0X}.OXXX[.[.OXV.!.#X|.*X=X=X=X:X;X#X;X;XrX-XrX-X=X=Xn.[.~.!..XoXoX}.[.!.}.'.=XqXX X 4 < < 3 r r 3 < r e # < < 6 3 O u X @.sX X.X+X].E.W.Z..XR.W.W.'.H.H.A.W.W.V.W.W.[._.dXj.% 4 < 6 > > 3 < 3 > > 3 3 3 i r - % n xX&XQ.[.XXE.].}.C.E.Q.'.OX}..XW.XXoX].OX}.].].'.G.G.'.'.'.G.'.'.'.G.'.n.tX8X= = ; h % V X D.-X.X.X]..XoXoX].[.L.iX2X% 1 2 7 O 6 X % 4XzXM.P.#X'.}.H.Z.oX.X+XXXn.&XbXn % X 0 $ 9 e O 5 : # # w w > # # w w # # # # # # # # # # @ @ # # @ @ @ @ @ @ @ @ # # # # # # # # @ # # # @ # @ @ @ @ @ @ # # @ @ P o @ @ . . . . Z P H p 4.a O # @ # # @ # @ + i         ",
"      + @ o @ @ o @ @ o . r 4.a G P G . . . . # # . # P @ . # @ # @ @ @ @ @ @ @ # # # @ @ @ @ @ # # # @ @ # # # @ # # # # # # # @ @ # # # # # # # # # r > # 3 : 7 X n jX0XC.].Z.E.[.[.].!.P.0X0XF.9X`.`.`.F.F.F.F.6X9XF.eXwXzX$X[.E.].oXoX].!.R.}.C.:XcXf X g < < 4 r r < < w r 3 y 4 < < * * X 8XyX[.W.W.].E.W.XX+X^./.W.XXoXoX+XXXW.XXW.!.'.M.-XF.% = V O > > 3 3 3 3 3 3 3 < # l X % hXrXP.T.W..XOXOX}.E.+XW.OX'.C.W.^.^.W.'.C.G.'.|.|.}.{.{.'.}.{.{.{.{.{.|.I.tXgXX % 4 1 * V X D.-X].].H.H..X.X].[.P.tX,X% X 2 : < 1 = z.zX{.Q.!.Y.'.G.W.W..XZ.W.T.Q.aXO.X . s 8 A e @ > , , > 8 w > # # # # # # # # # # # > # @ @ # # # @ @ # # # # # # # # # # # # @ @ @ @ # # @ @ @ @ @ # @ @ @ # # @ @ P o @ @ . . . . Z P H y 5.a O # @ # # @ @ @ + r         ",
"      + @ o @ @ . @ o o o > 5.a G U G . . . . # # . > P o . @ # @ @ @ @ @ @ # # # @ @ @ @ @ @ # # # # # # # # # @ # # # @ # # # @ @ @ # # # # # r > # r > # 3 3 < X n jX0XC.oX.XOX].].[.T.=XwX= % = % % % X X X % X X % % % l.nX*XC.}.].].W.!.R.R..XP.zX] X b < < 4 r r 3 < 3 3 O 3 3 3 < 1 X g pX[.!.R.W..X}.G.].!.T.E.E.W.].J.].C.C..XR./.].'.@XsXm X h O r > 3 3 r r 3 3 < < y * % g.dX~.Q.[.%XH.}.]..X'.}.[.}.'.[.!.!.T.!.#XyX0XrXyXtXtXiXtX0XuXiXtXtXuXuXiXuXvXgX* * h * 6 V X D.-X].'.H.C.W.E.W.].E.uX4X= < < 4 1 % %.wXOX'.].T.V.[.].m.+X.XXXR.E.zXd.X . 3 0 # w > > r o > 8 8 w # # , , # # # # # # # # > # @ @ # # # @ @ # # # # # # # # # # # @ @ @ # @ # # @ @ @ # @ # # @ @ @ @ @ o P o @ @ . . . . G E G i | p . # @ @ # @ @ @ + r         ",
"      + @ @ @ @ . @ @ o . . 2.G G U L . . . . # @ o r ^ @ . @ @ @ @ # # # 8 8 8 @ @ @ @ @ # # 8 @ @ # # # # @ @ # # # @ @ # # # # @ # # # # # # r # # > # O 3 < < X n jX0XV..X]..XW.[.!.).=XqX& * 1 % * % * * * X ; X 1 * X X %.pX'.OX].W.W.!.R.^./.n.zX%.X g 1 < 4 r r 3 < < 3 3 r r 3 % 2 % l.aXn./.+X.X'.}.%X].!.[.@X=XOXoXH.[.E.OXW.^.XX.X[.P.uXl.% 1 u . y 3 y i y 3 5 < : t X 1 vX@XL.[.}.G.}.#XV.].XXW.}.].Q.Q.E.&X0XuXwXF.v.j.d.$.$.$.$.$.$.$.$.$.$.$.$.$.l. .X 2 1 6 * V X D.-X].XX}.].[.R.].W.'.uX2XX X h 1 X [ vX*XT.W.XX.XXXW.XXXXZ.W.V.[.uX,XX . r # > 5 : : > # > 8 8 8 # # # , > > # # # # # @ @ # # # # # # # @ @ @ # # # @ @ @ # # # # @ @ # > # # @ @ @ @ # # 8 # @ @ @ @ @ o P o @ @ . . . . D P a p 2.p . # @ # # @ # @ @ i         ",
"      + @ o @ o @ @ @ @ . > q.a D P H . . . . o @ o # P @ . @ # 8 @ @ # @ @ # # @ # 8 # # # # # # # @ @ @ @ # > # # # # # # # # @ # # # # # # # w # O # > O # 4 6 X M wX0XR.].].]..XW.B.!.*XkX% 1 b g h h V k h h V g b n g X = 9X=XV.+X.XW.[.!.R.(.T.aXl.X f 1 < 3 r r 3 < < < 3 y r O l * X kX0XV./.A..X].}.|.XXQ.#X|.k.0X+XR.W.[.C.]..XV.^.E.T.tX8X= % 4 # r y r 3 y 3 < 5 * ; % j.iXI.E.[.].}.].(.(.R.XXV.!./.Q.;XiXqXz.n & X % % X X X X X X X X X X X X X % % X X < 6 1 * V X D.;X!.R.W.!.!.XXZ..XV.0X3XX % h X M bX$X!.!.W.Z..X].XX.X.X].W.M.iX3XX X u o : : : : : : > r r r 0 # O # , # # # # # # # @ # @ # # # # # @ @ # w > # @ . # # # # @ @ @ # # # @ # # # @ # # # # @ + # @ @ @ @ P # o @ . . . . D E G a 2.a . # @ @ # @ # @ o r         ",
"      + @ @ @ @ @ @ @ @ . # 4.p D P G . . . . # # o > P @ . @ # 8 @ @ # @ @ # # @ # # @ # # # # @ @ # # # # # # # # # # # # # # @ # # # # # # # > # # > > # > 3 u X m wX=XR.].].OXZ.R.!.T.&XkX% 1 b g h 1 g 1 1 2 1 2 * * g 1 % k.rXm.XX].].[.W./.(.~.iX>XX f 1 4 3 r r < < < 3 > a 3 * l X ] zX{.W.R.XX.XOX'.'.+XE.=X_.d D.=X(.E.[.E.].].W.^..XV.$XzX[ X 6 3 y y 3 3 5 3 3 6 1 % % wX#XI.[.Z.XX'.XXY.R.W.n..Xn.#X-XeXd.% X X * 6 6 h 6 6 4 4 4 6 6 u 6 6 6 u h j f 1 * - 3 < < V X D.-X[.!.R.R.!.!.Z..XW.0X2X% 1 % = jX0XP.~././.+XH.H..X^.W.].E.0XhX% * s X < < : : : : , # 8 # - - - - # # # # # # # # # # # @ # # # # # # # @ # @ # # @ # # # # # @ # # # # @ @ # # # # # @ @ @ @ 8 @ # + @ P # o @ . . . . Z P G p | p . 3 # # # @ # @ + r         ",
"      + @ @ @ @ o o @ @ . # 4.u G P H . . . . # # o # P # @ @ # 8 @ @ 8 @ @ @ @ # # @ @ # 8 # # # # # # # # # # # # # # # @ @ @ # # # # # # # # # # # # > > 3 3 u X m wX=XR..X}.oX].W./.T.0XkX% 1 b 6 h 4 6 2 2 2 1 g h h g g % d.yXm.].}.}.OXW.W.(.L.uX>X% 1 1 3 3 3 3 < < 3 3 3 4 < 6 l & c.yX'.XXW.W.oXOX#X[.].N.rXF.& >XrX~.E.[.[.W.W.XXZ..XW.M.dXk.% = * < 3 4 < 5 3 3 6 2 X %.cX X[.V.+X^.V.V.XXXX.X+XC.=XiX6Xj % X g 2 O < < < : O > > > > > > > > > 3 3 - q r 3 3 3 < < B X D.-X@X!.!.!.Q.[.+X.XA.0X3X= X * eXrX[..X!.!.T.Z.OX+XB.R.XXm.yXnX1 X * O O 5 3 > : O , > 8 # # O O - - 8 8 # # # # # # # # # # # # # # # # # # # @ # # @ # @ # # # # # # # # @ @ # # # # @ @ @ @ @ 8 @ # + o P # o @ . . . . Z E G p ) p . > # # # @ # @ + i         ",
"      + @ o @ o . . o @ . # 4.a x P H . . . . @ @ . # P # @ @ @ 8 @ # 8 @ @ @ @ # # @ @ # 8 # @ # # @ @ # # # # # # # # # @ @ @ # # # # # # # # # # # # # > 3 O t X M qX=XT.W.].].OXW.W.T.0XkX% % 6 4 6 2 6 2 2 2 g 2 X 1 h 1 X b.-Xm.C.}.G.'.].W./.Y.yX>.X h 4 3 3 3 3 < < 3 3 5 < 2 6 % % zX@Xm.]..X].%X}.!.T.E.$XaX$.% %.uX).E.|.[.!.].XXC.].XXm.-X9Xf % 1 * 4 4 < 4 3 3 1 * = gXpXI.[.W.^.W.].[.W.E.Q.E. XaXv.& % ; h O : > 3 3 3 3 3 3 3 r 3 r r r r 3 3 y 8 0 r r y 4 < < V X D.=X[.Q.].].Q.W.+XZ.V.tXc.& % 6XtXT.W.XXW..XR.W.].OXXX!.!.=XjXN X t O O u O r 0 > # > w 8 # # O O # 8 8 # 8 8 # # # # # # # # # # # # # # # # # @ # # @ # . # # # # # # # # @ # # # # @ @ @ @ @ @ 8 @ # @ o P @ o @ . . . . Z E G p ) a . # # # # @ # @ @ i         ",
"      + @ o @ o o . o @ . # q.B p H G . . . o # @ . # P # @ # # # @ # # @ @ # @ # @ @ # # # # @ # @ o o @ @ @ @ # # # # # # # @ # # @ @ # # # # # # # # O # 3 - l % m wX=XT.R.'.].XXZ..XR.$XjX& f V V V V b b V b h V C V k X = wX#X'.}.J.}.'.[.XX[.Q.cXM X 4 4 3 3 3 4 < 4 y y 4 6 < h % [ aX).E.XXW..XG.|.T./.Q.*XqXn & & eX=XM.}.W.!.].[.]..X].[.@XsXX.X b * 4 < < 3 3 4 4 % = bX0XE.!.#XV.OX}.V./.).@XM.aX5X& & = 6 X 6 w i 3 3 3 3 3 3 3 3 3 3 3 3 3 3 3 3 y r > > 3 < < < V X D.=X'.'.'.}.XXW.W.W.W.tXk.d k.aX[.W..XOXW.W.XXOXC.].OXP.@XfXX.X < o O 3 3 3 8 0 r > w 8 8 # > O O # 9 8 8 8 # # # # # # # # @ # # # # # # # @ # @ @ # @ # # @ @ @ @ @ # # # 8 # @ @ # @ @ @ @ # @ 8 @ 8 @ @ P @ o @ . . . . Z E a p ) D o > # # # @ # @ + i         ",
"      + @ o @ @ @ o @ @ . # 4.B x P G . . . o # @ . # P # @ # # # @ @ # @ # 8 # @ @ @ 8 8 # @ @ @ @ @ # # # @ @ # # # # # # # @ # # # # # # # # # # # # # > 3 - k X M qX=XT.W.W.].W..X.XR.=XwX& % % X X X X X X % X * X % = % >XtXT.+XoX}.}.}.}.OXE.=XqXX X 4 4 3 3 < < 3 3 r 3 < 7 < g % ,XtXT.E.].XXXX}.|.T.!.T.aXc.% f % z.iX[.].W.].!.W.OXXX].[.T.iXz.X 1 1 4 4 < 4 3 4 6 X [ zXM.'.XXR.XXoXJ.OXR.~.Q.tXjX= % l = < * 3 + i t 3 3 3 3 3 3 3 3 - - * O O : O 3 > : : < 4 1 < V X D.-X[.].].}.XXE.W.[.T.=XD.d.0X=XW.W..X+XE.W.W.].].[.M.@XfX$.X * O : O > r r 0 0 3 3 > # # > O O # e e 8 # # # # # # # # # # @ # # # # # # # @ # @ # @ @ # # @ @ @ @ @ @ # # # @ @ @ # # # # @ # @ # @ 8 @ @ P @ o @ . . . . G ^ a i ( a . > @ @ # @ # @ + i         ",
"      + @ o @ @ @ o @ @ . O 4.x G P L . . . . # @ o # P @ . @ # # @ @ # @ # 8 # @ @ @ 8 # # @ @ # # # # # # # # # # # # # @ @ @ > # # # # > > # # # # # # > > - 4 X M qX=XQ.[.[.W.W.oX].R.=X0X@.[ [ [ [  .[ [ [ [ X.[ O.[ @.F.iX XT.].}.Z.'.}.E.}.'.iX$.* X 6 : 3 3 < 3 3 r r 3 < < u % f eX=Xn.[.W.R.B.'.M.[.R.T.aX#.= } % m lX=XE.[.].!.R.[.W.XXQ.Q.rXqXg X l 3 4 < 2 t t 4 % v.rXI.!.W.].}.G.oXC.!.#XU.fX%.% h 4 < * u - t 3 3 3 3 3 3 > # # 3 3 3 3 3 3 3 3 3 3 5 5 3 4 1 * V X D.;X/.W.]..X^.W.}.'.P.[.$X*X%XZ.W.+XH.C.XXW.R.XX].M.#XuXl.X X t : O > u # r - 3 < : , , > , O O 8 8 9 e , O # # # # # # # # # # # @ # # # # # # @ @ @ @ # @ @ @ @ # # # # # # @ + @ # # # # @ # @ # @ 8 @ @ P @ o @ . . . . G ^ a i ~ p . # @ @ # @ # @ + i         ",
"      + @ o @ o o . o @ . O 4.a a L G . . . . # @ . # P @ . @ # # @ @ @ @ # 8 # @ @ @ # # @ @ # # # @ @ o @ @ # # # # @ @ @ @ @ # # @ # # # # # @ @ # # # # # O 6 X m hX0XQ.[.XX[..XOX].W.[.=X0XwXpXwXwXwXwXwXwXlXwXwXwXtXyX;X~.Q.[.C.}..X].XX[.'.uXhX* X k : < 3 3 4 3 t s t 6 < 4 l % $.iX=Xm.'.|.R.XXOX}.OXm.Q.aX] X C n % hX0Xn.+X]./.!.R.E.W.W.[.@XiX@.X l - 4 2 2 3 t t % 9X;XL.XXT.}.}.}..X+XV.m.=XwX% X h < < 1 - - y O 3 3 3 3 3 3 > > 3 3 > > > > > > O : > 3 3 3 1 1 V X D.;X!.W.Z.Z.^.W.G.G.[.XX.XXXZ..X.XZ.OX'.W./.R.R.[._.sXc.X % 4 - # > 3 O r r r 3 : : , , , , : , w 8 8 8 O O # # # # # # # # # # # @ @ # # # # # o @ # # > # @ # # # # # # # # @ + @ # @ @ @ @ # @ 8 @ 8 @ @ P @ o @ . . . . a ^ G p _ a . r @ @ # @ # @ + i         ",
"      o # + @ @ @ @ @ @ . # 4.B x P H . . . . # @ . r P # o @ # @ @ # # # # # # @ @ # @ # 8 8 # # @ @ # @ # # @ @ # # @ o @ # # # # @ @ # # # # @ # > 3 > > # O u X M wX=XR.].].].C.oXoX].}.'.'.*X$X$X$X$X&X*X*X*X$X*X*X|.'.E.[.OXC.}.H.}.].!.T.0XxXg X < O 2 < 4 3 3 y r r 3 4 < 1 h & eX-X'.'.'.|.C.XXC.}.OXE.-X`.% = g g % l.uXT.W..X^.Y.~.!.XXOX^.A.-XD.. - 3 4 h < 4 u O % wX#Xm.#XE.[.'.}.W..Xm._.zXd.X h < < < < r r > : > 3 3 3 > > > > > > > 3 3 # > 3 3 3 3 < 3 3 < < V X D.=XE.C..XXX!.Q.}.}.Z.XX^.W..X}.].[.OX[.]..X^.E.'.wX5X* X 4 X 3 t r * - r 8 > > > > > > > , > , # # # # # # # > # # # # # @ r # # # # # # # w # @ # # # # # # # # @ @ @ @ @ @ # # @ @ # # @ 8 @ # # # # @ # P o o @ . . . . D ^ G r _ G @ > # # @ @ # @ @ i         ",
"      o @ o @ + . + o @ . # 4.B p P G . . . . # @ . r P @ o @ # @ # # # # # # # @ @ @ @ @ @ @ @ # @ @ # @ # # @ @ # # @ @ # # # # # # # # # # @ # # # # # # # - k X m wX=XT.].'.].].G.}.].].+X].W.W.].[.XX].E.V.E.V.E.W.W.].].OXM.OX'.'.H.#XY.#XzX] X k O < < < 4 3 y u y 3 3 4 2 f % d sX#XC.'.OXE.XX].oXOXOXM.yXj.% h 2 b X z zX[.].Z.A./.!.E.[.H..XXX#XfXg . 6 4 4 6 6 3 . * wX).E.[.E.W.'.W.^./.'.$XvXn X h < < 4 3 3 > > > 3 3 3 3 > > 3 3 3 > 3 3 > > > 3 > 3 3 < 3 3 < < V X D.-X'.E..X].Q.'.}.].Z..X^..XXX].'.].[.].W.W.A.W. XsXM X 1 6 4 * - t 4 3 # r w > > > > > > > , # # # # > # # @ # # # # # @ @ # # # # # @ # # # # @ @ # @ @ @ @ @ @ @ # # # # @ @ # @ @ # @ @ 8 @ # # # # @ # P o @ @ . . . . a P x p | a . # # # @ @ # @ @ i         ",
"      @ # + @ @ @ @ @ @ . @ 4.B G ^ P o . . . o # . w H @ o @ # # # # # @ @ # # @ # # @ @ # # @ # @ @ # @ # # @ # @ @ @ # > # @ @ # # # > # # @ # # # # # # # - u X m wX=XV.'.'.[.[.}.OX.XZ.W.C.XX.X].W.W.W.W.W.W.A.W.W.Z.W.W.W.W.V.^.W.'.OX#X$Xz & f h 4 4 6 < 3 3 4 4 : 3 y 3 1 g % f.uXP.E.[.[.].]..XZ.OX].$XxX[ X V * h h X 9XrXE.C..XXXE.|.}.oX^.^.T.dX@.. 1 1 * u 4 < X 2 zX[.[.[.[.W.W.W.^.XXm.tXqX% % h < 4 4 < 3 3 3 > 3 3 3 3 3 3 3 3 # # # # # O # > > 3 3 < 3 3 4 < V X D.-X[.W.].W.E.E.W.XX.X.X.X.X.X].}.}.].W.W.^.^.T.#X&Xf X b X < 4 r r 3 3 3 > > > > > > # # # # # # # # # # # @ # # # # @ # # # # # # # @ @ # # # @ # @ @ @ @ @ @ @ # # # # @ @ @ @ @ @ @ @ @ # @ # # # # @ @ P @ @ @ . . . . a P G i ) D . @ @ # @ @ # @ @ r         ",
"      @ # @ @ @ @ @ @ @ . # 4.G x P H . . . . @ # . > H @ @ @ @ # # # # @ @ @ # @ @ # # # # # # # @ @ # @ @ # # # # @ # # # # @ # # # # # # # # # # # > > > # # y X m wX=XV.'.].C.V.].]..XXXW.].].W.W.]..X.XW.W.XX^.XXXX.XXX.X.XR.R./..X'.E.[.=Xd.& % f 1 < u 3 3 4 6 5 < 3 u 3 4 1 % gXuXI.XXR.C.[.]..X].].Q.0X8Xf * V 3 4 k X $.iX_.XX'.G.|.'.}.'.^.XXB.tX8X% X k - 3 < 2 X g cXQ.#XXX[.].W.W.^.R.T.tX5X% 1 h 3 3 4 < < 3 3 3 3 3 3 3 3 3 3 3 3 3 3 3 3 3 3 3 > 3 3 < 3 3 4 < V X D.rX'.W.].E.XX[.R.W.W.XX.X.X^.].}.}.].W.W./..XW.!.rXc.% % g < 4 t # O < 3 > > > > > # # # # # # # # # # # # # # # # # # # # # # # # # # # # # # # # # @ @ # @ @ # # # # @ @ # @ @ # # @ @ # @ + # @ @ # + @ P @ @ @ . . . . a ^ H i ( G o # @ # @ @ # @ @ r         ",
"      o @ + @ @ + @ @ @ . # q.G G U H . . . . @ # . > H @ @ @ @ # # # # @ @ @ # @ @ @ # # # @ @ # @ # # @ @ # # # # # # # # # # # # # # # # # > # # # # > > # O t X m jX=XV.W.].XXW..XW.R.R.V.W.].].].]..X.X.X.X.XZ.W..XW.W.Z.]..XZ.V.W.XX[.|.|.yXwXm % % 1 X 4 5 4 4 < < 4 t 3 C X m qX0XC..XW.E.].XXC.+XR.P.tXz.% g 6 2 6 b X * xX@Xn.].OX{.{.'..XW.Z.}.$XxXj X k t < < 2 . g cXm.[..X].XXW.W.W.W.Y.yX,X% f 6 3 3 4 < < < < < 3 3 3 3 3 3 3 3 O 3 3 3 3 3 3 > > 3 3 < 3 5 4 < V % D.rX'.W.].].V.W.W.W.E.+X#XR.!.W.]..X.X].R.R..X].E.|.uXk.% % 2 < # 3 3 < > > # # # # # # # # # # # # # # # # # # # @ # # # # # # # # # # @ # # # # # @ @ @ # o @ @ # # # # # # @ @ # # @ @ # @ @ # @ @ # @ @ P @ @ @ . . . . x P G a 2.x . # @ # @ @ # @ + r         ",
"      o @ + @ @ @ @ @ @ . O 4.B H ~ P . . . . @ # . r H @ o @ # # # # # @ @ @ # @ @ # 8 8 # @ @ # @ # # @ @ # # # @ @ # # # # # # # # # # # # # # # # # # # 3 3 t X M hX=XV.W.].E.!.A.W./.R.[.|.}.}.'.'.C.W.].].XXE.].[.W.W.W.XXC.XX.XA..X'.'.[.~.rXvXz % h 2 6 4 4 < : < 3 3 3 V X j.iX{.'.W.^.].W.OXV.^.!.~.aX#.X g < < < g 1 % 3XiX!.C.OX'.'.OXC.W.XXC.J.aXX.X t 6 < 2 2 . g xXT.!.XXW..XW.W..X.Xn.yX2X% f 1 3 3 4 < 3 3 3 3 3 3 3 3 3 3 3 3 O O 3 3 3 3 < O > r 3 * 3 5 4 * V % D.rX'.].].XX.XXX}.OX'.E.E.T.R.W..X.X].Z.W./..XC.[.XX XwX%.% 1 * 3 3 < : : > > # # # # # # # # # # # # # # # # # @ @ # # # @ # # # # # @ @ @ # # # # # @ @ # @ @ @ @ # # @ @ @ @ @ @ @ @ @ @ # @ # @ @ # @ @ P o @ @ . . . . D P G p ) x . # @ # @ @ # @ + r         ",
"      @ # + @ @ @ @ @ @ . O 5.a a P G . . . . # @ . r P @ o @ # # # # # # @ @ # 8 # # 8 # # @ # # @ # # @ @ # # @ @ @ # # @ # # # # # # # # # # # # # # # > 3 3 u X M hX=XT.].].W.XXW././.R.[.[.E.Q.[.[.[.Q.E.T.W.T.E.E.E.E.E.[.XX].A.+XC.OX|.M.[.'.tXjXf X h O 6 6 4 < 5 3 < h % = `.;XM.OX.XW.W.[.].].V.!.#XeXn % b V h h f b & %.pX|.}.].V.[.W.!.R..XXXOX-XF.% X 6 2 2 2 X g zX~.!.XX^..X'.W.OXW.m.*XkX% g 1 < 4 4 4 r r 3 3 3 3 3 3 3 3 3 - 3 3 3 3 3 3 3 3 > r 3 * 3 y 3 * V % x.-X'.].]..X.XZ.m.}.'.'.@X#X!.[.XX.X].]..XXX}.%XB.!.T.=XzX[ % 4 6 < O > 3 > > > > > > > > # # # > > # # # # # # # @ # # # @ # # # # # @ @ @ # # # # # @ @ # # # # @ @ @ @ @ @ # # @ @ # # @ # @ # @ @ # @ @ P @ @ # . . . . x W G r ( D o # @ # @ @ # @ + r         ",
"      o @ + @ @ . @ @ @ . # 4.B D P H . . . . @ @ . r P # o @ # @ # # # # # # # # @ @ @ # @ @ # @ @ # # @ @ # # # @ @ # # @ @ # # # @ # # # # # # # # # > > 3 > u X M hX=XT.[.XXW.R.W.R.!.XX{.0X0X0X0X0X0X0X0XtXtX0X0X*X&X&X$X{.'.].W.Z.OXC.}.|.OX'.~.iXkX% * 5 4 6 4 < 5 < < h X o.iX~.E.G..X.XV..XC.OX/.T.rXv.& f f * * = X f % f qX%X].A.XXR.n.!.T./.].W./.dX= X b 2 < 6 % = aX~.!./..X.X}.}.].'.W.0XhX= 1 6 < 3 4 4 y r t 3 3 3 3 3 3 > 3 3 3 3 # O O 3 3 3 # 3 3 * 3 y 6 < V % x.rX'.}.].W.H.oX'.|.|.&X$XN.=X@XE.W.OXOX.XC.J.H.^.(.!.Q.rXhXf = * < 3 > > > 3 3 3 > > > > # # > > > > # # # # # # # # # # @ > # # # # # @ # # @ @ @ @ @ @ @ @ @ @ @ @ @ @ @ @ 8 8 @ @ 8 8 @ @ @ # + + # @ + P @ @ # . . . . x P x a 2.a . # @ # @ @ # @ + r         ",
"      o @ + @ + @ . o # . # q.B x L a . . . . # @ . r P @ o # @ 8 8 @ @ @ @ 8 # # @ @ # # @ @ # # @ @ @ @ # # # # # # # # # # # # # # # # # # # @ # # # # # > 3 u X n jX*XT.V.V..XW..X^.V.E.uXqX6X5X5X5X8X8X8X8X5X6X8XhXhXhXhXlX=XT.XX#XB.XX'.C.].XXB.!.aX@.X 6 4 < 4 6 u < < b % g.iX).E.].oXZ.XX+X'.'.!.m.yX$.& & & & % % % & & d F.=XoXA././.T.P.!.T.[.[.Y.dX$.X 1 b % h X % sX).m.!.XX.X'.'.].G.m.&XxX= = 6 - y < 3 3 t 3 3 3 3 3 3 3 # # 3 > > 3 3 3 3 3 3 3 r - < 3 3 4 < V % x.-X'.}.]..XZ..XG.[.T.=XD.d D.tXI.!.W.]..XXXZ.]..XW.T.E.|.uX8X1 X t * 6 3 3 3 3 3 O O O O O # # # > > # # # @ # # # # # # # # # @ # @ @ @ # @ # # # @ @ @ # # # @ @ # # @ @ @ @ @ @ @ @ @ # 8 @ 8 # # # @ @ ^ @ @ # . . . . a P G p 2.G o # @ @ @ @ # @ + r         ",
"      o @ + @ + @ . @ # . O 4.a H U G . . . . @ @ . r P @ o # # # 8 @ @ @ @ # # # @ @ # # @ @ # # @ @ @ @ # # # @ # # # @ @ # # # # # # # # # # # # # # # # # O 4 X n jX=X!.].}.OXZ.A.XXE.=XwXd % % % % % % % % % % % % % % f m 9XtX[.B././.C.'.}.A./.~.=XqXX X h 6 4 < 4 < h * & 8XrXL.[..XC.OXW.C.G.'.XXE.*XF.D.6X5X5X5X4X6X6X4Xv.$XXXZ.+X/.T.#XQ.!.!.[.[.!.0XhX* * V 6 h X X sX~.Q.XX.X^.].'.'.OXQ. XzXM % I t 3 6 5 3 O 3 3 3 > > 3 3 > # > > > > > # # # # # - 3 3 3 5 4 * V X x.rX].].W.Z..X.X'.].Q.=X2Xd j qX0X@XE.V.#XA.XXW.W.W..X[.Q. XaX3XX X h X - 3 - 3 > > > > # # # # # > # # # # # # # # # # # # # # @ # # @ @ # @ @ # # # # # # # # @ # # # # # @ @ @ @ @ @ @ @ @ @ # @ @ # + + P @ @ # . . . . D P a i 2.G o # # @ # @ # @ + r         ",
"      o @ + @ + @ . o # . # 4.B G P H . . . . # @ . r P @ o # # @ # @ @ @ @ # # @ # # # # # # @ # # @ @ @ # # # @ # # # @ @ # # # # # # # # # # > # # # > # # O 6 X n jX*XT.E.H.H.oXW.W.m.*XvX& f g g g g g g g f 2 f g g f * % % l.iXY.W.].OXOXOXC.+XT.P.lXf % t 6 6 2 < < C X [ xX XT.W.OXH..X[.'.}.'.R.!.'.*X0X0X0X0X0X0X0X0X0X*X#X^.A.Z..XXX[.E.P.[.|.'.|.{.pXM X k h h ; % eX@X@X[.Z..X.XW.}.].E. XrXv.% ; - # 3 : < < 6 3 3 3 3 3 y 3 3 3 > > > 3 3 3 3 3 3 3 3 3 5 6 4 < V X x.-XE.'.W.W..XW.W.E.Q.0X2Xd & j lXrXI.[.].W./.^..X.XoX}.E.E.I.cXz.% = k * O - 3 3 3 3 3 > # > # > > # # # # # # # # @ @ # # # # # # # @ @ # # # @ # # # # # # @ @ @ # # # # # @ @ @ @ @ @ @ @ @ # @ @ # @ @ P o @ # . . . . x P D r | D o # # # # @ # @ + r         ",
"      o @ + @ @ @ + o o . O 4.B a P G . . . . # @ . r L o o # # @ # @ # # @ # # @ # # @ @ # # @ # # # @ # # # # # # # # @ @ # w # # # # # # # # # # # # > 3 3 3 6 X M jX=XT.[.oXoX].W.W.OX0XjX& = 2 1 1 2 1 1 1 1 2 g 2 2 h b C = = `.-X'.H.OXC.V.OX.XC.T.fX>.X 6 6 4 6 4 4 j % k.iXM.[.C.].OX[.}.'.}.'.V./.[.'.[.Q.E.E.Q.Q.E.T.R.E.R.R.+X+X.XC.].'.E.|.|.'.OXG.iXx.% t = 1 f X v.yX_.'.Z..X].W.].XXR.Q.I.lX= % l t < 6 2 2 < 4 4 3 3 3 3 3 3 3 O O O O 3 3 3 3 3 3 < < 4 5 4 < V % x.-XC.'.].]..XW.W.R.E.uX2X& d & [ lX&X X'.W.W.W.XXOX}.}.'.XX XM.cX$.% % 4 - * 3 3 3 3 3 > # 3 3 3 > # @ # # # # # # @ # # # # # # # # # # # # # # # # # @ @ @ @ @ @ @ @ @ @ # @ @ @ # # @ @ @ @ # @ # # @ + P @ @ # . . . . p P H r ( a o # @ @ # @ # @ + r         ",
"      o @ + @ @ @ @ o o . o 2.u D P G . . . . # # . w L o o # # @ # @ # # @ # @ @ # # @ @ # # @ # # # # # # # # # # # # # # # w # # # # # # # # # # # # 3 3 3 3 4 X n hX=XT.XXoXoXZ.XXV.m.0XvX= 1 h h 6 6 1 6 6 1 4 6 4 1 1 1 1 2 % j.tXN.oXV.R.!.#XC.Z.P.iXz.% g h < 4 h h X f eX=XC.].}.C.C.#XW.C.}.OXR.W.XX].W.W.[.[.].W.W.!.R.R..X].].].].}.}.XX].Q.W.Q.[.[.@XsX% X j j j % X.pXM.|.oX.XE.W.W.W.!.!.P.aXz.% = h 4 < O 7 < 4 4 3 4 6 4 4 3 4 4 3 3 < < 3 3 3 3 3 * * 4 4 < < V X D.rX'.}.].W.W.R.R.!.m.uX,X= f j X %.cX X'.}.W.W./.W.}.OX].XX].'.@XcX[ % 1 * X O : 3 > 3 3 3 > 3 > # # # # # # # # # # # # # # # # # # # # # # # # # # @ o . @ @ @ # @ @ @ @ @ @ @ @ # # # @ @ @ # @ @ # . + W @ @ @ . . . . a P G r ) a . # @ @ # @ # @ + i         ",
"      o @ + @ + . @ @ @ o O 2.u G P G . . . . # # . r L @ o # # @ 8 @ # # @ # @ @ # # @ @ # # @ # # # # # # # # # # # @ @ # # # @ # # # # # # # > > # > > > 3 3 6 X M hX*Xn.'.H.oXoXXXW.Q.0XvX% < h 6 6 6 4 6 4 6 4 6 4 6 h 6 6 V X @.aX}.C.XXB.R.W.].+XQ.tX3XX 1 h < * 6 j % X.aXQ.].'.OX'.C.W..X'.OX]..XW.A.^././..X[.].].].[.XXW.Z.].C.OX].oXW.XX].C.W.R.T./.Y.aXX.X b h j X z vX&X XZ.^.W.W.+XA./.T.P.$XjX[ % 1 h < 2 < < * < < 4 4 < < < < < < < < < < * < * < * < < 4 < * V X x.-X'.}.'.].W.[.E.!.m.uX,X= * h < X z.cX'.[.].].!.W.}.OXW.W.].+XP.=XwXn % 1 * 3 3 3 3 > > 3 # # # # # > > # # # > # # # # @ # # # # # # # # @ @ # # # @ @ o @ # # # # @ @ @ @ @ @ @ # # # @ # @ # @ @ # + @ W @ @ @ . . . . G H p y 5.D . # # # # @ @ @ o r         ",
"      o @ + @ + . @ o @ O # 5.x D P D . . . . # # . r P @ o # # @ # @ # # @ # @ # @ @ @ @ @ @ # # # # # # # # # # @ @ @ @ # @ @ @ # # # # # # # > > > > > > 3 3 6 X M jX=XT.XX].C.H.A.T.Q.&XvX* * g 2 2 2 < 1 < < 1 h 2 1 < < 2 c :  .iXM..XW..XW.[.].C.m.0XvX% % g 4 * 6 1 % c.aXm.W.].}.OX[.T.!.W.].C.XXXXR././.W.Z.'.].].].W.].].}.OX!.!.'.].W.XX}.}.XX.XR.(.T.yX4X% = f 2 * = kXiXI.Z.^..XW.Z..X/./.!.m.=XxX] X X k V < < 6 1 < 1 < < < < < 1 < * < 1 < 1 < < < 1 1 < 4 < < V X x.-XC.'.'.].].|.C.[.P.tX2X% * < 7 * % 4XyXY.W.}.XXW.'.}.W.W.A..X#XM.;XnX2 . < 3 4 3 3 > > > # # # # # w w # # # # # # # @ @ @ # # @ @ # # @ @ @ @ # @ @ # # @ @ # # # @ @ @ @ @ @ @ @ @ @ @ # @ # # # # @ @ P @ @ # . . . . G L a y 2.G . # # # # @ # @ o r         ",
"      o @ + @ + + @ o o . o 2.x G P G . . . . # # . r P @ o # @ @ # @ # # @ 8 @ 8 @ @ # # @ @ 8 # # # # # # # # # # @ @ # # @ o @ @ # # # # @ # # > > > > # 3 3 4 X M qX=XT.].G.oXZ.W.R.Q.0XnX% 1 b g h h 2 h 4 h 6 2 2 h h g h 7 . j.yX}.H.H..XW.W..X#Xn.$XkXX 2 2 * < k % f hX*XV.W.].}.}.[.[.[.].G.OXXXW.^./.A.W..XXX[.].].].Z.}.}.C./.B.^..XXXXXZ.}.}.W.W.R.R.*XxX= 1 j 2 g % l.sXU.+XZ.W.W.XX.XW.XXW.+XQ.rXjX%.= % X 2 j h b b b b b b b b b b g b b b g g 2 2 1 1 < < 4 4 V X x.rX'.}.W.W.].OXC.].T.rX3X% * 6 < 2 % & 9X-X'.}.[.T.E.[.W./.XXS.].W.~.yXgX% X O * < - - 3 3 > > , # > w w # # # # # # # # # @ # # @ @ # # @ @ # # @ @ @ # # . o @ @ @ @ @ @ @ @ # @ @ @ @ @ @ @ # @ @ # @ @ P o o # . . . . a ^ P i ) D o # @ # # # 8 @ + i         ",
"      o @ + @ + + @ # # . # ) y G P D . . . . # # . # H . # @ @ @ @ @ # # # # # 8 # # # # @ # # # # @ @ @ @ @ # # # # # # @ @ # # @ @ # # # # # # # # # # > 3 3 r X M qX=XV.'.C.}.W.!.!.M.0XvX& 1 4 4 4 6 6 6 h 4 6 h h h h 6 = X = wX=XG.K.%XoXZ.Z.^.W.T.&XgX% g g * < k X @.lX$X'.OXW.}.m.E.[.C.}.OXV.+XV.^.^.^.W.E.Q.W.W..X.X].[.E.E.!.B./.W.].}.R.XX'.}.XXW.W.OX0Xd.X k 1 g X M pXQ.XXXXR.R.Z.].oXH.%XoXW.E.=XuX9X@.z % % % % X X X X X X X X X % X X X % X X X X * < < 2 < B X F.=X'.}.XXW.W.Z.}.'.L.yX2X% = 6 X < 4 X g qX0XM.#XT.R.!.W.+X.X^.^.XXT.Q.aXc.X X 1 * - - r > > , , , > w 8 8 # # # # # # @ @ # # @ # # @ @ @ # @ # # @ @ # # @ @ @ @ @ # # @ # # # # # # @ @ # o @ @ @ @ . @ P # o @ . . . . a L D r 1.a . > # # # # @ # o i         ",
"      o @ + @ + # . . # . . ) y x P D . . . . # # . > P @ # # # @ @ @ @ # # # # 8 # # # # # # # # @ @ # # @ # # # # # # # @ @ # # # @ @ @ # # # # # # # # > 3 3 t X M qX=XV.|.}.}.V.R./.[.0XeXd % X X X X X X X % X X % X X X % j 3XiXE.J.K.J.oX.X+X^.A.Y.-X3XX n 1 < b X * 3XuXG.].W.W.].E.}.|.OXV.}.[.].W.^.W.W.R.!.Q.!.!.W.W.[.P.!.XXW.XX(.B.oX}.T.!.W.}.].W..XA.=XjXX h < < l % 8X;XM.C.+XA.W.'.OXoXoXH..X^.!.!.rX0XwX3Xl.l.f.g.g.g.f.f.f.g.f.f.f.f.f.g.l.l.l.l.>.% < < h * G X F.-X'.'.].W.^.W.].'.L.yX2X% * h 3 3 - * X N xX&XM.#X~.R.W..XoXH.+XW./.T.E.zX>.X * 1 * 3 r w > , , , > > w 8 8 # # # # # # # # # @ # # @ @ @ # @ # # @ @ # @ @ # # @ @ # # @ @ @ # # @ @ @ @ # @ # @ @ @ o # P # @ @ . . . . p P D x 1.H . # @ @ @ # @ # o y         ",
"      o @ + @ @ @ + o o . o 4.y x P D . . . . # @ . > P @ @ @ # @ @ @ @ # # # # @ @ @ @ @ @ # # @ @ # # # @ # # # # # # # # @ # # # @ @ @ # # # # # # # > > 3 3 4 X M wX=XV.W.}.H.].W.R.W.[.=Xb.k.k.k.k.k.k.k.k.k.k.k.k.j.j.k.x.&XiXM.m.OX+X!.T.W.].V.].[.aX#.% b 1 < b X m pX#XV.^.A./.W.}..XW.!.R.E.E.M.[.E.W.E.P.P.P.P.P.T.T.P.m.T.E.m.E.V.+X}.J.Z.R.R.^.W.Z.^.R.U.dX= X 1 h h X [ xX&XE.}.OX#XE.[.].W.W.XXW.m.m.|. X*XuX0XuXaXiXuXuXuXuXuXuXuXiXiXiXuXuXuXuXiXbXgX% * 1 h ; ' X D.;XV.Z.A.R.^.W.}.'.L.yX2X% = h * 3 0 t 1 X d.zX$XI.R./.+XZ.J.%X%XC.[.#XE. XpXX.% = h O # y # # > : : : # # # # # # @ @ # # # # @ # # # @ # # @ # # @ @ # # # # # # # # # @ o @ # # @ @ @ # # @ # @ @ # o # L # o @ . . . . a W D p ( G . # @ # @ # @ @ o i         ",
"      o @ + @ @ . @ @ . . o 0.u a P G . . . . # o . w P . . . @ @ @ # # @ @ @ @ @ @ @ @ @ @ @ @ @ @ # # # @ @ # @ @ @ # # # @ # @ @ # # # # # # # # # # # > 3 3 t X M wX=XV.W.Z..XOXW.Z.W.T.@X-XrXyXyXyXyXyXyXyXyXyXyXyXyXrXyXrX#XT.E.}.[.T.n.T.].OXH.}.'.lX% % h 1 2 f % d.tXY.A./.A./.W.].oXW.(.T.*X0XzX0X0X0XuXuXtXtXuXuXtXtXtXtXuXuXaX0XOXW.].OX.X.X/.XX.XW.W.!.L.yXl.% g < h * = 8X0XQ.].'.[.m.T.E.E.T.Q.T.'.|.C.'.V.T.T.T.Q.T.T.T.Q.!.E.T.T.T.T.T.T.E.E.!.n.yX8X% = f = * I X D.;XA.^.W.W.W.'.'.'.L.yX3X% * h < t s - 1 1 % z.zX_.[.Z.W.XXJ.%XJ.%X'.'.+Xm.#XsXm X 2 X O 3 - # # > : O - # # # # # @ @ # # # @ @ # # # # # # # # 8 # @ # # # # # # # # # @ @ @ # # @ @ # # @ o @ @ @ @ . @ L @ o @ . . . . G W K w ) a o # # # # # @ # o i         ",
"      o @ + @ + @ . . @ o . 0.u a P G . . . . @ @ . r P @ o o # @ @ # # @ @ @ @ @ # # @ # 8 # # @ @ # # # @ @ # @ @ @ # # @ @ @ @ @ # # # # # # # # # # > > 3 3 u X n qX=XT.]..XOX].oX.XZ.XXE.m.V.C.C.C.C.C.M.M.C.C.C.M.C.'.G.M.H.Z.J.'.W.!.).).E.'.J.J.uX3X= % k 3 l % % 5XrXB.Z.W.R..X].H..X^.Y.@XlX2Xz.c.c.,Xc.c.c.,X,X>Xz.z.z.z.z.z.>Xz.0X[.n.].].H.].Z.].V.OXC.Q.&XhXX < X 2 2 X m pX:XT.!.!.!.[.!.[.Q.Q.[.|.|.M.OXW.W.(./.C.W.].].W.W.]..XXX.X].].W.Z.Z.Z.V.tX8X& * 1 4 4 I % D.=XZ.K.}.G.C.'.G.'.P.tX3X% % 2 2 < u 3 * * X % 9XiXM.XXXXZ.}.}.'.|.'.'.W.#XW.0XwXf . y y X < * O # # # # - # # # # # # # # # @ @ @ # # # # # @ # 8 @ @ # # # # # # # @ @ @ # @ @ @ # # # # @ o @ @ @ @ . @ H @ o @ . . . . a P L a 5.a . # @ # @ # @ # o y         ",
"      o @ + @ + @ + o o o . 0.a p L G . . . . @ @ . r P @ @ @ # @ @ # # @ @ @ @ @ # # @ @ 8 # @ @ @ # # @ @ @ # # # # # # @ @ @ # # # @ # # # # # # # # > > > - t X n qX0XE.W.W.}.H.oX].C.].W.W.]..X].]..X.X]..XZ.]..X.X}.].}.oXoXH.H.OXE.!.T.E.C.}.G.J.xXz X k y 3 ' X ] lX|.!.W.H.W.W.].W.oX.Xn.&X8X= % X = & & & % * % % % % & & % % & & j.iXm.W.].].oX}.XXC.oXJ.E.'.sXN X h < 2 1 X d.iX@XT.W.[.W.V.!.T.C.'.'.'.'.W.V./.R.A.W.].}.}.].].].].H.Z.]..XoX.XoX.Xn.0X8Xd 1 4 k * B X D.#XH.oX}.G.}.[.}.|.T.tX4X% 1 2 7 : 3 u t 3 4 X = hXtX'.'.OXE.].Q.E.'.OXV.W..X}.iX8X% X < 3 < O O # # # # 8 @ # # # # # @ @ # @ @ @ @ @ # # # @ # # @ @ # @ # @ @ @ @ @ @ # # @ @ @ @ # @ @ # @ # # # # o @ H @ o @ . . . . p P D D 2.G . # @ # @ # @ # o i         ",
"      o @ + @ @ . @ # . . o 9.x a P G . . . . # @ . > P @ @ @ # @ # # # @ @ @ @ @ # # @ @ # # @ # @ @ # # @ # # # # # # # @ @ # # # # # # # # # # # # # # # # - 3 X M hX0XI.Q.V.W.W.Z.Z.oXH.'.|.Z.].].].].].]..XOX].W.].].'.C.C..XXX^.R.V.+XM.XXW.T.Y.yX7X% X 5 < 6 - % z.tXm.OX}.G.|.E.E.!.W.W.!.tXf.% n g * 1 1 = = = * * = 1 = = * 1 1 X m zX Xm.R.R.].}.E.'.J.oXR.@XyXc.% = 1 O h % * 8XuX[.}..X].C.W.W.].E.}.W.].XXW.].].].XXW.W.W.[..XW.W.+X.XW.W.W.W.W.].Z.0X8X= % < 7 O B X D.;X].oX}.|.].XX].[.T.yX4X% * 2 7 < 3 y - - X 4 X z lX&XM.OXR.T.T.!.E.W.W.XX.X}.I.aXc.X X < 3 > O # # # 8 e # # # # # @ @ @ # @ @ @ # @ # # # @ # 8 @ @ # # # @ @ @ # @ @ # @ @ @ @ @ @ @ @ # @ # # # # o @ H @ o @ . . . . a P x p ( x . > # # @ # @ @ . r         ",
"      o @ + @ @ # @ @ @ o . 5.G x W H . . . . # # . > P @ @ @ # @ # # # @ @ # 8 @ # 8 @ @ 8 # @ # @ @ @ # # # # # @ @ # # # # # @ @ # # > > # # # # # # # # O O 3 X M qX0XI.[.[.].W.]..XW.H.%XG.Z.W.W.Z.].W.Z.W.C.E.W.W.].].}.].W.A.R./.Z.OX.XV.R.T.=XwXf X 2 7 : b X % wX=XE.}.}.G.|.C.T.XXW.'.!.aX] % h 6 2 1 f h j h l t 6 6 6 4 6 B 4 1 % gXtXm./.R..XOXC.}.oXH.W./.P.sX% = 6 6 y < X d 8XpXG.Z..X].Z.W.XXW.].XXZ..X].'.%XM.W.R.W.W.W.W.W.W.C.V.W.!.XXW.W.W.V.0X8X= * 6 : < B X b.;XC.}.C.'.Z..XC.W.Y.0X4X% % b < : 5 3 # y 3 O 6 X X.xX*Xm.!./.#XV.W.XXA.C.].}.W.'.dXd.X * 3 > O > > 8 8 e # # # # # @ @ @ # @ @ @ # # # # 8 # 8 8 # # 8 # # @ @ # # @ # 8 @ @ # # # @ @ # @ o # @ @ # . @ L @ o @ . . . . a U K r ) a o # @ # @ # @ # o y         ",
"    i o @ + @ @ + # @ . @ . q.u D L G . . . . # @ . i H . o > @ 8 # @ @ @ @ @ @ # # @ @ @ # # # @ @ > # @ # @ # # # # # @ # # # @ # # # # # # @ # # # # > 3 # O 6 X M qX0X'.'.C.G.'.W.A..X].].}.}.].}.].'.'.].].'.}.}.'.E.C.E.E.}.}.C.Z.+XW.W.E.L.rXkXn X * b < 2 2 % [ tXn.XXoXJ.{.{.'.!.W.H.G.=XeX% = O X < < 1 1 1 < 3 < < 7 7 7 5 5 7 7 % l.uX~.(.R..XoX{.}..XS.Z.^.Q.pXX.% 1 y > u = % = 5XiX!.[.[.'.W.Z.W.^.W.Z.Z.'.[.!.R.W.].].W.].[.[.W.W.W.W..XW.[.W.].V.*XeX= O 5 < O V X D.-XW.OXm.].].+XZ.XXT.0X4X& % k < 3 3 3 3 3 3 3 4 X % %.aXQ.E./.OXH.].Z.'.oX}.G.].].[.zXX.X * 3 < O @ r o , # # # # # # # @ @ @ # # # # # # @ # # # # # @ @ @ @ @ @ @ @ @ @ @ @ @ # # # # # @ @ > @ @ @ @ # P @ @ # . . o . a P G G ( a o # # # # o @ @ o r         ",
"    i o @ + @ @ @ . @ # . . 0.y x P H . . . . # # . r H # . w @ @ @ @ @ @ @ @ @ # # # @ @ @ # # # # # @ @ # @ @ # # # # # # # # @ # # # # # # # > # # # # # # * t X n qX*XC.}.%X{.}.W.A.^.Z.W.'.].].}.].}.'.'.W.E.'.'.].'.].[.[.'.E.E.].[.V.Q._.tX8Xj % = 2 1 1 h X % 6XiXT.}.}.}.}.}.'.R.R.J.J.tXc.% * 3 y 4 4 4 4 < < 3 5 7 7 7 : : 7 7 2 X ] zX).n.+XH.G.}.}.W.A.Z.Z.E.aX2X% 2 3 O 5 4 * % & D.uX0X_.|.[.W.B.W.W.].'.].W.~.T.W.].].].].[.].W.E.W.'.].C.W.'.XXm.tX8X1 * 4 1 * V X x.=X.XZ.OX[.Z..XXXV.T.uX,X& % k < 3 3 > 3 < < 5 O 6 X X v.iX'.W.Z.H.oXOXC.].'.}.}..XV.0XvXz X 1 < < > @ : @ # # # # # # @ @ @ @ # # @ @ # # @ @ # # # @ @ @ # # # # # @ @ @ @ @ @ @ @ @ @ @ @ . # w o # . @ P o o w . . . . p P D x ^ a o @ @ # # o @ @ o r         ",
"    i o @ @ @ @ @ @ o . . . q.y a P P . . . . # # . r L . w . # @ @ @ # # @ # # @ # # @ @ @ # # # # # @ @ # @ # @ @ # # # # # # # # # # # # # > # # # # # # # 3 ; X M qX*XE.}.|.{.'.].A.^.^..XXXW.W.].].].W.].W.].[.[.].W.W.W.E.OXE.P.T.L.Q.iXlXl.= X * 4 1 h 4 l % f lX$XC.OX'.Q.Q.Q.Q.~.!.}.$XvX] % l # i 3 y t 3 < < 3 3 < < 6 < y 3 < h % & 8X=X[.V.].G.G.OXW.R..X].E.0XxX= X 6 O < < h j % & %.hXzX@X~.T.B.W.W.W.W.E.E.E.Q.'.].}.].'.].].].'.].].].'.]..X+XE.uX5X& X O * 1 k % 6X=XXXC.E.[.C.W.W.!.[.0X2X% % 6 3 3 > > < < < : 3 3 < X % 5XuXm..X.X}.C.!.~.E.[.'.C.}.'.0XeXd X 6 O . 7 3 O # # # @ # @ @ @ # # # @ @ @ # # @ @ @ @ @ @ @ @ 8 8 # # @ # # # # # @ @ @ @ @ @ # @ # @ @ @ @ w ) # . @ . . . . a P D x _ a o # @ @ @ @ @ @ o i         ",
"    i o @ @ @ @ + # . . o . q.u p U L . . . . # # . p P # . # # @ @ @ # # # # @ # # # @ # # # # # @ # @ @ # # # @ @ @ @ @ @ # # # # # # # @ @ # # # # # # > 3 3 ; X z eX0XG.{.{.{.{.{.M.G.G.'.G.G.G.G.G.G.'.'.'.'.'.{.'.{.{.{.{.{.$X&XtXzXwXv.] % X * u - l h ; t X $.bXwX$X{._.I.I._._.E.'.$X9XvX2 X t r # p # - 3 3 > # # 3 3 3 3 6 < X 4 ; % $.cXM.N.{.%X'.'.I.I.G._.M.$XxX%.X h : O * < X 1 % % = f.xXaXtXyX{.%X$X%X X X X X{.{.{.{.{.{.{.{.$X{.{.{.$X%X%X$X{.pXkX% * ; ; 4 6 X v.0XG.OX_. X XM.'._._.sX4X% % 4 > r > 3 3 3 < : 3 O O 2 X z hX0X{.&XG. X XI.I.'.|.{.M.'.'.uX4X% X > < o - - # # # @ @ # # # # # # # @ # # # @ @ @ @ @ # # # # # # @ @ @ @ @ # # @ @ @ # # # # . # . # o . W x . . @ o . . . G P G G ) p o # o @ @ @ # @ o r         ",
"    i o @ + @ @ # . @ # . . e.x a P H . . . o # @ o . 1.w . w o 8 # @ @ # # # @ 8 # @ @ # 8 # # # @ @ @ # # @ # # # # # # # # > # @ # # # @ @ # # # # > > > > # - X ] vXbXpXsXpXzXlXzXpXlXlXlXpXaXaXpXaXpXaXzXzXzXzXzXpXpXpXpXwXpXlXhX<X>.= % X 1 * r r > * = ; t % gXvXhXvXjXzXpXiXpXsXsXiXzXvXGXX X 4 # r # t - r r w w 8 r r 0 3 < < 4 4 ; % f gXxXdXaXaXuXdXpXcXxXcXsXsXbXgXX X 6 O 6 6 4 < 4 1 X X % ] >X8XjXlXlXlXlXpXpXzXpXpXlXlXlXlXzXzXlXpXlXpXlXlXlXpXpXvXgX= % ; ; ; u X gXbXpXpXpXaXiXaXfXaXsXvXgX* X < > r e r i r 3 < # # 5 < X X  .kXlXpXzXaXpXpXaXtXuXiXzXpXpXlXGX>X. o . u $ 0 # # # # # # # # # # # # # # # @ # @ @ @ @ # # 8 @ @ @ @ @ @ @ @ @ @ # # # # # # . w o # . . ) r . . # @ . . . . a L G D ) p o # @ @ # @ @ @ o r         ",
"    r o @ + @ @ @ + o @ o . 0.x G L G . . . o # . r . . W D . . 8 # @ @ @ # @ @ 8 # @ # # 8 # @ # @ # # # # @ @ # # # # # # # # @ @ # # # # # # # # # # > > > # 3 X 1 #.@...X... . ...o.X.X.O.......X.X.X.X.X.X.o...X.X.X.X.O.O.X.N 1 X X X ; t % u , > o 3 4 % # . b = = [ o. . . .o.o.o.o. . .b X < : O 3 O 3 r > > > w r r 0 i r O < 6 4 ; = X f O. ...........O. .[  . ...... - 3 X X O y 3 4 X u t X X % X * g N o.X.X.X.......X.X.X.X.X.X.X.X.X.X.X. .o.o.[ ..m X * * - 3 # o N @.O.O.O...@...@.....@.[ X X : > w w r r r O 3 > y O < < O * X ....O.O...@.X.@.@...O.@.@.@.%.>.X . + + r # # # # # # @ # # @ @ # # # # @ @ # # # # # # # 8 @ @ @ # # # @ @ @ @ @ @ @ @ @ @ . # @ @ . ) D . @ @ # . . o . . p P L x ) a @ @ @ @ # o @ @ o r         ",
"    i o @ + @ + . # . . O . 4.x L L L o . . o o # . @ . # W D . @ @ @ @ @ @ @ # @ # # # # # # # # @ # # @ # o # @ @ # # @ @ # # @ # # @ @ # # # # # # # # > # , o o . X X X % . X . X X X X X . . . X X X . . . . X X X X X X X % X X : 6 4 4 4 1 * : r e e > > @ u . % X X . . . . X X X X . . . . < o X u * * - # , , , 3 - - 9 w O : O O * 4 4 . . < . . % X . . . X X X X . % t $ 3 O < 3 3 X 4 3 4 < O 2 < X X X X X X % % . . . X X X X . X X X X X X X X X X . * < X * < @ : . X % X . X . X X % X X X X # > > 3 : 3 3 3 3 . r 3 p O < O X O . X X X X X X * X X % X . . . X . X r r . o # # # # # @ @ @ @ @ @ # # # @ @ # # # # # # # # @ @ @ @ @ @ @ @ @ @ @ @ @ @ @ o # o . . 5.a . # @ o o . o . . . G P G x 1.a @ # @ @ # o @ @ o r         ",
"    i o @ + @ @ @ . @ # o . 0.x P L P # . . . . . w o @ o . ^ G . + @ @ @ @ @ # + @ # # @ @ @ # @ o # # @ @ @ # @ @ # # # # # @ # # # @ o # # # @ # # # # # > > e , , X 3 3 r y 4 : 4 3 3 3 y 3 3 3 3 3 3 3 3 3 3 3 3 3 3 3 3 3 3 * 6 O O 3 3 * 1 < < > w i , > > o # # O 6 3 3 3 3 r t t t r > r # 3 : : X 3 3 O # , , : : * - r w > 3 > 3 : O X y # > > 3 - r y > 5 6 < < X < # $ # 3 3 < 3 3 3 O < O : 6 3 3 y 3 3 3 4 3 - - 3 3 3 3 3 3 3 5 y 3 3 3 y 3 y 4 < 6 3 - . < < : w , < < * * a # y t - l * 3 s 8 > > > 3 : 3 : > 3 y > # # r : : 3 O r 3 y 3 * - i . t - - 3 # w i X * 3 $ # . > # # # # # @ @ # # # # # # # # @ @ @ @ @ # # # # # @ @ @ @ @ @ @ # @ @ @ o @ @ @ # . . | p . # o # o o . . . o H U H a D 5.i . > @ @ @ . @ @ o r         ",
"    p . o @ o @ @ . # o @ . q.P a H D ,.G . . . + . r . o o . _ P . o @ @ > o # # # # # # @ @ @ # # # @ @ @ @ @ # @ # # # # @ @ @ # # # # # # @ r r # # # > > 3 # # > 3 3 - - 3 3 3 3 3 - - > # y 3 # # 3 3 3 # 3 3 > # # # # O # # X > 3 # 3 - O < 3 > > > > 3 > 3 3 # O O O # 3 3 3 - # O # 3 # # # # # # # # # # # > > # 3 3 > > 3 3 3 3 > > > # # > 3 3 3 > > # O O O < 3 3 - - 3 3 3 # > 3 3 3 3 O > 3 3 3 3 O # 3 3 # # 3 > 3 # # # # # # 3 # O # 3 # O O 3 3 # O # 3 3 > > > > O 3 - # # > 3 3 # O # # > # O # > > # # 3 > > # > 3 3 3 3 3 3 # O # - - 3 3 3 # # # O # # # # O # # 8 # # r # # # # # # # # # # @ @ @ # # # # @ @ @ @ @ @ @ # # @ @ @ # # # > o # # @ # # . # ) i o o . # # . . . . . G ) P P i P 4.i o > # # @ # # o @ i         ",
"    i o @ @ o @ o # # r w # ( q.Z G E P ,.H . . . . . + # @ . . _ P o o # @ # o # @ @ @ @ @ @ # # # @ @ @ @ @ @ > # > # # > @ # @ @ @ @ @ # # # # # # # # # # # # # # # # # # # # 3 3 # # # - # 3 3 # # # # # # 3 3 3 3 3 3 3 3 3 3 # y y 3 3 3 O # # # # # # > > 3 3 > 3 3 3 y # 3 3 3 3 # # # > > # # # # > > > # # > # # # 3 # # > 3 3 3 > > 3 > # > > > # # 3 3 3 3 3 3 3 3 > > 3 3 3 # # 3 # 3 > # 3 3 3 3 # 3 3 3 > # 3 3 3 3 3 3 3 3 3 3 3 3 3 y y 3 3 3 3 3 y y y y 3 # y y 3 3 3 3 3 3 > 3 > : > > > > > > > 3 r 3 r r # # # > 3 3 # O O # # # 3 - # # # # # # O O # # > > > > > # # # # @ @ # # @ # # @ @ @ @ @ @ @ # @ @ # # # # # @ @ # # @ @ @ # # o . # # # # # . . ) a . @ o # . . . . . @ ^ ) U P a W 4.# @ r # w # . o # @ @ r         ",
"      o @ @ @ @ # r > r o . # 5.0.r L P a 2.K + . . . o @ . o o @ H H . . r o # # @ @ @ @ @ # # @ @ @ @ @ @ @ @ # @ # @ o @ @ # @ # # @ @ # # # r > # # # > r r # # # # # # # # # > 3 # # > > > 3 3 3 3 # # > 3 3 3 3 3 # 3 3 3 3 3 O 3 > O # O > > > > > > > 3 3 3 3 3 3 3 3 3 3 3 y y y 3 # # r 3 > # # # > > > > # # # # # # # # # > > > > > # # # # # # > 3 3 3 3 3 > > > > > > > > > # # # # 3 > # > > > > 3 r y 3 3 3 y 3 > > 3 3 3 3 3 3 3 3 3 y 3 3 3 3 # > > > 3 3 3 # 3 3 3 3 # > 3 3 3 3 3 > 3 3 3 > O # # # # # # # # # > > 3 > # O # > # # 3 - - 3 # > > > # # # > > > w > # # # # @ @ # # # # # # @ @ # # # # @ # @ # # # # # # # @ @ @ @ . o o o @ @ w @ @ @ . # ( p . # o . # . o o . # L ) H L x _ 0.@ . . @ @ r r w w w # # i         ",
"      # # # # w i o o o o . . . 0.p.i P W H 5.R . . . . . @ # O . . / P . o @ # # # @ # # @ @ # # # @ @ @ @ # # # # > # @ # @ # # # # # # # # # @ @ @ @ @ @ # # # # # # # # # # > > > # # # > > 3 3 3 3 3 > 3 3 3 3 3 3 # # > 3 3 3 # 3 > # > # > > 3 3 3 3 3 3 3 3 3 3 3 > > > > > 3 > # # O O r 3 3 # # > > 3 > # # > # # # # # # # # > > # # # # # # > > 3 3 > > > > > > > # > > # # > > # # O 3 # # > > > > O # > # # # # # > > > 3 3 3 3 3 3 # # > > # # 3 > > > > 3 3 3 3 3 3 3 3 # # 3 3 3 3 3 > 3 3 3 > # > > # # > > # > > > # # # 3 > > 3 # # - 3 3 3 > 3 3 3 3 3 3 3 # # > # # # # # # # > # # @ # # @ # # # @ @ @ @ # # @ @ @ @ @ # # # # # # # # # @ w . # > . @ ) a . . # # @ . . . . . W W P ^ G | 0.. . # . o o . # w r w # # y         ",
"      r r > # > @ . o . @ o # . . p.0.p ( P P 2.E . . + . o @ o # @ . ^ P . # @ o o @ @ @ @ @ @ # # @ @ @ @ @ @ @ @ # @ @ @ o # # # @ @ @ @ @ # # # # # # # # # # # # # # # # # # # # # # # # # O # # # # O O # y 3 > # # # # 3 # > # > > # > # # # O # # # # # # # # # # # > > y y 3 3 3 3 3 3 # # # # # # # # # # # # # # # # # # # # # # # # > > # # # O O # # # # # # # # # # # # # # # # # O > # O # > # > > > 3 3 3 > # > # # # # # > # # 3 # # # # # # # # # > 3 3 3 > # # > > # # # > 3 > > O O > > > O # # # # # # # # # # O O O # # # O # # # 3 # O # O # # # # # # # @ # # # @ @ # # @ # # # @ o @ @ # # # # # @ # # @ @ @ o o o @ @ @ @ @ @ @ @ @ @ > . # # . @ 2.r . # o o # . . . @ . P _ P P G ^ 0.@ . o @ @ # . . . . # r r i a         ",
"      i w # o . . @ o o o . @ @ . . 0.0.a H ( H 5.E . . . . . # @ . . . G U @ @ # @ # # # # # # # # # # # # # # # @ > # # # @ # > # # # # # > r # # # # # # # # > > > > > > > 3 r 3 3 3 3 > > r 3 > # > 3 3 3 # 3 3 # # # 3 3 3 # > # > > # 3 > 3 > > 3 3 3 3 3 3 3 3 3 3 3 3 3 > 3 3 3 3 3 3 3 3 3 > > > 3 3 3 > > > 3 3 > 3 3 > > > > > > > > 3 3 3 3 > > # > > > > > > > > > 3 3 3 > > 3 r r 3 3 3 # 3 3 3 3 # # > 3 3 # # > # > > 3 3 3 3 > 3 3 > 3 y 3 > # 3 3 3 3 3 # # 3 > > 3 3 3 3 3 3 3 3 3 3 3 3 3 > > > > 3 w > # > # > 3 3 > > > > 3 3 3 > 3 > # > > 3 3 > > # > > > 3 w > # # # > # > > # # # # # @ @ @ @ @ @ @ @ # # # # > > # # # # @ # # # # # . # # . @ 2.@ . # # . @ . . @ . . ^ ) H P H P p.@ . # . . # . # @ o . . # > i a         ",
"          @ . . # # . . @ o . . o @ . 0.0.p U ^ P 5.E . . o . . o w # @ o D ^ . . . . o o . . o . . . . . . . . o . o o o @ o o o . o o o o o o o o o o o o o o o . . . . . o o o . o o o . o o . . . o o o . . o o . . o O o . . o o o o . o o o o . o o o o o o o o o o o o . o o o o o o o o o o o . . o o o . . . o o . . o . . . . . . o o . . . . o o o o . o . . . . . . . o o o o o o o . o o . o o . . o o O o o o o o . o o o o o o o . . . o o o . . @ o . o . . o @ o o o o O O o o . o o . . o o . o . . O @ o o @ . o o o o . . . O O . . . . . o o o o . . . . o o o . . . . . . . . o . . o . . o o o o o o o o . . . . . . . . . . . . . . . . @ o . w ) w . # o o o . . o . . ^ ) H ^ p ( p.# . . o w @ @ # o . @ o . . . o           ",
"            @ o . . # o o . @ @ o o . . p.p.p P ~ P q./ . . . o o o o # @ . a ~ p y i i i i i i i i i i i i y y i r i r i p i i y i i p p i i i r r r i i i i i i y y r r y i y y y y u y i y u y y y i y y y y u i y y u u y 3 r y i y y r y r y r r r y y y r i y u u u u y y p y y y y y u p a a p y u u p a y y u a p y u u u u u u u u p p a u y u p p u y a u u u u u y u r y p y i i i r i p u y u u i i i a a y r y u i y y y y y i y y y y y y y y y p r r i u u i y y y y i y y y r r y y y y y y i i y r r u p i i p u u u i y y i y 3 y y u p u y i y i y y r y i y i i r r i i i i r i i i i i r > r i i i r r r r r r w w w w w r r r w r r r w r r # D ~ w . . @ @ o . . . . . ^ ) H P p ( a.@ . # . @ . @ @ . o o @ o @ # #             ",
"              # . o o . o @ @ . o . # . . 0.a.H G ( _ 4.^ . . . . @ @ # @ . o i P P H G G H H L P H H L H H P G P P H P L H P L P P P H P H H G H G H H H H H P H J P J G H J H J J P H P G P P L L L L P P P L P P P P P P P H P H G P P H H P G L P L H H H H P J J P J H H P H P P H U P P P H P P H P P H P G P H P J H P J G P P H P P H P P P P P P P P H P J J P H P U P P P P P P P P P P P L P P P W P P P P P P P P P P Y J P P P U P P P H P J P P ^ J U U P P P P P P P P P P P U U P U U P P P P P H L P P P P P P P P P P P P P P L P P P P P P P J P P P H H H P H L P H H H P P H H L H H H H H G H H G G G G H H H H H H H H H H L H G G H P P H P P r . @ . @ @ . . . . . P 2.P P G ( p.# . o @ @ @ o o o o o o o @ > @               ",
"              # # o . o @ o o o . # . @ . . p.mXG G ~ a 5./ o . o . o . # o . o . . . . . . . . . . . . . . . . . . . . . . . . . . . . . . . . . . o . . . . o . . o . . . o . . . o . . . o o . . . . . . . . o o . . . . . . o . . . o . . . . o o . . . . . . . . . . . . . . O . . . o . o . o o . . . . o . o . . . . O . . . . . . . . . . . . . . . . . o . . . . . o . . . . o . . . o . . . . . . o . o . . . . . . . . . . . . . o . . . . o . . . o . . . . . . . . . . . . . . . . . . . . . . . . . . o o o o o o . o o . . . . . . . . . . . . . . . . . . . . . . o o o . . . . o o o o o o o . . . o . . . . . . . . . . . . . . . . . . . . . . . # . . @ . . . @ . . . ^ ) L P H ( q.a . @ @ o o o o o o o o . # #                   ",
"                # @ o o o o o @ o . # . # . . 0.h.a P ^ P 1.^ + . . . @ . # # o @ @ @ # # # # # @ @ @ @ # # @ # # > # > # # > # # # # # # > # # @ @ # @ @ @ o # @ @ # @ o @ # @ @ @ @ o # @ # @ @ # # # # # # # # # # @ # # # # @ # # @ @ @ @ o @ @ @ @ o @ @ @ o @ @ o @ @ @ @ @ # # @ o @ @ @ o # # @ @ @ @ # @ # @ @ @ @ # @ O # # # # # @ # # # # # # # # # # o o @ @ @ # @ o @ @ # @ @ @ @ @ # @ # # @ # # # # @ # # # # # @ # @ # # @ # o @ @ @ # # # @ # @ @ # # @ @ # # # # # # # # # # @ # # @ @ # # # @ @ @ @ @ @ @ @ @ @ # @ o o @ @ # # # # @ @ @ @ @ @ o o @ @ @ o o @ @ @ @ @ @ o @ @ o o @ @ @ o o o @ @ o @ @ o @ @ @ @ @ @ # # @ @ # @ @ @ @ o # o @ @ o o . . . . . . | U ) L w 2.p.@ . . o @ o o @ o o o o @ o #                     ",
"                  # # o . o @ o . @ o # . o . . s.h.H G P P 2.2.. . . . o . @ @ o o o o o o o o o @ o o @ @ o @ . o . o o . o . . o . o . o . o o o @ o o @ o @ o . o @ . . @ . @ o o . @ @ @ . . . o . . o o o o o o . . o o o . @ @ . . o o . @ o . . . o o . o o o o o @ @ o @ @ @ @ . o o o @ @ o o @ @ o o o @ o o o o @ @ . o o o o o o . o o o o o o o o @ o o o @ @ @ o o @ @ @ @ @ @ @ . . . . . . . . o . . . o . . o o o o o o . o . . . o o o o . . @ . o o . o o . . . . . . o . . o o o o o o o o o o o @ @ @ @ @ @ @ @ @ o o o @ o o o o . . . . @ o o o o o o o . . o o @ @ o o o o . . . o o . o . o o . o @ o o . . . . . o o o o o . . o o o . . . o . . o . . . # 1.L G 1.a 2.a.# . @ o @ o @ @ @ o o o @ @ #                       ",
"                    # @ o o o o # . # o . . > . . 2.h.P a ) P 2.2.. . . . o . . . . . . . . . . . . . . . . . . . . . . . . . . . . . . . . . . . . . . . . . . . . . . . . . . . . . . . . . . . . . . . . . . . . . . . . . . . . . . . . . . . . . . . . . . . . . . . . . . . . . . . . . . . . . . . . . . . . . . . . . . . . . . . . . . . . . . . . . . . . . . . . . . . . . . . . . . . . . . . . . . . . . . . . . . . . . . . . . . . . . . . . . . . . . . . . . . . . . . . . . . . . . . . . . . . . . . . . . . . . . . . . . . . . . . . . . . . . . . . . . . . . . . . . . . . . . . . . . . . . . . . . . . . . . . . . . . . . . . . . . . . . . . . . . . . . ) L ~ ( G | p.# . # @ o # o @ @ o o o o @ #                         ",
"                      # @ o . @ @ o . . # o . o . . 4.a.G H ( ^ 1.5.. . . . . . . . . . . . . . . . . . . . . . . . . . . . . . . . . . . . . . . . . . . . . . . . . . . . . . . . . . . . . . . . . . . . . . . . . . . . . . . . . . . . . . . . . . . . . . . . . . . . . . . . . . . . . . . . . . . . . . . . . . . . . . . . . . . . . . . . . . . . . . . . . . . . . . . . . . . . . . . . . . . . . . . . . . . . . . . . . . . . . . . . . . . . . . . . . . . . . . . . . . . . . . . . . . . . . . . . . . . . . . . . . . . . . . . . . . . . . . . . . . . . . . . . . . . . . . . . . . . . . . . . . . . . . . . . . . . . . . . . . . . . . . . . . . . . . o . 1.W ( ( r ) s.# . @ @ @ # . # o o o o @ @ #                           ",
"                        @ @ o @ + . + > . O o O . . . q.VXP G ^ ^ / ) o o r i x p p p p p p p p p p p p y p p p a a a a a p a a p p a a a p a a a a a p p a p a x p a a a a a p a a a D a D a a x x x a a x x x a a x B x a a G a Z Z a a D a p D Z a Z a p a Z a a a x D a a D a x a a G G a G G a a G a a G x G a x a a x p a G x G G a D G a H G G Z Z a Z Z a D a a x a a D D D D Z a a Z D D Z D D D D Z D D a a D D D D D G a G G D D a D a x G a D a G x a G x a H G p G a a a a a a a a G Z D G G D Z G Z Z a a a a a a a a a a a a a a a Z D D Z Z D D a a a a a a a a a p p a a a a a a p i p a a p i a x y y G a i a r i y p p p p p y i i y y r r i p p y r r @ . # ) ) H 2.G ) 0.w . @ @ # . o r o o o o @ @ @                             ",
"                          > # o . 8 . . # . # . # . . O 5.mXH H _ _ 1.5.G ^ 4.~ ( ) ) ) ) ) ) ) ,.) ,.1.) ) ,.) ) ,.) ) ) ( ) ) ) ( ,.( ) / ) ) / / ) / / ) ( ) ) / ( ( ( / ( / ~ ( ~ ) / ) ( ( ( ( ( / / / ( ( / / / ( ( ( ( ) ( <.<./ ( <.<.Q <.<.) ( ( / ( ) ) / / ) ,.( ( 1.) <./ ( 2.1.) 1.5.( / ) ) 1.,./ 2.( ,.) ,.1.( ) <.( ) ) ( ( ) ^ <.) ( ( ( ) <.1.<.1.) ( ) ( ( <.<.<.<.) ( ( <.<.( / <.( ( ) / ) 1.,.<.<.<.( ( ( / ~ ) ) ) <.( 1.( ( ) ( ) ( ) ( / 1.( ( 2.( W ) ) ( ) ) ) ) ) ) ) ( ) ) ) ( / ( ( ( / ( ( ) ) ) ( ) ,.) ) ( ( ) ( ( ) ( ( ( ( ( ) ( ( ( ) 1.,.) ,.<.,.1.,.) ( ( ,.( _ ( ,.1.( ~ ,.2./ ~ 2.) ~ <.( ( ) ) 1.<.) ) <.) ( ( ( ( ( ) _ _ ) _ ( P G 5.^ ^ ) x 2.a.# . o @ # . # o . @ o o @ @ #                               ",
"                            # > . @ @ . . @ @ o . # o . . q.1Xx G ( ~ ~ Q D L K D K L L L L L L K L D Q L R K L K K P D L D R L R K G L P L K K K L D G G R L D H E K K L K K E K K K K K Z K F Z D D D K D Z L p L L D T Z Z Z K Z Z K Z Z K K K Z K K K K E K Q D K L Z G P D L L K K L L G K H D K K R K H K G L P L K L L L R T Z T K D L K T L K L L K K L K L T T K K K T L F F T L K F F T D K L D D K D L K K K L K K D L L G a L D G R D G H L L K K K L D T K K T F R K T K F K L K K K K K D K L L K D F D F K K K E Z K A F T T K E D T F F F K Z L K Z K F K E Z F L F D K K L K F F F K K K K D F K L K L F L K K K K K K D D D D D K D D K L L G J J B J J Y P Y _ P p 4.a.# . # @ @ @ o . @ @ @ @ . o #                                 ",
"                              # @ + . @ @ . o @ o o o @ . . 4.MXP P P P a p p a a a x D D D D D D D a G a G a D a p L p a p p a p a p p a x a r a D p a i D p p a a p a G a p G i p a a p a a G p Z a a G a p G i G a p Z a i i a p p a a a a Z a p a a a a Z a a i a D p p G p i p a p a a a G p i p p D a a D p D G D a a a a D G p D a a G a i p a Z D D Z p a D G a a Z Z a Z a Z G Z a a a G p a G a a G D G G G x a p p p G a D G G p p i a a G G x a a a a i Z p p a i a p a a p a G Z a G D a a a a a a a a a a a p i p i G 8 p a p a a i G a p Z G a D Z i Z a Z G p a p i i i p p p p a p a p i p p Z i p a p a a a a r i p a a D D D p D y a x a G y H B u B u u 3 y J 3 5.a.# . @ . o o o o . . @ @ o # >                                   ",
"                                # @ + @ o . o @ @ o o @ - . o 0.1X&.&.9.7.w.;.9.3.3.7.7.3.7.3.7.8.8.3.8.3.8.3.8.&.3.7.3.8.&.8.3.3.;.-.7.8.3.-.3.-.7.-.8.;.8.-.8.-.-.;.-.8.-.;.8.;.;.;.-.;.-.3.8.=.6.-.=.-.=.&.=.-.8.=.-.6.8.3.3.8.3.-.7.8.8.7.7.-.-.3.8.-.3.3.-.-.-.6.6.-.-.-.=.3.3.3.-.=.=.-.-.=.&.;.;.-.;.-.3.=.-.6.3.-.-.=.&.;.7.;.-.;.-.8.&.&.-.3.-.-.-.;.Y =.-.-.=.=.-.-.&.3.-.6.3.=.&.&.&.;.} &.-.&.&.-.=.=.-.3.-.-.=.-.3.-.&.-.8.-.-.3.&.-.-.-.-.-.=.;.;.=.&.=.&.&.-.;.=.=.=.-.-.;.-.-.&.=.=.=.=.=.&.&.=.=.;.=.;.;.=.&.&.&.8.} -.3.=.6.-.;.-.;.&.8.8.3.-.3.=.6.3.6.8.;.-.-.6.6.-.-.6.8.8.8.6.8.-.=.=.;.6.;.=.8.=.8.&.-.=.3.3.3.3.3.3.-.;.3.-.-.-.-.3.-.3.2.4.4.4.q.q.4.q.2.p.p.# . # o # . o @ o . . . o # w                                     ",
"                                  @ # @ . o @ o o o # . @ # . . _ u.&.-.8.-.9.;.8.8.8.8.8.8.8.8.8.8.7.8.3.8.3.8.-.;.9.3.8.8.7.9.9.3.3.9.9.3.-.8.;.-.;.8.;.3.-.8.8.:.-.-.7.-.-.8.8.8.7.8.-.:.8.9.=.8.8.8.9.9.9.w.8.8.=.:.8.9.8.:.8.8.:.8.9.9.8.8.:.8.8.9.8.9.8.8.9.9.9.8.8.6.6.6.w.9.9.9.9.w.w.9.r.r.r.w.r.w.r.r.9.9.w.w.9.9.9.9.9.w.9.9.9.w.r.9.9.r.r.w.r.i.r.9.r.r.r.w.r.r.r.w.w.w.r.r.w.r.r.r.y.r.y.t.y.r.y.y.w.w.r.r.r.r.y.y.r.9.w.t.9.y.p.y.y.y.y.y.y.y.y.r.t.i.t.i.i.u.t.t.t.i.t.u.t.t.t.i.t.i.t.u.u.t.t.u.i.i.i.t.u.t.i.t.r.t.w.r.i.i.u.i.i.t.t.r.u.u.u.t.u.t.u.u.u.u.t.u.i.t.u.i.i.t.t.t.u.u.a.u.t.t.t.u.u.t.a.t.a.r.u.t.y.y.y.y.y.y.y.r.y.t.9.y.y.w.p.y.y.p.y.y.r.0.0.0.a.y.. o . . w o o @ @ . . . o @ w                                       ",
"                                    # @ o @ @ o @ . # @ . o # @ # . . . . . . . . . . . . . . . . . . . . . . . . . . . . . o . . . . . . . . . . . . . . . . . . . . . . . . . . . . . . . . . . X . . . . . . . . . . X . . . . . . . . . . . . . . X . . . . . . . . . . . . . . . . . . X . . . . . . . . . . . . . . . . . . . . . . . . . . . . . . . . . . . . . . . . . . . . . . . . . . . . . . . . . . . . . . . . . . . . . . . . . . . . . . . . . . . . . . . . . . . . . . . . . . . . . . . . . . . . . . . . . . . . . . . . . . . . . . . . . . . . . . . . . . . . . . . . . . . . . . . . . . . . . . . . . . . . . . . . . o . . . . . . . . . . . . . . . . . o o . @ . o @ @ o . . @ # # #                                       ",
"                                      # # o o @ @ o o # @ @ # @ $ . 0 # 0 8 . $ o $ $ $ @ $ $ $ # # # # # # # # 0 $ 8 $ @ # + # # # $ # # # # # # $ @ $ # + @ @ $ # # # # # # $ @ o @ o # $ @ @ o o O @ @ # # # @ O @ @ - . # @ # # @ $ O O O # O O O @ . $ O $ o + o + # # @ @ # # # # + + @ @ @ # @ # + @ $ @ + + + + $ $ @ @ @ @ o # . @ o @ # # # # @ o o @ # @ o @ # @ @ @ # @ @ @ o o o . @ @ # # # @ @ # # @ @ @ # @ @ @ @ # # # # # + @ + + + + + + $ o O @ O $ O @ @ O @ @ # # @ @ # @ @ o @ @ @ o o $ # # @ @ @ @ o @ @ . # . o @ . O @ @ # O O O # @ @ @ @ @ @ @ @ @ @ @ # @ @ @ @ o @ $ @ @ @ # @ # @ @ @ @ @ @ # # # # # # + + @ # @ # . # 8 . # . O O O o O o o @ # a > . @ o @ @ o o . . @ # # #                                         ",
"                                        # @ o o . @ o . o # # o @ # o # . o p . o o $ @ @ @ @ @ $ $ o o o o o o o $ . $ o . @ o @ . . $ @ o o @ o o o o @ o @ @ + + + $ + + + . + + $ $ # $ # # + . . @ . . . . @ . . @ @ . @ + + o + o . o o . @ + @ + o o @ + o o o o @ o o . . . o o o . o @ . o . @ . @ . . o o o o o o o @ @ @ @ # . @ @ @ + . + @ @ + @ # @ + + @ @ @ + @ + . + @ + + + + . o o . @ o . o . . . o o o o o . . @ . @ @ o . @ @ @ @ @ @ o o . . . + . . . . @ @ @ + @ . . + + + + + @ @ @ @ + + + + @ + . @ @ . @ . + . @ @ @ . . @ . + + + @ + + + + + + + + @ + + + + @ @ @ + @ + + @ + @ @ @ + + @ + @ @ . . . o o @ @ @ @ . @ @ @ @ . . o o o . # o @ # @ @ i @ + . # + o o o o # # #                                           ",
"                                          # # . # o @ @ @ # . @ O # . @ @ @ . @ . o o o o o O @ $ o o . o . o o O o o o o o . o . o $ . . @ O . . o . o . o o @ # + + + + . + + + + + # + + . @ @ . . @ @ + @ @ @ + . # . . + @ $ . + + o + + . + . o . + . @ . o . o o . . o o o o . . o o . . o o . o . # o o o o o o o o o o . + @ @ . @ + + @ @ + + + + + + + @ @ + + @ @ + @ + @ 8 @ + + + . o o . o o . o . . o o . . . o o . o . . . # . . . . . o o . . . + . @ @ . . + . @ @ + @ @ . @ + + + + + @ @ + + @ + @ @ + + @ # . + + @ . @ . @ . . # + @ . . @ + . + @ + @ + + + + + + + @ # . . @ @ + @ . + + . + + @ + + . . . . . o o o . o # . . o . # o o . o . # . o o # . # i @ @ o # . o @ @ # >                                             ",
"                                            @ # o o @ # @ . @ > o o o o . o o o O o o o o o o o . o . . . o . o o o . o . o . o o o . o o o o o o o o o . o . o o o @ o o . o o o . o . o . o o o o o o o o o o o o o o o o o o o . o . o . o . o o o o o . o o . . . . o o o O . . . . . . . . o o o o . . . . X o o o o X o O o o o o o o o o o o o o o o o @ $ o o o o o o @ o o o o o o o o . o o X o . . . O O o o o o o o . . . . . . X X . . o o . . . . . o o o o o o o o o o o o o o o o o o o o o o o @ @ o o o o . . o o o . . o o @ o o o o o o o o o $ $ @ @ o o o o o o o o o o $ o o o @ @ @ @ @ @ @ o o o o o o o . . . . . . O o o o o o o o o o o o o o o + + + + + # # # @ . @ o @ # @                                               ",
"                                            o @ # @ @ o o @ @ @ o o o o o o o o @ @ o o o o o o o o o o o o o o o o . o o o o o . . . . . . . . o o o o . . . . . o o . . . . . . . . . . . . . o o o o o o o o o o o o o o o o . . . . . . . . . . . . . . . . . . . . . o o o o o o . o o . . . . . . . . . . . . . . . . . . o o o o o o o o o o o o o o o @ o o o o o o o o o o o o o o o o o . . . . . . . . . . . . . . . . . . . o . o o . o O X . . . . . o o o o o o o @ o o o o o o $ o o o o o o o o o o o o o o o o o o o o o o o o o o o o o o o o o o o o o o o o o o o o o o o o o o o o o o o o o o o o o o o o o o o o o o o O o o o o o o o . o o o o o o + + + o o @ # # # + o @ # @                                                 ",
"                                                @ # # o . # # @ @ @ @ @ @ @ @ @ @ @ @ @ @ @ + + @ @ @ @ @ @ @ @ + + + + + @ @ @ + + @ @ + + + + + + + + + + + + @ + + + @ @ @ + @ @ @ + + + + + @ @ + + + + + + + + + + + + + @ + + + + + + + + + + + + + + + + $ $ $ $ + + $ + $ $ $ + + + + + + + + + + + + + + + + + + + + + + + + + + + + + + + + + + + + @ + + + + o o + + + + + + + + + + $ $ $ @ $ $ + + + + + + + + + + + + + + + + + + + + # # + + + + + + + + o + + + @ @ + + + + $ + @ + + + + + + @ + + + + + + + + o o + + + + + + + + + + + + + + + + + + + + + + + + + + + + + + + + + + + + + + $ $ + + + + + + @ @ + $ $ + $ # @ @ $ $ $ $ $ + @ @ + + @ @ @ + @ @ + @ @ # @ @ @ # @                                                   ",
"                                                  # > @ . @ # @ + @ @ @ + + @ @ + + + + + + + + + + + + + + + + + + + + + + + + + + @ @ + + + + + + + + + + + + @ + + + @ @ @ + + + + @ @ + + + + + + + + + + + . . . . . . . . + + + + + + + + + + + + + + + + + + + + + + + + + + + + + + + + + + + + + + + + + + + + + + + + + + + + + + + . + + + + . + + + + + + + . . . . + + + + + + + + + + + + + + + + + + + + + + + + + + + + + + + + + + + + + + + + + . . + . . . . + + + + + + + + + + + + + + + + + + + + + + + + . . + + + + . . + + + + + + + + @ + + + @ @ @ + . + + + + + + + + + + + + + + + @ @ @ @ @ @ @ + + + + + + + @ @ + + + + + + + + @ . . . @ + + . @ + . . @ @ # # # @                                                     ",
"                                                    # # # @ @ @ + + @ @ + + + @ + + + + + + + + + + + + + + + + + + + + + + + + + + + + + + + + + + + + + + @ @ o . . . o @ o . . o . o o o . o . . o o o o o o . . o o o o o o . o . . . . o o . . o o o . . . + + + + + + + + + + + + + + + + + + + + + + + + + + + + + + + + o o o o o o o o o o o o o o o o o o o o o . o o o o o o o o o o + + + + + + + + + + + + + + + + + + + + + + + + + + + + + + + o o o o o o o o o o o o o o o o o o . o o o o . . . . o o . . o o o o . o . . o o o . . . o o o o o o o o o o o o . o o o o o o o o o o o o o o o + o o o o o o o + + + + + + + + + + + + + + + + @ + . . @ @ o . . . . . . @ # r #                                                       ",
"                                                      # w w # # # # 8 # # @ @ @ # # # @ # @ # @ @ @ # @ @ @ # @ # @ # @ # @ # # # @ # @ # @ # @ @ @ @ @ # @ # @ # @ @ @ @ # @ @ @ @ @ @ @ @ @ # # @ # # o o o o o o o o o o o o @ @ O o O o O @ O o O @ O o O o @ @ @ @ @ @ # # @ @ @ @ @ @ @ @ @ @ # # # @ @ @ @ # # # # # # # # @ # # # # # # # # @ @ # # # @ @ # # # @ @ @ @ @ @ @ @ @ @ @ @ @ @ @ # # @ @ @ @ @ @ + @ @ @ @ @ @ @ @ @ @ @ @ # @ @ # # # # @ o o o # @ o o o o o o o o o o o o o @ @ # @ o o o @ o @ o o o o # # @ o o o @ # # o o o o # @ @ @ @ @ # @ @ # # @ @ # # # # # # # @ @ @ # # # # # # # # # # # # # # # # # # # @ # # # # # # # # # @ @ @ @ # @ @ @ # # # @ @ # r                                                         ",
"                                                          8 # # @ # # # @ O @ O @ @ @ @ @ O @ O o o + o @ o @ o @ @ @ @ @ O @ @ @ @ @ @ @ O @ O @ o @ o @ O @ @ @ @ @ @ @ @ @ @ @ @ @ @ @ @ @ @ # @ @ @ @ @ @ o @ @ @ @ @ @ o o @ @ @ @ @ @ @ @ @ @ @ @ @ @ @ @ @ O @ o @ O @ @ o o o o o o o o @ O @ O @ O @ o o o @ o @ O o o @ @ @ + + @ @ @ @ + + + @ @ @ + + @ @ @ + + + @ @ @ @ @ @ @ @ @ @ o @ O @ O @ O o o o o o o @ O o o o o o o o o @ o o O @ O @ o o o @ @ @ o o o o o o @ @ o o o @ O @ O @ O O O @ O @ O @ O @ @ @ @ @ @ @ @ @ @ @ @ @ @ @ @ @ @ $ $ @ @ # @ @ @ @ @ @ @ @ @ @ @ @ @ @ @ @ @ @ @ # # @ @ @ @ @ @ o o @ o o O @ o @ @ @ O @ O @ @ @ @ @ @ @ @ @ @ @ @ # @ o o                                                             ",
"                                                                                                                                                                                                                                                                                                                                                                                                                                                                                                        . . . . . . . . . . .         . . . . . . . . . . . . . . . . . . . . . . .                                   . . . .                                                                                                                           ",
"                                                                                                                                                                                                                                                                                                                                                                                                                                                                                                                                                                                                                                                                                                                                                        ",
"                                                                                                                                                                                                                                                                                                                                                                                                                                                                                                                                                                                                                                                                                                                                                        ",
"                                                                                                                                                                                                                                                                                                                                                                                                                                                                                                                                                                                                                                                                                                                                                        ",
"                                                                                                                                                                                                                                                                                                                                                                                                                                                                                                                                                                                                                                                                                                                                                        "
};
