/* XPM */
static char *bg1_death3[] = {
/* columns rows colors chars-per-pixel */
"69 33 13 1 ",
"  c None",
". c #181818",
"X c gray25",
"o c #606060",
"O c gray47",
"+ c #909090",
"@ c #A0A0A0",
"# c gray69",
"$ c #C0C0C0",
"% c #D0D0D0",
"& c #D8D8D8",
"* c gray91",
"= c #F8F8F8",
/* pixels */
"                                                                     ",
"                                                                     ",
"                                                                     ",
"                                                                     ",
"                                                                     ",
"                                                                     ",
"         ++@O                                                        ",
"     O+$%**=$O                                                       ",
"    +$#+$==*=@+++O                                                   ",
"   +$*+$**&&%&%$$$@++                                                ",
"  O#$%***$%&&&&*&&&$#@+                                              ",
"  +@%*&$$##$%*******&#@+                                             ",
"  +@%#@##$%%##%**==**&$$@@                                           ",
"  +@$@@@#&*$###%&*===**%#$#@O                                        ",
" OO++@@@%$#$#+$%%&*%&$*&%$$$%$#$@O                             %#    ",
"  OOO++@$$$&$@@#@%Oo$&&*%$%%&%%%$%%%%$##@+                    O&%    ",
"  oooo+++@#$%$@+@%+#%%*&o@%%%$$@*##%*====***%$#O              O$@    ",
"   XXXoOoOO#$$O+@$####@%#+$$$%#&@O%@%****=***@++o&%$#+        O#+    ",
"   o...oXooO##+#@@@OO++O@$$#@@%@OO+@+&&***&&$@@$#@*=*=*$#@    +%#    ",
"     XX.+@@OO@+@@++@++#@%$#$$$$@#++#+&&&&%%&$O%&%+*&****=**$$$$&#    ",
"        OO@@oOOOO+oooo++$+%$&$###@$@O%$$$$#$%$O&#+***&*&&%%&*&*&#    ",
"         oXX....OOOoo@@O+@##$@+$&$$O$$$#@+oooOOXoO+%&&%$+OooO+@#@    ",
"           X....XXoXXX.ooo##@OOOooo@@++O+Xoooo    oooXO     ooo@+    ",
"              X...XXXoOo   OoXXOOooXXXo#+                     oXO    ",
"                                                                     ",
"                                                                     ",
"                                                                     ",
"                                                                     ",
"                                                                     ",
"                                                                     ",
"                                                                     ",
"                                                                     ",
"                                                                     "
};
