/* XPM */
static char *bg1_run1[] = {
/* columns rows colors chars-per-pixel */
"40 70 12 1 ",
"  c None",
". c #181818",
"X c gray25",
"o c #606060",
"O c gray47",
"+ c #909090",
"@ c #A0A0A0",
"# c gray69",
"$ c #C0C0C0",
"% c #D0D0D0",
"& c #D8D8D8",
"* c gray91",
/* pixels */
"                                        ",
"                                        ",
"                                        ",
"               O++++                    ",
"             O+###@##+                  ",
"            O+#$&&%#%$O                 ",
"            +++@@@%%#O$O                ",
"           O@++##@+$$+O@                ",
"           ++@$$$#++##O+O               ",
"           +@$&*&$#+@##$@               ",
"           +#%**&&#@++@##O              ",
"           @#%&*&%#@@@+@#+              ",
"          +@@$%%%$#@@#@+OO              ",
"          @#+##$#@@+@#@Oo               ",
"          $$@%*$#O#O@#@+                ",
"         O$$$$&%#o+O##@@O               ",
"         +%##%%%@X@@##@+O               ",
"         +$##&%%OO++$@@@O               ",
"         +###&#Oo@++##@@O               ",
"         O+##@#+++o@##@+O               ",
"         O@$@++#$+X+#@++O               ",
"          #%%$$#%#OO#@+O+               ",
"          $&&&&%$%%#@++o+               ",
"          $%&&%#&*%$$+++##$@#+          ",
"          @%$%$#&#&*##$$$@%&$#@         ",
"          #$&%#+&&&&&&&@O%&%$$O         ",
"          +&&&$@$$######@$+$#@+         ",
"          O+#$+##@+XXXO#++#$@++         ",
"           ooo+++++OoooXoOoO            ",
"            OOOooXX...oOooooO           ",
"            O@+OoXX.XXo.OOOOO           ",
"            +@+O@+ooooooXOooO           ",
"            +o@%$$%@+OooOXooOO          ",
"           Oo+%+Oo@%$OOooOOoooO         ",
"            O$%+#@@%#+ OoooooooO        ",
"            +#$$##%$$@  OooOXoX.O       ",
"            +++&%%%+%#    OoXXo.XO      ",
"            ++$o#@+$&%O    OXXXXXo      ",
"            @@$*@$&*&$O      XXXoo      ",
"            +@@%&*&*&%+       oXoo      ",
"           O#@+$%&&&&%#        oo       ",
"           O@#$#%&&&&%@                 ",
"           O+@@+$%%&%%+                 ",
"            @@OOo#%%%%@                 ",
"           O@@o$$@%%%%@                 ",
"           +++#$$+%##$#                 ",
"           OoXO#@+#Ooo#O                ",
"           Oooo@+O+#@@+                 ",
"           Xo@@@ O+@%%@                 ",
"           O+$$O  O%*&#O                ",
"           OO#+O   O+$@+                ",
"          OXOo+    O&&%@                ",
"         OXXooo    #&&%#                ",
"         OXXooO    $&&&$O               ",
"         OXXXX     +&&&$O               ",
"         OXXXo     O$&&$+               ",
"         +XX.        %&%+               ",
"         OoXX        @%%+               ",
"         Oo.o        O%%@               ",
"        O@o.         O#&@               ",
"        +@XX          +%#O              ",
"        $$.           +%$+              ",
"       +&@X           +%%#              ",
"      #*$$+           +$%&$+@@@O        ",
"      @$#$%@+OOO     O#$#&&&%$$O        ",
"        +oO++OoX     O+@+OoOOo          ",
"                                        ",
"                                        ",
"                                        ",
"                                        "
};
