/* XPM */
static char *bg1_death1[] = {
/* columns rows colors chars-per-pixel */
"59 53 13 1 ",
"  c None",
". c #181818",
"X c gray25",
"o c #606060",
"O c gray47",
"+ c #909090",
"@ c #A0A0A0",
"# c gray69",
"$ c #C0C0C0",
"% c #D0D0D0",
"& c #D8D8D8",
"* c gray91",
"= c #F8F8F8",
/* pixels */
"                                                           ",
"                                                           ",
"                                                           ",
"             O+++O                       O@#O              ",
"           O+#$$%%@O                    O+@+@              ",
"          O@$%&&$$&#O                 +#+O++#O             ",
"         O@#%&%*&$@O#O               +$#++++OO             ",
"         +@@@$$@+%$o@+           +++%%%$%###O              ",
"         +@+#$$#@O$$O$O         $*&*&&*@#$$+               ",
"         ++@$%%$@+@#$%@ OO      &*$$*&*&%@                 ",
"         ++$%&*&$@@@#$$OOOO    +&&&&%&&$+                  ",
"         O@$&**&%$@#@#+ooooOOo+#O%$+*#*#                   ",
"         +@$&&*&%#@$@@oooOooXXO@@+&&@*@                    ",
"         @+$$%%$$#+#$@OoOooXoOoo@+#&&OOOO                  ",
"        O+++####%*#@#$@oooooXOoO++#$#+&%$O                 ",
"        ++OoOO@$*&*$##%@XXXoXXoooO#$&*&&$+                 ",
"        O+OoXXoO@&&%#%&&+XXXO#++%@$$#%&%%+O                ",
"        O++OoooOO+%&&$$&$OOO&&#&$#+O%%$#+#+                ",
"        O+++OO##Oo+$+@%%%OO@*#*&%&&#+O@#O                  ",
"        O++@@OO##+oO+$$%&%#%&%&%%#+$@O+                    ",
"        OO++@X.o@@+o#%$&#$#@&%$+ooooO                      ",
"         O++O.oOoXXo@%$$%%#@@@@oOoo                        ",
"         OO+OO@+OoX.X#$$%&%@#++OoO                         ",
"          OOO##@+OXX..XO$$@++OOO                           ",
"          OO+###@+o....OoOOooO                             ",
"           oO+@@@+o....                                    ",
"           Ooo++++oX..X                                    ",
"            ooo+Ooo.XXo                                    ",
"            OooOOOOoooO                                    ",
"             ooO+@@@@++                                    ",
"             OO+##$##++OO                                  ",
"             OO+@&+*$*$+O OOOOOOO                          ",
"             O+++%&%%@%*&$#+++@O+o++                       ",
"             OOO@$Oo+$O*=**%#@@+@#+&*$+           O+       ",
"             OoO$#@++#O******&$@$&$$=**$+        o#@       ",
"               O#$%+#$O&&******&&&@==*=**$@      +&        ",
"               OO%&$%O@&&&&&&&%O+O+%===*=**$@    %@        ",
"                OO@@O+%%%%%%%%#+@$@#$&&******&#$&&O        ",
"                ooXo+######@#$##%&%$@XoooOO+#%%**@         ",
"                  XXXooOOOoXoO$#%*$#*$O    Xoo@#$+         ",
"                        @+   XoOX @&&&%O      O+@          ",
"                                  %&*&&$      O+O          ",
"                                  @&&&*&$      O           ",
"                                  OO%&&&&#                 ",
"                                    OO#&&&#       +        ",
"                                       O#%&@    O$&O       ",
"                                        O+$*#@++%$O        ",
"                                         o+%*=*%$O         ",
"                                          o+%$%+O          ",
"                                           ++@             ",
"                                           +@O             ",
"                                           O               ",
"                                                           "
};
