/* XPM */
static const char *en1_xpm[] = {
/* columns rows colors chars-per-pixel */
"35 71 12 1 ",
"  c None",
". c #181818",
"X c #404040",
"o c #606060",
"O c #787878",
"+ c #909090",
"@ c #A0A0A0",
"# c #B0B0B0",
"$ c #C0C0C0",
"% c #D0D0D0",
"& c #D8D8D8",
"* c #E8E8E8",
/* pixels */
"                                   ",
"                                   ",
"                                   ",
"           OO+@++                  ",
"          O@#$$#$#+                ",
"         O@#$%%%$#%+               ",
"         @@+@@@+$#++O              ",
"        O@++@##++##X@O             ",
"        +@+#%%%#++#+$O             ",
"        ++#%&*&%#+@@$@             ",
"        +@#&**&%#@++@#O            ",
"       O+@#%&&&%#@@++#+            ",
"       +@@+$$%$$@+@@+              ",
"       +#@+###$@#+#@OO             ",
"       +#%+$*##O#+#@@O             ",
"      O@$$##&%$o+@#@+O             ",
"      O+#$@$&%$O+##@@O             ",
"      O@##@$&$@O@#@@@O             ",
"      O@@##$&@OO###@@o             ",
"      O@+###@@###@#@+O             ",
"       +@#@@+@#$#@@@+              ",
"       O+#%%$%$%O@@+O              ",
"        +#&&#&&$+&%+O              ",
"       OO#&$*&@+%&%%#@@$#+$$@+     ",
"        O+%#+@#&*$*%+###%$&&&#O    ",
"         O$%&$#$&&&&&&%O$&$$%+o    ",
"        OO$&*%@#$+@@#$++#+#@$++    ",
"         Oo#$@+#@#oooX##O+$+#O     ",
"         OOOX+@+++OoooXOoO         ",
"         O++OOXoX..OO              ",
"         +++OoOXX..OOO             ",
"         +@oo@@OOoooOo             ",
"         Oo@%@O&%+O+oO             ",
"        Oo+%++++%%OOOOO            ",
"         O#%@@+@%#@+OOO            ",
"         O$#$$#%$%@OOooO           ",
"         O@+%&%%+*%oooOO           ",
"         ++$@OOO%&%OXoOXO          ",
"         ++$&&&**&%OXoXXX          ",
"         +#@%&&*&&%#oXooXO         ",
"         O#O$%&&&&%# XXXoo         ",
"         O#$#%%&&&%@ OXXoo         ",
"         O+#$@$%&%%@  oXo          ",
"          +#+o@%%%%#               ",
"          +#@@+%%%%#O              ",
"          +$$%@$#+@$+              ",
"          @OO+@#Oo@+O              ",
"          OOo+@@+@+#O              ",
"          +O$#@o$&&#O              ",
"          O$*%+O$**#               ",
"          ++*#O+#@oO               ",
"          Oo@+#&%%$+               ",
"         Oo@$#$%&%@O               ",
"         oX+$@$&%%@                ",
"        OOo+$+$%&$O                ",
"         Oo#$+@%%@O                ",
"         o+$#O@%%+                 ",
"         O@%@O@&#+                 ",
"         O$$+O#%@O                 ",
"         +$$+O$%+                  ",
"         +&#O+&$O                  ",
"         @&#O$&#+                  ",
"         $*+O%*@O                  ",
"        +$%%$#@*$++O               ",
"        ##@%$$@%%&&&%O             ",
"       O@##++O@Oo+o+O              ",
"                                   ",
"                                   ",
"                                   ",
"                                   ",
"                                   "
};
