/* XPM */
static char *_a2e5d0c268941c2fb5a34109cf016d0vxg4CNVEnnf7J4cv[] = {
/* columns rows colors chars-per-pixel */
"45 72 12 1 ",
"  c None",
". c #181818",
"X c gray25",
"o c #606060",
"O c gray47",
"+ c #909090",
"@ c #A0A0A0",
"# c gray69",
"$ c #C0C0C0",
"% c #D0D0D0",
"& c #D8D8D8",
"* c gray91",
/* pixels */
"                                             ",
"                                             ",
"                                             ",
"                                             ",
"                OO++O                        ",
"              O+#$###+O                      ",
"             O+#$%%%$+#+                     ",
"             +#$%##@+#@+O                    ",
"            O@##+@#@+O@XO                    ",
"            +@@@+#$%$#@@XO                   ",
"            +@++@$&&&%@@#@                   ",
"            +@+@#%***%#@@@O                  ",
"            +@@@#%&&&%#@@@O                  ",
"           +@#++@$%&%$#@+#O                  ",
"           +@#@O+####$+$@O                   ",
"           +@#+#+O$%$%O++O                   ",
"          O@@#$##O#&&%o+@O                   ",
"          O+@##@$@@%%&@+@O                   ",
"          O@@@#+$#+$&$@+@O                   ",
"          O+@##+$#@$&#@@#O                   ",
"          OO@@#+@#@#$$@$%+                   ",
"          OO+@#+XO@+++#$%+                   ",
"           O+@@+XO##$$$%%+                   ",
"           oO+@O+O@%%&&%@O+&$                ",
"           +O+@+OO+&&&*&O#*&%%###@#$$#@+     ",
"           OOO+@+oo%&@@%#%&%*%$###%$&%%#O    ",
"           +OOOOXooO$$&##%&&$%&&%o%&%#%@O    ",
"           @OOOoXXXX$&*&@#$#@@#%@+$+##$+O    ",
"          O+XOOOoXXXO#$@+#@#XXXo@@O@$+#O     ",
"          oooO++OooX..X+@+++OOoooOoO         ",
"         OoooO++OXo....OoOoooo               ",
"         OoOO++++OoX...                      ",
"         OoOo+@@@+Ooo..                      ",
"         OooO+@#%$##+ooO                     ",
"         OoOoO+%+Oo@%XoO                     ",
"         Ooooo#%+@@@%@O                      ",
"          ooo+#$$#$%$#                       ",
"          ooX@%+%%%%+$+                      ",
"          ooo$*$o#@+$@+                      ",
"          o+O%&**@$%%+@O                     ",
"          oO#%&**&&%#+@O                     ",
"          oo+%&&&&&$@#@O                     ",
"          OOO$&&&&%#@$#O                     ",
"          OOo#%%&%$$@##+                     ",
"          O#+$%%%%@oO##+                     ",
"           XO%%%%$+%O@@@                     ",
"            @$#$$#@%#@@@                     ",
"            @Ooo#@+$+oo+                     ",
"            @Oo+@OO@OoX+                     ",
"            @%%$+OO@#$OO                     ",
"            #&*%O  +$%@oO                    ",
"           O@O#O   O+$OOO                    ",
"          +%&%#+     O+@+                    ",
"          $&%&#+    +#@@@                    ",
"          $%%%@O    O#@@@                    ",
"          $&&$O    OX#@+@                    ",
"          $%%@O     o+@+@O                   ",
"          #%$+       X++@+                   ",
"          #&#O       oO+++                   ",
"          $%+         XO@+                   ",
"         +&#O         oo+@                   ",
"         @&@O          X+@                   ",
"        O&&+           XO#O                  ",
"        #&#+           X+$@                  ",
"      O$%$%#           o@&*@++@+             ",
"      O@$@&*$%$#+     oO@#*%*&%$O            ",
"        oOo+@@#@o     oo+++o+Oo              ",
"                                             ",
"                                             ",
"                                             ",
"                                             ",
"                                             "
};
