/* XPM */
static char *bg1_attack2[] = {
/* columns rows colors chars-per-pixel */
"36 71 16 1 ",
"  c None",
". c #181818",
"X c gray25",
"o c #606060",
"O c gray47",
"+ c #F80000",
"@ c #F8F800",
"# c #909090",
"$ c #A0A0A0",
"% c gray69",
"& c #F88080",
"* c #C0C0C0",
"= c #D0D0D0",
"- c #D8D8D8",
"; c gray91",
": c #F8F8F8",
/* pixels */
"                                    ",
"                                    ",
"                                    ",
"                                    ",
"                                    ",
"             ###                    ",
"          #$%*==%#                  ",
"         #%=--=-;*#                 ",
"         #$=*;;-#;%                 ",
"       ##%***-;-#*-$                ",
"     #$***%***=--#;%#               ",
"     %*---*%%**&-;;=                ",
"    $%-;;;=%&*&==-;-$X              ",
"    $*=-;--*&***==;-&Oo             ",
"   #$$=---=&*&*&=-&&&$X             ",
"   %$$%**=&&&&*===&&O$o             ",
"   **#==*&#-&====&=&$&o#            ",
"   **%=-;&O&#&====&&&%&#            ",
"  #**$=-;&o#$=&=-&==&Xo#            ",
"  #**%=-=&o#&&--=-&&&OO#            ",
"   *%%=-&OO#$-===&&&&O&&+++         ",
"   #%%*=&#$O&====&&&&o#+++          ",
"    %$#$&*=o$&===&-&&o++@+          ",
"   #=***=-=O#&-&&&&++++@++          ",
"   #=---==&%&=&&&&&+:::+++          ",
"   #-%;--=;;;-=&==&+@@@:++++        ",
"    *-%*&$;*;;-====-@@@@@@@@+++++   ",
"    ==-*=%-;--===o&-&=@:=++&@@@@++  ",
"    %----&=***===&-&@@@@@@@@+++++   ",
"    #%==&%%%oXXOO&&+@@@-++++        ",
"     ooo$$$$$#OOoo +o:=@++o         ",
"         oooXXX+++  X+&+@+&&#       ",
"          o.X++o&&   Xo++@+o        ",
"        #  o#O&&&&   XXO+o+&o       ",
"        # **&-&&&&    X.+XXX&       ",
"        $*#OO%-&&&&    XXX+X+X#     ",
"        %=&%%$-=#O&#    oXooX+o     ",
"       #&*&%=*=&&&&#     o+X.o&&    ",
"       #=$;&==-&#X#&       oXo&&$   ",
"       $=&o%$$-&OO&&        o&&#&   ",
"       $=-*$=;=&&O&%#       #&=     ",
"      #%=--;--&$&O#&#        *oo    ",
"      #$*=----$X&&#&#         O     ",
"      #$*=---=$X&#O&$               ",
"       #%==-==OXo&O&%               ",
"       O%*===&oX.#O#&O              ",
"       #**==%#oXXooO%#              ",
"       $%%*=%O XXXoo&#              ",
"       $oo#*#  oXoXXo#              ",
"       #oO$%#   ooXXO#              ",
"       O**$#O   O#oXXO              ",
"       %--$$     OOoXO              ",
"       #-*OO     OoXo$              ",
"      %==$%      OOo&#              ",
"     $=-==$     O&#O$$              ",
"     $-==*#     X###%#              ",
"     $===%O     oO##$#              ",
"     $-==$      oo#$*#              ",
"     #==*#       X$$%O              ",
"     #==%O       O#$*#              ",
"     #**#         O%*               ",
"     #=%#         O*%               ",
"     #-$          o=%               ",
"    O==#          O-%               ",
"    $-%#          $-*               ",
"    *-;*O        o=-;$              ",
"   $$%;;-==%#    #$-;;-==%O         ",
"  O#O#oO#$$$o   OO$OOO$$%OO         ",
"                                    ",
"                                    ",
"                                    "
};
