/* XPM */
static char *bg1_death2[] = {
/* columns rows colors chars-per-pixel */
"74 42 13 1 ",
"  c None",
". c #181818",
"X c gray25",
"o c #606060",
"O c gray47",
"+ c #909090",
"@ c #A0A0A0",
"# c gray69",
"$ c #C0C0C0",
"% c #D0D0D0",
"& c #D8D8D8",
"* c gray91",
"= c #F8F8F8",
/* pixels */
"                                                                          ",
"                                                                          ",
"                                                                          ",
"                                                                          ",
"                                                                          ",
"     +#                                                                   ",
"    +#@@                                                                  ",
"    $##%$                                                                 ",
"    O*%+&%                                                                ",
"    O#*@##&+                                                              ",
"     +&&&=%=#                                                             ",
"      O%&*%#*$+                                            +%             ",
"       @*&=@#$%$                                           O&+            ",
"        $%$@#@==$                                          O+%            ",
"         $@@@@*&=$                                          O&+           ",
"          @+O$O%*&o                                         +&$           ",
"         +%oo+$%@&+                                         +%&+          ",
"          +OOo$==*%                                       +$$&&$          ",
"          oOoo#==**+                                    +%&&$++$O         ",
"          OoOX+%%&=#                                 +#&=*%OoXXXO         ",
"           ooXO##**$                               +&*==*&@ o             ",
"           OoOO+$&*&                             +&=====%O                ",
"          O+ooOO@@%=&+                         ++@=*===%O                 ",
"         +$$OoO+O@#%$@O                      +#+OO%*==&O                  ",
"        +$&++Xo+oO@%%%$#++                 O$&@%&$O$*%O                   ",
"       O#$&*=oooXoO&&&&&%##+              +%=&+**%Oooo                    ",
"       +@$*&$#+XXXo@*****&#@@            @*==*#@#O                        ",
"       +@%#@##OOoXXO$*==**&$$@@        +%*=*****%O                        ",
"       +@#@@@OXXXo@o+&*===**%###@O    +&*=&%#&&@O                   +     ",
"       O++@+OO+oXooOO%**%&$*&%$$$%$$#@$&&&$$#$+O                    #@    ",
"       OOO++@++OoOXXO%&Oo$**%$%%%&%#OoOO#%%%*%##@@@                 $#    ",
"       OoXoOOOO+oo..O#@O#%**&O@%%%@OooXO@&=======*%+++$@@           #@    ",
"        XXXXOooXXX.XoO+o+$%%$@+###+XooXOO$*******%+@#@O==*$#@       ##    ",
"         X..Xo....XOXo@Xo++@#@O@++oXoXXXO+&&&&&&%$+$%%$&***=**$#+  +%$    ",
"          XX.X...X..XX+OXooO+OOOoooXOoX.OO%%&%%%%%#$*%#*&**&*****&%&&#    ",
"             X.......XX+XXXooOOoooXX+oXXOo%%$$#@@#$O+++$*&**&%$#@$*&&@    ",
"              o........XXXXXoXXXX.o.oOXoo@###+OXXooo   O+++o+XoooXO+#@    ",
"                XX.................OX.XXOO+OO+O          o        Xo++    ",
"                   XX..XXooo    X..XoXXXXXoo+                      OX     ",
"                                                                          ",
"                                                                          ",
"                                                                          "
};
