/* XPM */
static char *bg1_attack3[] = {
/* columns rows colors chars-per-pixel */
"42 75 16 1 ",
"  c None",
". c #181818",
"X c gray25",
"o c #606060",
"O c gray47",
"+ c #F80000",
"@ c #F8F800",
"# c #909090",
"$ c #A0A0A0",
"% c gray69",
"& c #F88080",
"* c #C0C0C0",
"= c #D0D0D0",
"- c #D8D8D8",
"; c gray91",
": c #F8F8F8",
/* pixels */
"                                          ",
"                                          ",
"                                          ",
"                                          ",
"                                          ",
"            O $$#O                        ",
"          O#$***=*#                       ",
"          #%=---=;=#                      ",
"         #O$%=;;=o%*O                     ",
"        O#$**%*--%X-$                     ",
"       $***%%*%%-=***O                    ",
"      #*=;-=%%%%%=-;-$                    ",
"     #%=-;;-*$%$*%=;-%o                   ",
"     #$--;--*%&%%**--&Xo                  ",
"     #$%==-=*$%$***=#oOo                  ",
"    O*#%%***%&%&*=&$&#$X                  ",
"    #=O%-=*$$$%%**=*$#$o                  ",
"    O=%$=--&OO#%=&=&*&$#                  ",
"    #=%%=--OO#%&=-&*&$oO                  ",
"    #*%$=-=#O#&*===&%&#O                  ",
"    #*$%==####%*=&=&###oO                 ",
"    O *$*=&%$#&*=-&&&&oO#                 ",
"      %$#$%*=$$&=&*&%&ooO#                ",
"      %****==o&*=&&&&&XXO#          ++    ",
"      *-----=&*=&&*&OOXo&O       @@++     ",
"      *---%%O-;;=%&*&#&&$&                ",
"      $=-%=%-;-;--==*&=--;&$              ",
"      #*=-*&--=;-==$o*--=-&&              ",
"      O=--=%*****===*&&=&-&&              ",
"       #=*%$%%#XXX#&&O&=&-&&              ",
"       OOOX%$$###OooXOoOOXOXO             ",
"         OOOooXXX..  X.XoXooo             ",
"          #OoXXXX+X  XXX.oXOo#  @@++      ",
"         O##OOO&O#&O oXXo.oo&o     +++    ",
"         #O=$%-$&&#O  O.XoXXooO           ",
"         #*#OO$-OO&#   oXXXXXoXO          ",
"        O%*#$%$-=O#&#   OXXoXXXoO         ",
"        #$*&%=*=&$O##     oXX.XoO         ",
"        $*#==-*=*Oo#$      o.XX&oO        ",
"        $=$o$#$-#ooO&       OXo#O#        ",
"        $=-=*=-*&#o#$#       O&*OO        ",
"       #$=---;-%#&O#&O        %oo         ",
"       #%*=---=#X%OO##         O          ",
"       ##*=--==$.&#O##                    ",
"        #%=====OXo#O&$                    ",
"        #%*===#XX.Oo#$                    ",
"        #**==%OO.XooO%O                   ",
"        $%%**$O XXXoo$#                   ",
"        $oX#*#  oXoX.OO                   ",
"        Oo##%O   OoXXo#                   ",
"        $**%#    XooXXo                   ",
"        $--%O     OOXo#                   ",
"        #-%OO     OXXo#                   ",
"       *=*$$      OOO$#                   ",
"      $-===#     o#OO$#                   ",
"      %===%#     o###%#                   ",
"      %===%      X###%#                   ",
"      %=-*#      oo#$%#                   ",
"      #==*O       o$%*O                   ",
"      #==$        O#%%O                   ",
"      #=*#         O%*                    ",
"      #=%O         O*%                    ",
"      $=$          o-%                    ",
"     #=*#          O;$                    ",
"     $-*#          %=*                    ",
"     *=:*O        o=-:$                   ",
"    $$*-;-=*%#    ##-;;-==%O              ",
"   OOO#Oo#$$%o   OO$#OO#$$OO              ",
"                                          ",
"                                          ",
"                                          ",
"                                          ",
"                                          ",
"                                          ",
"                                          "
};
