/* XPM */
static char *bg2_death3[] = {
/* columns rows colors chars-per-pixel */
"71 24 14 1 ",
"  c #684038",
". c #704840",
"X c #983820",
"o c #B04828",
"O c #A04830",
"+ c #B85030",
"@ c #C06048",
"# c #F86848",
"$ c #F8F800",
"% c #B88070",
"& c #E08060",
"* c #F88870",
"= c #F8E0B8",
"- c None",
/* pixels */
"-----------------------------------------------------------------------",
"-----------------------------------------------------------------------",
"-----------------------------------------------------------------------",
"-----------------------------------------------------------------------",
"-----------------------------------------------------------------------",
"-----------------------------------------------------------------------",
"-----------------------------------------------------------------------",
"--------+@-------------------------------------------------------------",
"-------*@@-------------------------------------------------------------",
"-------@%--------------------++O---------------------------------------",
"------#%+------------------- XX@--------------------------------- -----",
"-----*@#------------------%+ @@@--------------------------------o+-----",
"-----**@---------*&@##Oo@+@++%@@----------------------------%@ .+ -----",
"----##*---------#+&***@#+#*###**#@#*+@@+OO@@@@@X  @%%%@@%%%%%O.X@------",
"---**#%-------*##*****#%@+@@@@@%%oo*@.OXXOOXXOO+  +%%@XXX@@@@O @oX-----",
"--#***+%@@++**@#&*#****@@@##&@##**==&&&@@@@@@@@oOXX++@+O@@@@@@@@O.-----",
"--+***+#*#+O*&%&@++++@**+O-----&&&*====*&&%%===&%@XOooX@==*@@----------",
"--O++@--------&*&=*%++%**+-------+@@@@@&***&#&*&&%&#===**&@+@@---------",
"---O+o----@@@@@++%==#+@#@------------------%@@%%&&*##&&&&@o@@@---------",
"---OO$----     O&#+=*=*#-------------------------@@@@@@@@@@@@----------",
"-----------------------------------------------------------------------",
"-----------------------------------------------------------------------",
"-----------------------------------------------------------------------",
"-----------------------------------------------------------------------"
};
