#include <lcom/xpm.h>

static const xpm_row_t bg2_pose1_xpm[] = {
"34 66 16 1",
" 	c #000000",
".	c #983820",
"+	c #B88070",
"@	c #B85030",
"#	c #A04830",
"$	c #F88870",
"%	c #B04828",
"&	c #F8F800",
"*	c #E08060",
"=	c #C06048",
"-	c #F86848",
";	c #F8E0B8",
">	c #684038",
",	c #903018",
"'	c #704840",
")	c #502018",
"                                  ",
"                                  ",
"                                  ",
"                .                 ",
"               +@@#@              ",
"               $$@%&              ",
"              $$$$                ",
"              +**@                ",
"             $$$.#                ",
"            =+- .@                ",
"            +*# .%                ",
"           $=@  .%                ",
"           @+   =%                ",
"           @    $-                ",
"              %-$-=               ",
"            .=@*;$=*#@@           ",
"           ..+=*$==-.=@@          ",
"           #@$***=**==@#          ",
"          >#+$=;$=$$ #.@          ",
"          #. $=;;@$$  ,*;         ",
"          . =+=**@$*   %=         ",
"         >>>.>>>>.%@    $*        ",
"         >>>>>>>>>>>>   =*+       ",
"        @' )>>>>''>'>.@@====      ",
"        @   >#.+*$=@.#..=*.       ",
"       #=     .@=#==              ",
"               .=#                ",
"               .=.                ",
"               @=#                ",
"               $$@                ",
"               $$*$               ",
"              =*@$;*              ",
"             @@-.$;=              ",
"             .@$.=*=              ",
"            +@'++$;=              ",
"            +'@# ;;;              ",
"           +@#+'  ;;              ",
"           +'=@   ;;;             ",
"           #.+'   ;;;             ",
"          ='=@    ;;;             ",
"          .@+      ;;             ",
"         ='+       ;;             ",
"         #@+       ;;             ",
"       =@'@        ;;             ",
"       =.>'        ;;             ",
"       @'>>        $$*            ",
"       .@>>        $$=            ",
"       .+=.        $$==           ",
"        +++        $*+++          ",
"        =+=          +*$          ",
"        =@.          =*;          ",
"        @#.           +;*         ",
"        @#'           **$         ",
"        @+=            =$=        ",
"        +++             *+        ",
"        +++             $*=       ",
"        +++              $+       ",
"        +++              ;$=      ",
"        ++=              ;*=      ",
"        @.>              ;;+      ",
"        =.>              ;;%      ",
"       =#..@             **@      ",
"       # =.=             ==*      ",
"       #  ==             ===      ",
"                                  ",
"                                  "};
