/* XPM */
static char *bg2_attack3[] = {
/* columns rows colors chars-per-pixel */
"31 66 15 1 ",
"  c #502018",
". c #684038",
"X c #704840",
"o c #903018",
"O c #B04828",
"+ c #A04830",
"@ c #B85030",
"# c #C06048",
"$ c #F86848",
"% c #F8F800",
"& c #B88070",
"* c #E08060",
"= c #F88870",
"- c #F8E0B8",
"; c None",
/* pixels */
";;;;;;;;;;;;;;;;;;;;;;;;;;;;;;;",
";;;;;;;;;;;;;;;;;;;;;;;;;;;;;;;",
";;;;;;;;;;;;@+@@#;;;;;;;;;;;;;;",
";;;;;;;;;;;;%O@==;;;;;;;;;;;;;;",
";;;;;;;;;;;;;o$===;;;;;;;;;;;;;",
";;;;;;;;;;;;;;@$$&;;;;;;;;;;;;;",
";;;;;;;;;;;;;;++===;;;;;;;;;;;;",
";;;;;;;;;;;;;;Oo;=*#;;;;;;;;;;;",
";;;;;;;;;;;;;;Oo;O*&;;;;;;;;;;;",
";;;;;;;;;;;;;;Oo;;##=;;;;;;;;;;",
";;;;;;;;;;;;;;+@;;;##;;;;;;;;;;",
";;;;;;;;;;;;;;$=;;;O@+;;;;;;;;;",
";;;;;;;;;;;;;#$=$;;;o;;;;;;;;;;",
";;;;;;;;;@#&=#=-$@#&;;;;;;;;;;;",
";;;;;;;;@@#*=@&=$@#*&;;;;;;;;;;",
";;;;;;;;&@=**&#====##+;;;;;;;;;",
";;;;;;;--#$;$=#=&+@XOX#;;;;;;;;",
";;;;;;--*;;;##XXX.XX;.@+;;;;;;;",
";;;;;--;;;;;........; @o;;;;;;;",
";;;**=;;;;.......X@;;;oX;;;;;;;",
";;;#*--=X...Xo+.X.@;;;;@%%;;;;;",
";;;*==**+X&#**#Xoo#;;;;%--%;;;;",
";;;;;;;;;X##&#*++Oo;;;;.@%;;;;;",
";;;;;;;;;;;;oX###+;;;;;;o;;;;;;",
";;;;;;;;;;;;;;@##;;;;;;;;;;;;;;",
";;;;;;;;;;;;;;X#@;;;;;;;;;;;;;;",
";;;;;;;;;;;;;;o#@;;;;;;;;;;;;;;",
";;;;;;;;;;;;;;o##;;;;;;;;;;;;;;",
";;;;;;;;;;;;;;@==;;;;;;;;;;;;;;",
";;;;;;;;;;;;;=*==;;;;;;;;;;;;;;",
";;;;;;;;;;;;*=-@##;;;;;;;;;;;;;",
";;;;;;;;;;;;#==+$#@;;;;;;;;;;;;",
";;;;;;;;;;;;#*&+$@o&;;;;;;;;;;;",
";;;;;;;;;;;;#--##XX&;;;;;;;;;;;",
";;;;;;;;;;;;---;+#.#&;;;;;;;;;;",
";;;;;;;;;;;;---;;#++&;;;;;;;;;;",
";;;;;;;;;;;---;;;+&X&&;;;;;;;;;",
";;;;;;;;;;;---;;;;&++;;;;;;;;;;",
";;;;;;;;;;;---;;;;+&.#;;;;;;;;;",
";;;;;;;;;;;--;;;;;;&@+;;;;;;;;;",
";;;;;;;;;;;--;;;;;;;&X#;;;;;;;;",
";;;;;;;;;;;--;;;;;;;&@+;;;;;;;;",
";;;;;;;;;;;--;;;;;;;;@X@#;;;;;;",
";;;;;;;;;;---;;;;;;;;XXo#;;;;;;",
";;;;;;;;;;&==;;;;;;;;..o#;;;;;;",
";;;;;;;;;;#==;;;;;;;;.X@X;;;;;;",
";;;;;;;;;##==;;;;;;;;+#&X;;;;;;",
";;;;;;;;*&&&=;;;;;;;;&&#;;;;;;;",
";;;;;;;;=*#;;;;;;;;;;#&#;;;;;;;",
";;;;;;;;-&#;;;;;;;;;;+#@;;;;;;;",
";;;;;;;*-&;;;;;;;;;;;+@+;;;;;;;",
";;;;;;;==;;;;;;;;;;;;X++;;;;;;;",
";;;;;;#=&;;;;;;;;;;;;#&#;;;;;;;",
";;;;;;&=;;;;;;;;;;;;;&&&;;;;;;;",
";;;;;#==;;;;;;;;;;;;;&&&;;;;;;;",
";;;;;&-;;;;;;;;;;;;;;&&&;;;;;;;",
";;;;#=-;;;;;;;;;;;;;;&&&;;;;;;;",
";;;;#=-;;;;;;;;;;;;;;#&&;;;;;;;",
";;;;*--;;;;;;;;;;;;;;.X@;;;;;;;",
";;;;O--;;;;;;;;;;;;;;.X#;;;;;;;",
";;;;@**;;;;;;;;;;;;;@oo+#;;;;;;",
";;;;*##;;;;;;;;;;;;;#o#;+.;;;;;",
";;;;###;;;;;;;;;;;;;##;;+..;;;;",
";;;;;;;;;;;;;;;;;;;;;;;;;;;;;;;",
";;;;;;;;;;;;;;;;;;;;;;;;;;;;;;;",
";;;;;;;;;;;;;;;;;;;;;;;;;;;;;;;"
};
