/* XPM */
static char * bg2_run2_xpm[] = {
"31 66 16 1",
" 	c None",
".	c #B85030",
"+	c #C06048",
"@	c #983820",
"#	c #B04828",
"$	c #F88870",
"%	c #A04830",
"&	c #F8F800",
"*	c #F86848",
"=	c #B88070",
"-	c #704840",
";	c #684038",
">	c #F8E0B8",
",	c #E08060",
"'	c #502018",
")	c #903018",
"                               ",
"                               ",
"              .+@#             ",
"             $$+%&&            ",
"            $$$$.              ",
"            ***=+              ",
"           $$$.@-  ;;          ",
"           +$=@.   ;;          ",
"          $++ @.   ;;;         ",
"          ++  @.    ;;         ",
"         ++%  +-    ;;         ",
"         #.  $*+    ;;         ",
"         @ %=$*#    %=>        ",
"         =+.$$***$> @++        ",
"        @=.**++*=,$ -@%        ",
"        %****+$++,$+;%#        ",
"        -$.,+,$+.,$  =.        ",
"        %**$+$$.. >> .         ",
"       +%***+>*.. >> ,         ",
"       ++.@@%+*..  >>,         ",
"       + *%@+*...  >$=         ",
"       . .%@+....   >,         ",
"      %+ #%+.%@%    ,+         ",
"      %;  .=+%@%    =+         ",
"      %;  .+.%                 ",
"      @    +.%                 ",
"      %    ..                  ",
"      +    ,.%                 ",
"      @    $*+                 ",
"     -+   ***,$                ",
"     %.  ++.%$$+               ",
"     %=  .+*#$,.               ",
"     .+   +*,,+.               ",
"          @+>,.                ",
"           ,>+%                ",
"           $$+%'               ",
"           >,+);               ",
"           >=.;)               ",
"           $++@%               ",
"           >+ -%=              ",
"          >$+  ;+              ",
"          >=   @%=             ",
"          $+    -.@            ",
"         $$,    +;''           ",
"        >$..    +;''           ",
"        $$.     .-''           ",
"         ,+      ;)))          ",
"         ,+       ))@          ",
"         ,+       ;@.=         ",
"         ,+        %%.         ",
"         =+        ;.-         ",
"         =+         +-         ",
"         ,+         .==        ",
"         ,+          ==        ",
"         $+          ==        ",
"         ,           ===       ",
"         ,            ==       ",
"        >=            =-;      ",
"        $.            =%;      ",
"        >.           +%@%+     ",
"       $$#+         ;%+ .+     ",
"       ++++         +++        ",
"                               ",
"                               ",
"                               ",
"                               "};
