/* XPM */
static char *bg2_attack1[] = {
/* columns rows colors chars-per-pixel */
"36 68 15 1 ",
"  c #502018",
". c #684038",
"X c #704840",
"o c #903018",
"O c #B04828",
"+ c #A04830",
"@ c #B85030",
"# c #C06048",
"$ c #F86848",
"% c #F8F800",
"& c #B88070",
"* c #E08060",
"= c #F88870",
"- c #F8E0B8",
"; c None",
/* pixels */
";;;;;;;;;;;;;;;;;;;;;;;;;;;;;;;;;;;;",
";;;;;;;;;;;;;;;;;;;;;;;;;;;;;;;;;;;;",
";;;;;;;;;;;;;;;;o;;;;;;;;;;;;;;;;;;;",
";;;;;;;;;;;;;@+@@&;;;;;;;;;;;;;;;;;;",
";;;;;;;;;;;;;%O@==;;;;;;;;;;;;;;;;;;",
";;;;;;;;;;;;;;;====;;;;;;;;;;;;;;;;;",
";;;;;;;;;;;;;;;@**&;;;;;;;;;;;;;;;;;",
";;;;;;;;;;;;;;;+o===;;;;;;;;;;;;;;;;",
";;;;;;;;;;;;;;;@o;$&#;;;;;;;;;;;;;;;",
";;;;;;;;;;;;;;;Oo;+*&;;;;;;;;;;;;;;;",
";;;;;;;;;;;;;;;Oo;;@#=;;;;;;;;;;;;;;",
";;;;;;;;;;;;;;;O#;;;&@;;;;;;;;;;;;;;",
";;;;;;;;;;;;;;;$=;;;;@;;;;;;;;;;;;;;",
";;;;;;;;;;;;;;#$=$O;;;;;;;;;;;;;;;;;",
";;;;;;;;;;@@+*#=-*@#o;;;;;;;;;;;;;;;",
";;;;;;;;;@@#o$##=*#&oo;;;;;;;;;;;;;;",
";;;;;;;;;+@##**#***=@+;;;;;;;;;;;;;;",
";;;;;;;;;@o+;==#=-#=&+.;;;%;;;;;;;;;",
";;;;;;;;-*o;;==@--#=;o+;;%%;;;;;;;;;",
";;;;;;;;#O;;;*=@**#&#;o%%%-%;;;;;;;;",
";;;;;;;*=;;;;@Oo....o...%%-%%%;;;;;;",
";;;;;;&*#;;;............----%%%%%;;;",
";;;;;####@@o.X.XX.... ;X@%-%%;;;;;;;",
";;;;;;o*#oo+o@#=*&o+.;;;@;%;;;;;;;;;",
";;;;;;;;;;;;;##+#@o;;;;;#+;;;;;;;;;;",
";;;;;;;;;;;;;;;+#o;;;;;;;;;;;;;;;;;;",
";;;;;;;;;;;;;;;o#o;;;;;;;;;;;;;;;;;;",
";;;;;;;;;;;;;;;+#@;;;;;;;;;;;;;;;;;;",
";;;;;;;;;;;;;;;@==;;;;;;;;;;;;;;;;;;",
";;;;;;;;;;;;;;=*==;;;;;;;;;;;;;;;;;;",
";;;;;;;;;;;;;*-=@*#;;;;;;;;;;;;;;;;;",
";;;;;;;;;;;;;#-=o$@@;;;;;;;;;;;;;;;;",
";;;;;;;;;;;;;#*#o=@o;;;;;;;;;;;;;;;;",
";;;;;;;;;;;;;#-=&&X@&;;;;;;;;;;;;;;;",
";;;;;;;;;;;;;---;+@X&;;;;;;;;;;;;;;;",
";;;;;;;;;;;;;--;;X&+@&;;;;;;;;;;;;;;",
";;;;;;;;;;;;---;;;@#X&;;;;;;;;;;;;;;",
";;;;;;;;;;;;---;;;X&o+;;;;;;;;;;;;;;",
";;;;;;;;;;;;---;;;;@#X#;;;;;;;;;;;;;",
";;;;;;;;;;;;--;;;;;;&@o;;;;;;;;;;;;;",
";;;;;;;;;;;;--;;;;;;;&X#;;;;;;;;;;;;",
";;;;;;;;;;;;--;;;;;;;&@+;;;;;;;;;;;;",
";;;;;;;;;;;;--;;;;;;;;@X@#;;;;;;;;;;",
";;;;;;;;;;;;--;;;;;;;;X.o#;;;;;;;;;;",
";;;;;;;;;;;*==;;;;;;;;..X@;;;;;;;;;;",
";;;;;;;;;;;#==;;;;;;;;..@o;;;;;;;;;;",
";;;;;;;;;;##==;;;;;;;;o#&o;;;;;;;;;;",
";;;;;;;;;&&&*=;;;;;;;;&&&;;;;;;;;;;;",
";;;;;;;;;=*&;;;;;;;;;;#&#;;;;;;;;;;;",
";;;;;;;;;-*#;;;;;;;;;;o@#;;;;;;;;;;;",
";;;;;;;;*-&;;;;;;;;;;;o+@;;;;;;;;;;;",
";;;;;;;;=**;;;;;;;;;;;X+@;;;;;;;;;;;",
";;;;;;;#=#;;;;;;;;;;;;#&@;;;;;;;;;;;",
";;;;;;;&*;;;;;;;;;;;;;&&&;;;;;;;;;;;",
";;;;;;#*=;;;;;;;;;;;;;&&&;;;;;;;;;;;",
";;;;;;&=;;;;;;;;;;;;;;&&&;;;;;;;;;;;",
";;;;;#=-;;;;;;;;;;;;;;&&&;;;;;;;;;;;",
";;;;;#*-;;;;;;;;;;;;;;#&&;;;;;;;;;;;",
";;;;;&--;;;;;;;;;;;;;;.o@;;;;;;;;;;;",
";;;;;O--;;;;;;;;;;;;;;.o#;;;;;;;;;;;",
";;;;;@**;;;;;;;;;;;;;@oo+#;;;;;;;;;;",
";;;;;*##;;;;;;;;;;;;;#o#;+.;;;;;;;;;",
";;;;;###;;;;;;;;;;;;;##;;+..;;;;;;;;",
";;;;;;;;;;;;;;;;;;;;;;;;;;;;;;;;;;;;",
";;;;;;;;;;;;;;;;;;;;;;;;;;;;;;;;;;;;",
";;;;;;;;;;;;;;;;;;;;;;;;;;;;;;;;;;;;",
";;;;;;;;;;;;;;;;;;;;;;;;;;;;;;;;;;;;",
";;;;;;;;;;;;;;;;;;;;;;;;;;;;;;;;;;;;"
};
