/* XPM */
static char * bg2_death2_xpm[] = {
"66 38 16 1",
" 	c None",
".	c #684038",
"+	c #A04830",
"@	c #704840",
"#	c #B85030",
"$	c #983820",
"%	c #C06048",
"&	c #B88070",
"*	c #903018",
"=	c #B04828",
"-	c #F86848",
";	c #F88870",
">	c #E08060",
",	c #F8E0B8",
"'	c #502018",
")	c #F8F800",
"                                                                  ",
"                                                                  ",
"                                                                  ",
"                                                                  ",
"                                                                  ",
"          ..                                                      ",
"          +@                                                      ",
"          ##                                                      ",
"          +$                                                      ",
"        %+$..                                                     ",
"        $+#+%                                                     ",
"           %&&                                                    ",
"            %&&                                                   ",
"             %&&                                                  ",
"              %+%%                                                ",
"               %@#%                                               ",
"                &%&%                                              ",
"                %&&&%                                             ",
"                $%+@.+                                            ",
"                  $..$                       +#                   ",
"                   #$+.                      $#                   ",
"                    #&$.                     $*        $=         ",
"                     %&$.                    %@         %#        ",
"                      %&+@%&                 &%         +%        ",
"                       %%#.%&                %%          %%       ",
"                        @%%.#&               #%          +-&      ",
"                         .%%@#%           +&-%%           -;      ",
"                          .%+>;%&;;-&&>%#%#>>-%&&         %;>     ",
"                           .%-++--&%%%&>#>>;;;;-%-        ##;     ",
"   %&%>;;          ;>;      &;&&&&>--;-#>%;;;;;;;-&;-##%##=-;;    ",
"   %%%%-,,%%;>;;,,;;;,;>;;,,,,,;>&    %##&;;>%%%#&>->+@@%-##>-%   ",
"   %%%#%>,,,,;>>;;>;>>>%%%%%%%%%       $>;-###%&->>@....'  ==#=   ",
"   %%%%                                 -;-##&;,-,>#'''    ))&+   ",
"                                          %#;;,;&%%%''     ))=    ",
"                                                                  ",
"                                                                  ",
"                                                                  ",
"                                                                  "};
