/* XPM */
static char *bg2_death1[] = {
/* columns rows colors chars-per-pixel */
"51 60 15 1 ",
"  c #502018",
". c #684038",
"X c #704840",
"o c #983820",
"O c #B04828",
"+ c #A04830",
"@ c #B85030",
"# c #C06048",
"$ c #F86848",
"% c #F8F800",
"& c #B88070",
"* c #E08060",
"= c #F88870",
"- c #F8E0B8",
"; c None",
/* pixels */
";;;;;;;;;;;;;;;;;;;;;;;;;;;;;;;;;;;;;;;;;;;;;;;;;;;",
";;;;;;;;;;;;;;;;;;;;;;;;;;;;;;;;;;;;;;;;;;;;;;;;;;;",
";;;;;;;;;+O;;;;;;;;;;;;;;;;;;;;;;;;;;;;;;;;;;;;;;;;",
";;;;;;;O@@#;;;;;;;;;;;;;;;;;;;;;;;;;;;;;;;;;;;;;;;;",
";;;;;;%%+#-=;;;;;;;;;;;;;;;;;;;;;;;;;;;;;;;;;;;;;;;",
";;;;;;;@o$==$;;;;;;;;;;;;;;;;;;;;;;;;;;;;;;;;;;;;;;",
";;;;;;;;Xo##$$;;;;;;;;;;;;;;;;;;;;;;;;;;;;;;;;;;;;;",
";;;;;;;;;@o#==@;;;;;;;;;;;;;;;;;;;;;;;;;;;;;;;;;;;;",
";;;;;;;;;$o;+##;;;;;;;;;;;;;;;;;;;;;;;;;;;;;;;;;;;;",
";;;;;;;;;=+;;o##;;;;;;;;;;;;;;;;;;;;;;;;;;;;;;;;;;;",
";;;;;;;;;#@;;;o#O;;;;;;;;;;;;;;;;;;;;;;;;;;;;;;;;;;",
";;;;;;;;;;@+;;;oO;;;;;;;;;;;;;;;;;;;;;;;;;;;;;;;;;;",
";;;;;;;;;;==;;;;;;;;;;;;o..;;;;;;;;;;;;;;;;;;;;;;;;",
";;;;;;;;;;===##;;;;;;;;.....;;;;;;;;;;;;;;;;;;;;;;;",
";;;;;;;;;=#$=#@#+;;;;......;;;;;;;;;;;;;;;;;;;;;;;;",
";;;;;;;&#*=#==#+o.........;;;;;;;;;;;;;;;;;;;;;;;;;",
";;;;;;;@#&$$#&=$;;........;;;;;;;;;;;;;;;;;;;;;;;;;",
";;;;;;;@@@#*=#&##... X+.;;;;;;;;;;;;;;;;;;;;;;;;;;;",
";;;;;;;+*-*$-$$=.. .O*=;;;;;;;;;;;;;;;;;;;;;;;;;;;;",
";;;;;;;;--=$==#=O.*#=#&;;;;;;;;;;;;;;;;;;;;;;;;;;;;",
";;;;;;;;;=-===#==&$#;;;;;;;;;;;;;;;;;;;;;;;;;;;;;;;",
";;;;;;;;;&-$==--=;;;;;;;;;;;;;;;;;;;;;;;;;;;;;;;;;;",
";;;;;;;;;#*#--*##;;;;;;;;;;;;;;;;;;;;;;;;;;;;;;;;;;",
";;;;;;;;;;#&=$+@O;;;;;;;;;;;;;;;;;;;;;;;;;;;;;;;;;;",
";;;;;;;;;;**@+OOO;;;;;;;;;;;;;;;;;;;;;;;;;;;;;;;;;;",
";;;;;;;;;;;+#+@+@;;;;;;;;;;+#;;;;;;;;;;;;;;;;;;;;;;",
";;;;;;;;;;;;;@o+;;;;;;;;;;o.X+#;;;;;;;;;;;;;;;;;;;;",
";;;;;;;;;;;;;;X+#;;;;;;;;;X...+;;;;;;;;;;;;;;;;;;;;",
";;;;;;;;;;;;;;XO#;;;;&&+o ...++;;;;;;;;;;;;;;;;;;;;",
";;;;;;;;;;;;;;o#$;;&#@XX+#@oO#&o;;;;;;;;;;;;;;;;;;;",
";;;;;;;;;;;;;@O==##+.o@&&;;;&&&#;;;;;;;;;;;;;;;;;;;",
";;;;;;;;;;;;;**$@X.+#&@o;;;;;&o&+;;;;;;;;;;;;;;;;;;",
";;;;;;;;;;;;&**-=#X#+X;;;;;;;;+o#;;;;;;;;;;;;;;;;;;",
";;;;;;;;;;;;@@##*-*;;;;;;;;;;;;.@#;;;;;;;;;;;;;;;;;",
";;;;;;;;;;;;@@@##*-;;;;;;;;;;;;;&&;;;;;;;;;;;;;;;;;",
";;;;;;;;;;;;;######**==-;;;;;;;;;&&;;;;;;;;;;;;;;;;",
";;;;;;;;;;;;;;;;@###@@==-;;;;;;;;&&&;;;;;;;;;;;;;;;",
";;;;;;;;;;;;;;;;;;;##+**=;;;;;;;;;&&#;;;;;;;;;;;;;;",
";;;;;;;;;;;;;;;;;;;;;@#*=;;;;;;;;;;+.+&&;;;;;;;;;;;",
";;;;;;;;;;;;;;;;;;;;;;#*&;;;;;;;;;;;.X++X.;;;;;;;;;",
";;;;;;;;;;;;;;;;;;;;;;##$;;;;;;;;;;;@##o##;;;;;;;;;",
";;;;;;;;;;;;;;;;;;;;;;##**;;;;;;;;;;@+;;;;;;;;;;;;;",
";;;;;;;;;;;;;;;;;;;;;;;#&*;;;;;;;;;;+#;;;;;;;;;;;;;",
";;;;;;;;;;;;;;;;;;;;;;;;#*&;;;;;;;;;;;;;;;;;;;;;;;;",
";;;;;;;;;;;;;;;;;;;;;;;;#**;;;;;;;;;;;;;;;;;;;;;;;;",
";;;;;;;;;;;;;;;;;;;;;;;;;#=;;;;;;;;;;;;;;;;;;;;;;;;",
";;;;;;;;;;;;;;;;;;;;;;;;;;&-;;;;;;;;;;;;;;;;;;;;;;;",
";;;;;;;;;;;;;;;;;;;;;;;;;;#=;;;;;;;;;;;;;;;;;;;;;;;",
";;;;;;;;;;;;;;;;;;;;;;;;;;;#-;;;;;;;;;;;;;;;;;;;;;;",
";;;;;;;;;;;;;;;;;;;;;;;;;;;#*-;;;;;;;;;;;;;;;;;;;;;",
";;;;;;;;;;;;;;;;;;;;;;;;;;;;@=-;;;;;;;;;;;;;;;;;;;;",
";;;;;;;;;;;;;;;;;;;;;;;;;;;;+*=;;;;;;;;;;;;;;;;;;;;",
";;;;;;;;;;;;;;;;;;;;;;;;;;;;+@=-;;;;;;;;;;;;;;;;;;;",
";;;;;;;;;;;;;;;;;;;;;;;;;;;;#+#*$#;;;;;;;;;;;;;;;;;",
";;;;;;;;;;;;;;;;;;;;;;;;;;;;#@#####;;;;;;;;;;;;;;;;",
";;;;;;;;;;;;;;;;;;;;;;;;;;;;;;;&###;;;;;;;;;;;;;;;;",
";;;;;;;;;;;;;;;;;;;;;;;;;;;;;;;;;;;;;;;;;;;;;;;;;;;",
";;;;;;;;;;;;;;;;;;;;;;;;;;;;;;;;;;;;;;;;;;;;;;;;;;;",
";;;;;;;;;;;;;;;;;;;;;;;;;;;;;;;;;;;;;;;;;;;;;;;;;;;",
";;;;;;;;;;;;;;;;;;;;;;;;;;;;;;;;;;;;;;;;;;;;;;;;;;;"
};
