/* XPM */
static char * bg2_attack2_xpm[] = {
"36 66 15 1",
" 	c #000000",
".	c #C06048",
"+	c #B85030",
"@	c #903018",
"#	c #F88870",
"$	c #B04828",
"%	c #F8F800",
"&	c #F8E0B8",
"*	c #F86848",
"=	c #E08060",
"-	c #B88070",
";	c #A04830",
">	c #704840",
",	c #684038",
"'	c #502018",
"                                    ",
"                .++@+               ",
"                ##+$%%              ",
"               #&#*@                ",
"               =#*-                 ",
"              #=#;;                 ",
"              =#*@;                 ",
"             *-+ @$                 ",
"             .-  @;                 ",
"            .-   ;;                 ",
"            ++   #*                 ",
"            @    #*                 ",
"               +-&*-*=++            ",
"            -.*+=#*.#=+.+           ",
"          ;.+.+.#&-.==#..           ",
"          +++;@>@>>-* &+&&&         ",
"          ,,  ,,,@>,>,   #&         ",
"         @>'  .@,,,,,,    &&&       ",
"       % .>   +@,,,,,,,,   ##.=     ",
"      %&%$    ;@>>+=++,,,.&&&=.     ",
"    %%&&&%    +;;@.=.&.=,+..#-      ",
"      %&+     ;@+..+;;.             ",
"       ;@      @+*+>@               ",
"                +.;                 ",
"                @.;                 ",
"                @.@                 ",
"                +.;                 ",
"                ##+                 ",
"                ##=#                ",
"               .=+#&=               ",
"              ++*@#&.               ",
"              @+#@.=.               ",
"             -+>--#&.               ",
"             ->+; &&&               ",
"            -+;->  &&               ",
"            ->.+   &&&              ",
"            ;@->   &&&              ",
"           .>.+    &&&              ",
"           @+-      &&              ",
"          .>-       &&              ",
"          ;+-       &&              ",
"        .+>+        &&              ",
"        .@,>        &&              ",
"        +>,,        ##=             ",
"        @+,,        ##.             ",
"        @-.@        ##..            ",
"         ---        #=---           ",
"         .-.          -=#           ",
"         .+@          .=&           ",
"         +;@           -&=          ",
"         +;>           ==#          ",
"         +-.            .#.         ",
"         ---             =-         ",
"         ---             #=.        ",
"         ---              #-        ",
"         ---              &#.       ",
"         --.              &=.       ",
"         +@,              &&-       ",
"         .@,              &&$       ",
"        .;@@+             ==+       ",
"       ,; .@.             ..=       ",
"      ,,;  ..             ...       ",
"                                    ",
"                                    ",
"                                    ",
"                                    "};
