/* XPM */
static char * bg2_run1_xpm[] = {
"27 63 16 1",
" 	c None",
".	c #B04828",
"+	c #B85030",
"@	c #983820",
"#	c #F88870",
"$	c #A04830",
"%	c #F8F800",
"&	c #F86848",
"*	c #684038",
"=	c #C06048",
"-	c #B88070",
";	c #502018",
">	c #E08060",
",	c #F8E0B8",
"'	c #704840",
")	c #903018",
"                           ",
"            .+@.           ",
"           ##+$+%          ",
"           ##&$%           ",
"          &##&             ",
"          &#+@     **      ",
"         &#&@$     **      ",
"        #=- @.     **      ",
"        =&  @.     **      ",
"       -=+  @.     **      ",
"       +=   #&     **;     ",
"       @    #&     *=>     ",
"          +-,#=#&#  =+=    ",
"       $=&+&#&=#=## '@.    ",
"       +=&#,,=>>+#>$*..    ",
"       $-#+->+#= #> '=     ",
"       '&#-,,=#- #, +$     ",
"      =* #>,,=#-  ,,,=     ",
"      '= &@@@+&=  ,,,=     ",
"      -  &+''&=+   ##=     ",
"      +  &+.$-+$   >,-     ",
"     =+  .@+++@$   =#=     ",
"     $$   @&=+'$   =-=     ",
"     $*    -=+             ",
"     '     =+@             ",
"     *     =+@             ",
"     =     -='             ",
"    ==     ##$             ",
"    $=     ##>#            ",
"    @=    ==+#>>           ",
"    +=   ==&.##=           ",
"   ++-   $+&.>>=           ",
"   ==    ='-=,#=           ",
"        +$'+ ,,,           ",
"        +'++ ,,,           ",
"        )*=$ ,,,           ",
"        **-  ,,,           ",
"        ;*+   #,           ",
"       @;)    ,,           ",
"       $*@    ,,,          ",
"       '))     ,,          ",
"       *)      ,,          ",
"      +$@     #,>          ",
"     =$'*     ##=          ",
"     =$**     #,==         ",
"      +@*     #>==-        ",
"      ==$      ==>#        ",
"      +---      ==##       ",
"      $-==       +##       ",
"      '-'=        +-       ",
"       -'$         ==      ",
"       =$          =>=     ",
"       =-           >>     ",
"       --           -#=    ",
"       ---          #,=    ",
"       ---           #>    ",
"        --           ,&=   ",
"        =+           ,>+   ",
"        +*           #==   ",
"       -+'+         ==-    ",
"     =+$@'$         ==     ",
"    =*'  @=                ",
"                           "};
