/* XPM */
static char *bg3_death2[] = {
/* columns rows colors chars-per-pixel */
"76 74 16 1 ",
"  c #101010",
". c #480000",
"X c #781010",
"o c #585858",
"O c gray47",
"+ c #983838",
"@ c #A07828",
"# c #B07028",
"$ c #F8C048",
"% c #F8D850",
"& c #F8F858",
"* c #909090",
"= c gray66",
"- c #C8C8C8",
"; c gray88",
": c None",
/* pixels */
"::::::::::::::::::::::::::::::::::::::::::::::::::::::::::::::::::::::::::::",
"::::::::::::::::::::::::::::::::::::::::::::::::::::::::::::::::::::::::::::",
"::::::::::::::::::::::::::::::::::::::::::::::::::::::::::::::::::::::::::::",
"::::::::::::::::::::::::::::::::::::::::::::::::::::::::::::::::::::::::::::",
"::::::::::::::::::::::::::::::::::::::::::::::::::::::::::::::::::::::::::::",
"::::::::::::::::::::::::::::::::::::::::::::::::::::::::::::::::::::::::::::",
":::::::::::::::::::::::::::::::::::::...::X.::::::::::::::::::::::::::::::::",
"::::::::::::::::::::::::::::::::...XX.oo  XXX.::::::::::::::::::::::::::::::",
"::::::::::::::::::::::::::::::..Xoo o        ..O::::::::::::::::::::::::::::",
"::::::::::::::::::::::::::::..Xoo ::::::::: ooo -X::::::::::::::::::::::::::",
":::::::::::::::::::::::::::.Xoo ::::::::::::: oo  ;:::::::::::::::::::::::::",
"::::::::::::::::::::::::::.Xo :::::::::::::::::::: *-:::::::::::::::::::::::",
":::::::::::::::::::::::::..o@ Ooo::::::::::::::::::: -::::::::::::::::::::::",
"::::::::::::::::::::::::.Xo+o$oo;*:$:::::::::::::::::O::::::::::::::::::::::",
":::::::::::::::::::::::.XO@%o#oO-Oo&::::::::::::::::::::::::::::::::::::::::",
":::::::::::::::::::::::.oo$&&$%Oo$$O$#::::::::::::::::::::::::::::::::::::::",
"::::::::::::::::::::::..@ &&&%oOOO%oo@&:%:::::::::::::::::::::::::::::::::::",
":::::::::::::::::::::&.%+% &;&%oO&..*o&&&%::::::::::::::::::::::::::::::::::",
":::::::::::::::::::::.# %#&&&&%$$...Oo&;&::#::::::::::::::::::::::::::::::::",
":::::::::::::::::::: #;&%#$$&&;*...  o oooo:::::::::::::::::::::::::::::::::",
":::::::::::::::::::##+&%&X#$&&&.... oooooooo::::::::::::::::::::::::::::::::",
"::::::::::::::::::  &#@$%$##$$$...  oooooooo oo:::::::::::::::::::::::::::::",
"::::::::::::::::::@@#++###@@@@o.. oo    o oo%ooo::::::::::::::::::::::::::::",
"::::::::::::::::::: .Xo+@@+o..  oooo        &%oo::::::::::::::::::::::::::::",
":::::::::::::::::: XX XX .     oooooo@&&&&; %Oo:::::::::::::::::::::::::::::",
":::::::::::::::::X@XX     .XX+@oooo o %&&&&::::::::==-=O::::::::::::::::::::",
"::::::::::::::::::: . o   @$@#$=oo  o &&&&;&:ooooo==*:::::::::::::::::::::::",
"::::::::::::::::::: o+@ o@+$%%&*oo  *O;;;&;oooooo  :::::::::::::::::::::::::",
"::::::::::::::::::: o#$+#@%%&=  oo  o=; ooooooo o ::::::::::::::::::::::::::",
"::::::::::::::::::  o+$%$$&&=  oo o&&ooooo   o    o:::==-=::::::::::::::::::",
":::::::::::::::::  +##X%$##%o & ooo&&ooo  o        o===O::::::::::::::::::::",
":::::::::::::::::  @X$$ %$$= &&&  o oo o       oooo  :::::::::::::::::::::::",
":::::::::::::::::: o@@#$&%@* &&&   oo        oo oo :::::::::::::::::::::::::",
":::::::::::::::::: ::X$$&$&&**%&& **     ooo      ::::::::::::::::::::::::::",
":::::::::::::::::::.:.%$&@$&%oooo ooo   oo   :o:::::::::::::::::::::::::::::",
"::::::::::::::::::::  #&$#%$$%&&%%&&;  &  o*:::*::::::::::::::::::::::::::::",
"::::::::::::::::::::  X :#&&&$&&@&&&;;;$&&$o:::o::::::::::::::::::::::::::::",
"::::::::::::::::::::::X.*# $ $.$%&&&&&&&%%%o::::*:::::::::::::::::::::::::::",
":::::::::::::::::::::: @ *X#X+.O%@&&&&%::: o:::: o::::::::   ::*====::::::::",
":::::::::::::::::::::::::  @XoO.o ;-&&O::: o o:::o::::  ooooooo**:::::::::::",
"::::::::::::::::::::::::::@@...XOOO*&&O*::: oo :: ooooo oo    ::::::::::::::",
"::::::::::::::::::::::::::X:.. .o  o  ooO::::o  ::oo         o:::----:::::::",
"::::::::::::::::::::::::::::OOO     .... OO::::o       o  oooooo==::::::::::",
"::::::::::::::::::::::::::::..**   ....XX::OOOOO  ooooooo ooo  :::::::::::::",
"::::::::::::::::::::::::::::* .     .....X:::::::oo:oo    ::::::::::::::::::",
":::::::::::::::::::::::::::::.o    ..... =-=oooo::::  ::::::::::::::::::::::",
"::::::::::::::::::::::::::::::::  XXX...oo-oo oooo::::::::::::::::::::::::::",
"::::::::::::::::::::::::::::o :..X++X...ooooooooooO:::::::::::::::::::::::::",
"::::::::::::::::::::::ooo*oooo ..XXXX...o o ooooooooo:::::::::::::::::::::::",
":::::::::::::::::::oooooooOooo....X.....o  oooooooo oo::::::::::::::::::::::",
":::::::::::::::::OooooOOoooooo..........  ...ooooooooo::::::::::::::::::::::",
":::::::::::::::oOOooOOOoOooo  .........  ....:  oooo*;-*::::::::::::::::::::",
"::::::::::::::o oOooOoOOOo:::::.......   ...:::::oo o;-*::::::::::::::::::::",
"::::::::::::oOoooOOoo  :::::::::    .    .. ::::: ooo*oo::::::::::::::::::::",
"::::::::::::Ooooo :::::::::::::::          :::::: ooo oo::::::::::::::::::::",
"::::::::::*o OO ::::::::::::::::::  ::   ::::::::: ooo:O::::::::::::::::::::",
"::::::::::oOO*:::::::::::::::::::::::::::::::::::: o ::oo:::::::::::::::::::",
"::::::::::oooO::::::::::::::::::::::::::::::::::::  O:o oo::::::::::::::::::",
"::::::::::oOoO:::::::::::::::::::::::::::::::::::::*o:oooo::::::::::::::::::",
":::::::::::   *:::::::::::::::::::::::::::::::::::: oo:  o::::::::::::::::::",
":::::::::::=  O:::::::::::::::::::::::::::::::::::::*o::oo::::::::::::::::::",
":::::::::::OoOO:::::::::::::::::::::::::::::::::::::: o::o::::::::::::::::::",
":::::::::::OoOo::::::::::::::::::::::::::::::::::::::  :oo::::::::::::::::::",
"::::::::::::oo:::::::::::::::::::::::::::::::::::::::Oo::o::::::::::::::::::",
":::::::::::: o:::::::::::::::::::::::::::::::::::::::: ::o::::::::::::::::::",
":::::::::::::Oo-:::::::::::::::::::::::::::::::::::::  :: ::::::::::::::::::",
"::::::::::::::o:::::::::::::::::::::::::::::::::::::::::::::::::::::::::::::",
":::::::::::::: o::::::::::::::::::::::::::::::::::::::::::::::::::::::::::::",
"::::::::::::::: o:::::::::::::::::::::::::::::::::::::::::::::::::::::::::::",
"::::::::::::::::::::::::::::::::::::::::::::::::::::::::::::::::::::::::::::",
"::::::::::::::::::::::::::::::::::::::::::::::::::::::::::::::::::::::::::::",
"::::::::::::::::::::::::::::::::::::::::::::::::::::::::::::::::::::::::::::",
"::::::::::::::::::::::::::::::::::::::::::::::::::::::::::::::::::::::::::::",
"::::::::::::::::::::::::::::::::::::::::::::::::::::::::::::::::::::::::::::"
};
