/* XPM */
static char * bg3_death3_xpm[] = {
"84 71 17 1",
" 	c None",
".	c #A07828",
"+	c #781010",
"@	c #F8C048",
"#	c #585858",
"$	c #B07028",
"%	c #F8D850",
"&	c #F8F858",
"*	c #480000",
"=	c #983838",
"-	c #C05018",
";	c #101010",
">	c #787878",
",	c #E0E0E0",
"'	c #909090",
")	c #C8C8C8",
"!	c #A8A8A8",
"                                                                                    ",
"                                                                                    ",
"                                                                                    ",
"                                                                                    ",
"                                                 ..                                 ",
"                                          ..   . .+                                 ",
"                                     .@  #.@.. .#$$                                 ",
"                                    @%@@@.@..  @$@$+                                ",
"                                +   $&@&&@@@$@%%%@@$                                ",
"                       *      +$.=.$%%@&&&%@@%%%&&%@.=                              ",
"                      *+*   +#$$@@.%@&&%%&@%&@@%&&&%@+--.=.=                        ",
"                      ++*  =$@@@@@@@%&&&&%@&%&&&&&%%@@-...                          ",
"                     **#;  =$@&%@@@%%@&&&%%&@&&&%@@&%&$@@@.$@=                      ",
"                     *##    .$%$@@@.@@&&%@%%@%&&%@%&%@@%@@$@#;                      ",
"                    *>># .@$@@$%%&$@@&&,%&%@%&&&@@@@$@@%@%@$                        ",
"                    '##   @@@@@@@%$%%&&&&&%%&&&&&@@@@.@%%%%% #                      ",
"                    ,    =&%%@@@@$@&&&&&&&&@%&&&&$@@@$@@@%%@@                       ",
"                   ++    .%%@@@%@@@&&&&%&&&%%&&@####$.@@@@%$$.+   =                 ",
"                   )+  ;##%%%%%%%&@&&&%%%@&%&&&#######$@@**.@...= +                 ",
"                   )*+..@@@@@%&&&&&%&%&&%@$$@%%#########@***.@@.=.*.                ",
"                  !>+=$$%&@@%&&&%&&@@%@%&@$$$$@;########;****...+.+                 ",
"                  ,+#$@%%&&%&&&%&%%&&@@@&%$$.@@@@;;######;***## =+                  ",
"                    =..@&&&&&%&&&&&&&&%&&$@@$$@@@@@;;;;##;***;+                     ",
"                     .$.&&&&&&&&%&&&&&&&%@@@%@@@@@@&%@;;#;***;  ;                   ",
"                       .%&&&&&&&%%&&&&&%@%@.@%@@@@@%@@+;#;#**+**;;                  ",
"                    #  .%&&&&&&%@%&&&&$&%@..@%%@@@@@@@==;##;**+;;#+                 ",
"                    ...@&&&&&&%&@@%%%@&%@@$.$@@@@@@%@@=#####*.=  ;*                 ",
"                   $+@$@&&&%&&&&%%&%@>!!@@...@%%@@@%@;##;####.;# +;..               ",
"                   .   @&&&&&%&&&%&%%@>'!!@@@@%%@@$$=.##;#;;#..+ ...=               ",
"                  ++..$&&&@@@%&&&&%@@@&&>'!##%@@@$@$..;#;;;;$.*   .;*               ",
"                  +.$$@&%&%&&&&&&&''@&%&&&;;####@$$$$$!#;;#;$==    +                ",
"                    $@@&%&&&&&&&&&%>>>&&&###;;###$@@$'';;;#;'$=*                    ",
"                    $%%%%@&&&&&&&&@%&>>;;#;;;;;;####.#.$###$;'===+                  ",
"                    .@@@%&&&&&&&&&%&&%%;;;;;;;;#;;;###..$;##.#'+#;                  ",
"                    .@@@&&&&&&&&&&%@%%&@;;;;;;;;;#;;;#=$.####;'                     ",
"                      @@%&@@&&&&&&&%&&%@@;;;;;;;;;;#;;.###;;;#'+#;                  ",
"                      $$@@%@%&&&&&&&&&@@@%&%;;;;;;;;;####;#+*;'##+                  ",
"                      .$.@'@$@&&&&&%@$@$@%%@$$;;;;;;;;;#;..#;''***;                 ",
"                      *+.#.$.@%&&&&&@%@.$%%%@@@;;;;;;;;;'''''';**                   ",
"                          +$$@%&&&&&%%.=.&@@$%@%$;@;;.$;;;;;*;                      ",
"                   '!),>>#'&%@&&%&&&&%@'%&%$@@@@$$@@..#$$$.***                      ",
"                       ;#>>%&&&&&&&&%&@)!@!$%%@...........=                         ",
"                 ))    #'''%%%&,,,&&@&%%%$!$$$$.=.@$@.#=..=                         ",
"                  ''))##'!%%@%%&%%&%#&@@$@%.@$==..@$$.**=                           ",
"                       ;$@%@%%&&@&&@+$$@@%%#$+$=#.....=+                            ",
"                         $$$.@@'@=$=*.$$$$@!!$%*+..= .=#+                           ",
"                           =+##;>#+=$$.$$@$$@@@.      ;+;                           ",
"                              >),##$=$$===..>@@.+                                   ",
"                            ##'),#>$=$@$$+++;.#.*++;;                               ",
"                           #####!#;**+===+*+;#>!)==++                               ",
"                          ####;;###***++++=*$@@>#>.@.##                             ",
"                         #####;#;;#*******==$@@>#.@@#####>                          ",
"                         ##>#;;;;*;*******+++..###''##>##>>                         ",
"                        ###>#;;#*;;;********;  ;;#>>>>>######                       ",
"                       #>;#;#;;;**;;;****;*;       ;>>>##>####                      ",
"                       ###>##;  *;;;;;;;;;;            ;#>###>>                     ",
"                      '#####;    ;;;;;;;;;                ;#>#))                    ",
"                     #;###;;;                               >>>>'                   ",
"                    ##;;##;;                              #>;>##>                   ",
"                    ###;#;;;                             >>;;#;;                    ",
"                   #;;;;#;;                             ,>>>;#;                     ",
"                  #;;;;;;!                            >  ####                       ",
"                #;;#;; ;>##                          '####>;                        ",
"               ## ;;;# ;##;                        >>###                            ",
"                                                                                    ",
"                                                                                    ",
"                                                                                    ",
"                                                                                    ",
"                                                                                    ",
"                                                                                    ",
"                                                                                    "};
