/* XPM */
static char * bg3_run1_xpm[] = {
"52 47 10 1",
" 	c None",
".	c #480000",
"+	c #781010",
"@	c #585858",
"#	c #101010",
"$	c #787878",
"%	c #E0E0E0",
"&	c #909090",
"*	c #C8C8C8",
"=	c #A8A8A8",
"                                                    ",
"                                                    ",
"                                                    ",
"                                                    ",
"                                                    ",
"                       ....                         ",
"                   ...+.+++++.@.                    ",
"                 ..+#########@++.@                  ",
"               ...##           ##+..                ",
"             ..+$#               #.+@               ",
"            ...@@                  @.@              ",
"           ..@# @@                  #.$             ",
"          ..@#   @   @$$             .+@            ",
"          ..# @  %$$$@@@@$            .+$           ",
"         ..@ $@@ @@$@%&@@@@@$          #            ",
"         .@  @@*$$@@@#$$$$$@@@$    %%%%             ",
"        .+#   **&@@@@##$@@@$*$   *%#  #%%           ",
"        .@    $#@$# @@$@@@@$**@  %$$&&=$@%          ",
"       ..#     $@@   @$@@@@@@@##%@     ==@          ",
"       ..       $@@ $*=@ @#  ###*      @$&          ",
"       .@=*#@@@@ @@ @**#@+++++$$$@    @$$$ =        ",
"       @@&$@@@##@@@$@+++++++++@$@@@@@@@@#@@=        ",
"      .@$@@@@@@@@@#@@++++++#++@@@$@###$@##@=        ",
"       @$@@@@#@@@@@@#++@@++++##@####  @####=        ",
"       @@#     #@####.++++####@@#####$@###@@&       ",
"      .. =  &@@######@@#######@#@@##@$####*@&       ",
"      ..@@@@@@@#@@########@@$$@@@@@$@@# #*@#&       ",
"       .#@@@@@@#@####@#@$$$@@@@###$#@###=@@##       ",
"       .#@@@@@@#  ##@@@@@@@##@$###### =#####        ",
"        ##@ @# @ ***=@####$#######&=######.         ",
"        #@@@ $@*=&$$$@##############   .            ",
"         .@@ @@#&$   #########....##                ",
"          #  @@$ ===&######..#.#..##.               ",
"         @.@# @*==@@@##............#.               ",
"          @@#@@#$@     #.....##.....                ",
"          ##&@@#       #..##.####..#@&              ",
"           #@#@###      #.###########@&             ",
"            ##### @      ############@$             ",
"             ####  @       ######@###@@             ",
"              #@& @#$$ ##@#@@@@###@@#               ",
"                 @@@@@@@@@@$@@@@@@#                 ",
"                   @@@@$@@@@$@@@#                   ",
"                      ##@@@$##                      ",
"                                                    ",
"                                                    ",
"                                                    ",
"                                                    "};
