/* XPM */
static const char *en3_xpm[] = {
/* columns rows colors chars-per-pixel */
"73 76 66 1 ",
"  c #0A0A0A", 
". c #101010",
"X c #2E0000",
"o c #250A0A",
"O c #330606",
"+ c #361010",
"@ c #2A2A2A",
"# c #363636",
"$ c #383838",
"% c #3E3E3E",
"& c #3F3F3F",
"* c #480000",
"= c #5A0606",
"- c #521010",
"; c #660A0A",
": c #781010",
"> c #4E2020",
", c #523838",
"< c #6C2A2A",
"1 c #7B2323",
"2 c #643E3E",
"3 c #6B3E3E",
"4 c #484848",
"5 c #4C4C4C",
"6 c #525252",
"7 c #545454",
"8 c #585858",
"9 c #5B5B5B",
"0 c #664C4C",
"q c #774949",
"w c #785252",
"e c #646464",
"r c #6A6A6A",
"t c #6C6C6C",
"y c #6D6D6D",
"u c #707070",
"i c #757575",
"p c #787878",
"a c #7B7B7B",
"s c #7F7F7F",
"d c #841F1F",
"f c #8C2929",
"g c #983838",
"h c #856A6A",
"j c #997F7F",
"k c #818181",
"l c #848484",
"z c #888888", 
"x c #8A8A8A",
"c c #8B8B8B",
"v c #909090",
"b c #999999", 
"n c #9E9E9E", 
"m c #9F9F9F",
"M c #A5A5A5",
"N c #A8A8A8",
"B c #ABABAB",
"V c #AEAEAE",
"C c #B4B4B4",
"Z c #BABABA",
"A c #BCBCBC",
"S c #BDBDBD",
"D c #C3C3C3",
"F c #C8C8C8",
"G c #D7D7D7",
"H c None",
/* pixels */
"HHHHHHHHHHHHHHHHHHHHHHHHHHHHHHHHHHHHHHHHHHHHHHHHHHHHHHHHHHHHHHHHHHHHHHHHH",
"HHHHHHHHHHHHHHHHHHHHHHHHHHHHHHHHHHHHHHHHHHHHHHHHHHHHHHHHHHHHHHHHHHHHHHHHH",
"HHHHHHHHHHHHHHHHHHHHHHHHHHHHHHHHHHHHHHHHHHHHHHHHHHHHHHHHHHHHHHHHHHHHHHHHH",
"HHHHHHHHHHHHHHHHHHHHHHHHHHHHHHHHHHHHHHHHHHHHHHHHHHHHHHHHHHHHHHHHHHHHHHHHH",
"HHHHHHHHHHHHHHHHHHHHHHHHHHHHHHHHHHHHHHHHHHHHHHHHHHHHHHHHHHHHHHHHHHHHHHHHH",
"HHHHHHHHHHHHHHHHHHHHHHHHHHHHHHHHHHHHHHHHHHHHHHHHHHHHHHHHHHHHHHHHHHHHHHHHH",
"HHHHHHHHHHHHHHHHHHHHHHHHHHHHHHHHHHHHHHHHHHHHHHHHHHHHHHHHHHHHHHHHHHHHHHHHH",
"HHHHHHHHHHHHHHHHHHHHHHHHHHHHHHHHHHHHHHHHHHHHHHHHHHHHHHHHHHHHHHHHHHHHHHHHH",
"HHHHHHHHHHHHHHHHHHHHHHHHHHHHHHHHHHHHHHHHHHHHHHHHHHHHHHHHHHHHHHHHHHHHHHHHH",
"HHHHHHHHHHHHHHHHHHHHHHHHHHHHHHHHHHHHHHHHHHHHHHHHHHHHHHHHHHHHHHHHHHHHHHHHH",
"HHHHHHHHHHHHHHHHHHHHHHHHHHHHHHHHHHHHHHHHHHHHHHHHHHHHHHHHHHHHHHHHHHHHHHHHH",
"HHHHHHHHHHHHHHHHHHHHHHHHHHHHHHHHHHHHHHHHHHHHHHHHHHHHHHHHHHHHHHHHHHHHHHHHH",
"HHHHHHHHHHHHHHHHHHHHHHHHHHHHHHHHHHHHHX********HHHHHHHHHHHHHHHHHHHHHHHHHHH",
"HHHHHHHHHHHHHHHHHHHHHHHHHHHHHHHHHHX**;=o...%>;=**HHHHHHHHHHHHHHHHHHHHHHHH",
"HHHHHHHHHHHHHHHHHHHHHHHHHHHHHHHHX**,8@........%888HHHHHHHHHHHHHHHHHHHHHHH",
"HHHHHHHHHHHHHHHHHHHHHHHHHHHHHHHX;w#.HH5pHHHHHHH %88<:=HHHHHHHHHHHHHHHHHHH",
"HHHHHHHHHHHHHHHHHHHHHHHHHHHHHX**,@%HHH$88HHHHHHHH %@O;=*HHHHHHHHHHHHHHHHH",
"HHHHHHHHHHHHHHHHHHHHHHHHHHHHX*,@HH$8HH$cAHHHHHHHHHHH ..OjqHHHHHHHHHHHHHHH",
"HHHHHHHHHHHHHHHHHHHHHHHHHHHX*,HHHHHr4H5BFkHHHHHHHHHHH %888VHHHHHHHHHHHHHH",
"HHHHHHHHHHHHHHHHHHHHHHHHHHHX0HHHHHH$@%8888HHHHHHHHHHHHH %HXh3HHHHHHHHHHHH",
"HHHHHHHHHHHHHHHHHHHHHHHHHHXo.HHHHHH$te88tetHHHHHHHHHHHHHHHHH9DnHHHHHHHHHH",
"HHHHHHHHHHHHHHHHHHHHHHHHHX*oHHHHH$888888888HHHHHHHHHHHHHHHHHH$aHHHHHHHHHH",
"HHHHHHHHHHHHHHHHHHHHHHHHHXoHHHHH$88Vx@HH$8tHHHHHHHHHHHHHHHHHHHHHHHHHHHHHH",
"HHHHHHHHHHHHHHHHHHHHHHHH$<+HHHHH$888888HH5peHHHHHHHHHHHHHHHHHHHHHHHHHHHHH",
"HHHHHHHHHHHHHHHHHHHHHHHHXoHHHHHH$8tpe8888tpeHHHHHHHH9HHHHHHHHHHHHHHHHHHHH",
"HHHHHHHHHHHHHHHHHHHHHHHX*oHHHHHH$8tpe88mGxtpHHHHHHHsMHHHHHHHHHHHHHHHHHHHH",
"HHHHHHHHHHHHHHHHHHHHHHH$<HHHHHHH$tpe@%888<::288HHHsCHHHHHHHHHHHHHHHHHHHHH",
"HHHHHHHHHHHHHHHHHHHHHHH$<HHHHHHH$tpe8@..-:::+6eHHsCiHrAHHHHHHHHHHHHHHHHHH",
"HHHHHHHHHHHHHHHHHHHHHHHX,HHHHHH$8te8888<::2<+..HsCbmbmHHHHHHHHHHHHHHHHHHH",
"HHHHHHHHHHHHHHHHHHHHHHHXoHHHHHH$8cby@.-::+O,@.%88avvmNHHHHHHHHHHHHHHHHHHH",
"HHHHHHHHHHHHHHHHHHHHHHHXoHHHHHH$8ak#.-::2<+..%888aycbmHHHHHHHHHHHHHHHHHHH",
"HHHHHHHHHHHHHHHHHHHHHHHXoHHHHHHH %8@-::::+..6e8@..%amHHHHHHHHHHHHHHHHHHHH",
"HHHHHHHHHHHHHHHHHHHHHHHXoHHHHHHHH ..-=;:+..%te8@.%@uHHHHHHHHHHHHHHHHHHHHH",
"HHHHHHHHHHHHHHHHHHHHHHH$@HHHHHHrbv&%8888@.%88@..%88HHHHHHHHHHHHHHHHHHHHHH",
"HHHHHHHHHHHHHHHHHHHHHHH OHHHHrNHH %te8@.%888@...%8HHHHHHHHHHHHHHHHHHHHHHH",
"HHHHHHHHHHHHHHHHHHHHHHH$>HHHsk8@...%8@%@%88@..%88@HHHHHHHHHHHHHHHHHHHHHHH",
"HHHHHHHHHHHHHHHHHHHHHHHX*HHHsk@H ...%@.%88@...%88HHHHHHHHHHHHHHHHHHHHHHHH",
"HHHHHHHHHHHHHHHHHHHHHHHH$@Hsk8HH .%8@%888@......HHHHHHHHHHHHHHHHHHHHHHHHH",
"HHHHHHHHHHHHHHHHHHHHHHHH .6B7HHH %8@%@.%@....%@HHHHHHHHHHHHHHHHHHHHHHHHHH",
"HHHHHHHHHHHHHHHHHHHHHHHHH9ym7HHH$8@.HHH$@.%88@HHHHHHHHHHHHHHHHHHHHHHHHHHH",
"HHHHHHHHHHHHHHHHHHHHHHHHH5ea&%88888888t#..%@.HHHHHHHHHHHHHHHHHHHHHHHHHHHH",
"HHHHHHHHHHHHHHHHHHHHHHHH9y@..6pe888tpe8@%88@HHHHHHHHHHHHHHHHHHHHHHHHHHHHH",
"HHHHHHHHHHHHHHHHHHHHHHHH ..%t#.....%@.%8aHHHHHHHHHHHHHHHHHHHHHHHHHHHHHHHH",
"HHHHHHHHHHHHHHHHHHHHHHHHH ...u4.....O**hH5HHHHHHHHHHHHHHHHHHHHHHHHHHHHHHH",
"HHHHHHHHHHHHHHHHHHHHHHHHH5#..lF7....Oj7O**HHHHHHHHHHHHHHHHHHHHHHHHHHHHHHH",
"HHHHHHHHHHHHHHHHHHHHHHHHHHXo...lFFFF7O****HHHHHHHHHHHHHHHHHHHHHHHHHHHHHHH",
"HHHHHHHHHHHHHHHHHHHHHHHHHHHXoHH .O*;=***o6zvy88HHHHHHHHHHHHHHHHHHHHHHHHHH",
"HHHHHHHHHHHHHHHHHHHHHHHHHH5H$@H O;fgd=*;+%ay888teHHHHHHHHHHHHHHHHHHHHHHHH",
"HHHHHHHHHHHHHHHHHH$88888888888@O*1gd=***o%te888@%88HHHHHHHHHHHHHHHHHHHHHH",
"HHHHHHHHHHHHHHHH$8@%88888888@%>**;::=***o.%888888888HHHHHHHHHHHHHHHHHHHHH",
"HHHHHHHHHHHHHH$888@%88888888@%>********o..%8888888888HHHHHHHHHHHHHHHHHHHH",
"HHHHHHHHHHHH5e@%888888te8@..H O********o..O**o%888888tHHHHHHHHHHHHHHHHHHH",
"HHHHHHHHHHH5ppe888888@..HHHHHHX*******o..O**H .%88@%cAHHHHHHHHHHHHHHHHHHH",
"HHHHHHHHHHsFkte8@HHHHHHHHHHHHHHX*oO**o...O**HHH .%88tZSHHHHHHHHHHHHHHHHHH",
"HHHHHHHHH9kpz&HHHHHHHHHHHHHHHHHH ........OoHHHHH .6e8cbHHHHHHHHHHHHHHHHHH",
"HHHHHHHHH5e8tHHHHHHHHHHHHHHHHHHHH ........HHHHHH %te@%8HHHHHHHHHHHHHHHHHH",
"HHHHHHHHH$@.6HHHHHHHHHHHHHHHHHHHHHH ....HHHHHHHH %@H$88HHHHHHHHHHHHHHHHHH",
"HHHHHHHHHH$HHHHHHHHHHHHHHHHHHHHHHHHHHHHHHHHHHHHHH .H9HsHHHHHHHHHHHHHHHHHH",
"HHHHHHHHHHsHHrHHHHHHHHHHHHHHHHHHHHHHHHHHHHHHHHHHH9yHsH$HHHHHHHHHHHHHHHHHH",
"HHHHHHHHHH5pppHHHHHHHHHHHHHHHHHHHHHHHHHHHHHHHHHHH %88888HHHHHHHHHHHHHHHHH",
"HHHHHHHHHH5eteHHHHHHHHHHHHHHHHHHHHHHHHHHHHHHHHHHH %@%88@HHHHHHHHHHHHHHHHH",
"HHHHHHHHHH5etBHHHHHHHHHHHHHHHHHHHHHHHHHHHHHHHHHHH %@H$88HHHHHHHHHHHHHHHHH",
"HHHHHHHHHHH$8cHHHHHHHHHHHHHHHHHHHHHHHHHHHHHHHHHHHH %H$8HHHHHHHHHHHHHHHHHH",
"HHHHHHHHHHH5eHHHHHHHHHHHHHHHHHHHHHHHHHHHHHHHHHHHHH %H$8HHHHHHHHHHHHHHHHHH",
"HHHHHHHHHHHH$HHHHHHHHHHHHHHHHHHHHHHHHHHHHHHHHHHHHH %HH$HHHHHHHHHHHHHHHHHH",
"HHHHHHHHHHHH$8aHHHHHHHHHHHHHHHHHHHHHHHHHHHHHHHHHHH HH9&HHHHHHHHHHHHHHHHHH",
"HHHHHHHHHHHHH$tHHHHHHHHHHHHHHHHHHHHHHHHHHHHHHHHHHH$HH$@HHHHHHHHHHHHHHHHHH",
"HHHHHHHHHHHHHH$HHHHHHHHHHHHHHHHHHHHHHHHHHHHHHHHHHH$HH HHHHHHHHHHHHHHHHHHH",
"HHHHHHHHHHHHHHHHHHHHHHHHHHHHHHHHHHHHHHHHHHHHHHHHHHHHHHHHHHHHHHHHHHHHHHHHH",
"HHHHHHHHHHHHHHHHHHHHHHHHHHHHHHHHHHHHHHHHHHHHHHHHHHHHHHHHHHHHHHHHHHHHHHHHH",
"HHHHHHHHHHHHHHHHHHHHHHHHHHHHHHHHHHHHHHHHHHHHHHHHHHHHHHHHHHHHHHHHHHHHHHHHH",
"HHHHHHHHHHHHHHHHHHHHHHHHHHHHHHHHHHHHHHHHHHHHHHHHHHHHHHHHHHHHHHHHHHHHHHHHH",
"HHHHHHHHHHHHHHHHHHHHHHHHHHHHHHHHHHHHHHHHHHHHHHHHHHHHHHHHHHHHHHHHHHHHHHHHH",
"HHHHHHHHHHHHHHHHHHHHHHHHHHHHHHHHHHHHHHHHHHHHHHHHHHHHHHHHHHHHHHHHHHHHHHHHH",
"HHHHHHHHHHHHHHHHHHHHHHHHHHHHHHHHHHHHHHHHHHHHHHHHHHHHHHHHHHHHHHHHHHHHHHHHH",
"HHHHHHHHHHHHHHHHHHHHHHHHHHHHHHHHHHHHHHHHHHHHHHHHHHHHHHHHHHHHHHHHHHHHHHHHH"
};
