/* XPM */
static char *bg3_attack3[] = {
/* columns rows colors chars-per-pixel */
"92 73 13 1 ",
"  c #101010",
". c #480000",
"X c #781010",
"o c #585858",
"O c gray47",
"+ c #983838",
"@ c #F8C048",
"# c #F8F858",
"$ c #909090",
"% c gray66",
"& c #C8C8C8",
"* c gray88",
"= c None",
/* pixels */
"============================================================================================",
"============================================================================================",
"============================================================================================",
"============================================================================================",
"============================================================================================",
"===============================....XXX.oo.=..===============================================",
"=============================..Xooo o o oooXXX.XX===========================================",
"===========================...o o======== o..o o.$*X========================================",
"==========================.Xoo=============== oooo.X%*======================================",
"========================...o==oOo=============== o===oO&====================================",
"=======================..oOo===o$&=====================o====================================",
"=======================.oo oo==O&*o=========================================================",
"======================.Xo== $&=oOOoO========================================================",
"=====================.Xo====ooooOOoo========================================================",
"=====================.O=====oOooooooO=======================================================",
"====================.X======ooooo=oOOO======================================================",
"====================..====ooo*Ooo==oOo==.===================================================",
"===================..=====ooooOooo%ooOO.X..=================================================",
"===================.X======ooOooo$**oooXX .=================================================",
"===================..======oooooooo&   XXo.=================================================",
"===================..======oooo     == XXXXo================================================",
"==================..=======ooo oooooO  XX.oo================================================",
"==================o.=======oo  o o  O  .OoO%=====================================@==========",
"==================o.=======oooo   o= = ooooo====================================@===========",
"==================o.=======ooOoo  o====ooooo===================================#============",
"==================..=======oooo= oO====ooooo==================================#=============",
"===================.========   ======%%oOooo================================================",
"===================..======    ====&%oo oo oo===============================================",
"===================oX======   =====&=== Oo o&===============================================",
"===================o.======   =====&=== Ooo=O===============================================",
"====================..=====   =====&===oo o= $==============================================",
"====================o.=====   =====O&oo o  o=$=====================================@@=======",
"=====================o.====   ======O&=    oo  =ooooOoooOooo======================##@@@=====",
"=====================o.====   =====O=O&%  oooooooooooooooooooO&&&&&&===============@@=======",
"======================.===..  =====O==oo%$ o                 ============@==================",
"=========================...o =====O====oooo%               ============@===================",
"=========================.... $%===O====o =oo               ===========#===========@@=======",
"========================....* O%*==O====oO==o   ooooooooooo o&&&&&&===#===========##@@@=====",
"========================   .  $OO==%====o ==  ==        oo   ======================@@=======",
"========================%..      =ooo===oo = *==============================================",
"========================..oo  .....oO*===o = *==============================================",
"======================== . &  ....XXXo*===  =o= oooooo %&*=========================@@=======",
"=========================.O   ...X..XXo*==o o o oo  oo$$&*******==================##@@@=====",
"===========================..XX...XXo$$oo*& oooo  ooooooO===================#======@@=======",
"==================o=%oooo=..X++X..XooOooooO  oooooo  oo$%&===================#==============",
"==============ooooooooo$o...X+X....ooooo ooo   ooooo oooooo&&&&&&=============@===@@========",
"============oo ooooooooOo..........oooooooooo==          ======================@==#@@@======",
"===========oo  ooooooo o ..........o  oooooooO====================================@@========",
"=========o  o ooooooo====..........  .ooooooooo=============================================",
"========oooooo oo =======.........   .. &ooooooO============================================",
"=======ooooooo =========== . ....    ..= o*oOooOO===========================================",
"=======ooooo===============         ..===  *&oo&*========================#==================",
"====== o*o==================        .=====  **oO*&========================#=================",
"=====OOO*=====================     ======== O*oo%%=========================@================",
"======Oo$================================== o&o oo==========================@===============",
"=====oooO================================== * o oo==========================================",
"=========================================== &%==============================================",
"=====O&=o====================================*=ooo==========================================",
"=====OoOO================================== &*oooo==========================================",
"=====OoOO================================== %*=ooo==========================================",
"=====ooo*=================================== &=Ooo==========================================",
"======oo*===================================o&=ooo==========================================",
"======OO&===================================o&=oo===========================================",
"====== o&===================================o==oo===========================================",
"=======o&===================================o%=&o===========================================",
"=======oO===================================$==o ===========================================",
"========o================================== o== ============================================",
"============================================================================================",
"============================================================================================",
"============================================================================================",
"============================================================================================",
"============================================================================================",
"============================================================================================"
};
