/* XPM */
static char *bg3_death1[] = {
/* columns rows colors chars-per-pixel */
"84 72 11 1 ",
"  c #101010",
". c #480000",
"X c #781010",
"o c #585858",
"O c gray47",
"+ c #983838",
"@ c #909090",
"# c gray66",
"$ c #C8C8C8",
"% c gray88",
"& c None",
/* pixels */
"&&&&&&&&&&&&&&&&&&&&&&&&&&&&&&&&&&&&&&&&&&&&&&&&&&&&&&&&&&&&&&&&&&&&&&&&&&&&&&&&&&&&",
"&&&&&&&&&&&&&&&&&&&&&&&&&&&&&&&&&&&&&&&&&&&&&&&&&&&&&&&&&&&&&&&&&&&&&&&&&&&&&&&&&&&&",
"&&&&&&&&&&&&&&&&&&&&&&&&&&&&&&&&&&&&&&&&&&&&&&&&&&&&&&&&&&&&&&&&&&&&&&&&&&&&&&&&&&&&",
"&&&&&&&&&&&&&&&&&&&&&&&&&&&&&&&&&&&&&&&&&&&&&&&&&&&&&&&&&&&&&&&&&&&&&&&&&&&&&&&&&&&&",
"&&&&&&&&&&&&&&&&&&&&&&&&&&&&&&&&&&&&&&&&&&&&&&&&&&&&&&&&&&&&&&&&&&&&&&&&&&&&&&&&&&&&",
"&&&&&&&&&&&&&&&&&&&&&&&&&&&&&&&&&&&&&...XXXX.oo&&.&&&&&&&&&&&&&&&&&&&&&&&&&&&&&&&&&&",
"&&&&&&&&&&&&&&&&&&&&&&&&&&&&&&&&&&.... o   o oo  XXX...&&&&&&&&&&&&&&&&&&&&&&&&&&&&&",
"&&&&&&&&&&&&&&&&&&&&&&&&&&&&&&&&&.Xo   &&&&&&&       o.$#&&&&&&&&&&&&&&&&&&&&&&&&&&&",
"&&&&&&&&&&&&&&&&&&&&&&&&&&&&&&&.. o &&&&&&&&&&&&&&& ooo   $#&&&&&&&&&&&&&&&&&&&&&&&&",
"&&&&&&&&&&&&&&&&&&&&&&&&&&&&&&..o &&Ooo&&&&&&&&&&&&&&  &&& O@%&&&&&&&&&&&&&&&&&&&&&&",
"&&&&&&&&&&&&&&&&&&&&&&&&&&&&&.XOo&&&oo$O&&&&&&&&&&&&&&&&&&&&&O&&&&&&&&&&&&&&&&&&&&&&",
"&&&&&&&&&&&&&&&&&&&&&&&&&&&&..o&oo&& O$%O&&&&&&&&&&&&&&&&&&&&&&&&&&&&&&&&&&&&&&&&&&&",
"&&&&&&&&&&&&&&&&&&&&&&&&&&&..O&&&o#&oo oo&&&&&&&&&&&&&&&&&&&&&&&&&&&&&&&&&&&&&&&&&&&",
"&&&&&&&&&&&&&&&&&&&&&&&&&&&.o&&&&&o&oOoOoo&&&&&&&&&&&&&&&&&&&&&&&&&&&&&&&&&&&&&&&&&&",
"&&&&&&&&&&&&&&&&&&&&&&&&&&.X &&&&&oOooooooO&&&&&&&&&&&&&&&&&&&&&&&&&&&&&&&&&&&&&&&&&",
"&&&&&&&&&&&&&&&&&&&&&&&&&&. &&&&&&ooo &&ooo&&&&&&&&&&&&&&&&&&&&&&&&&&&&&&&&&&&&&&&&&",
"&&&&&&&&&&&&&&&&&&&&&&&&&.X&&&&&oo$$oo&& Ooo&&.&&&&&&&&&&&&&&&&&&&&&&&&&&&&&&&&&&&&&",
"&&&&&&&&&&&&&&&&&&&&&&&&&. &&&&&oooooooo#oOOX...&&&&&&&&&&&&&&&&&&&&&&&&&&&&&&&&&&&&",
"&&&&&&&&&&&&&&&&&&&&&&&&.. &&&&&o oOooo$%ooo.XX.&&&&&&&&&&&&&&&&&&&&&&&&&&&&&&&&&&&&",
"&&&&&&&&&&&&&&&&&&&&&&&& .&&&&&&oooo ooo o  XXXXo&&&&&&&&&&&&&&&&&&&&&&&&&&&&&&&&&&&",
"&&&&&&&&&&&&&&&&&&&&&&&&oX&&&&&&ooooo     & XXXX &&&&&&&&&&&&&&&&&&&&&&&&&&&&&&&&&&&",
"&&&&&&&&&&&&&&&&&&&&&&&&O.&&&&&&ooo  o ooo  oXX. &&&&&&&&&&&&&&&&&&&&&&&&&&&&&&&&&&&",
"&&&&&&&&&&&&&&&&&&&&&&&&oo&&&&&&  o    o o & .oo &&&&&&&&&&&&&&&&&&&&&&&&&&&&&&&&&&&",
"&&&&&&&&&&&&&&&&&&&&&&&&o &&&&&&  Oo    & && oooo&&&&&&&&&&&&&&&&&&&&&&&&&&&&&&&&&&&",
"&&&&&&&&&&&&&&&&&&&&&&&&O.&&&&&&o oo &  &&&& ooo &&&&&&&&&&&&&&&&&&&&&&&&&&&&&&&&&&&",
"&&&&&&&&&&&&&&&&&&&&&&&&oX&&&&&&  o  &  &&&& ooo o&&&&&&&&&&&&&&&&&&&&&&&&&&&&&&&&&&",
"&&&&&&&&&&&&&&&&&&&&&&&&o.&&&&&&&   &&&&&&$##oOo o&&&&&&&&&&&&&&&&&&&&&&&&&&&&&&&&&&",
"&&&&&&&&&&&&&&&&&&&&&&&&o.&&&&&&&   &&&&&$ooo oo&o &&&&&&&&&&&&&&&&&&&&&&&&&&&&&&&&&",
"&&&&&&&&&&&&&&&&&&&&&&&&&.&&&&&&    &&&&$O&&& Ooo&@&&&&&&&&&&&&&&&&&&&&&&&&&&&&&&&&&",
"&&&&&&&&&&&&&&&&&&&&&&&&&o.&&&&&&   &&&&$&&&& Ooo&&#&&&&&&&&&&&&&&&&&&&&&&&&&&&&&&&&",
"&&&&&&&&&&&&&&&&&&&&&&&&&o.&&&&&    &&&&O#&&&   oo&&#&&&&&&&&&&&&&&&&&&&&&&&&&&&&&&&",
"&&&&&&&&&&&&&&&&&&&&&&&&&&o.&&&&    &&&&&O$oo     Oo  &ooooooooOOoo&&&&&&&&&&&&&&&&&",
"&&&&&&&&&&&&&&&&&&&&&&&&&&o.&&&&    &&&&& o$$   &o& ooooooooooOOooooO$$$$$$&&&&&&&&&",
"&&&&&&&&&&&&&&&&&&&&&&&&&&&o &&&.   &&&&&O&oo$$   &&     o           &&&&&&&&&&&&&&&",
"&&&&&&&&&&&&&&&&&&&&&&&&&&&  &&..  &&&&&@&&&&ooo##@@               &&&&&&&&&&&&&&&&&",
"&&&&&&&&&&&&&&&&&&&&&&&&&&&&&&&..   &&&&O&&&&&o&oooo               &&&&&&&&&&&&&&&&&",
"&&&&&&&&&&&&&&&&&&&&&&&&&&&&&&.... oO&&&O&&&&&o&&&&o   ooooooooooo oo$$#@$$&&&&&&&&&",
"&&&&&&&&&&&&&&&&&&&&&&&&&&&&&&...O o@@&&&O&&&  o&&&O  &o        o    oo&o&&&&&&&&&&&",
"&&&&&&&&&&&&&&&&&&&&&&&&&&&&&@...   Oo&&#O&&&    && o&&&&&&&&&&&&&&&&&&&&&&&&&&&&&&&",
"&&&&&&&&&&&&&&&&&&&&&&&&&&&&&@..    o &&o&o &     &&o&&&&&&&&&&&&&&&&&&&&&&&&&&&&&&&",
"&&&&&&&&&&&&&&&&&&&&&&&&&&&&&O.oo  ......&&o &&    & &   o ooooooo&&&&&&&&&&&&&&&&&&",
"&&&&&&&&&&&&&&&&&&&&&&&&&&&&& o    .......&&oo&&&    o  o    ooooo#####O&&&&&&&&&&&&",
"&&&&&&&&&&&&&&&&&&&&&&&&&&&&&&& &     ....X&&&oooo o      o ooooO&&&&&&&&&&&&&&&&&&&",
"&&&&&&&&&&&&&&&&&&&&&&&&&&&&& &&.........oOo&&&&&oo   ooooooooOooo&&&&&&&&&&&&&&&&&&",
"&&&&&&&&&&&&&&&&&&&&&&&  @ooooo&..++X..  ooooo &&&&   ooooooooooooO$$$$$&&&&&&&&&&&&",
"&&&&&&&&&&&&&&&&&&&&oo oo@o  o...X++.... oooo ooo&&&&&           &&&&&&&&&&&&&&&&&&&",
"&&&&&&&&&&&&&&&&&&ooo  ooO  oo.......... oooooooooo&&&&&&&&&&&&&&&&&&&&&&&&&&&&&&&&&",
"&&&&&&&&&&&&&&&&oo  oo ooo    ..........o  ooooooooo&&&&&&&&&&&&&&&&&&&&&&&&&&&&&&&&",
"&&&&&&&&&&&&&&&o oo o oo o&&&&..........   ooooooooo&&&&&&&&&&&&&&&&&&&&&&&&&&&&&&&&",
"&&&&&&&&&&&&&&o oooooo  &&&&&&&.........     o oooooO&&&&&&&&&&&&&&&&&&&&&&&&&&&&&&&",
"&&&&&&&&&&&&&Oooooo &&&&&&&&&&& . ....    . &  o ooooo&&&&&&&&&&&&&&&&&&&&&&&&&&&&&&",
"&&&&&&&&&&&&ooooo &&&&&&&&&&&&&&           &&&  oooo$$&&&&&&&&&&&&&&&&&&&&&&&&&&&&&&",
"&&&&&&&&&&&#o#O &&&&&&&&&&&&&&&&&         &&&&&  oOoO$#&&&&&&&&&&&&&&&&&&&&&&&&&&&&&",
"&&&&&&&&&&&oOo&&&&&&&&&&&&&&&&&&&&&     &&&&&&&& o@oo@O&&&&&&&&&&&&&&&&&&&&&&&&&&&&&",
"&&&&&&&&&&&ooo&&&&&&&&&&&&&&&&&&&&&&&&&&&&&&&&&& ooo oo&&&&&&&&&&&&&&&&&&&&&&&&&&&&&",
"&&&&&&&&&&&OoO&&&&&&&&&&&&&&&&&&&&&&&&&&&&&&&&&& o o oo&&&&&&&&&&&&&&&&&&&&&&&&&&&&&",
"&&&&&&&&&&&O&&&&&&&&&&&&&&&&&&&&&&&&&&&&&&&&&&&&  o&&&&&&&&&&&&&&&&&&&&&&&&&&&&&&&&&",
"&&&&&&&&&&&#&&&&&&&&&&&&&&&&&&&&&&&&&&&&&&&&&&&&&&@&ooo&&&&&&&&&&&&&&&&&&&&&&&&&&&&&",
"&&&&&&&&&&OoOOo&&&&&&&&&&&&&&&&&&&&&&&&&&&&&&&&& oooooo&&&&&&&&&&&&&&&&&&&&&&&&&&&&&",
"&&&&&&&&&&oooO&&&&&&&&&&&&&&&&&&&&&&&&&&&&&&&&&& oo&oo &&&&&&&&&&&&&&&&&&&&&&&&&&&&&",
"&&&&&&&&&&&oo#&&&&&&&&&&&&&&&&&&&&&&&&&&&&&&&&&&&  &Ooo&&&&&&&&&&&&&&&&&&&&&&&&&&&&&",
"&&&&&&&&&&&oo#&&&&&&&&&&&&&&&&&&&&&&&&&&&&&&&&&&&oo&ooo&&&&&&&&&&&&&&&&&&&&&&&&&&&&&",
"&&&&&&&&&&&OO#&&&&&&&&&&&&&&&&&&&&&&&&&&&&&&&&&&&o&&oo&&&&&&&&&&&&&&&&&&&&&&&&&&&&&&",
"&&&&&&&&&&&&o$&&&&&&&&&&&&&&&&&&&&&&&&&&&&&&&&&&&o&&oo&&&&&&&&&&&&&&&&&&&&&&&&&&&&&&",
"&&&&&&&&&&&&o$&&&&&&&&&&&&&&&&&&&&&&&&&&&&&&&&&&&oo&# &&&&&&&&&&&&&&&&&&&&&&&&&&&&&&",
"&&&&&&&&&&&&oO&&&&&&&&&&&&&&&&&&&&&&&&&&&&&&&&&&&O&&o &&&&&&&&&&&&&&&&&&&&&&&&&&&&&&",
"&&&&&&&&&&&&&o&&&&&&&&&&&&&&&&&&&&&&&&&&&&&&&&&&&o&& &&&&&&&&&&&&&&&&&&&&&&&&&&&&&&&",
"&&&&&&&&&&&&&&&&&&&&&&&&&&&&&&&&&&&&&&&&&&&&&&&&&&&&&&&&&&&&&&&&&&&&&&&&&&&&&&&&&&&&",
"&&&&&&&&&&&&&&&&&&&&&&&&&&&&&&&&&&&&&&&&&&&&&&&&&&&&&&&&&&&&&&&&&&&&&&&&&&&&&&&&&&&&",
"&&&&&&&&&&&&&&&&&&&&&&&&&&&&&&&&&&&&&&&&&&&&&&&&&&&&&&&&&&&&&&&&&&&&&&&&&&&&&&&&&&&&",
"&&&&&&&&&&&&&&&&&&&&&&&&&&&&&&&&&&&&&&&&&&&&&&&&&&&&&&&&&&&&&&&&&&&&&&&&&&&&&&&&&&&&",
"&&&&&&&&&&&&&&&&&&&&&&&&&&&&&&&&&&&&&&&&&&&&&&&&&&&&&&&&&&&&&&&&&&&&&&&&&&&&&&&&&&&&"
};
