/* XPM */
static char * bg3_death4_xpm[] = {
"85 76 16 1",
" 	c None",
".	c #101010",
"+	c #983838",
"@	c #A07828",
"#	c #480000",
"$	c #781010",
"%	c #585858",
"&	c #B07028",
"*	c #F8C048",
"=	c #787878",
"-	c #909090",
";	c #A8A8A8",
">	c #C8C8C8",
",	c #E0E0E0",
"'	c #F8F858",
")	c #F8D850",
"                                                                                     ",
"                                                                                     ",
"                                                                                     ",
"                                                                                     ",
"                                                ..                                   ",
"                                            ++ ....                                  ",
"                                            @@@ +#$                                  ",
"                                        .#    + @@@  @$                              ",
"                                         #@ $$% +@% +@$$                             ",
"                                   .... $+@ +@   +% @@..                             ",
"                                   $#$$   @+ @ % @@ @@@                              ",
"                           .#..# ..  $@@  @@ @ $ #+ @@      ..#                      ",
"                           .#.$  $$  @@@   & & @ @  @   .  $.%.                      ",
"                         #$ +.#  $.@  @ &  &  *  @     ##  %++$ $                    ",
"                         .# @@+ .@@@                   $#  + + .$$                   ",
"                       .#$+  %  $#+@                   +%$@   +++$.                  ",
"                     # $#$@  @@  %@@                    %    +@@@+.                  ",
"                    .#  $$ + *&& +@@                  $$+  #   @@@                   ",
"                        +%        @@                 @@@  @   %+@                    ",
"                       .  & &      @@                @@@          @+$                ",
"                       $@&    &    @+                @       @   %+$$                ",
"                        $@* *       @                @          #@@$+                ",
"                                                        +      @..$.                 ",
"                     #                                 +                             ",
"                     @$$@                                                            ",
"                   #+@@@+                           @ +        @+$                   ",
"                   +@@&**                    @&&    ++    %%%@$@                     ",
"                   @&&                    @@ &@  &@ +%$#  %%%%..@+.#...              ",
"              $        &*               @@+@& &@ @+$ $$#+%%%%.%%@+.$$                ",
"              $#   &&* &*             +   %@@ @@ +$$ ...$.%%.%%%%%@##$.              ",
"             #$#   @**                @@@@         $ #..+$#%%%%%%%.###.              ",
"             ##%   &**                &@  @@@    $+     +$##+%%%%.%.#$#              ",
"             ##=  $    **             @   .$@   @ +$$.@  ##$%  .%%%.###              ",
"             #.=    @@@@@                $$$@   @ %@+  +#.$$$   %%%.### .            ",
"             #-=  $@@&&&  @@          &+$       @ % @@%  %$$. + $.%.###              ",
"             #;    +@&   +                  #. =@ &       @+  ++$$%.####.            ",
"             #>    @&      @            @+++.  @@       %        $%%$##              ",
"              ,    @    @ @@        &  @@@$    +&&&      @@@ @ +%%%%%%#..            ",
"              ,   $@  @@@            @@@@   ... @@       .@+    %%.%%%..             ",
"              ,      @@   @&         @@  +$.....-;;        @  @ %%%%%%               ",
"              ,   $+@@@ @@@   @         @$.....@@=-;%         $%%......              ",
"              >    +@@&&&    @         &  $=--%%@&@=%%%%       ;...%...$#            ",
"                    @@&&   &@           &#+$====@@@@...%%   %%.>...%.-$#..           ",
"                   $+    @&&&         & @@+++$%==..%%%..%%% %+--#..%..-...           ",
"                   +  @%@@                    +&......%...%%%+%$$#.%%....            ",
"                     @@=  +           & *      @%.......%....%%   .%%%%-             ",
"                     +&@**               +  *.    ........%....%%.%%%%%-             ",
"                     $@&@@             &@@@@@$@@ $$.........%..$%%%...%-             ",
"                                       @+-$;=$$+ $#$.-........%%%%.  ..-             ",
"                        ,,,,,         @&>;%%#--@  $..-...%.......#.##.-              ",
"                          '>,*>')*)*;;@@;-;-+$+$@@#.=#.....#.....-----               ",
"                              ;;@@**%=*@%$@%$%$+ +@%=.........$$$                    ",
"                       ,,,,,-=;-@@ *++$+$&@&%;-;+ @ .....$                           ",
"                       .$+;>@=-- -$$$$####+&-;$;@ $#  ....$  + $#                    ",
"                            @@@@@#%$###$$#+$@$%-@+$........%%@+ #.                   ",
"                           +@%..=%%.$#$#$++$@%@@@##...%%%%%%%=;$..                   ",
"                          $%%%...%..$$$#++++$@ @+..%%..%.%%%%.%=>>-                  ",
"                          %........%###$+++$$+=@-;%%%.%%..%%%%%===%                  ",
"                        %=%%.......%###++$$$$+%=-=>%%%%%%%%=%%=.%%%                  ",
"                       %%%%%........###$$##$$$@===@-==%%%   %=..%                    ",
"                       %.%%%.. ###..#########$%%%%--=%      ==..%                    ",
"                      =%%%%.   .##....#######. .%.+@       >==%-                     ",
"                %%.%.%>-%%..    .#....######.   .$$       =.%%=                      ",
"              %%%.%%.%>%%=       ##.........              =%%=                       ",
"             %%%%.%%.%=%%%.       ........             ;%%%=                         ",
"            %%=%.%%;.%. ..                            %%%                            ",
"                                                                                     ",
"                                                                                     ",
"                                                                                     ",
"                                                                                     ",
"                                                                                     ",
"                                                                                     ",
"                                                                                     ",
"                                                                                     ",
"                                                                                     ",
"                                                                                     "};
