/* XPM */
static char *bg3_run2[] = {
/* columns rows colors chars-per-pixel */
"47 44 11 1 ",
"  c #101010",
". c #480000",
"X c #781010",
"o c #585858",
"O c gray47",
"+ c #983838",
"@ c #B07028",
"# c #909090",
"$ c gray66",
"% c #C8C8C8",
"& c None",
/* pixels */
"&&&&&&&&&&&&&&&&&&&&&&&&&&&&&&&&&&&&&&&&&&&&&&&",
"&&&&&&&&&&&&&&&&&&&&&&&&&&&&&&&&&&&&&&&&&&&&&&&",
"&&&&&&&&&&&&&&&&&&&&&&&&&&&&&&&&&&&&&&&&&&&&&&&",
"&&&&&&&&&&&&&&&&&&&&&&&&&&&&&&&&&&&&&&&&&&&&&&&",
"&&&&&&&&&&&&&&&&&&&&oOoOo&$$&&&&&&&&&&&&&&&&&&&",
"&&&&&&&&&&&&&&&& oOOoo Oo#OOo&&&&&&&&&&&&&&&&&&",
"&&&&&&&&&&&&&&ooOOooOOOoo#oooO&&&&&&&&&&&&&&&&&",
"&&&&&&&&&&&&&OoooOooOOOoOOooo&&&&&&&&&&&&&&&&&&",
"&&&&&&&&&&&oOooooOoo....X..  &&&&&&&&&&&&&&&&&&",
"&&&&&&&&&&$ oOOoo ..XXXXXX...&&&&&&&&&&&&&&&&&&",
"&&&&&&&&&#OO# &&&...XXXXXX....&&&&&&O&&&&&&&&&&",
"&&&&&&&&OoooO&&&&X..XXX.XXX..&&&&#   O#X&&&&&&&",
"&&&&&&&&$oO &&&&...X+XX.XXXX.&O$$$$Oo#o$&&&&&&&",
"&&&&&&&O&&oO&&&&..X+@+XXXoOO$.o&oooo$$oo&&&&&&&",
"&&&&&&OoO&%&&&&&..XooOoooOooo oooo oo $o&&&&&&&",
"&&&&&&OOOO&&&&&&ooOOoooooooooooooooo oo$&&&&&&&",
"&&&&&ooOo&&&&%%Ooooo oooooOOo   ooo    o&&&&&&&",
"&&&&&O%  &%%%$#   ooooOOooooo     oo   &$&&&&&&",
"&&&&&oo   &$$##  Oooooooo          oooo&$&&&&&&",
"&&&&oooo oOo$%%%ooo     .   o     oo ooO#&&&&&&",
"&&&&o.&   &%$OO#        .  ooooooo   oo #&&&&&&",
"&&&&ooo$   ###O   o   oX.X. oooo  && &oo&&&&&&&",
"&&&&&#o   o &&&o   ..... ...oooo&&&&&&o$&&&&&&&",
"&&&&&Ooo$   && o   .X.XX..X..  O&&&&&&$&&&&&&&&",
"&&&&&oooO &o&oo    .......X &  OO&&&o$&&&&&&&&&",
"&&&&..ooooo o o    .....    &  oOO##$&&&&&&&&&&",
"&&&&.. oOo$o oo             o  &   &&&&oo&&&&&&",
"&&&&..  &oooooooo o oo &      &&&&&&&&&.o&&&&&&",
"&&&&..  $&ooooooo o #o         &&&&&&&&.o&&&&&&",
"&&&&&. &oo  Oooo  o&oo      o o&&&&&&& .&&&&&&&",
"&&&&&    #OoOo &  o&&   ooo  o&&&&&&&&.o&&&&&&&",
"&&&&&&  &OOoo &&o  &&  ooo oo&&&&&&&& .&&&&&&&&",
"&&&&&&. o   &&&&ooo   oOoooo&&&&&&&&&.o&&&&&&&&",
"&&&&&&&oo&&&&&&&#ooo oo#  o&&&&&&&&&. &&&&&&&&&",
"&&&&&&& .X&&&&&&OOoo o    &&&&&&&&& . &&&&&&&&&",
"&&&&&&&& .X&&&&&oo &  && &&&&&&&&& .o&&&&&&&&&&",
"&&&&&&&&& .X&&&&oo&&o&&&&&&&&&&&&X.o&&&&&&&&&&&",
"&&&&&&&&&&  . &&& && &&&&&&&&&&&. o&&&&&&&&&&&&",
"&&&&&&&&&&&   .o&&&&o&&&&&&&&&X o &&&&&&&&&&&&&",
"&&&&&&&&&&&&&   .oo&o&&&&&&&.   &&&&&&&&&&&&&&&",
"&&&&&&&&&&&&&&&      ...      &&&&&&&&&&&&&&&&&",
"&&&&&&&&&&&&&&&&&&         &&&&&&&&&&&&&&&&&&&&",
"&&&&&&&&&&&&&&&&&&&&&&&&&&&&&&&&&&&&&&&&&&&&&&&",
"&&&&&&&&&&&&&&&&&&&&&&&&&&&&&&&&&&&&&&&&&&&&&&&"
};
