/* XPM */
static char *bg3_attack2[] = {
/* columns rows colors chars-per-pixel */
"81 82 13 1 ",
"  c #101010",
". c #480000",
"X c #781010",
"o c #585858",
"O c gray47",
"+ c #983838",
"@ c #F8C048",
"# c #F8F858",
"$ c #909090",
"% c gray66",
"& c #C8C8C8",
"* c gray88",
"= c None",
/* pixels */
"=================================================================================",
"=================================================================================",
"=================================================================================",
"=================================================================================",
"=================================================================================",
"=================================================================================",
"=================================================================================",
"=================================================================================",
"=================================================================================",
"===============================....XXX.ooX=.=====================================",
"============================...X oo  ooooooXXX.X.================================",
"===========================.Xoo o======= oo.X ooX&&X=============================",
"=========================..XoO=============== ooO..X*&===========================",
"========================..oo==Ooo==============oo===o$$*=========================",
"=======================.XOO===oo*$=====================$=========================",
"======================..o=oo== O**O==============================================",
"=====================..O===o&=oOooO==============================================",
"=====================.O=====o OOOOoO=============================================",
"====================.XO=====oOOoooooO============================================",
"====================.X======oOoO== OO============================================",
"===================..X====oo$&Oo===$OO==.========================================",
"===================.X=====ooO*Oooo%O$OX...=======================================",
"===================.X=====ooOOooo***oo.XX.=======================================",
"==================..======oooOooooOoooXXXX.======================================",
"==================oX======ooooo o   = XXXXO======================================",
"==================OX======oooo ooooO ooXXXO======================================",
"==================oX======ooo oooooo%= .oo$======================================",
"==================oX======oooOo$  = == oooo======================================",
"==================OX======o $Oo=  ==== oooo======================================",
"==================oX======o oo = o==== ooo ======================================",
"==================o.=======   ======%%%oOo o=====================================",
"==================..=======   =====&$oOooooo=====================================",
"===================.=======   ====&*=== Oo%&==========================@==========",
"===================oX======   ====&====oOo O=========================@#@=========",
"===================o.=====    ====O%===  o& ========================@#@==========",
"====================o.====    =====O%oo   o=%======================@##@@@@=======",
"====================o.=====   ===== &O=  oo=o=  =======o==========@#######@@=====",
"=====================o.===    =====OO&%=   oooooooOooOOOoooo&&&$%###########@@===",
"==========================.o  =======Oo$o  ooooooooooooooooo%%%$$$########@@=====",
"=========================...  ====$====ooO$               =======@#####@@@=======",
"========================..o.o $&==O=====ooo  o$           =========@@#@@@@=======",
"========================....o%O&==O====  *=               oo%%=%==########@@=====",
"=======================o.oo   $%==o==== oo O  oooooooooooooo%%$%%$##########@@===",
"========================...   o  =o$====oo=o==           =====@@=@########@@=====",
"=======================o..o   .....o*===oo= *================@##@==###@@@@=======",
"========================..o   ....XXX====o= *  ======%======@####@@=##@==========",
"=========================.&  ....XX.Xo===oo *oooooooo*******########@#@==========",
"=======================o==...XXXXXX O%o*== o$oooooooooO$**oO#########@#==========",
"==================o=%oooo=..+++XXX+oo%oooo oooooooooo*O$=====@@###@@===@=========",
"==============oooooooOo&o...++XX..XooOoo ooo ooooo oo$%&****#########@@==========",
"============oo oooooooo%o.......... ooooooooooo      oooo oO###########@@========",
"===========o  oooooooo   ..........o ooooooooO==============@########@@==========",
"=========oooo ooooooo=== ..........   ooooooooo==============@@#@@@@@============",
"========o  oooooo =======....... .  ..Xo*ooooooO===============@#@===============",
"=======oooo oo ===========.. ....   ..X=oo*ooooOO===============@#@==============",
"=======oooo ===============         ..=== O**oo&*================@===============",
"======  o ==================        .===== o**oO**===============================",
"=====$OO*=====================     ======== O*oo&&===============================",
"=====ooo%================================== o*o oO===============================",
"=====oOoO================================== * o oO===============================",
"========O================================== **===================================",
"=====$==$====================================*oooO===============================",
"=====OoOO================================== **oooo===============================",
"=====OoOO================================== **=ooo===============================",
"=====Ooo*=================================== *=$oo===============================",
"======oO*===================================o*=ooo===============================",
"======$O*===================================o*=oo================================",
"======  &===================================o==oo================================",
"=======o&===================================o*=&o================================",
"=======oO===================================%==o ================================",
"========o================================== O== =================================",
"=================================================================================",
"=================================================================================",
"=================================================================================",
"=================================================================================",
"=================================================================================",
"=================================================================================",
"=================================================================================",
"=================================================================================",
"=================================================================================",
"=================================================================================",
"================================================================================="
};
