/* XPM */
static char *result[] = {
/* columns rows colors chars-per-pixel */
"49 23 15 1 ",
"  c #000001",
". c #100800",
"X c #080810",
"o c #201008",
"O c #401808",
"+ c #502810",
"@ c #783820",
"# c #282840",
"$ c #484068",
"% c #B85838",
"& c #C84820",
"* c #F87830",
"= c #F08840",
"- c #F8A850",
"; c #000000",
/* pixels */
";;;;;;;;;;;;;;;;;;;;;;;;;;;;;;;;;;;;;;;;;XXX ;;;;",
";;;;;;;;;;;;;;;;;;;;;;;;;;;;;;;;;;;;;;;;X###X;;;;",
";;;;;;;;;;;;;;;;;;;;;;;;;;;;;;;;;;;;;;; ##$$$ ;;;",
";;;;;;;;;;;;;;;;;;;;;;;;;;;; ###;;;;;;#####$# ;;;",
";;;;;;;;;;;;;;;;;;;.+ ;;;;++X#$########$$###X;;;;",
";;;;;;;;;;;;;;;;;;;oo ;;;++%o#$$$$$$$$$$####X;;;;",
";;;;;;;;;;;;;;;;;;;.+@@.;+@@+X#$$$$$$$$#####X;;;;",
";;;;;;;;;;;;;;;;;;;.@%@oo@@@@ X#############X;;;;",
";+O;;;;;;;;;;;;;;;;  . oo@@@%o XXXXXXXX####X;;;;;",
";@*++;++o;; ; XX; o+@%@oo+@%%@@+XX####      ;;;;;",
";+@*@#@--% oX X## o@@%%oo@@%%@%%oX#$$$#;;;;;;;;;;",
"++O%-$---$#X oo #$ +@@%.o+@%%@%@XXX#$$$##;;;;;;;;",
"O&@O%---%X#@%%%%@##X oooo+@@%@%+; XXX$$$$#;;;;;;;",
"O&&@@%=-Xo%%%%%%%%+  .ooo+@%%@@;;; XXX#$$$##;;;;;",
"O&&@*@@oX@@+@%%%%%%  +@oo+@@@@o;;;;  XX#$$$$####;",
"OO@@+@#X+%%%@@%%%%@  +%++@@@@@ ;;;;;;  X#$$$$$$##",
"OOOO+@  +%%%%@%%%%@  o@@@@@@+o;;;;;;;;;X#$$##$#X ",
";OO++oo.+++@@+@@@@o  o@@@+++. ;;;;;;;;;X###XX   ;",
";;O@& Xo@o####Xo#+o  .@+o..  ;;;;;;;;;; XX X  ;;;",
";;;OO; o+X###XX$$#      .. ;;;;;;;;;;;;;   ;;;;;;",
";;;;;;; o #X#XX##XXX ;;  ;;;;;;;;;;;;;;;;;;;;;;;;",
";;;;;;; o $$$;#XX $;#;;;;;;;;;;;;;;;;;;;;;;;;;;;;",
";;;;;;;;  X###X   X# ;;;;;;;;;;;;;;;;;;;;;;;;;;;;"
};
