/* XPM */
static char *result[] = {
/* columns rows colors chars-per-pixel */
"54 17 15 1 ",
"  c #000001",
". c #100800",
"X c #080810",
"o c #201008",
"O c #401808",
"+ c #502810",
"@ c #783820",
"# c #282840",
"$ c #484068",
"% c #B85838",
"& c #C84820",
"* c #F87830",
"= c #F08840",
"- c #F8A850",
"; c #000000",
/* pixels */
";;;;;;;;;;;;;;;;;;;;;;;;;;;;;;;@@@o#;;;;;;;;;;;;;;;;;;",
";;;;;;;;;;;;;;;;;;;;;;;;;;;;;@@%%%+##;;;;;;;;;;;;;;;;;",
";;;;;;;;;;;;;;;;;;;;;;;;;;;;@%%%%%#$$##;;;;;;;;;;;;;;;",
";;;;;;;;;;;;;;;;;;;;;;;;;;;+%%%%%@X$$$##;;;;;;;;;;;;;;",
";+@O+;++++;;;;;; X;;;;;;;;+%%%%%%oX##$$$#;;;;;;;;;;;;;",
";&*@++@--=X     X$X;   ;;@+%%%%%@  X##$$$#;;;;;;;;;## ",
";O@--#%--%X+@@+++##X  X####+@@@@.;  XX#$$$#;;;;;;;X## ",
"+OO+%---@X%%%%%@%@@@  X##$$%%%%@%@@oXXX#$$$###;;;X#$# ",
"OO@++%-$X@@@%%%%%%%%  o@@+@%@%@%%%%%@X##X##$###XX##$# ",
"OO&@&@+X+%%%@%%%%%%@  o@@@@@@@@@@@@%+X$$$$########## ;",
"OO&&&@Oo+%%%o@%%%%@+   @@@@@@@@@@@@+oX$$$$$$$$$$###X ;",
";OO+++o o@%@X##o+@@+   @@@++ooooooo. X#####$$$###XXX ;",
";OOO+++  o@+#####X#X   oooooo...   ;  XX#######X XX ;;",
";;OOO@O .ooo#X#X##X#       .  ;;;;;;;; X XXX X XXXX ;;",
";;;;O+;;  o XXX XXXX    ;;;;;;;;;;;;;;;;;;;;;;;   X ;;",
";;;;OO;;;       X XXX;;;;;;;;;;;;;;;;;;;;;;;;;;;;;;;;;",
";;;;;;;;;;;;;;;;     ;;;;;;;;;;;;;;;;;;;;;;;;;;;;;;;;;"
};
