/* XPM */
static char *result[] = {
/* columns rows colors chars-per-pixel */
"34 52 23 1 ",
"  c #000001",
". c #100800",
"X c #080810",
"o c #201008",
"O c #401808",
"+ c #502810",
"@ c #783820",
"# c #282840",
"$ c #484068",
"% c #B85838",
"& c #C84820",
"* c #F87830",
"= c #F08840",
"- c #F8A850",
"; c #0860A8",
": c #2880A0",
"> c #3088C0",
", c #48C8E8",
"< c #78F8F8",
"1 c #90E8F8",
"2 c #B8F8F8",
"3 c #FFFFFF",
"4 c #000000",
/* pixels */
"444444444444444444444444;,,4444444",
"444444444444444444444444,<:4444444",
"444444444444444444444444<<44444444",
"44444444444444444444444:<:44444444",
"44444444444444444444444<<>44444444",
"4444444444444444444444:<:444444444",
"4444444444444444444444<<4444444444",
"4444444444444444444444<:4444444444",
"444444444444444444444<<44444444444",
"44444444444444444444:<:44444444444",
"44++4444444444444444<<444444444444",
"4+&&@++444444444444,<:444444444444",
"4@&@@+%@+4444444444<<4444444444444",
"4O+%$==-%4444444441314444444444444",
"+++#%%=--+4444  443344444444444444",
"O+*+o@%+#+ 4Xo#$X131444444 .444444",
"O+*+o++@%%+o+@@$$334444@+@@o oo+.4",
"O@&@@XX+%@o#$$#+231o @@%%%@.@%@+. ",
"O&@@@oXXX X##$$$33$o%@%@@@@.@-@.  ",
"OO+@*+ XXXo++o#131X#+@+++oo..%+444",
"4+&+@o Xooo+@@@33  $#oooooo.. .444",
"4OOo+oooooo.o+231  XXX  ..oo 44444",
"4444  oooooooX33  X$$X44444  44444",
"4444 oooooooX131o@#$$$o@@@44444444",
"444  +%@ooo  33 +@+$$#@%%%@@@@4444",
"444  +%%+o   21oo@@+#.o%@%%%%%@444",
"4444 o@@oX#X#$ooo@@%%+o@@+@@@%%@@4",
"44444oX#X X##X oo+@%%%+++ooo++%%o4",
"44444 X X XX# 4 oo@@%%%..oo. o+o 4",
"44444  XX  XX44 ooo+@%%@   X##X#X4",
"444444    #o 444 ooo@@%%.4 X#### 4",
"444444444X4X44444 .oo@%%+4 XX##X44",
"444444444$$4444444 ooo@%@ XX### 44",
"44444444X4#44444444  o+%%X X###444",
"444444444 44444444444XooX XX##X444",
"44444444444444444444    X#X### 444",
"44444444444444444444 XX#$#X##X4444",
"44444444444444444444 X####X###4444",
"44444444444444444444 XX##X##$#4444",
"44444444444444444444 XX##X##$$#444",
"44444444444444444444 XX##X##$$#444",
"444444444444444444444 X###X##$$#44",
"444444444444444444444 X###XX$$$#44",
"444444444444444444444 X##X44X## 44",
"444444444444444444444 ##$$44444444",
"444444444444444444444 #$$$ 4444444",
"44444444444444444444 X#$$$# 444444",
"44444444444444444444 X#$$$$X444444",
"44444444444444444444 X#$$$$X444444",
"444444444444444444444 X####X444444",
"444444444444444444444 X ###X444444",
"4444444444444444444444 XXX 4444444"
};
