/* XPM */
static const char *exit_button_xpm[] = {
/* columns rows colors chars-per-pixel */
"487 153 248 2 ",
"   c None",
".  c #010202",
"X  c #0C0300",
"o  c #050806",
"O  c #0B0B05",
"+  c #04060A",
"@  c #09070B",
"#  c #060A0B",
"$  c #0A0D0C",
"%  c #130300",
"&  c #190400",
"*  c #130D02",
"=  c #1A0C01",
"-  c #110E0B",
";  c #170D0B",
":  c #0D1204",
">  c #0D110D",
",  c #081309",
"<  c #131304",
"1  c #1B1302",
"2  c #1C1904",
"3  c #12120C",
"4  c #1A150B",
"5  c #15190B",
"6  c #1B1A0C",
"7  c #141904",
"8  c #0C0E11",
"9  c #080D12",
"0  c #110E13",
"q  c #160D17",
"w  c #0D1112",
"e  c #0D1518",
"r  c #121413",
"t  c #1A1412",
"y  c #151915",
"u  c #1B1A14",
"i  c #131519",
"p  c #151A1B",
"a  c #1A1D1C",
"s  c #1A1419",
"d  c #211401",
"f  c #231B02",
"g  c #251A08",
"h  c #231B15",
"j  c #281305",
"k  c #1D211E",
"l  c #19201C",
"z  c #1E230F",
"x  c #2A2207",
"c  c #362603",
"v  c #26221B",
"b  c #3B3202",
"n  c #161E21",
"m  c #1A1E21",
"M  c #1D2224",
"N  c #1E2629",
"B  c #1F2827",
"V  c #212525",
"C  c #242827",
"Z  c #222629",
"A  c #242A2C",
"S  c #292D2D",
"D  c #282A27",
"F  c #2D312E",
"G  c #27302F",
"H  c #31332E",
"J  c #262E31",
"K  c #292E31",
"L  c #2A2E32",
"P  c #2B2E37",
"I  c #2B3234",
"U  c #2E3539",
"Y  c #333534",
"T  c #353936",
"R  c #393936",
"E  c #31353B",
"W  c #343A3B",
"Q  c #3B3C3B",
"!  c #393733",
"~  c #483802",
"^  c #403F3C",
"/  c #3E413D",
"(  c #594A01",
")  c #564B04",
"_  c #675708",
"`  c #675712",
"'  c #675005",
"]  c #76670F",
"[  c #41423E",
"{  c #494C3E",
"}  c #504F3D",
"|  c #796830",
" . c #363A42",
".. c #393D43",
"X. c #353942",
"o. c #3D4245",
"O. c #3D4243",
"+. c #3D414A",
"@. c #434442",
"#. c #464945",
"$. c #414649",
"%. c #45494C",
"&. c #494C49",
"*. c #494B46",
"=. c #4E5149",
"-. c #5B5D4C",
";. c #555748",
":. c #494E51",
">. c #585B56",
",. c #4D5252",
"<. c #5E6252",
"1. c #5C605D",
"2. c #5C604F",
"3. c #626554",
"4. c #666A59",
"5. c #696D5C",
"6. c #646757",
"7. c #666756",
"8. c #656765",
"9. c #777977",
"0. c #707367",
"q. c #5E615C",
"w. c #887717",
"e. c #8A782B",
"r. c #887845",
"t. c #7D817E",
"y. c #AA991B",
"u. c #AE9713",
"i. c #9A882F",
"p. c #AA9924",
"a. c #A48C37",
"s. c #A99636",
"d. c #B39B3B",
"f. c #AE9824",
"g. c #B7A33A",
"h. c #B5A424",
"j. c #9E9016",
"k. c #D9BD0C",
"l. c #DCBD13",
"z. c #DABB17",
"x. c #CAB805",
"c. c #E3BD15",
"v. c #E4BD1B",
"b. c #EABE1C",
"n. c #E8BB16",
"m. c #E2BC0D",
"M. c #D6BC37",
"N. c #CBB32D",
"B. c #E7BD22",
"V. c #E0BE38",
"C. c #DBC40C",
"Z. c #DDC314",
"A. c #DDC519",
"S. c #E3C60C",
"D. c #E4C415",
"F. c #EAC415",
"G. c #E5C31B",
"H. c #EBC41D",
"J. c #E4CA1A",
"K. c #ECCA1C",
"L. c #E5CA16",
"P. c #F1C61D",
"I. c #F2CA1D",
"U. c #F2C618",
"Y. c #EFD21B",
"T. c #DDC325",
"R. c #D9C33A",
"E. c #C8C43E",
"W. c #E5C422",
"Q. c #ECC522",
"!. c #EDC923",
"~. c #EDC52A",
"^. c #EDCB2A",
"/. c #E5C827",
"(. c #F1C623",
"). c #F2CA24",
"_. c #F2C52B",
"`. c #F3CB2A",
"'. c #F9CC28",
"]. c #EBD327",
"[. c #F4D224",
"{. c #F9D62B",
"}. c #F4CB32",
"|. c #EBD538",
" X c #F8D936",
".X c #E8CA37",
"XX c #FFE232",
"oX c #FDE63B",
"OX c #FDE12C",
"+X c #B49D42",
"@X c #B99E42",
"#X c #AB9948",
"$X c #BAA443",
"%X c #BBA746",
"&X c #BBAB4F",
"*X c #988F63",
"=X c #C1AA48",
"-X c #CAB54F",
";X c #C9B76A",
":X c #D7C755",
">X c #F4DC43",
",X c #F9DC48",
"<X c #EBD655",
"1X c #FDE444",
"2X c #FFEB44",
"3X c #FCE44B",
"4X c #FEEB4C",
"5X c #F5E248",
"6X c #FDE552",
"7X c #FEEA53",
"8X c #FDEB5B",
"9X c #F9E55A",
"0X c #FFF159",
"qX c #F7EA53",
"wX c #DBCA69",
"eX c #E2CD64",
"rX c #E8D566",
"tX c #EEDA70",
"yX c #FCE864",
"uX c #FFF467",
"iX c #FAE976",
"pX c #FBF073",
"aX c #7F8481",
"sX c #878A87",
"dX c #8D918D",
"fX c #93968E",
"gX c #9A9E9A",
"hX c #969994",
"jX c #8E9291",
"kX c #9DA29C",
"lX c #9EA294",
"zX c #A2A59B",
"xX c #A6AA9C",
"cX c #A9AC9E",
"vX c #A1A497",
"bX c #9EA3A1",
"nX c #A5A9A3",
"mX c #AAADA3",
"MX c #A5A9A5",
"NX c #AEB1A4",
"BX c #ADB1AB",
"VX c #B1B4A6",
"CX c #B3B6A9",
"ZX c #B7BAAC",
"AX c #B7BAB4",
"SX c #BDC0B7",
"DX c #E1DA9A",
"FX c #CED2CB",
/* pixels */
"                                                                                                                                                                                                                                                                                                                                                                                                                                                                                                                                                                                                                                                                                                                                                                                                                                                                                                                                                                                                              ",
"                                                                                                                                                                                                                                                                                                                                                                                                                                                                                                                                                                                                                                                                                                                                                                                                                                                                                                                                                                                                              ",
"                                                                                                                                                                                                                                                                                                                                                                                                                                                                                                                                                                                                                                                                                                                                                                                                                                                                                                                                                                                                              ",
"                                                                                                                                                                                                                                                                                                                                                                                                                                                                                                                                                                                                                                                                                                                                                                                                                                                                                                                                                                                                              ",
"                                                                                                                                                                                                                                                                                                                                                                                                                                                                                                                                                                                                                                                                                                                                                                                                                                                                                                                                                                                                              ",
"                                                                                                                                                                                                                                                                                                                                                                                                                                                                                                                                                                                                                                                                                                                                                                                                                                                                                                                                                                                                              ",
"                                                                W N M Z M M Z M Z V Z M N N N N Z Z N M N Z Z Z V Z Z Z Z V N M N M Z Z A A A S A S A Z A Z Z Z A Z Z A A A A A A A A A A Z A S A A Z Z Z A A V Z A A A A A A S A K K S A S J A A A Z Z A K K K K A I Z K M A A K A K Z K A K S Z I I A Z S K A K I K S K I I S I K A A S K K S I K I I J K I K K J A S K I K K K I E I I U U I I K I K S K Z S Z V K M I K U A I I I I I K K K K A K I S K I K K A A K I K S K U I K K K I K K A I K K K A K A I S A I I K K K K A K K Z K U Z A A S A A K K A I A A K I A A J K S A A A S J A A K Z A I A A K K I K A Z A K S K S C A K S A K A K S A A K A N I K S A A S A A I K K A N K Z I Z A K K A C A K A A A A Z K K Z A S A Z Z K I S A Z I Z E A Z A A S A Z Z A S K Z A K K J A Z Z A Z C A A A A A Z K A Z S A Z A A A A Z Z N Z C N Z Z Z Z M m N V M M N N M N M M M a a M   M M M M M M a a a a M a a a M V M a M a M a                                                                       ",
"                                                              Y >.W K U S K I A U E E I U E E E W W E U U E W W W W E E U E E W E E E W W W E E W W W W W W W W ..W W W ..W W W ........W W W O.$.$.o.....o.O.W ..O.o.o.....o.$...o.$.o.O.o.o.O.o.......o.$.%.%.o.W :...:.W %.$.$.o.o...o.o.o.o.W %.:.$.o.%.%.o.o.$.$.....%.$...:.%.o.o.o.%.:.%.%.%.:.%.o.o.%.o.%.$.o.$.%.%.%.$.o.%.%.o.o.%.%.%.$.o.%.o.o.$.o.$.o.o.%.W %.o.%...$.$.$.$.o.o.o.O.%.o.%.:.o.o.%...$.o.o.%.%.$.o.$.:.%.o.o.$.%.$.o.o.%.$.%.%.o.%.o.%.O...$.$.O...o.$.o.$.o.o.%.:...o.o.o.o.$.%.$.o.%.o.o.%.:.$.o.o.%.%.$.o.$.$.%.%.O.%.O.$.,.%.$.%...$.%.%.%.%.o...$.o...o.%.%.$.%.$.%.%.$.$.%.$...:.%.$.$.$.%.%.$.$.o.%.%.o.%. .o.o.o.%.%.o.O.o.%...o.o.O.O.$.$.W W o.$.O.O.$.%.o.O...:...,.$.O.o.W ..o.o.o.o.O.W W ..%.$.:.....W o.o.o.o.o.........$...W $.o.W o.....W W W E W W I E E W E I K I W U I U Y U U I Y Y Y Y Y Y Y Y Y I I K K S I Y S C C S I I K S S S S Z S %.W                                                                 ",
"                                                            r r E :.N n m M p M M m M N M n n M M M m M p A M J M m M p M m M M n N M M M M N n M N M M A p N A p p N m Z p N Z m m M A N n Z M J N M M M A M N Z M A A M J N M N Z n N J M p M N M J n A n S p M I p Z A A N I A N M A J N A A A A N M M J p A I M J M I S M I J n J N p N U M J A A A N J M A A N A J A A A A A A Z A S U M J I J N A N N A A p S U A A N N N N M M M A A N A Z A N J N N A A A S A J N A A J J J n A N J Z M A A A J A A A N M J A S A N M I N A N J N A N J A N A N J A I A N J I I A N n S N A A A A J n A A A N A A Z A M A J M J J Z N J J A A A Z A S A A n I J M N N J N N A N J M M M A A M N A M S n N Z M N J J A n A I A M N N M n A A N A M M A N p A M Z n n N N S A M M N S p A N Z N M M N N A M p m A M A N M N M Z Z m m Z M M Z i Z M Z M m N M A M Z K M p V N M p M p M M M p N p p N p M a p p p a M M M p a a a r M r r p p M p Z W W W                                                               ",
"                                                          $ p w w %.W Z Z n J M A M M A A Z A K M Z A J A A M M A A A N A A K A N I J J A Z J J N N N M J A J J A K Z A A J A M K I K A Z A I Z A I M I A A W J I I I J M W U J A W I J A J J E W I A I I U I I I O.N I J N J I A U A U S W I A U W Z I I J E I I J W A J U E U J J J W W S W A W U I I I U I U U U S U S I J E I J J I J U J J I I J I I I E W I U J U U U I  .J U U J I E I J W I J J U S U S I I A I I W J J J I U W I U J I W J J E U J I U J U I I I I A U I U I U I I J I W I U I W A A U I I I M I U W I U J W J J J U U J U A I U A I A U W I U U J I U U I U U U I I I U I W J U W U I U I I J U J J J I I U I U J U I M I I I J A I J I U I I I J I I I J J I U I I A I N A A I A S I I N J I J U J A I I N J J U A S K Z J K N J A J A Z A I A J K A M I M A M A A N Z A Z M M M Z Z C N I C M Z S a M Z N Z M M V V N M M M M M M M M M N M N M M S p S p M W S p U I                                                             ",
"                                                          p a r + N o.I N N A M N m M Z J J A A Z A A A K Z A Z A A Z A Z J A A N J J A N N J A N A I A A A A J M J N K A I I A A A A K A A I K M I A Z I Z J J S A A I A I N J N I J J Z J I J I U A U A J A W N A J I I J A I I I A I U I I I U J A I I J U J I I W S A I  .A U I J A I J I W I J J I J I A J J U I  .U W J I I  .J J W I A U A I A A A N A A Z J A I I U A A S I I A N J J N U J J J U I W U A I J U S I J I J J W I J I J U I I J J I J I U A I J I I U J I J I I U I U J I I A W I J U W U J J S I I J J U I A W I A J W J A A I J I U J I W I J I I J U J U J J I U I J J J I A M I U S A I J J J U I U W J A U I J A J I Z U J U I J U J S A Z J A N J I J A J A I J J J A A I M A I J A I A J S A J A N J I A I A J M A J A I J M A N I N N Z I A J A N M I m Z A Z M A A A M S K N A Z M N K M N A Z M Z S Z A M M N Z M m m m m M M M M m M p Z p p Z p M n J U M a V I Y                                                           ",
"                                                        a p p r e # K  .M Z M N N Z Z Z A K A M A A Z A A Z K A J A Z I J A Z J J J A A A J J A A J E J N A M Z Z A J A A A A Z J J K U K Z A K I N I I I M I N N A Z U J J M A I J J U U J I S A I I I A S N I I U A I I N W I N W A I M W I A U A J I I I J J J J I J I J U N N  .A I U A W S I I I U I U J I I J I I J J I U U o.I J W U S W J  .E U W U U W I U W J I J U I W I I U I I U W I I I U A J I I I J J I U U U I W J I A A I A I M W J N W U A W I U I I I U J J S J J I I J J I A I U M A E A I J U S I J W I A J J U W A U U A A U A I U J U I U J I I I I W I I J A I I I J I J I N J J J S U I U I I U I I I I S U I I A I I J I N J U J U N I J J U J A I I J S U A I J A U J A J I S I Z I N I A Z J I A U J I I J J A Z A J A I A A J N U Z S Z I N J N Z I N m I Z N A N I A M Z S Z A A Z M Z M A A M A A M Z Z M K m Z M M M M M M N N M M N p Z M m M A N J U M p N w m I I                                                         ",
"                                                      r p w w r i i w W W M N A A A Z M M Z A Z A K Z K A Z A N A K K I S K A J I S A A J I J A J A J A A U A N E Z K A K U Z Z K I I A Z A S K A W M W U N Z J Z U J J N U I A E Z K K I M I K I K I K E U A S W I W S I I J U J N S I W N J I J U A E W U J U A I J I W J U I I S W S Z U S I J I J I J I U W U A I I A J W I W A W U A I I J A W U I W U I U U J U U U N J U U A J U I A J U I I U W J I I I I J U J W I E I W J J I J W A J U M I o.J J W J S I I I I U I I U I I U U A A E E N I I S U I J K I I Z K K W K J U K I A I I I I J E A J E A K A Z I K A A I I K I I I I A K W P U A W A I K E J I I I I I J I J J S I U S U J J I A I I S I A J S A J A A J N K K W I E K Z I I I Z U I I K A M U K I I I Z I K I K Z K I K Z J Z S N A I A I N J Z I N J N S Z I M Z A A Z Z A Z K A Z Z V A I m N A M A A Z Z M Z N N I M A Z A Z N M M M M M M Z m Z Z M Z N N J N M N N M a r S Y                                                       ",
"                                                    y p w $ w w w p 8 M %.W M A A Z N A A Z Z K A J A K S K S A M K K A Z K S Z J A S A A S Z S J S S A N I I S K Z A K S E Z E A A Z N A K Z A I n J A E n I A S U J A N I I S K Z Z Z K Z I Z K Z A I I I Z I N J A I W S I S J U S I S U U U A I J I I W N W A W I J I A I I Z Z J  .U S J A N J J U J S J I I J J  .A U U J I N U I N U J J J U I I U I J J A J I W I U I J I J I I I J J J J A I J I U U I A J W J U N I I I J J U J W A I U I I I J J J J Z S A I J I I I I J J I U A J W I J I A W W J E J J K I A m I W A I K Z I K I I I I K K K K E K U K I I U E I I K I A J I K A K A I A U M U A A A J A J J I J J J J Z J I N I N I I J I I J I I A J J J J I I A I K A S K K Z A Z I K A K A I N Z K S K M A A Z M J Z A N I Z A I Z N M Z A A S M A Z J Z S N S m I M M K Z M K Z Z I S A K M M A Z M Z M A A m Z A Z Z Z M Z Z Z Z Z M M N M M Z M Z N M m M A J J S M M M w M p p a S I                                                     ",
"                                                  p p r w $ r w p w w 8 K ,.A Z Z A S I I K K K K A J Z S K K I A K I A S K K Z I S I J A A A J A J J I N S I S A K K I A A A I I S K K E K M A J A A I N W p U I J J I I J U I I I K I I I U A K Z I I K I A U U I U A I I N U U I S J I A U W J S I J S W N E J U I S A A J J U I I U A J I  .I U I  .W I I J U U S I Z U I U J U U U I W S U S I J U U U U U A I I J N U U J I I U I I I I J I S U A J J J A E I I I W U I Z U U I U I I I W I E I A J U I J U U I U J I J S J A S A U J I U I I W I I I U S I E A E K E E A Z U I K W K I E E A W I A W E U E A A K I E A K I U A A E E S A K E I I K W A I U W I I S J Z Z I I U I I S U A U S A S J I A J N I S A J J I A E I Z K A I K A I A K I I N A I A A A Z A S W I Z I A I Z S Z I I A A A K A I A Z K A A S S A I K M A W Z N W A I K A Z Z K A A A E N Z A A A Z A A J Z A n Z M Z Z Z Z Z A A Z A M K Z V M A A Z M M N M M m M p V p r I S                                                   ",
"                                                  y $ w w w r w p w i p + %.Q V M S S V V I I Z I Z I N K A A A W J A J I A A A U J I J J J A J A J A W I I U A J I K K W A W K Z K E A K U P W I J I J A S A A I J J S J J  .J I W K E M Z A U U A W J K E K Z K U I I E J A U A W P W J U K A K E A K A Z E A E J J I I E E K A  .S I J A U U I I A I J J I I J U I J E U A I J U K W J U I J I I I U I J I J K I  .U I J E I K I J S I I I U K J I I Z I K U E U K I K U K J E U I U I A K J I J A J U U I W I J J U I I I I U U I A E U E I J J U I W A U W I J J W W Z E I A E P E K J I W I A E I N J I A I I I U I I A W A E I A J K J E J K K N I I N ..A I K I K I A J M N I A A S I J U A I J A J Z I A U K J K J K K K I Z W A K K A I K K J A E K K K U I M W A I A W I A A K A A I A A A I I Z E A K I A N A Z Z J M E Z M I K A A Z L A K A Z K K K L m I Z M U A P M U m J Z N Z M Z M M M Z Z m Z p L m Z A E m Z A N Z A N M p N p p p p S I                                                 ",
"                                                r w w w r r i w w p p p w a >.,.Y Y Q R H H ! H ..E E W  .E E E U  .U E E E  .J U U E I  .E J ..K E W W I P E W ..W X.U W P X.E E P ..U L ..W  .U P  ...E  . .E o.W I ..E ..U  . . .E  .U  .U I U U P U  . . ... .E E  .E ..E X.E +...U X.E P U  .X.E X. . . . .......X.X. .....E +.U .. . . .I  .+.I  .+.+...I X.+.E +.E +.E X.E ....X. ... .P X.E E U E  . .P  . ...X... ...E .. . . .X.E E  .X.E U  .$.U  ...U +. .E ..X. .U E E U .. . . .+. .+.+. .U U  .....U U  . .P U ..U X...P +.U E U .. . .E .... .X.........E  . .U E ..P  .X.P ..P ......U .. ...E  .E +. .U ..P X.U E U .. .J U E  . . ..... .X.E E U U $... .P X.X... .X.E P E  .P E  . .....E P E E  . .X.E U E  .U +.E E .. .E U  .U E ..J E E P P  .E U U L X.P  .L U U W P W  .P U Z E U U J  .P U X.E  .X.J P E E P L L P E L E Z E P E E E L W A P E P X.L X.E E L P E P P A P L P L L P A L P Z Z L Z Z I I Z J p m N m N i p M p p a S G                                               ",
"                                              w $ w r r w w w e w p r p r w r C $ . . . X X O X . . . + + . . + # # # + + # # . . + + + # # . # $ # . + # # # . $ + + + # @ $ + + + @ o . $ $ @ + + + + + . w # + $ + $ . + + # . + # # + + + + # 8 . + + . + 8 # + # + + + + # # $ 8 # # # + + + + + + $ 8 8 + . + # + + + + + + + # + # + # + 8 + # # . + + + 8 + . 8 + 8 # . # $ # # # # # + 8 8 + 8 i # . w $ # # 8 # + + + $ + # # $ $ # $ + 8 8 + # # 8 + . 8 $ . . # w + + # # 8 # $ # $ + 8 . # 8 # w . 8 8 # # 8 r 8 + . 8 + # # w # w + # # + # # + + # . # + # + # + + 8 . + + . i 8 # . + . $ + # + . . 8 . $ + # # 8 8 + 8 8 + # # + . + . $ # 8 $ # w # # . $ # # # $ + # # # 8 # . # + + # # # # # # . + + . # # + + + w # + + + + + + # $ # + $ $ . # + + # . # + # + . # # + # + # 8 # + + + # # . + + . . # $ . . . . + @ o . . @ . $ o + + . + + . . . o + o $ o . . @ @ + + . @ + + + . + . + # . # . $ y C V G M M M M Z M m N m p N p p G S                                             ",
"                                            8 w 8 8 w w w w w w r $ p M r + y dXMXMXBXBXmXmXmXxXVXVXCXZXCXNXmXVXZXxXNXxXcXAXcXxXCXAXZXVXcXcXxXhXmXmXcXcXVXCXCXcXVXNXcXVXcXVXcXcXZXAXmXmXNXmXZXVXcXVXZXZXSXcXCXvXcXZXVXCXcXmXVXVXcXcXCXCXVXmXCXZXvXCXmXSXSXcXmXxXVXmXVXmXCXVXZXZXmXzXNXVXxXcXNXxXvXcXNXcXxXcXNXNXmXNXVXVXVXVXVXNXCXNXSXNXVXCXNXCXCXcXSXNXhXNXVXmXCXlXNXCXcXxXCXmXxXxXxXxXxXzXxXNXcXxXmXNXxXxXmXcXxXxXzXNXxXzXzXNXmXxXxXcXmXmXzXxXxXxXmXcXzXxXzXzXzXxXCXNXvXcXcXlXzXmXNXxXxXxXcXzXzXZXxXCXCXxXZXxXfXxXVXxXlXlXxXxXxXVXvXCXxXCXxXCXxXNXmXxXxXxXxXcXmXzXcXxXZXzXcXmXxXNXVXVXcXxXVXNXCXmXVXVXZXmXNXVXxXCXxXCXcXmXNXmXCXVXxXNXCXNXVXmXNXcXNXcXZXNXZXZXZXCXNXZXmXNXmXCXZXNXcXNXNXNXVXxXcXNXmXxXxXcXNXCXmXNXxXNXVXxXVXNXzXZXmXCXcXzXcXlXVXmXCXVXNXZXxXCXBXnXmXmXCXAXCXAXnXmXmXxXCXmXVXCXmXZXZXZXxXmXxXVXcXmXZXZXmXcXCXZXCXNXmXVXZXAXCXmXZXAXVXZXVXNXmXcXCXmXCXmXcXmXxXCXmXVXmXVXvXfXnXAXcXVXcXxXmXcXmXcXhXfXNXxXzX*XFX! # Z Z V A Z Z N m M M m p p p a S S                                           ",
"                                          y w $ r w 8 8 w r i w r M w 8 # # gXBX=.8.0.8.3.>.>.-.-.-.3.<.-.;.;.-.3.} ;.} ;.7.;.} ;.-.-.-.-.-.3.;.<.3.3.<.-.;.;.;.7.7.2.3.-.3.-.-.-.3.-.3.6.-.-.;.3.7.-.;.-.;.<.2.;.3.;.-.;.-.3.-.-.;.2.-.-.;.3.3.-.3.=.;.3.;.-.3.6.2.2.;.<.<.-.-.<.;.<.3.-.-.<.-.=.3.0.0.5.7.<.-.7.6.6.3.3.7.7.3.3.3.0.5.3.5.-.6.4.3.0.3.;.0.4.-.6.-.6.6.<.;.4.3.7.3.3.7.7.3.6.0.;.-.6.<.=.2.5.;.3.3.3.5.7.3.7.0.5.6.6.6.6.6.3.3.5.2.3.0.3.3.-.5.5.7.5.5.-.3.-.3.3.6.5.<.3.3.4.3.;.5.3.5.3.;.5.3.5.<.;.-.7.5.3.-.3.7.<.6.3.3.-.3.<.3.3.-.-.-.<.3.;.;.-.<.0.3.3.6.<.3.5.5.3.2.-.-.5.3.6.6.5.<.<.3.3.5.3.3.6.-.6.<.5.5.3.6.5.5.5.6.0.0.0.6.5.<.<.-.6.<.-.5.6.-.;.3.5.3.<.3.<.3.6.;.3.3.<.-.-.-.3.6.<.<.-.5.0.<.6.<.-.0.6.2.<.;.3.;.<.;.<.-.;.<.*.-.-.-.-.-.-.-.-.6.-.-.3.-.4.3.4.4.6.5.6.5.-.3.-.3.;.;.<.3.-.;.-.-.3.<.-.-.3.3.<.-.-.-.=.-.=.;.;.;.-.;.<.-.;.;.*.-.-.;.*.-.3.;.=.*.;.-.;.;.-.;.;.;.-.6.{ =.=.v 6.NXR + W p M A m m p m m M p M M p p I V                                         ",
"                                      p r w r $ 8 w r r w w r i r y p # # 0.9.o . X X . . . . . . . . . . . . . . . X . . . . . . . . X . . X . . . . . . . X . . . . . . . . . . X . . . . . X . . . . . . . . . X . . . . X . . . . . . . . . . . . . X X . . o . . . . X . . . . . . . . . . . . . . . . . . . . . . . . . . . . . . . X . . X . . . . X . . . . . . . . . . . . . . . . . . . . . . . . . . . . . . . . . . . . . . . . . . . . . X . . . . . . . . . . . . . . . . . . . . . o . . . . . . . . . . . . . . . . . . . . . . . . . . . . . . . . . . X . . . . . . . . . . . . . . . . . . . . . . . . . . . . . . . . . . . . . . . . . . . . . . . . . . . . . . . . . X . . . . . . . . . . . . . . . . . . X . . X . . . . . . . . . . . . . . . . . . . . . . . . . . . . . . . . . . . . . . . . . . . . . . . . . . . . . . . . . . X . . . . . . . . X . . . . . . X . . . . . . . . . . . . . . . &.MXA w G U M Z Z m N p M Z M i N p w S S                                       ",
"                                    a r $ w $ r $ w w r r r w w p r $ . 9.t.$ @ a y $ o $ $ @ $ $ $ @ $ $ $ $ $ @ $ $ r $ @ - $ $ o o $ @ o - $ $ $ O $ o o o . @ o $ $ $ @ $ $ o o $ $ $ $ o @ $ o $ $ o $ o $ o $ o $ @ X @ $ $ o @ $ $ $ $ o $ $ r @ o $ @ $ o # @ $ o r @ r $ $ @ @ w $ @ > $ $ $ r r $ @ @ @ @ $ $ $ $ $ $ $ $ @ @ $ o r @ @ $ o o $ @ o $ o $ @ @ $ $ @ $ $ $ $ $ $ $ $ @ $ # @ > $ $ $ $ $ $ $ o $ @ $ @ # @ w $ $ $ @ $ $ > w $ @ w $ $ o w $ @ w r # @ @ @ $ $ $ @ $ $ $ @ $ $ $ $ @ @ @ $ $ $ @ @ @ @ $ @ o $ o @ @ $ @ $ $ $ $ $ @ @ 8 r $ $ @ $ + + 8 # $ $ $ 8 $ $ @ $ $ @ @ @ $ $ # @ @ $ . w o $ @ $ $ $ $ @ $ $ $ $ @ @ @ @ @ @ + w w + + r 8 + @ @ $ 8 + + 8 $ + $ $ $ 8 $ @ @ 8 @ $ $ $ $ + $ # $ @ $ $ 8 @ $ 8 @ $ # $ + 8 @ o o o o $ $ o $ $ $ O $ X o X o o o $ # $ $ @ @ @ @ @ @ @ @ $ $ + @ $ $ $ 8 8 $ 8 8 $ 8 $ + + + $ 8 @ 8 8 @ 8 8 + + 0 8 8 0 + $ $ $ 8 $ 8 8 $ 8 w 8 $ r $ i i . @.MXC r a I Z m Z Z m m m m p M p M p I S                                     ",
"                                  M w w w # w r w 8 8 w r i r w r r . 8.0.> o y a p $ $ $ @ @ $ $ $ $ # # # # + 8 # # 8 8 $ 8 # w # # # # # # # + $ @ $ $ $ w 8 $ @ 8 $ $ @ 8 $ 8 $ $ + + $ $ $ 8 # $ $ $ # $ # # # # $ # + # $ $ $ $ 8 $ 8 $ + $ # 8 8 + $ 8 8 $ 8 0 8 + $ @ $ $ 8 $ @ 8 8 @ 8 + $ $ $ + + $ 8 # # # $ $ $ $ # 8 9 # + 9 + 8 # + w 8 + # 8 $ $ + 8 8 $ 8 @ + 8 $ $ $ $ $ 8 8 8 8 + 8 r $ 8 i $ $ $ $ @ $ 8 8 $ $ $ 0 8 8 8 @ $ 8 8 $ 8 r $ 8 8 8 0 $ . + @ 8 $ $ 8 8 8 8 8 $ $ $ $ 8 8 $ 8 $ 8 $ 8 8 8 8 8 8 $ 8 8 $ r @ 8 8 8 $ 8 $ $ 8 8 @ @ @ + $ + $ 8 r 8 8 $ $ 8 8 $ 8 @ 8 8 $ $ @ @ + + $ + r + 8 + $ @ $ + $ $ $ @ + $ $ @ $ $ 8 $ 8 8 + @ $ $ $ @ + + $ 8 $ 8 $ + $ $ + $ $ $ 8 8 @ $ $ $ $ 8 8 $ $ $ + 8 8 8 + 0 $ + 8 $ $ $ + + $ + $ 8 @ $ 8 8 $ @ $ $ $ 8 + $ @ $ @ @ 8 $ 8 $ @ + + $ $ 8 8 $ @ 8 + $ $ $ 8 8 8 $ $ $ 8 8 8 8 8 8 $ 8 + $ 8 $ 8 $ 8 8 8 + + $ $ 8 8 $ 8 8 8 w 8 8 w 8 8 $ i 8 8 8 . / BXS y V Z C Z M M p p m Z p p N l w I S                                   ",
"                                M w w w $ w w w w w w w w w r p $ . >.sX> $ y y y y @ o $ r $ $ 8 w 8 8 8 8 8 8 8 # w w 8 8 8 w r $ w $ $ w $ $ w w # $ w $ w # w 8 $ $ $ $ 8 $ $ @ $ 8 $ 0 0 + $ $ $ $ w + p # w $ w $ w w $ $ # 8 8 8 + 8 8 8 w # # w 8 $ w # 8 $ 0 @ 8 8 8 $ 8 8 8 8 $ 8 8 $ $ 8 8 $ 8 r 8 # 8 8 8 8 8 8 8 8 # 9 $ w 9 w 9 w w $ 9 $ 9 9 + 8 r $ 8 $ r $ $ $ 0 8 $ 8 8 $ 8 8 $ 8 $ $ r 8 @ 0 8 8 $ 0 8 r 8 8 8 8 8 $ 8 0 8 8 8 8 $ $ i $ 0 8 r 8 8 r 0 @ i 8 8 8 $ 8 @ 8 8 8 8 8 $ 8 8 8 8 8 8 $ $ 8 8 8 $ 8 $ $ 0 8 8 8 0 $ 8 r 8 $ 8 8 8 8 8 @ r 8 r $ r @ 8 8 8 0 8 @ 0 8 8 8 $ 8 8 8 $ $ + 8 8 8 @ 8 8 8 0 @ @ $ 8 8 $ 8 $ + 0 $ r + $ + 8 8 8 8 $ @ $ 8 8 8 $ $ 8 8 8 8 8 8 8 $ 8 8 8 0 @ 0 + 8 8 + r 8 0 + $ 0 0 + 8 8 8 @ 8 8 + 8 $ $ @ 8 $ $ 8 $ 8 8 $ $ 8 8 8 8 8 8 8 $ 8 $ $ 0 8 $ 8 8 $ $ 8 8 $ 8 8 8 8 $ + $ 8 $ 8 $ 8 $ 8 $ $ 8 $ 8 8 $ 8 8 8 # 8 8 + 8 w $ 8 $ 8 $ w 8 8 8 8 8 8 $ 8 8 $ i w i $ . &.MXC y S M m M m p A m n N N p p p p S V                                 ",
"                              a p w 8 $ 8 w w r 8 w w w p r p w . >.hXp o y y y k r @ o @ $ @ @ $ $ $ $ $ $ $ $ $ $ $ $ $ $ > $ > > > $ $ > > > $ > > > > $ $ $ $ @ @ $ $ $ $ $ $ $ $ $ $ $ $ $ $ # $ $ > $ $ $ $ $ $ > > > > > $ $ $ > $ $ $ $ $ $ $ > > w $ $ $ $ $ $ $ $ $ @ $ $ $ $ $ $ $ $ $ $ $ $ $ $ $ $ $ $ $ $ $ $ $ $ > > > $ $ $ $ $ $ $ $ $ > > > > $ $ $ $ $ $ $ $ $ $ $ $ $ $ $ $ $ $ $ $ $ $ $ $ $ $ $ $ $ $ $ $ $ $ $ $ $ $ $ $ $ $ $ $ $ $ $ r $ $ 8 $ $ $ $ $ r $ $ $ $ $ $ $ $ $ $ $ $ $ $ $ $ $ r r $ $ $ 0 $ $ r r $ $ $ $ r r $ $ $ $ $ $ $ $ $ $ $ $ $ $ $ $ $ $ $ $ $ $ $ $ $ $ $ $ $ $ $ $ $ $ $ $ $ $ @ @ $ $ $ $ @ @ $ $ $ $ $ $ $ $ $ $ $ $ $ $ @ @ $ $ $ $ $ 0 r $ $ $ $ $ $ $ $ r $ $ $ $ $ $ $ $ $ @ $ $ r $ $ $ $ $ $ $ $ $ $ $ $ 8 8 $ $ 8 8 $ 8 8 8 8 8 8 8 $ $ $ $ $ $ $ $ $ $ $ $ $ $ $ $ $ $ $ $ $ $ $ $ $ $ $ $ $ $ $ $ $ $ $ $ $ $ $ $ $ $ $ $ $ $ $ $ $ $ $ $ > > $ $ $ # o @ $ $ $ w r > r . Q MXV # S N p Z M p Z m p p p p p w e Z Z                               ",
"                            V r w w 8 w w w w w 8 i w p p a # # >.t.o . y a a a @ . . . . . . . . . . . . . . . . . . . . . . . . . . . . . . . . . . . . . . . . . . . . . . . . . . . . . . . . . . . . . . . . . . . . . . . . . . . . . . . . . . . . . . . . . . . . . . . . . . . . . . . . . . . . . . . . . . . . . . . . . . . . . . . . . . . . . . . . . . . . . . . . . . . . . . . . . . . . . . . . . . . . . . . . . . . . . . . . . . . . . . . . . . . . . . . . . . . . . . . . . . . . . . . . . . . . . . . . . . . . . . . . . . . . . . . . . . . . . . . . . . . . . . . . . . . . . . . . . . . . . . . . . . . . . . . . . . . . . . . . . . . . . . . . . . . . . . . . . . . . . . . . . . . . . . . . . . . . . . . . . . . . . . . . . . . . . . . . . . . . . . . . . . . . . . . . . . . . . . . . . . . . . . . . . . . . . . . . . . . . . . . . . . . . . . . . . . . . . . . . . . . o O > r r r w + Q BXW $ V S i Z M M m Z M M e p M e M U S                             ",
"                          M $ r 8 $ 8 w w w w w w w p w a $ $ >.8.y o a y p y r . . . . . . . . . . . . . . . . . . . . . . . . . . . . . . . . . . . . . . . . . . . . . . . . . . . . . . . . . . . . . . . . . . . . . . . . . . . . . . . . . . . . . . . . . . . . . . . . . . . . . . . . . . . . . . . . . . . . . . . . . . . . . . . . . . . . . . . . . . . . . . . . . . . . . . . . . . . . . . . . . . . . . . . . . . . . . . . . . . . . . . . . . . . . . . . . . . . . . . . . . . . . . . . . . . . . . . . . . . . . . . . . . . . . . . . . . . . . . . . . . . . . . . . . . . . . . . . . . . . . . . . . . . . . . . . . . . . . . . . . . . . . . . . . . . . . . . . . . . . . . . . . . . . . . . . . . . . . . . . . . . . . . . . . . . . . . . . . . . . . . . . . . . . . . . . . . . . . . . . . . . . . . . . . . . . . . . . . . . . . . . . . . . . . . . . . . . . . . . . . . . . . . o $ r # r $ @ + O.gXO.# S I p M M A m e p p M p p p p C Z                           ",
"                        V w w > w w 8 w w w w r r p $ p $ . >.9.$ $ w y a a r . . . . . . . . . . . . . . . . . . . . . . . . . . . . . . . . . . . . . . . . . . . . . . . . . . . . . . . . . . . . . . . . . . . . . . . . . . . . . . . . . . . . . . . . . . . . . . . . . . . . . . . . . . . . . . . . . . . . . . . . . . . . . . . . . . . . . . . . . . . . . . . . . . . . . . . . . . . . . . . . . . . . . . . . . . . . . . . . . . . . . . . . . . . . . . . . . . . . . . . . . . . . . . . . . . . . . . . . . . . . . . . . . . . . . . . . . . . . . . . . . . . . . . . . . . . . . . . . . . . . . . . . . . . . . . . . . . . . . . . . . . . . . . . . . . . . . . . . . . . . . . . . . . . . . . . . . . . . . . . . . . . . . . . . . . . . . . . . . . . . . . . . . . . . . . . . . . . . . . . . . . . . . . . . . . . . . . . . . . . . . . . . . . . . . . . . . . . . . . . . . . . . . . . o $ r $ y o > . W hXQ . V M p K p m M p M M w p M w p Y A                         ",
"                      M w w > $ w w w w w w w i p # M $ . 8.0.> $ 8 r y r a . . . . . . . . . . . . . . . . . . . . . . . . . . . X X . . . . . . . . X . . . . + + + . . . . . . . . . . . . . . . . . . . . . . . . . . . . . . . . . . . . . . . . . . . X X . . . . . . . . . . . . . . . . . . . . . . . . . . . . . . . . . . . . . . . . . . . . . . X X . . . . . . . . . . . . . . . . . . . . . . . . . . . . . . . . . . . . . . . . . . . . . . . . . . . . . . . . . . . . . . . X . . . X . . . . . . . . . . . . . . . . . . . . . . . . . . . . . . . . . . . . . . . . . . . . . . . . . . . . . . . . . . . . . . . . . . . . . . . . . . . . . . . . . . . . . . . . . . . . . . . . . . . . + . . . . . . . . . . . . + . . . . . . . . . . . . . . . . . . . . . . . . . . . . . . . . . . . . . . . . . . . . . . . . . . . . . . . . . . . . . . . . . . . . . . . . . . . . . . . . . . . . . . . . . . y 8 8 i @ y . &.MXF + A Z M p M M m p p M p w M M M I M                       ",
"                    M > > $ $ w w w w w w w w r 8 a $ . >.0.o o i r a a a . . o . . . . o # $ $ r r 0 r r r w $ $ $ $ $ $ $ $ $ $ $ $ $ $ $ $ $ $ $ $ 3 $ $ $ $ $ $ $ $ $ $ $ $ $ $ $ $ $ $ $ $ $ $ $ $ $ $ $ $ $ $ $ $ $ $ - - $ $ $ $ 3 3 $ $ $ $ $ $ $ $ 3 3 $ $ $ $ $ $ $ $ > > > > $ > > > $ $ $ $ $ $ $ $ r > > 3 r 3 3 r $ $ > 3 > $ $ $ $ $ $ $ $ $ > > r r r r r 3 3 3 $ $ > > > > > > r 3 > > > > > > > > > > > > > > > > $ > > > > $ > > > > > > > > > > > > > > $ $ $ > > > > > > > $ > > > > > > > 3 3 3 > > > > > $ > > 3 3 > > $ $ $ $ $ > > > > > > w > $ > $ $ > > > $ $ $ $ > > > > > > > $ $ r r r r 3 3 3 3 3 3 r 3 > > 3 r > > > > > > > > r r r 3 w > r r w 3 w $ $ $ $ $ $ $ > > $ $ $ $ > > $ $ $ $ $ $ $ $ $ $ $ > w > $ 3 r r r > r r 8 8 8 8 8 8 8 8 r w 8 8 8 w 8 8 > > > > > > > > $ $ > > > $ $ $ $ $ $ $ $ $ $ $ > > 3 r r 3 3 3 3 > > 3 r r 3 3 > r r 3 > 3 3 3 $ $ $ $ $ $ $ $ @ X . . . . . . . r 8 r r w # . ,.SXT # Z V p N p p m n M p w p M p p S m                     ",
"                  M w w $ $ w w w 8 w w w w r i i r . >.9.. o M 8 a p $ . . . . . . . + # $ $ $ $ $ $ $ $ $ $ $ $ $ $ $ $ $ $ w $ > > $ $ > $ $ $ > > > > > > > 8 8 $ $ $ $ 8 8 w w w w w w w w w w w > > w w > > > > > > > $ $ > $ $ $ > > > $ w > > > > > > > > > > w w w w w w w > > > > > > r r r r r r r w w $ $ > w > $ $ w w w w w w w > > > > > > > > > $ $ $ $ > $ $ $ $ $ > > w w w w w w w w w w w w w w w w w w w w w w w w w w w w > $ $ w > > $ $ w w w w w w w w $ $ $ > w w > $ > > w w w w > > w w w w w w w w $ w w w > > $ > $ $ $ $ w > > $ > > 8 $ 8 $ $ $ 8 $ 8 $ $ $ 8 $ $ $ $ $ $ $ $ $ $ $ $ $ $ $ $ $ $ $ $ $ $ $ $ > $ $ $ $ $ > > > $ $ $ $ $ $ $ $ 8 > w $ $ $ $ $ $ $ 8 $ 8 $ $ $ 8 $ $ $ $ $ 8 > $ $ 8 $ $ $ w $ $ $ w > $ $ $ $ w $ 8 > w $ 8 > w $ $ $ w > w $ $ $ $ $ $ $ $ $ $ $ w > > $ $ $ 8 $ $ $ $ $ 8 8 $ $ $ 8 8 $ $ $ $ $ $ $ $ 8 $ $ $ 8 8 $ $ $ $ $ $ $ $ $ $ $ $ $ r $ . . . + . . . $ # r y r y o . ,.BXp $ U B N N m Z n e n M p p w p p Z N                   ",
"                  w y w $ w w > w w w w w w i p w . 8.9.# $ M $ r i $ . + . . . . . . # @ $ $ $ 8 w w w w w w w w $ $ w w w w w w w w w w w w > w w w w w w w r w w w w r w r w 8 w 8 w 8 w 8 8 w w w > w w w w w w w w w w w > w w w w w w w w r r r w w w w w w w r w r w r w r r r r r w r r w > r w r r r > r r w r r r r r w r w r r w w w r r r r w w w w w r r r y i i i r r r r r r r w r r r r r r y r r r r r r r r r r w r w r w r r r r r r r r r r r w r w r w r w r w w w r r r r r r r r r r r r r r r r r w r r r r y r r w r r r r r r r w r w r w r w w w > > r w r w r w r w r w r w r w r w r r r r r w r w r r y r r w r r r w r w r w r w r w w w r r r w 8 w r w r r r w w w r w r w w w r w w w w w r r w r w > w w w w w r r r w > w w w w r w r w r w r w > > r w r w r r r r r r r r r w r r r w r r r r r r r r r r r r r r r r r w r r w w r r w w r r y r w r r r 8 w w w w 8 8 $ 8 8 $ + . . . . . . . $ r r > $ o . >.AXM $ S N p p M M M M w M n n e e a V                   ",
"                y r w > > w w w 8 p # r r r r $ . >.9.@ $ a r r a @ . . . . . . . o $ $ @ @ @ + . . . . . . . . . . . . . . . . . . . . . . . . . . . . . . . . . . . . . . . . . . . . . . . . . . . . . . . . . . . . . . . . . . . . . . . . . . . . . . . . . . . . . . . . . . . . . . . . . . . . . . . . . . . . . . . . . . . . . . . . . . . . . . . . . . . . . . . . . . . . . . . . . . . . . . . . . . . . . . . . . . . . . . . . . X . . . . . . . . . . . . . . . . . . . . . . . . . . . . . . . . . . . . . . . . . . . . . . . . . . . . . . . . . . . . . . . . . . . . . . . . . . . . . . . . . . . . . . . . . . . . . . . . . . . . . . . . . . . . . . . . . . . . . . . . . . . . . . . . . . . . . . . . . . . . . . . . . . . . . . . . . . . . . . . . . . . . . . . . . . . . . . . . . . . . . . . . . . . . . . . . . . . . . . . . . . . . . . . . . . . . . . . . . . + . $ $ r o i $ + . . . . . . . @ y r $ y o . >.BXa # S C M N N M N n p p p M e p N J                 ",
"              a r w $ w r r > # w w w w p w r . >.8.. > M $ i a $ o . . . . . . # r # o $ @ . C Y ! ! ! Y H S S Y Y Y Y R R Y ! R R R Y Y R R R Y ! ! ! Y Y R R R R R Y Y Y Y Y Y ! Y R R R R R R R Y R ! R Y R ! ! R ! Y Y ! Y Y Y Y R R ! ! R R Y R R R Q R R R R R R R R R R Y R Y Y R R R R Q Q R R R R R Q R R R Q R R R Q R R R Q R R R Q Q Q Q Q Q Q Q Q R Q Q Q Q Q Q Q @.@.Q Q Q R R Q Q Q / Q Q R R R Q Q Q Q Q Q Q Q Q Q Q Q / / Q / ! Q R R R R ! Q R R R R ! R ! ! R R R Q Q Q Q / Q ^ ^ Q Q Q Q ^ Q Q Q R R R R Q Q Q Q R ! R R R ! Q Q R R R R R Q [ [ Q / / Q R Q R R R Q R R R R R Q Q Q Q Q Q R R R R R R R R Y R R R R Q Q R R R Q Q R R R R R Q R R R R R R R Q Q R R Q Q R Y R Q Q R Y Y R R R R R Y Y Y ! R Q Q R R Q Q Q Y R R R R R R Q R R R R Y R R ! [ [ [ Q R R R R ! R R Y Y R R R R R R Q Q Q R R Y R R R R Y R R R R Y Q R Q R R Y Y ! Y R R R R R R Y Y R R R Y Y Q Y Q S Y o > r y @ @ y o . . . . . . + $ r r r $ $ . 8.BXp w V G M M p p p M n M M n p w M O.              ",
"            a a r w $ $ w r r w w r r p p + $ ,.8.o o a $ a a $ . . . . . . . o @ $ $ $ r . #.>./ [ [ @.@.[ / / / Q Q / [ @./ Q [ @./ Q / @.@.@.*.#.#.#.#.#.#.#.[ @.@./ Q / / Q / [ @.@.@.@.@.@.@.@.[ @.Q / Q / / [ #.@./ [ / @.@./ / @.#.Q Q @.@.[ @.@.@.#.@.@.@.@.@.@.@.@.[ [ / [ / / [ [ / @.#.@.@.@.@.@.@.@.Q Q [ @.Q Q Q @.@.@.@.@.@.@.@.#.@.@.@.#.#.@.#.#.[ @.#.#.@.@.@.#.*.*.@.@.#.@.[ @.#.@.#.@.@.@.@.@.#.#.#.@.@.@.@.#.@.@.@.[ @.#.@.#.Q @.@.[ @.[ [ @.@.@.@./ / / Q Q / Q Q / [ [ [ @.[ [ @.[ @.Q @.@.@.#.@.^ Q Q @.#.@.@.[ [ / [ [ [ [ [ @.[ [ [ [ [ [ @.[ / [ [ [ / @.[ Q @.@.@.[ [ @.@.#.#.@.@.@.[ [ [ / / / / [ [ Q Q [ [ @.@.@.#.Q @.#.@.[ Q [ @.O.@.@./ / @.@.Q @.#.@.@.@.#.@.O.Q @.#.@.[ / / [ Q / @.[ [ [ / / @.@.@./ [ @.#.@.Q @.#.@./ Q / @.@.[ @.@./ / / R #.#.#.@.@.@.#.@.@.&.&.#.#.#.&.&.&.#.*.&.&.&.&.&.#.*.&.&.#.#.#.&.@.@.@.*.#.#.@.#.#.#.@.#.*.&.&.&.*.#.#.&.&.&.#.#.&.@.&.#.&.#.=.r . r w $ > > . o . . . . . . $ r y r y + . 1.AXC + C S C m e m p m m i p i m p p W             ",
"          A S C p p p y r w w r p r a r @ > >.>.o $ y a a a $ . . . . . . . o @ > # o $ . F ,.. . . . . . . . . . . . . . . . . . . . . . . . . . . . . . . . . . . . . . . . . . . . . . . . . . . . . . . . . . . . . . . . . . . . . X . . . . . . . . . . . . . . . . . . . . . . . . . . . . . . . . . . . . . . X . . . . . . . . . . . X . . . . . . . . . . . . . . . . . . . . . . . . . . . . . . . . . . . . . . . . . . . . . . . . . . . . . . . . . . . . . . . . . . . . . . . . . . . . . . . . . . . . . . . . . . . . . . . . . . . . . . . . . . . . . . . . . . . . . . . . . . . . . . . . . . . . . . . . . . . . . . . . . . X X . . . . . . . . . . . . . . . . . . . . . . . . . . . . . . . . . . . . . . . . . . . . . . X . . . . . . . . . . . . . . . . . . . . . . . . . . . . . . . . . . . . . . . . . . . . . . . . . . . . . . . . . . . . . . . . . . . . . + @ . . . . Y ,.k . > $ r o w $ . . . . . . + @ > r $ $ > . >.AXN $ C i Z M p M i M p m M p p I O.,.          ",
"          $ > y M M a p r r r p a r r $ # 8.>.o o y a $ p r . . . . . . . @ @ @ o @ $ o S ,.$ . > $ $ $ $ $ $ $ $ w > > $ $ $ > $ w w $ > w w $ $ > > > > > w r $ $ > $ $ $ $ $ $ $ $ $ $ > w r $ $ > $ $ $ $ $ > $ > $ $ > $ $ @ $ $ $ $ $ $ $ $ $ $ $ $ $ $ $ $ $ $ $ $ > w > $ r > $ $ $ $ r $ $ $ > r w w r r w > w r w 8 > $ $ $ r > $ > r w > > w w > > 3 > > $ > > > > $ $ 3 3 > 3 > > t > w > w w w w w w w 8 w r w w $ $ > $ $ w w $ > w > > r w w w $ > w w > > w w $ r r r r r r r r r r r r r r r r r w r r r r r r r r r > > > > $ r > $ $ > 3 > $ $ 3 > > 3 r 3 3 w > > w w $ $ > $ $ > > > w r > > > > > > > > > r r w > $ > > w $ > w w > > w r $ $ $ w w $ $ w $ $ $ $ > w > $ > w $ $ $ r r $ r r w > $ $ $ $ $ > > $ $ > > $ $ $ $ > > > w r w $ $ > $ $ $ $ $ $ w $ $ $ $ $ w w > $ $ > > $ $ $ w r r w > $ w > $ $ > > > > r w w > w > w w w > > $ $ $ $ w r $ $ w > $ $ r w # o > @ r . V >.y . r @ r r o o . . . . . . . r a r r r # . >.MXF . F a V M m M p M p a Y O.V $ a           ",
"          o . + + $ y k V M a r r p $ r 1.,.. > v y y r p . . . . . . . o $ $ $ $ w . S &.o . $ $ $ > w > $ $ $ $ $ $ $ $ @ $ > $ $ > $ $ w $ $ @ $ $ $ $ $ $ $ $ > $ $ $ $ $ $ $ $ $ > w > > $ $ $ $ $ $ $ $ $ r $ $ $ $ w $ $ @ > $ @ $ $ $ @ @ $ $ $ $ # $ $ $ $ $ $ $ > > $ $ > $ $ > $ $ w $ $ $ w w > > > $ $ $ $ 8 8 8 8 $ $ $ w w $ $ r r > > w r $ $ > r > $ $ > > $ $ $ 3 3 > 3 $ > r w w w w w w w > r w w 8 w w w w $ > $ $ w $ $ $ r $ $ w $ w w $ $ > > $ $ $ $ $ $ $ $ > > $ > w $ $ $ $ 8 8 8 8 r w 8 8 w r w $ > 3 3 > w w w $ w > $ > r 3 > $ $ > $ $ > $ $ $ $ > w r > $ $ w $ $ > > > > r > > > > > > > > > w > $ $ $ $ > > > $ $ $ $ > > w w $ $ w w $ $ w $ $ $ $ w w > $ $ > r > $ $ $ $ r w > $ $ $ $ > $ $ > $ $ $ $ $ @ $ $ w w w $ $ > $ $ $ $ $ > $ $ > w > $ $ $ $ $ $ @ $ $ $ $ $ $ $ $ $ $ $ $ $ > $ $ $ $ $ $ $ @ # $ @ $ @ $ @ $ $ $ $ $ $ $ $ $ $ $ $ $ $ $ $ $ o a $ w r @ . V 1.a . $ r @ $ $ o . . . . . . . $ r w p p $ . 1.SX#.$ Z Z a m M a S Y E a w # # w           ",
"          $ # o $ o . . # r k V a # a 8.O.o r k y > r M . + . . . . . o $ $ @ @ . o Q =.. . w r # # $ 8 8 8 $ $ $ $ $ $ $ $ $ $ $ $ 8 $ $ 8 $ $ $ 8 w 8 $ $ $ $ $ 8 8 $ $ $ $ $ # # $ $ $ # # # w $ w # 8 # 8 $ 8 # # # # $ # $ 8 w $ $ $ 8 $ w $ w $ w 8 # w $ w 8 $ $ 8 w w $ $ w $ $ w w 8 w > > > > w > 8 8 w w w w w w w w $ $ $ w w $ $ > w > > w w $ $ > > , $ $ > > > $ > > > > > > $ > w w w w w w 8 $ w w w w w w w w $ w w $ > $ $ w w $ 8 w $ 8 w $ > > > $ $ $ $ $ w > > w w > w w > > w w w w w w w w $ $ $ > $ $ $ $ $ $ w w w w w > w w w $ $ > > w > > w w $ w $ $ > w w 8 8 w w $ $ > $ $ $ # $ $ > > > > $ $ $ $ $ $ $ $ > > w > $ $ $ $ $ $ w 8 w w w $ $ w $ 8 8 w w w w 8 $ $ > > $ $ $ > 8 $ $ 8 w 8 w w 8 8 8 8 8 8 $ 8 8 8 w w 8 $ $ $ > $ $ > $ $ $ > $ $ > $ $ $ $ $ $ $ $ $ $ $ $ $ $ > $ # # $ w w 8 8 8 8 w w 8 $ $ $ w $ w $ w $ 8 8 8 8 w 8 8 $ $ 8 $ $ $ $ 8 8 $ y o $ r o # r . a >.a . > $ $ $ @ o . . . . . . . y a o w y o . #.AXQ o V M S W K C p # + $ $ $ y M         ",
"          o o $ o # # + . . o $ $ V 1.Y # r k y y r a . . . . . . . o @ $ $ # # o Q ,.. . r + # $ $ $ $ $ # # # $ $ $ $ $ $ $ # # $ $ $ $ $ $ $ $ $ 8 8 $ $ 8 w # $ $ # # $ $ $ w 8 8 8 8 8 $ 8 w w w # $ # $ $ w $ 8 $ $ $ # w w 8 # $ $ $ # 8 $ w # 8 w $ w $ w 8 $ $ $ 8 $ $ 8 w $ $ w w $ $ w > $ > > $ 8 w w w w $ $ $ $ > > $ > w w $ $ w w w w r r w w w > > > > > > > > > > > > > > > w w w 8 w w w w 8 $ $ w w w w w > > r w > > $ > r w $ w w $ 8 r w w w w $ $ w w w w w w w w $ $ > $ $ > > w w 8 $ 8 w w w w w w w w w > $ w w w w $ w w w > $ $ w > > > > w w $ w > $ $ > w w w w w $ $ > $ $ $ $ > > w w w w > > $ $ $ $ $ > > w w w w w > $ $ $ 8 w w 8 $ $ $ $ $ $ w w w $ $ $ r $ # $ > > w w $ $ $ 8 8 $ $ w 8 8 $ 8 8 8 8 r 8 8 8 $ $ $ $ w > $ $ w $ $ $ $ $ $ $ $ $ $ $ $ $ $ $ $ $ # $ $ # $ $ $ $ $ $ $ # $ 8 w 8 $ $ $ 8 $ 8 # 8 # 8 $ w $ $ $ 8 8 $ # # $ $ # # $ $ # $ o $ w # w r o $ . y >.C . # $ # @ $ o . . . . . . . o a r w r + o / MXC r W k p p $ $ $ 8 # r w w M         ",
"          # # @ # o o o o + + + . C k # r r a y a > . . . . . . . + $ $ $ $ o . / @.+ . r $ w $ $ $ $ $ $ $ $ $ $ $ 8 w w $ # $ $ $ # # # $ $ $ $ $ $ $ $ 8 $ # # $ $ $ $ $ $ $ $ w 8 $ $ w 8 $ # # # $ $ 8 8 8 w 8 $ $ $ 8 $ # w w $ $ $ $ $ $ 8 8 $ $ $ $ $ 8 $ 8 8 $ # $ $ 8 # $ 8 8 $ $ w w $ > w > $ $ > w $ $ > > $ $ w r w r r 3 3 r r > > 3 > > > r r > w > > r w > w r $ > r > $ > > > w > w r r w $ > w w > $ w w > w w > > > > > > w w w > w w 8 8 w $ $ > w w $ $ $ > $ > w > $ $ w w w w $ $ > w > > w w w w w $ $ $ 3 r r w w w $ w w $ $ w w r r $ > > > > > > 3 w w w $ > w > $ 8 w w $ $ w w w w w $ $ $ 8 w > > 3 r > $ > > $ 3 > $ > > > $ $ w > > w > $ $ w $ $ w > $ $ $ # $ $ $ $ $ $ $ > $ $ $ 8 w w w w 8 $ $ 8 8 $ $ $ 8 8 8 8 8 $ $ $ $ $ > > > $ $ $ $ $ $ $ $ $ $ $ $ $ $ $ $ # # $ # $ $ > w > > $ $ # 8 w $ 8 w $ $ $ $ 8 $ $ $ $ $ $ w w 8 $ $ $ $ $ 8 8 8 8 $ $ $ $ 8 r 8 $ $ $ + y . $ >.A . 8 $ # w r o . . . . . . + $ p a r t $ . #.mX,.y $ @ $ $ $ $ $ 8 8 # w a         ",
"          # # # o o o o # # + + + O.V w a a y y w # . . . . . . . r @ @ $ . . #.O.. . r w > $ # $ $ $ $ $ $ $ $ # $ 8 8 $ $ $ $ $ $ $ 8 8 8 $ $ 8 8 $ $ $ 8 $ # $ 8 8 8 $ $ # + $ # # $ $ $ $ # $ $ $ $ $ $ $ $ 8 8 $ $ $ 8 8 $ $ $ $ $ $ $ $ $ $ $ $ $ $ $ 8 8 # $ 8 8 $ 8 $ $ $ 8 w w $ $ $ 8 > > > > w w > $ > > > > w > r 3 3 r r > > 3 3 $ 3 > > 3 r > > r r w w r w > w r r r y r r r r r w $ $ $ > > > w w w w > w w > > > > > > > > > > > $ $ $ $ $ $ 8 w > w w w > > w > $ $ w w w w w $ $ > > > r r 3 > > > > w w > $ > r r r r w w w w w w w r 3 > > > 3 3 r r r r r > > > > w r r > 8 w r w w w r w r r w w r w r r > r r 3 > > > > r 3 > > 3 r 3 > > > > > > $ $ > $ > w > > > w $ w > > > > $ $ > 8 8 8 8 w w w w w w w w w 8 $ w w 8 $ $ 8 $ $ $ $ $ $ $ $ > $ $ $ $ $ $ > > > $ $ $ $ $ $ # # $ > $ $ $ $ $ $ > $ $ $ 8 8 8 8 $ 8 8 $ 8 $ $ $ 8 $ $ 8 8 $ $ $ $ 8 8 8 $ $ $ $ $ $ $ $ 8 8 $ $ $ 8 $ + . w 8.V . @ $ $ @ @ $ o . . . . . o > y y r a X . >.#.X r > > w > w $ 8 8 $ w a         ",
"          o o # o # # # # # # + . #.V a a M a w . . . . . . . X $ @ @ @ @ . / Q $ . y $ . w $ $ $ $ $ $ $ 8 $ $ # $ $ # # $ $ # $ $ 8 w 8 $ $ $ 8 8 8 $ $ $ $ $ 8 $ $ $ 8 w $ # $ # # w w $ # $ $ $ $ $ $ $ $ $ $ $ $ $ $ $ 8 8 $ $ $ $ $ $ $ 8 $ $ $ $ $ $ 8 w # $ 8 8 8 8 $ $ w w w w $ $ $ $ > $ $ > 3 r > $ > $ $ > r 3 3 3 3 3 3 > 3 3 3 > 3 $ $ 3 t 3 > 3 r 3 3 r 3 3 3 r $ 3 3 $ $ $ $ > w > > > > > 3 r $ > > > 3 > $ $ > > > > $ $ > > > > > > $ > w > r > $ > > $ > w w $ $ w r r w > $ > > > > > > > > 3 3 3 3 > > $ $ 3 3 > > > w w $ $ > 3 r 3 3 > $ $ $ > 3 3 3 3 3 3 3 3 3 3 3 $ $ > r w $ w r > $ $ $ $ $ $ $ $ - 3 3 3 3 3 3 3 3 3 > 3 3 3 3 3 3 3 r 3 r 3 r 3 $ > $ $ $ > $ > r 3 > > > $ > w > > 8 8 8 8 8 $ $ 8 w w 8 $ $ 8 8 $ $ $ 8 8 8 $ $ $ $ $ $ $ > w $ $ $ $ $ $ $ $ # $ $ $ $ $ $ $ $ $ $ # $ $ > w $ 8 $ $ w 8 $ $ w 8 8 8 $ $ $ 8 8 $ $ $ $ $ $ w $ $ $ $ $ $ $ $ 8 $ $ $ $ $ $ $ $ $ $ i . r 8.V . w # # $ @ $ . . . . . . . $ y w w y o Q / # > w w w > w 8 8 8 $ w a         ",
"          o o @ o $ # + o # # + . / V M a V A + . . . . . . o $ @ $ @ o . =.R # . > > + $ w o > $ $ $ $ $ $ $ $ # $ $ # # $ $ # $ $ $ $ # # $ 8 $ 8 $ $ # # $ $ $ $ # # $ w w 8 $ # $ 8 w $ $ $ # # $ $ $ $ $ $ # $ $ $ $ $ $ $ $ $ $ $ $ $ $ $ 8 8 $ $ $ $ 8 8 $ 8 8 $ $ $ $ $ w w w w 8 $ 8 $ > $ $ $ > > > $ r 3 3 3 3 t 3 3 3 3 3 3 3 3 t 3 3 3 3 t t 3 3 t t t t t 3 3 3 t 3 3 t 3 3 3 t t 3 > > w r 3 > > > 3 3 3 3 3 - 3 3 3 3 3 3 3 3 r 3 3 3 > > > 3 > r > $ $ > > > > r $ $ > w > $ $ > > 3 3 3 3 3 5 3 3 3 3 t t t t 3 3 3 3 r r r w r w 3 3 3 3 3 3 3 3 3 3 t t t 3 3 3 3 3 3 3 - $ 3 3 r r r 3 3 3 3 3 r r r r r 3 3 3 3 3 3 3 3 3 3 3 3 > 3 3 3 3 > > > 3 3 > 3 3 3 3 3 > > 3 3 3 3 > $ $ $ $ > r > > 8 8 8 8 8 $ $ $ 8 w $ $ $ $ $ $ $ 8 8 8 w w > $ $ $ $ $ $ $ $ $ $ $ $ $ # # # $ > $ $ > > $ $ $ $ $ $ $ $ $ $ w $ # w 8 # $ 8 8 $ $ $ $ $ 8 $ $ $ $ $ $ $ $ # # $ $ $ $ $ 8 8 $ $ $ 8 $ $ $ @ r 8 o i . y ,.V + # # $ $ . r . . . . . . + w > a y $ *.T o y w > > > w w 8 8 > r a         ",
"          o o @ # $ # + + # # + . O.S M V V Y . . . . . . o o $ @ o o . #.R + . $ $ + # w $ $ # $ $ $ $ $ $ $ $ $ # # $ $ # # $ $ $ $ $ # # # $ # $ $ # # $ $ $ $ 8 $ $ # $ $ $ $ $ $ # $ $ $ # $ $ $ $ $ $ $ $ # $ $ $ $ $ $ $ $ $ $ 8 8 $ # # w w 8 $ $ $ 8 8 $ $ $ $ # $ $ $ $ > > > $ $ $ w > > $ $ > > > $ O O $ $ * * * * O O - 3 3 3 - O - O - O - 3 - $ - 3 3 $ - $ - $ - 3 3 - - 3 3 3 > > > > 3 3 3 $ > 3 $ O - 3 - 3 - < - : O O - 3 - 3 > $ > > > $ r > > 3 r 3 > 3 3 > > > $ $ $ 3 3 3 3 O $ > 3 : O O O 3 3 3 3 3 3 < 3 3 3 > > > r r $ $ O O * * 3 3 * 3 - 3 - O O O - - - 3 - 3 $ $ $ $ $ $ $ - $ - 3 3 3 3 - 3 $ : - $ - 3 - O 3 3 3 3 < 3 - - 3 3 3 3 3 3 3 3 $ 3 - $ $ O $ O > $ $ $ $ $ $ 3 > $ $ $ 8 8 8 $ $ $ $ $ > $ $ $ $ $ > > $ $ $ w 8 8 8 8 8 8 $ $ w w $ $ $ $ $ $ $ 8 8 $ $ w w $ $ 8 w w 8 $ # # $ w $ # w 8 # $ $ $ $ $ $ $ $ $ $ $ $ $ $ $ $ $ # # $ $ $ $ $ $ 8 $ $ 8 w 8 $ $ $ + @ 8 + $ . i &.k . # # # r @ o . . . . . . $ p M a w ,.I $ $ w w w w w w w w w r p         ",
"          o o @ # # # + + # # o . #.S y F C L . . . . . o o o @ $ . o / Q . . $ # $ w # + $ $ $ $ $ $ $ $ $ $ $ $ # # $ 8 # # $ $ $ w $ $ # # $ # $ $ $ $ $ $ $ # $ 8 8 $ $ # # $ 8 $ # # $ 8 # 8 8 $ 8 $ $ $ $ $ $ $ $ $ 8 8 w $ $ 8 8 8 $ # # $ $ $ $ $ $ $ $ $ $ $ $ $ $ $ $ w > > $ $ $ $ $ > 3 3 > $ O $ $ o O * * * O * * * * * * 3 * * * * * - * * < 3 * * * < * * * * * * * * O O O O O > > > > > 3 3 3 - 3 O O * * * 3 * * * * O O O O 3 $ - > > > > 3 3 > 3 r r > > > > > > > > > 3 t 3 3 3 O O O O O O O O O O O $ O * * - 3 3 > $ 3 > $ $ O O O * * * * O O O O X X O O O - - O - * 3 : * O * O * * O O * O O O * O * * - * - < 3 * O O O O O X O X O O O O O O O O O O * O * 3 * O 3 > $ > $ $ $ > > $ $ $ 8 8 8 $ $ $ $ $ $ $ $ $ $ > w > $ $ $ $ $ $ 8 8 8 8 8 8 w w $ $ $ 8 8 8 8 8 $ $ $ 8 8 $ $ $ $ 8 $ $ $ $ $ $ $ $ $ $ $ $ $ $ $ $ $ $ $ $ $ $ $ $ $ $ $ $ $ $ $ $ $ $ $ # 8 $ $ 8 8 8 $ $ $ + r $ + 8 $ . p ,.V . $ $ @ $ @ o . . . . . w Z r V p &.R w o w w > > w w w 8 w r a         ",
"          o o @ # o o o o o o + . @.I r S C S . . . . . o @ o o @ r Y Q . # r o $ # # # $ $ o $ # $ $ $ $ $ $ $ $ @ @ @ $ $ $ $ $ $ $ $ $ $ $ $ $ $ $ $ $ $ $ $ @ $ $ $ $ $ $ @ $ $ $ $ $ $ $ $ $ $ $ $ $ $ $ $ $ $ $ $ $ > > $ $ $ $ $ $ $ $ @ $ $ $ $ $ $ $ $ $ $ $ $ $ > $ @ w > > $ > > $ $ $ 3 3 3 $ o O X - < < < < < < < 4 < < < < < < < < < < < < < < < < < < < < 4 < < 4 4 4 < < < < < 3 3 3 > 3 3 3 3 < 3 - * < < ; < < < < < < < * < * O O 3 3 $ 3 3 > 3 3 3 3 $ $ 3 3 > > 3 3 3 3 3 $ - - * < 4 4 4 4 4 < < < * * O * * * 3 3 3 3 u 3 3 - $ * * ; < < < 4 < < < < ; * * * * O X X X < < < < < < * < 4 4 < < < < < < < < < < < 4 < < 4 4 4 6 4 4 4 4 < < < < < < < < * 3 < < < < < - $ O $ 3 3 $ $ > 3 - $ 8 8 $ $ $ $ $ $ $ $ $ $ $ $ $ $ $ $ $ $ $ $ $ $ $ 8 8 $ 8 $ $ $ $ $ 8 $ $ 8 $ $ $ $ $ $ $ $ $ $ $ $ 8 8 8 $ $ $ $ $ $ $ $ $ $ $ $ $ $ $ $ $ $ $ $ $ $ $ $ $ $ $ $ $ $ $ $ $ $ $ $ $ $ $ $ 8 r . $ 8 8 @ $ . p *.V . r @ @ @ @ . . . . . y C a p $ #.Y o y w > 8 8 w w 8 8 w w p         ",
"          o o @ o + o # # o + + . Q Y a k V I . . . . . + o @ @ . O.Q . @ $ + $ $ $ # $ # # w # # @ $ $ $ $ $ > @ $ @ o # $ $ @ $ $ @ @ @ $ $ $ $ $ $ $ $ $ @ # > $ @ # @ $ $ $ $ # # $ $ @ @ $ $ @ @ @ $ $ $ $ w $ $ $ $ $ $ $ $ $ @ @ $ $ $ $ $ $ $ $ $ $ $ $ $ $ $ $ $ $ $ @ $ $ $ $ > > > $ $ 3 3 3 - O X X X X % % * * % % * % X X % % % % = % % * * % % % % % * % % % * % % * * % % X X X < 3 3 3 3 3 - X X X X X % % % % % % % % X X X X = X X * 3 O $ 3 3 3 t t 3 $ w r r $ $ 3 < 3 > O 3 ; = * * X X X X X X X X X X % % % X X X $ r y $ O X X X X X % X X % % X X X X % % * * O O X % X X % % % % % % % % % X X X % % X X X % % % % X X % % % % % X X % % % % % % % X % % % % % % % X * O O 3 3 3 $ $ r r - $ $ $ $ $ w w w w $ $ $ w $ # # $ $ > $ $ 8 8 $ $ $ $ $ $ $ $ $ 8 8 8 $ $ 8 $ $ $ 8 $ $ $ $ $ 8 8 8 $ $ $ @ @ $ > @ @ $ $ $ $ w $ $ $ $ $ $ $ $ $ $ $ $ $ $ $ $ $ $ $ $ $ $ $ $ $ $ # @ $ # $ w $ $ + $ + $ . r @.S . o > # $ o . . . . y M M m p O.R r $ w w w w w w w w 8 w p         ",
"          o o o # # o o o o o o . R Y M V M I + . . . . # # $ + > Y $ # $ $ # $ $ $ 8 8 8 $ $ $ $ $ $ # # # # # $ $ $ $ w w $ $ # # $ $ $ $ $ $ $ $ $ $ $ $ $ $ # $ # # $ $ $ # 8 $ # # $ $ $ $ $ $ $ # $ 8 8 8 8 $ # # $ 8 8 $ $ 8 # # # # 8 # 8 $ $ $ $ # # $ > $ $ @ $ $ $ $ $ 3 > $ $ 3 r $ > $ r @ 8 3 . X % % % & & & % % & & & & & & % % % % % % & = & % & % & & % & & % % % % % % % % X X O 8 $ > 3 3 ; % % % % % % = % & & % % & % % % % % % X % 4 O > y t 3 3 3 > 9 e e $ 3 < O 6 : t 4 X X X % % % % X % % % = & % & % % X X X o i 8 O % X % % % = % % % % & & % % % X X ; ; O * . X 2 % % % % & & & & % % % % % % % % % % & & & % & & % % % % % % % % & % & & & % & % & % & % % % % X % X - 3 3 $ 8 8 8 3 3 > : , , > # # $ $ $ # # > > $ # # $ $ $ w $ $ $ > $ $ $ $ $ $ $ $ $ # # $ $ $ $ > > $ $ > $ $ $ $ $ $ $ > # # $ > $ $ w w $ $ $ $ $ # $ 8 $ $ $ 8 w $ $ # $ # w $ 8 # $ $ $ $ # # $ $ 8 8 $ $ $ $ # $ 8 $ # . w #.p . $ @ $ # . . . . r C a r p >.F o > r w 8 8 $ 8 w w $ w p         ",
"          o o o # # o # o o o o X R S a V V S . . . . . # @ # + w Y $ o $ $ # $ $ $ $ $ $ $ # # $ $ $ # # # $ $ # $ $ $ $ $ # # $ $ $ $ $ $ $ $ $ $ # $ $ $ $ $ $ $ $ # $ 8 $ # 8 8 $ $ $ $ $ $ $ 8 $ $ $ 8 8 8 $ $ $ $ $ 8 $ $ $ w $ $ $ $ 8 # w $ $ 8 8 $ $ 8 w $ $ $ $ $ $ $ > > > $ $ 3 > > 3 > > r r . X #X&Xd.@X=X@X=X$X%X=Xg.d.g.=X=X%X+X%X$X$Xg.g.$X$X@X$X+X@X@X+X+X@X@X@X%X$X+X$X$Xg.#XX $ 0 r 3 4 < = = | ;X+Xg.$X+Xd.@Xd.@X%X%X$X$X$Xd.-X#X= % % < : 3 t 3 < 3 3 w e w > 3 < 6 O 3 * X f i.$X%X=Xg.$X$X+X&X+Xd.d.d.d.d.-X;Xf X > 8 i 6 % % *X;Xs.+X+X+X@X@X%X%X+Xg.&Xr.X 4 ; X 6 . ~ ;Xd.s.+X%X%X@Xd.d.d.d.+X+X$Xg.g.$X+X%X$X$X%X@X%Xg.d.d.$X%X%X$X+X$X$X@X@X@X@X+X$Xd.+Xd.d.d.d.d.#X*XX X 3 : > $ 8 8 0 3 3 > , , > > $ $ > $ $ $ $ $ $ $ $ $ $ $ $ > $ $ $ $ $ $ $ $ $ $ $ $ $ $ > $ $ $ $ $ $ $ $ > $ $ $ $ $ $ $ $ $ $ $ $ $ $ $ $ $ $ $ $ $ $ $ 8 $ $ $ $ $ $ # $ $ $ w 8 8 $ $ $ 8 $ $ $ 8 $ $ 8 $ $ $ $ $ $ $ # w # # Q r o $ @ $ # . . . . r a M y w #.F , > r w w 8 $ 8 > > 8 w p         ",
"          o o o # # o # @ @ o o o [ Y a C S I . . . . . o @ $ + 8 Y $ o $ $ # $ $ $ $ $ # # # # # $ $ # # $ $ # # $ 8 $ # # # $ 8 8 $ $ $ $ $ $ $ $ # # $ $ $ $ $ $ $ $ $ $ $ # $ $ 8 $ $ $ $ 8 $ $ $ $ $ $ $ $ # $ $ $ $ $ $ $ $ w $ $ $ $ 8 # $ $ $ $ $ $ $ 8 $ $ $ $ > > $ $ 3 $ > 3 3 $ $ > 3 y 3 > * X X DXpX>X6X6X6X7X3X3X5X6X6X6X6X6X8X8X8X7X6X4X4X4X4X4X4X3X3X4X4X4X7X7X3X6X7X6X3X3X4XpXX $ r r < 7 < * . c tXqX3X4X6X8X5X5X3X6X6X4X6X6X6X8X0X%XX % f O < 3 4 3 3 t 5 : : > 3 < 4 X h X d eXyX7X5X1X4X6X7X3X7X5X7X4X4X7X7X9XDXX . t y $ X 2 X wXuX5X8X8X7X6X3X6X6X6X5XpX;X% 1 1 < < . b pX0X4X7X8X8X4X4X4X4X6X7X6X6X3X3X3X6X4X4X3X4X3X6X6X4X3X4X7X7X4X5X6X6X6X4X4X6X6X7X6X7X6X6X6X8X7XpXDXX X < O 5 r $ r i 0 $ $ $ w w $ $ > > $ $ w $ $ $ $ $ > $ $ > $ $ $ $ $ $ $ $ $ $ $ $ $ $ > w $ $ $ $ $ $ $ $ $ $ $ $ $ $ $ $ $ $ $ # # $ $ # $ $ $ $ $ $ $ $ 8 $ $ $ # # $ $ $ $ $ $ 8 # $ $ $ $ $ $ $ $ $ # $ # $ $ $ $ $ $ # w # + Y r + $ @ $ # . . . . r C V r r #./ r # w w w 8 w 8 $ $ w w p         ",
"          o o o # # # # @ # o o . [ Y a V V S . . . . . o @ $ + $ Y $ # $ $ $ $ $ $ $ $ $ $ $ $ # # $ $ $ $ # + # $ $ $ $ $ $ 8 8 $ $ $ $ $ $ $ $ $ # # $ $ $ $ $ $ $ $ $ $ $ $ $ $ 8 8 $ $ $ $ # $ $ $ $ $ $ # # $ $ $ $ $ $ $ $ 8 # $ $ # $ # # # # $ $ $ $ $ $ $ $ $ $ $ $ $ > $ $ 3 > $ $ > - t 3 O * 1 X eX>Xx.A.A.G.L.C.C.D.G.G.G.W.W.W.G.G.D.D.J.L.D.C.Z.A.C.Z.A.Z.Z.Z.D.Z.Z.Z.J.A.k.L.9XX O t 3 < < < O < X ) 9X].x.z.G.Z.C.Z.A.Z.A.J.G.G.k.].0X] X X 6 < < < < t t < 7 < < y 3 X h * % g.4X/.l.].L.J.J.l.D.S.D.D.k.D.A.].<X% X O 3 O < 4 * % $X|.x.z./.Z.C.k.Z.G.A.T.5Xs.% = 1 1 O X % R.Y.Z.A.l.k.C.L.k.k.Z.z.z.l.k.k.Z.G.L.D.D.L.G.G.G.D.D.D.L.L.D.Z.D.Z.Z.Z.Z.Z.A.Z.l.z.k.l.l.z.l..XwXX X 1 < O y $ r 0 0 $ 8 9 w w $ $ > $ $ $ w $ $ $ $ w w $ $ w $ $ $ $ $ # $ $ $ $ $ $ $ $ > > $ $ $ $ $ $ $ $ $ $ $ $ $ $ $ # $ $ $ $ $ $ $ $ $ $ $ $ $ > $ $ $ $ $ $ $ $ $ 8 $ # 8 # 8 # $ $ $ $ $ $ # # # # $ # # $ $ $ $ $ $ $ o o Q y . $ @ $ @ . . . . y M k a a @.F > > w w w 8 8 8 > > w w a         ",
"          o o o @ # # # @ # o o . / Y p V V S . . . . . o @ # + $ Y $ o $ $ $ 8 $ $ $ $ $ $ $ $ # $ $ $ $ $ # # 8 $ $ $ $ 8 8 $ $ $ # # # # $ $ 8 $ $ # $ $ $ $ $ $ $ $ $ $ $ $ # $ 8 8 $ $ $ $ $ 8 $ 8 8 $ $ $ $ $ $ $ $ $ $ # $ 8 # $ $ # $ # $ $ $ 8 8 $ 8 w $ $ $ $ $ $ $ $ $ > > > $ > > $ 3 3 : * 1 1 % eX3Xz.!.D.G.K.K.L.!.!.!.Q.!.Q.H.F.!.H.K.!.^.!.!.!.{.!.!.[.^.!.Q.Q.`.W.G.!.!.D.K.9XX X 4 4 3 3 > : 5 X X w.3XY.D.G.K.D.L.J.G.H.I.I.K.K.G.|.pXb X ; < : < 4 t 4 4 4 5 3 3 3 1 d % ` yX^.`.W.Q.^.).H.).I.F.).`.Q.D.A.uX( X g 4 O < 1 f % & =X7XC.!.`.!.K.F.H.H.G.A.5Xd.% 2 1 2 1 X * R.XXJ.!.K.!.K.).F.H.`.Q.`.!.`.).W.~.).K.K.K.!.!.Q.Q.Q.H.K.L.K.H.`.!.!.^.!.!.!.G.`.!.Q.^.^.!.G.6X:X* X 1 5 O > > 8 w 3 $ 8 9 8 w $ $ $ $ $ > > # w $ $ > w $ $ w $ $ $ $ $ # $ $ $ $ $ $ $ $ $ $ $ $ $ $ $ $ $ $ $ $ $ $ $ $ $ $ $ $ $ $ $ $ $ $ $ $ $ $ $ $ $ # 8 $ $ $ $ $ 8 w $ $ w # w $ 8 $ 8 $ $ $ $ $ $ $ $ # # $ $ # $ $ $ $ # o Q p . $ @ $ @ . . . . y S p r r =.! > o w w w 8 w w $ $ w r a         ",
"          o o # @ # # # # # o o . Q S p Z S I . . . . . o @ # + $ Y $ + $ $ 8 $ $ $ # # # # $ $ 8 8 $ # # # $ $ w 8 # # $ $ # # # # # # # # $ $ 8 $ $ $ $ $ $ $ $ # $ $ $ # $ $ $ $ $ $ $ $ $ 8 $ $ $ 8 8 $ $ $ $ $ $ $ $ $ $ # $ w $ 8 $ $ 8 # 8 $ $ $ 8 $ 8 w $ > > $ $ $ $ > $ 3 3 $ > 3 3 > $ t < * g * % rX5XG.`.H.).!.).K.H.!.).).F.H.P.).).).).).!.^.`.`.^.Q.Q.!.Q.H.H.G.!.!.!.!.G.L.[.9XX * 1 4 r r 3 > > h X % <X4Xc.{.!.!.K.!.!.Q.U.U.m.!.G./.|.rX= % = < < 4 6 4 3 4 $ u y . f % j iX,X'.v.}.}.Q.H.F.P.n.U.(.}.~.G.8X-XX 1 % X 6 z < 1 d % -X5XL.K.D.H.Q.H.(.Q.!.A.6X$X% d 1 2 1 O % N.oXZ.J.Q.).).).H.H.`.B.!.b.H.v.Q._.(.).I.H.).Q.!.!.Q.H.F.F.Q.!.!.G.H.!.H.H.!.H.).Q.G.Q.Q.G.z.,X:X% % 1 O 3 , > $ $ $ - 8 8 8 $ w $ $ $ $ w > # > $ $ $ $ $ $ $ $ $ > $ $ $ $ $ $ $ $ $ $ $ $ $ $ $ $ $ $ $ $ $ $ $ $ $ $ $ $ # $ $ $ > $ # # $ $ $ $ # $ $ $ # 8 $ $ $ $ $ $ $ $ $ $ $ $ $ $ $ $ $ $ $ $ $ $ $ 8 $ # $ $ # $ 8 # w w . Y p . $ o $ @ . . . . y V k V y &.H > r w w 8 8 8 w $ $ w r a         ",
"          o o @ @ # # # o o o X . R S p V Z I . . . . . @ @ # . $ Y $ + $ $ $ $ $ # # # # # # $ $ $ $ # # $ $ $ 8 $ $ # # # # # $ $ $ $ $ $ # # $ $ # # $ $ $ # # # # $ $ # # $ $ $ # # $ $ $ $ $ # $ 8 $ # # $ $ $ 8 $ $ $ $ $ $ w $ $ $ $ 8 # $ $ $ $ $ $ $ 8 $ $ > > $ $ $ $ > $ $ $ > > > r r y 3 O 4 = % rX>XG.`.).'.Q.(.!.!.Q.F.F.I.).).).Q.Q.H.F.F.!.!.!.!.!.!.).!.!.).).c.!.).G.D.D.[.9XX O 4 4 3 r 3 3 , > t X f tX,XD.!.`.`.)._.(.U.U.{.Q.^.!.A.4X$X% % < 4 3 3 t t t u u O v X % g.4X[.F.`.~.^./.[.Y.U.I.'.Q.~.T.5XrX= X x 2 O 5 3 < 4 = % =X6Xk.I.U.).'.).(.Q.Q.z.3Xd.% 1 2 1 < 3 X h.2XG.!.Q.!.).).Q.).`.`._.`.'.).(.).H.Q.K.F.K.L.!.!.K.H.K.H.!.!.).W.!.`.Q.Q.`.).!.).!.!.!.!.v.,X:X% = 1 o r w , O $ O > $ 8 $ $ w $ $ w $ $ > $ $ $ $ $ $ $ $ $ $ $ $ $ $ $ $ $ $ $ $ $ $ $ $ $ $ $ $ $ $ $ $ $ $ # $ # $ $ # # # $ $ $ # $ $ $ $ # # $ $ $ $ $ 8 $ $ $ $ 8 $ $ # $ # $ # $ $ # # # # $ $ $ # # $ $ $ $ $ $ $ $ $ > > . Y p . $ o $ @ . . . . a C a p > &.R # $ w w 8 8 8 8 $ $ 8 w a         ",
"          o o @ @ o # # # o o X X R Y M V Z Y + . . . . @ @ # . $ Y $ + # $ # # $ $ # # # # $ $ # $ $ $ $ $ $ # $ $ $ $ # # $ $ $ $ $ $ $ $ # # # # # # # # # # # # # $ $ # # $ $ # # # # $ $ $ 8 $ $ 8 $ $ # $ $ $ 8 8 # # $ 8 $ 8 $ $ $ $ 8 # 8 $ $ $ $ # # $ @ @ $ > > $ $ $ > @ o $ > $ $ r i $ 3 3 ; 1 % eX,XQ.H.Q.(.v.Q.`.!.!.K.K.F.H.H.).W.!.).P.K.).!.Q.Q.!.).!.H.H.).).H.).).!.F.F.[.9XX O 4 4 - ; 3 3 r y t * % ( 9X!.Q.).(.!.'.).I.'.c.!.`./.L.].8X] % < 4 3 O 3 t 3 u O 6 < X ] 7X[.F.U.G.^./.!.D.K.I.F.).!.G.|.pX~ X ; X * 7 4 t s = = % -X6Xz.U.I.Q.'.(.Q.b.).G.7X$X% d 2 X 4 s X y.4Xz.W.W.!.Q.H.b.!.B.!.b.'.(.(.).K.c.H.H.H.K.K.F.D.D.G.F.Q.!.!.).H.).).v.v.(.Q.v.Q.).H.H.Q.c.,X:X% % ; r $ > , $ : : > $ $ $ $ > $ $ w $ $ $ > # $ $ $ $ $ $ # $ $ $ $ $ $ $ $ $ $ $ $ $ $ $ $ $ $ $ $ $ $ $ $ $ $ $ $ $ $ $ $ + $ $ # # $ > $ > $ $ $ $ $ $ $ $ $ # $ 8 w $ $ $ 8 # 8 # w $ $ # $ $ $ 8 8 $ $ $ $ $ $ 8 $ # $ w # # + Q a . > o $ # . . . . a C M a y &.R . > w w 8 8 8 8 $ $ $ w a         ",
"          . @ o o o o o o o o o X R S p V Z W . . . . . @ @ $ + $ Y w . $ $ # + $ # # $ # # # $ # # # # $ 8 $ $ $ $ $ # # # $ $ w $ # $ $ # # # $ # # # # $ $ # $ $ $ $ # # # + w 8 8 8 8 8 $ $ $ $ $ $ $ $ $ $ $ $ $ $ $ $ $ $ $ # # $ $ # # $ # # # $ 8 8 8 8 $ $ $ $ r r $ $ $ $ > 3 3 3 3 w w i r $ 4 * % rX5XG.K.F.).F.(.'.K.D.L.D.).'.b.).}.`.'.).).H.H.).Q.W.Q.Q.Q.H.(.Q.).Q.Q.Q.H.F.[.yXX $ 3 4 < < 3 $ > > O 2 * % j.7X!.F.{.b.).(.F.F.).`.~.}.G.!.].yXc . 2 < < 4 < 4 * 4 3 X x 9X Xl.I.).^.G.G.!.J.G.).(.W.Q.A.7Xi.% * O < 5 < 5 y y 4 = % -X6XZ.U.'.H.Q.'.).).K.J.6Xd.% 1 4 ; - s X j.3XB.~.^.Q.G.Q.).W.!.W.Q.`.Q.).U.U.H.!._.b.Q.).H.K.F.!.G.H.}.z.H.H.b.H.(.H.H.Q.H.H.H.).).'.c.,X-X% % ; $ w > , > > : > > r 3 > $ $ > $ $ $ $ # w > $ $ $ $ $ $ $ > $ $ $ $ $ > # # $ $ $ $ $ $ # # # $ w w $ $ $ $ $ $ # # $ w # $ $ $ $ $ # # $ $ $ $ $ $ $ $ $ $ w w $ $ $ # $ w # # $ $ + $ # # # # $ $ 8 w 8 $ # $ $ $ $ # $ # $ + @.a o $ # $ @ . . . . y A V a r &./ $ > w w 8 8 8 w w > 8 w a         ",
"          + @ o o o # # @ o o o X / F k Z N Q . . . . . # @ $ + $ Y w . $ $ $ # $ # # $ $ $ $ 8 # # # # $ $ $ $ $ $ $ # # $ $ # $ $ # $ # # # # $ $ # # # # # # $ $ $ $ $ $ $ $ 8 $ $ $ $ $ # # $ $ $ $ $ 8 $ $ $ $ # # $ 8 8 8 $ $ $ $ $ $ $ 8 $ $ # $ $ 8 $ $ $ $ $ $ r r > $ $ $ $ > > > > > w w r 3 4 * % rX,XG.).F.P.H.H.H.!.H.).).c.k.'.H.b.Q.Q.(.Q.H.P.P.).!.).).(.).).).Q.H.(.).H.G.[.yXX # t < * 1 0 0 t 5 7 o 3 X * :X1Xl.!.).K.K.L.K.!.^.~.~.v.G.K.,XeX% = < 6 * 1 1 4 < X * E.4XA.!.(.).).G.G.!.!.!.Q.c.`.W.oX<Xd X < > 3 t 3 r y t 1 1 % -X6Xl.H.).H.H.H.H.F.G.A.5X$X% d 4 1 ; s X j.8Xz.~.Q.H.!.'.Q.Q.!.H.H.!.H.H.D.U.K.c.Q.}.~.b.H.[.H.).`.v.Q.!.(.(.Q.(.'.{.).H.'.Q.b.H.H.H.l.,X:X* = X u # $ r , : O > r w $ $ w $ > $ $ $ > # $ $ $ $ $ $ $ > # $ $ $ $ $ $ $ $ $ $ $ $ $ $ $ # $ > $ $ $ $ $ $ $ $ $ # # $ $ $ $ $ $ $ $ $ $ w $ $ $ $ # # $ 8 $ $ $ # # 8 $ $ 8 # # $ $ # $ # $ $ $ $ $ $ $ # # $ 8 $ $ $ # $ # o . W r . w # @ # . . . . a V a a y &./ $ > w 8 8 8 $ 8 $ $ w w p         ",
"          + @ o o o @ @ @ # o o X [ Y M C M Q . . . . . # # $ + $ I $ . $ $ $ $ $ # # $ $ $ $ 8 $ # # # $ $ $ $ # $ $ # # $ $ # # $ $ # # # # # $ $ # # # # # # $ $ # # # # $ $ $ $ $ $ $ $ # # $ # # $ $ $ 8 $ $ $ $ $ $ $ 8 $ $ $ $ # # $ $ $ $ $ # $ $ $ $ # $ $ $ $ $ $ $ $ 3 3 > > > > > > > > 3 < 4 * % rX>XG.).H.Q.(.`.B.W.~._.v.).).G.).F.).`._.Q.).).).Q.Q.Q.Q.H.Q.).P.Q.Q.).).H.D.'.yXX o u < * t 0 s O 7 : y 3 6 X 1 yX1XG.[.S.S.[.!.G.W.!.^.~.Q.F.!.uXw.X d 1 1 < < 4 g X ] qXT.!.G.(.(.'.!.Q.!.~._.!.Q.G.^.pXb X 4 3 > r p y y y < < 1 % -X6Xz.W.Q.Q.~.Q.!.H.!.J.6X$X% d 2 1 < t X ] 8XT./.!.!.K.l.H.K.K.D.D.D.c.F.L.D.K.)._._.B.~.).b.).b.Q.'.P.{.b.Q.(.W.v.v.G.G.H.G.H.`.).!.c.>X-XX % * 3 > # r > > $ $ 8 8 8 8 w $ $ $ $ $ > $ $ $ $ $ $ $ $ > $ > $ $ $ $ # $ $ $ $ $ $ $ $ $ $ $ > $ # # $ $ $ $ $ $ $ $ $ $ $ $ $ $ $ $ $ $ $ $ $ $ $ $ $ $ 8 # $ $ # # 8 $ $ 8 $ # $ $ # $ # $ $ $ $ $ $ # # # $ $ $ $ $ 8 $ $ $ . Q p . > o @ o . . . . a Z a k y @.Q $ # w w 8 8 w w $ $ w w p         ",
"          + @ # o o @ @ @ # o o . / Y M V M W . . . . . # # # + w I $ + $ # # $ $ $ $ $ $ # # $ $ $ $ # $ $ $ $ # $ $ # # $ $ # # $ $ # # $ $ $ $ $ $ # # # # # $ $ # # # # # $ $ $ $ $ $ $ $ # 8 $ # # $ $ $ # $ $ 8 8 8 8 $ # $ 8 8 # # $ $ # # # $ $ $ $ 8 $ $ $ > $ $ $ $ $ 3 3 3 > > > 3 > > > > : 4 * % eX>XZ.).H.(.).`.W._.B.}.B.H.K.c.l.D.G./.B.c.c.G.c.z.z.G.G.G.G.G.c.G.G.G.G.G.G.].9XX o 6 3 t s 0 t < 6 > > 3 X X % ~ 9X|.J.L.K.l.!.!.W.G.G.`.(.(.Q.].uXc % f 1 1 < 1 X f tX|./.G.Q.(.(.I.).!.Q.!.`.H.!.J.0Xw.% = 4 4 > w r t 5 3 < < < % -X6Xz.Q.!.W.Q.W.!.G.K.A.6X+X% 1 1 1 < 4 X ( yXR.T./.z.T.^.W./.W.W.^.^.^.|.^.!.K.F.H.~._.}.B.P.).(.Q.H.H.c.^.W./././.~.~.W.~.W.W.W.W.T.z.<XwXX X 1 < 3 > , r w $ $ 8 9 w w $ $ $ $ $ $ > $ $ $ $ $ $ $ $ $ $ w $ $ $ $ $ $ $ $ $ $ $ $ $ $ > $ # # $ $ $ $ # # # $ $ $ $ $ # $ $ $ $ $ $ # # # # $ $ $ $ $ $ # $ $ $ $ 8 $ $ $ $ $ $ $ # # # $ $ $ $ 8 $ # $ $ # # # $ $ w # $ $ o O.a . $ @ $ # . . . . p S M M y / R $ $ w w w w w w $ $ w r a         ",
"          + @ # @ @ # # # # # o . ! Y a M V Y . . . . . @ @ # + w Y w # w # # w $ $ $ $ $ # # # $ $ $ # # # # $ # $ # # # $ $ $ $ $ $ # # 8 8 # $ $ # # # # # # $ $ $ $ $ $ $ $ $ $ $ $ $ $ # # $ $ # # $ $ $ $ 8 $ 8 8 $ $ # # $ w 8 $ $ $ $ # # $ $ $ $ $ $ 8 $ $ $ $ $ $ $ > $ $ $ $ $ > > > > > > : 4 = % rX,XD.I.U.K.K.).H.`._.b.'.Y.Y.oX4X2X2X4X4XoXoXoX2X2X2X2X2X2X2X2XoX2X2X2X2X2XoX2XpXX O 3 t i 8 3 : 7 O 6 : 3 3 u X % #X7XA.^.W.!.Q.`.Q.G.D.).W.~.~. X X9X= X x 6 X X % M.3XT.^.Q.`.I.I.P.(._.Q.(.).!.z.5X-X% = = 2 7 : < 5 4 5 5 < 1 < % %X6XZ.K.I.G.K.L.K.D.L.Z.3X$X% 2 1 < < < X * rXiXyXyXyX9X9XyXyX9X9XyX8X9XyXyX,X].D.I.H._.}.(.b.'.F.(.Q.D. X4X>X5X8X8X8X8X7X7X8X7X7X7X7X6XpXwX% X * 6 O r w r 0 3 $ 8 9 9 w $ # $ > $ # $ $ $ $ $ $ $ $ $ $ # $ $ $ $ $ $ w $ $ $ $ $ $ $ $ $ $ $ $ $ > $ $ $ # # $ $ $ $ $ # $ $ $ $ $ $ # $ $ $ $ $ # # # $ # $ 8 $ $ 8 $ $ $ $ $ # # # # # $ $ $ $ 8 $ # 8 $ # # $ $ $ $ $ $ + . W a . $ o $ o . . . . y S M M y / R , , w 8 8 8 $ $ $ # w w p         ",
"          . @ o @ @ # o o o o o . H Y p M A I . . . . . @ @ # + $ I w o > # $ w # # # $ $ # # $ $ $ $ # # # # $ # $ # # # # $ # 8 $ # # $ $ $ # # # $ # # # # $ # # $ $ $ $ $ $ $ $ $ $ $ $ $ $ # # # # $ $ $ 8 w $ $ # # $ $ $ # $ $ $ $ $ $ $ $ $ 8 8 $ $ $ $ $ $ $ $ $ $ $ > $ $ $ $ > > 3 3 > 5 5 < 4 = & rX5XD.I.F.K.F.K.H.b.'.'.K.Y.oXM.y.h.y.p.p.u.u.y.f.f.y.y.y.y.y.y.y.y.y.f.y.j.j.j.i.X < O y i $ 5 : < < O 4 < X 6 1 X * eX7Xz.^.`.Q._.!.!.K.'.G.Q.^.!.!.1XN.% X 6 % % ] 0XG.'.b.!.!.).K.H.(._.(.I.U.G.5XrXf X t 1 : < < 5 4 < 7 3 4 2 < % %X4Xk.I.P.K.!.I.I.F.L.A.3X+X% d = 1 < 4 = X X e.( ' ( ( ( ( ( ( ( ( ) ~ ~ ~ N.4XC.Y.F.B._.(.I.U.F.Q.Q.oX|.' ' _ ] _ _ _ ] ] ] _ _ _ _ ] ] ` X X O 3 > , r 8 0 3 3 w 8 9 9 $ $ w w $ # $ $ > $ $ $ $ $ $ # # $ $ $ $ $ $ $ $ $ $ $ $ $ $ $ $ $ > $ $ # $ $ $ $ $ $ $ $ # # $ $ $ # # $ $ $ $ $ $ $ $ # # $ 8 $ $ $ # $ w $ $ # $ $ # # $ # $ $ $ $ $ $ $ $ $ $ $ $ 8 8 # # $ $ + . R a . $ o @ o . . . . y S M M y [ R $ $ w w 8 8 $ $ $ $ w w a         ",
"          . @ o # # # # o o o o . ! Y a V Z Y . . . . . @ @ # + $ I $ . $ $ $ $ $ # # $ $ $ # $ # $ $ # # # $ $ # $ $ # # # # # $ # # # # # # # # $ $ $ # # # $ # # # # $ $ $ $ 8 8 $ $ $ 8 8 $ # # $ $ # # $ w 8 $ # # # $ $ 8 # # # $ $ $ $ $ $ 8 8 8 $ $ $ $ $ $ $ $ $ $ $ > $ $ > > 3 3 3 3 > > > $ t = % rX,XG.!.H.!.H.!.!.).H.F.J.oXM.& & % X X X X X X X % X X X X % % X X X % % X X X X * < - 3 3 , r > 3 O 3 4 < 4 * < 2 X x tX1XD.n.'.'.'.P.F.F.G.Q.`.D.!.A.9X] X g X x pX|.F.U.'.b.^.!.!.Q._._.(.U.D./.yX( X x < 5 o 3 5 3 3 4 4 t t 4 = X %X4Xl.~.~.!.Q.H.H.H.H.G.qX+X% d < 4 5 3 3 X X . X % % X % X X X X X X X X % ' >XY.C.L. XB.(.F.I.).W..X>Xu.% X X X X X X X X X X X X X X X X . * t O r $ 8 8 0 - O $ O , , w $ $ $ $ $ $ $ w > > $ $ $ $ # $ > $ $ $ # # $ $ $ > $ $ $ $ $ $ $ $ $ # # $ $ $ $ $ $ $ $ $ $ $ $ # # # # $ $ $ # # $ $ $ $ $ 8 # $ $ $ $ 8 $ $ # $ w # # 8 # 8 $ # 8 $ # # $ # $ $ 8 8 8 # + # $ # + W k . $ o @ o . . . . y S V M r @.R o $ w w w 8 w w w $ $ w a         ",
"          . @ o o o # # # o o X . R Y a V N E . . . . . @ @ # + w I $ . $ $ $ $ 8 $ $ 8 8 # # # # # # # # # $ $ # $ $ # # # # # # # # # # # # $ $ $ $ $ # # # # 8 8 $ $ $ $ $ 8 8 $ $ # # $ $ # # $ $ $ # # $ 8 # # $ 8 $ $ # # $ # $ 8 8 $ # $ # $ $ $ $ $ $ $ > $ $ $ $ > > > $ $ > > 3 > > $ $ > > - t = % eX,XW.`.H.!.Q.Q.^.!.Q.F.D. XM.% h h v v h x x v h h h h v v v v h v h h h h h u 6 ; < 3 > : > > > > 3 t 3 4 1 < < O 1 X ' 8X{.).H.(.(.F.F.K.!.!.G.).H.^.3XiXc X * :X7Xz.H.U.U.!._.W.^.Q.(.).H.U.Z.8Xs.% = 1 < O y 3 3 t t < 4 t t 4 = % %X4XZ._.~.~.b.H.b.(.!./.6X$X% g < < < 3 r i 8 $ 6 1 1 2 4 u h 4 4 4 < h g % ` 8XL.L.L.G._.).).F.).~.B.5Xf.% t h t t 4 < 4 4 < - < 4 < 4 4 4 X t p > $ r 8 r r - O O # , > > # o # $ $ w > $ $ $ $ $ $ > w # $ $ $ $ $ $ > $ $ $ $ $ $ > > $ # # # $ $ $ # # $ $ $ $ $ $ w $ $ $ $ $ # # # $ $ $ $ # # # $ $ # $ 8 $ 8 $ # $ # 8 w $ $ w $ $ # # 8 8 # # 8 # $ $ $ $ $ # # # $ + . Y p . $ @ $ # . . . . a S V a > @.Q $ r w w 8 8 8 w > $ $ w m         ",
"          o @ o # @ @ @ @ @ o o . ! S p A C S . . . . . $ @ 8 + $ F , o > $ $ + $ $ # $ 8 $ # $ # # # # $ $ $ $ # # $ $ # $ $ # # # # $ $ $ $ $ # $ $ # # 8 8 # $ # + # $ $ $ # $ $ # # $ $ $ $ 8 $ $ $ $ $ $ $ w # $ $ $ $ # $ # # # $ $ # # $ $ $ $ # $ $ $ $ $ $ > > $ $ $ > $ $ $ > > $ 3 3 > > 3 3 4 * % eX>X^.!.Q.).H.!.!.W.W.{.c.oXh.X 4 6 4 2 d 1 d 2 1 2 2 4 4 1 1 4 4 6 4 * * 4 < X < : < 3 3 5 3 > > > 3 - 3 3 3 6 4 * h % % p.7X^.G.H.P.F.[.H.H.`.Q.D.).Q./.6XR.j ' 7X/.W.^.F.I.H.`._.W.F.I.Q.`.J.3XwX% X g O 1 4 s 3 3 3 3 < 4 t - 4 1 % %X4XD.Q.Q.H.Q.`.Q.(.H.Z.3X+X% d 4 3 3 3 3 t t < < < < < < < 3 < * < < < f % ] qXC.L.I.).v.H.H.!.).`.W.1Xy.X 3 3 3 4 < < < 4 < 3 - - * O X $ $ 3 > 3 > $ $ > $ $ $ > > > $ $ $ $ > > $ $ $ w # $ $ # $ > $ + # $ $ $ $ $ $ $ # o # $ $ $ # $ $ $ $ $ $ 8 $ w 8 $ $ $ w w 8 $ $ $ $ # # $ $ 8 8 $ $ $ $ # # $ $ $ $ $ $ # # $ $ $ $ $ $ $ # $ $ $ $ $ # # # $ $ # # # $ $ $ w $ o + Q p . $ o @ # . . . . i A k p y &.Q # $ r w w w w 8 $ $ r r a         ",
"          + @ o # # # @ # # o o X @.Q p C I Y . . . . . $ @ 8 . w F > . $ $ $ # $ $ # # $ $ # $ # # # $ $ $ # # # $ $ # # # $ # # # $ $ $ # # # $ $ # # # $ $ # $ # # # $ # # $ $ $ $ $ $ $ $ $ $ # # $ $ $ # # 8 # $ # $ $ $ w # # # $ $ $ $ $ $ > $ # $ $ $ $ # $ $ $ $ # $ $ $ $ $ $ > $ > 3 > 3 t 3 h = % rX>XZ.G.(.'.H.H.}.^.W.H.b. Xf.% < 6 1 1 d = 4 2 1 < = = 1 1 1 < < O < < X < < < O 3 3 3 3 3 3 3 3 3 3 > 3 t 3 t 3 t * 4 % = -X6XA.!.).).F.{.!.v.^.'.G.~.B.^. Xu.,X{.!..X.X!.H.H.'.W.v.F.Y.Q.W. X9Xb X < < O 2 ; ; t 3 3 3 < 5 y 3 < = % %X3XZ.H.H.).!.`.Q.(.Q.D.4X$X% d < 3 3 t t 3 3 3 4 4 < 4 4 3 3 3 < < 4 < f X ] 8XL.K.H.).Q.`.Q.(.Q.`.c.1Xy.X 3 3 3 4 < < < * * - - - - O $ $ $ > 3 3 3 > $ $ $ $ $ $ $ $ $ $ $ $ $ $ $ $ $ $ $ $ $ $ $ $ # $ $ $ $ $ $ $ # > $ $ $ $ $ $ # $ $ $ $ # $ $ $ $ $ # $ $ 8 $ $ $ $ $ $ $ $ $ $ $ $ $ $ $ # $ 8 $ $ $ $ $ $ $ $ $ # # $ $ 8 $ $ $ $ $ $ $ $ # # $ $ $ # $ $ $ $ 8 # o + Q p . $ o $ @ . . . . y C V a y @.H o w w w 8 w w 8 $ $ > r a         ",
"          + # o o o o o # o o o . H S p Z V K + . . . . $ @ $ . w Y > . $ $ $ # # $ $ # $ $ # $ # $ $ $ $ # # # $ $ # # # # $ # # # # $ $ # # # $ # # $ $ # # # # # $ $ $ # # $ $ $ $ $ $ $ $ $ $ # # $ $ $ # # 8 $ 8 # # $ # 8 $ $ $ $ $ $ $ $ $ $ $ # $ $ # $ $ $ $ $ $ $ $ $ $ $ $ > > > > 3 > 3 3 3 4 * % rX,XG.).Q.Q.K.Q.`.Q.`.b.b. Xy.X t t 3 4 g h t 6 5 u 4 4 4 g 6 6 6 4 4 4 < 4 * 5 3 5 3 3 3 3 $ 3 3 $ > $ > 3 $ 3 3 3 3 6 1 * c rX>XW.Q.H.F.v.!.`.G.`.H.Q.`.K.!.}.}.G.!.~./.).G.Q.Q.(.'.U.F.!..X6Xw.X h s > < 3 t a t 3 3 3 5 5 t 3 4 1 % %X7XD.!.).H.H.).Q.).).D.3X$X% 1 < 3 3 3 3 3 3 3 3 4 4 3 y t 3 3 3 3 4 < f X ` 9XJ.).H.).).).H.H.H.`.G.4Xf.X 3 3 3 3 3 3 3 3 3 3 3 3 3 3 3 $ $ > > > > $ $ $ $ $ $ $ $ $ $ > $ $ $ $ $ $ $ $ $ $ $ $ $ # # $ $ $ # $ $ $ # > $ $ $ $ $ $ # $ $ $ $ # $ $ $ 8 $ $ $ $ $ $ $ $ $ $ $ $ $ $ $ # # # $ $ # $ w # $ $ $ $ $ $ 8 $ $ # $ $ $ $ $ # # # $ $ $ $ # $ $ # # $ $ $ $ $ # # + Q a . $ o $ @ . . . . y L C a r *.! # r w w 8 w w w > > > > a         ",
"          + @ o o o o o # o o o o [ Q a V S Y . . . . . @ @ $ . $ F > . $ $ $ # # 8 $ # # $ # $ $ $ $ # # # # $ $ $ # # # # # # # # # # $ # # # $ # # $ $ # # # $ $ $ $ # # # $ $ $ $ $ $ $ $ $ $ $ $ $ $ $ $ $ 8 $ w $ # # # $ $ $ $ $ $ $ $ $ # $ $ # $ $ # # $ $ > > $ $ $ > $ $ > > > > 3 3 > > $ $ 4 * % eX,X!.{.H.b.).Q.Q.H.!.F.v.4Xf.% ; u 4 4 h 4 t 6 5 u 4 < < < 1 1 1 < 1 4 4 4 4 4 O 3 3 3 3 3 > 3 3 3 3 3 3 3 3 3 3 t 3 < 6 = X ( pX.XG.).{.(.b.!.`.H.l.!.!.!.^./.v.G.G.W.W.!.H.).H.P.P.c.!./.8X-X% = t X 3 3 > y r t 3 3 3 5 5 y 3 < = % $X3Xk.H.).G.H.!.Q.).).D.5Xg.% 1 < 3 3 3 3 3 3 3 3 3 5 3 3 t 3 t 3 < 4 < 2 X ` qXJ.).H.).!.).H.(.H.`.G.1Xy.X 3 3 3 3 3 3 3 O 3 3 3 3 3 3 3 3 3 > > > $ $ $ $ $ > $ $ $ $ $ $ $ $ > > $ $ $ $ $ # # $ $ # $ $ # # # # $ $ # # $ $ $ $ $ $ $ # $ $ $ # $ $ $ w 8 $ # # $ $ 8 $ $ $ $ # # # # $ # # # $ # $ 8 # $ $ $ # # $ 8 $ $ $ $ $ $ # # # # $ $ $ $ $ $ $ $ $ $ $ $ $ $ # # # + Q a . $ o $ $ . . . . y S C a w =.R # > w w w w w w w w > w a         ",
"          + @ o # # # o # o o X . R Y y M A W . . . . . @ # 8 . $ F $ . $ # $ # # 8 $ # # $ # $ $ $ $ # # # $ 8 # # # # # $ # # # # # # # # # # # # # # # $ # # 8 $ # # # # # $ # $ $ $ $ $ $ $ $ $ 8 w 8 # # 8 # # 8 $ # 8 # 8 $ $ $ $ $ $ $ $ $ $ $ $ > $ # $ $ $ $ $ $ $ $ $ $ $ > > > > > > > > 3 - 4 = % eX5XZ.).(.H.H.H.`.).G.P.c. Xy.& 1 g 6 2 d g 4 2 2 6 2 1 1 < < 1 1 d = = = * 1 < < 4 3 3 3 3 3 3 3 3 > 3 3 3 3 > 3 3 3 t : 4 X % e.yXW.`.b.F.I.`.!.Q.'.G.!.!.G.^.Q.Q.Q.Q.`.H.H.).Q.'.b.Q.~.|.<X= % f 2 $ u > 3 a r 3 3 3 3 < 4 t 3 4 = % %X7XA.).`.!.!.).Q.(.H.D.3Xg.% 1 < 3 3 3 3 3 3 3 3 3 3 3 > 3 3 3 3 4 4 < 2 X ` 8XL.K.P.).Q.!.H.).H.^.z.1Xy.X 3 3 3 3 3 3 3 3 3 > 3 3 3 > $ 3 > > $ $ $ $ $ $ > > > $ $ $ $ # $ $ w $ # $ $ # $ # # $ $ # $ $ $ # # $ $ $ $ # # $ $ $ $ $ $ # $ $ $ # $ $ $ 8 $ # # # # $ $ $ $ 8 $ $ # # # w $ # # $ $ $ $ # $ 8 $ # # # $ $ $ $ $ $ # # # $ $ # # $ $ $ $ $ $ $ $ $ $ $ # # $ # . Q a . $ o $ @ . . . . i V V M r &.Y o > w w w 8 8 8 $ $ w r a         ",
"          o @ o @ @ @ # o o o X $ R Y M V M S . . . . . @ # 8 + w I > . # # $ $ # $ $ # $ # # $ # # $ $ $ $ $ $ # # # # # $ # # # # # # # # # # # # # # # $ $ # 8 $ # $ $ # # $ # $ $ $ # # $ $ $ $ 8 8 $ # # $ # # 8 $ $ 8 # $ # $ $ $ $ $ $ $ $ $ $ $ > $ # $ $ $ $ $ $ $ $ $ $ $ > > $ $ > $ > 3 r - 4 = % eX5Xl.Q.).).F.H.`.G.H.P.c.1Xu.% d f 2 d d d 1 2 2 2 2 2 2 2 2 2 1 d = d d 2 1 * O 4 3 3 3 3 3 > $ > $ 3 $ $ 3 $ 3 3 3 y 5 5 6 X = -X6XW.c.F.F.H.`.H.v.Q.Q.H.).H.^.`.G.H.}.Q.Q.(.b.(.l.Q.|.uX( % g 1 2 3 3 O : > w 3 3 3 3 < 4 t 3 = % % $X7XZ.H.Q.Q.!.!.Q.).H.D.5X%X% 1 * 3 3 3 3 3 3 > > 3 3 3 > 3 3 3 3 3 4 < 2 X ` 0XJ.G.H.).).H.H.Q.Q.Q.W.4Xh.X 3 3 3 3 3 3 3 3 3 3 3 3 3 3 $ > > $ $ > > $ $ $ $ $ $ $ $ $ $ $ $ $ $ $ # $ > # $ $ $ > $ # # $ $ $ $ $ $ $ $ $ $ $ $ $ $ $ $ $ 8 8 $ # $ $ # $ $ $ $ $ $ $ # $ $ 8 8 $ $ $ $ 8 # # # $ $ $ $ $ $ $ $ # # # # # $ $ $ $ # $ $ $ $ # # # # $ $ $ $ $ $ $ $ $ # # $ # . W p . $ o $ @ . . . . y A V M > &.Y o , w w w 8 $ $ $ $ w r p         ",
"          . @ o # # # # o o o X . ! Y p M S W . . . . . @ @ 8 + w Y > . $ # $ $ $ $ # # $ # # $ $ $ $ $ $ $ $ # # $ $ # # # $ $ $ $ # # # # # # $ # # # # # # # $ $ $ $ $ # # $ # $ $ # # # # $ $ $ # $ $ # # $ $ $ w $ # $ # # # $ $ $ $ $ $ $ $ $ # # $ # # $ > $ $ $ $ $ $ $ $ $ > > $ > > > > > $ O 4 = % eX5XJ.).).H.H.).H.H.`.n.c. XN.= % % X % % % % % % X % X % X X % % % & % X % X 1 4 3 3 > O > > > $ 3 3 t 3 3 t 3 t r t : : 7 : < X c tX2XS.D.[.H.W.'.!.H.!.!.H.).G.).H.H.K.Q.).H.b.F.[.J.qXi.% = 1 O < < 5 6 3 > > 3 > 3 3 < 4 t 3 4 = % %X0XZ.!.(.H.Q.Q.Q.).H.D.,X%X% 1 * 3 3 3 3 3 3 3 > 3 3 3 3 > > 3 > 3 4 < 2 X ` 8XJ.F.K.).Q.!.!.Q.!.W.W.1Xf.X 3 3 3 3 3 3 3 > $ $ $ $ $ $ $ $ $ $ $ > > $ $ $ $ $ $ $ $ 8 $ $ $ $ $ $ $ $ $ $ $ $ $ $ $ $ $ # $ $ $ $ $ $ # $ $ $ $ $ $ $ $ $ 8 8 $ # # $ # $ 8 8 8 $ $ $ $ # $ $ 8 8 $ $ $ $ # # $ $ # # $ $ $ $ $ # # # # # $ $ $ # # $ $ $ $ # # # $ $ $ $ $ $ $ $ $ $ # # $ # . W p . $ o $ @ . . . . i L V V r &.Y $ $ 8 w w 8 $ 8 > $ > w a         ",
"          . @ o # # # # o o o o o H Y M C V I . . . . . $ $ 8 + $ I > o $ $ $ # $ # # # $ # o $ 8 $ # # # $ $ $ # $ $ # # # $ 8 # # # # # $ $ $ 8 # # $ $ # # $ # # 8 w $ # # $ # $ $ # # # $ $ 8 # # # 8 8 $ $ $ # $ # # w $ $ $ $ $ $ # $ $ # $ $ # # $ # $ w $ $ $ $ $ $ $ $ $ 3 3 3 > 3 3 > > > > O 4 = % eX5XK.!.).H.F.).c.Q.!.H.).G.>Xf.i.i.i.i.i.a.a.a.a.a.i.i.i.i.i.i.i.a.e.e.#X*X= X < 3 3 3 > > 3 3 3 3 $ 3 $ $ 3 O 3 r 3 7 7 7 5 t = X ' 5X{.K.G.Q.Q.!.).!.H.`.!.[.).H.Q.).D.Q.!.Q.).U.D. X:X% X 6 O < 4 4 < 3 > r > 3 3 3 3 < 4 t 3 6 = % $X7Xk.Q.(.).).Q.Q.).H.L.,Xg.% 1 * 3 3 3 3 $ 3 3 > > 3 3 3 $ $ 3 > 3 4 < 2 X ' 8XJ.K.).).H.!.^.Q.!.W.W.1Xy.O 3 3 3 3 3 3 3 3 3 r > $ $ $ w > > > > $ $ $ $ > $ $ $ w w 8 $ $ $ # $ > $ $ # w # $ $ # $ > $ o # $ $ $ $ $ # $ $ # # # $ $ $ # $ $ # # $ $ $ 8 8 $ # # # 8 w # $ $ $ $ $ # # # # $ $ # # # $ $ $ # $ $ $ $ $ $ $ $ $ # # # # $ $ $ $ $ $ $ # $ $ $ $ $ $ $ # # 8 # . R p . $ o @ @ . . . . i Z V S y *.F $ > $ w w 8 8 w w w > w y         ",
"          o @ o o o o o # # o o . [ Q k V V Y . . . . . @ @ $ . $ Y > . $ $ $ $ # # # # $ $ $ # $ $ # # $ $ $ # $ $ $ $ # # # # # # # # $ $ # # # # # $ $ # # # $ $ # # # # $ $ # # 8 8 $ 8 8 # 8 $ $ $ $ $ $ $ $ # # $ # # # 8 # # # $ $ # # # $ $ $ $ $ $ $ $ # $ w $ $ $ > > $ > 3 > $ $ 3 3 > r r 3 4 = % eX5XZ.!.).H.H.`.`.B.~.).'.K.{.,XyX8X8X7X4X4X6X4X7X8X6X9X6X6X6X7X7X4X3X8XyXDXX < 1 < 3 3 3 3 > $ > 3 $ $ 3 3 3 3 3 $ 3 : 7 7 4 - < = X p.8X^.z.`.Q.W.(.F.H.H.H.U.K.H.`.F.).H.!.Q.F.L.].yXf X u < : 3 t t t t 3 3 5 3 3 3 3 4 6 y 3 1 1 % =X6XZ.!.H.Q.Q.Q.Q.(.Q.L.>X%X% 1 * 3 > 3 3 3 3 3 > > > > > r 3 3 3 3 4 < 2 X ` 8XJ.L.G.H.).Q.!.).G.`.!.4Xy.X 3 3 3 3 > > > > 3 3 > $ $ > w $ $ $ $ $ $ $ $ $ $ 8 8 8 8 $ $ $ $ $ $ $ $ $ $ $ $ $ $ $ $ $ o # $ $ # $ $ $ $ $ $ $ $ # # $ $ $ $ $ $ $ 8 $ $ # $ $ $ # # # $ $ $ $ $ $ $ $ $ 8 # # # # $ $ # 8 $ $ $ # $ $ $ $ $ # # # $ $ # # $ $ $ $ $ $ $ $ $ # # # # # $ $ # o + W r . > o o @ . . . . a S C V p / Y > , 8 w w 8 $ $ $ $ $ w a         ",
"          + @ o o o o o # # o o . ! S p V C Y . . . . . @ @ $ . > Y > . $ $ $ # # # # # $ # # # # $ $ # # # $ $ $ $ # # # # # # $ # # # # $ $ # # # # $ $ $ $ # $ $ # # $ $ $ $ $ # $ $ # $ $ # $ $ $ $ $ $ $ $ $ # # $ $ # $ $ $ $ $ $ $ $ $ # $ $ $ $ $ $ $ $ # $ $ $ $ $ $ $ > > 3 3 $ $ > 3 > 3 r 3 4 = % eX,XG.!.H.H.H.Q.!.}.}.!.K.D.L.W././.J.D.D.D.D.D.D.H.G.G.J.A.Z.D.S.S.C.J.R.iXX < 1 4 3 3 3 3 > $ > 3 > > 3 3 3 3 3 r 3 7 1 4 4 < < h X 1 -X>X!.`.W.(.'.P.).!.Q.I.F.!.Q.K.F.`.b.Q.H.J.7X~ % 4 y , y r t t t r t 3 < 3 3 3 3 < 4 y 3 = = % =X6XZ.).Q.!.Q.).(.(.H.L.3X$X% 1 * 3 3 3 3 3 3 3 > > > > 3 > > 3 3 3 5 < 2 X ` 8XL.K.!.Q.H.).^.Q.G.Q.W.4Xh.X 3 3 3 3 3 3 > > > > > $ $ $ $ $ $ $ $ $ $ $ $ $ $ 8 8 $ 8 $ $ $ $ $ $ $ $ $ $ $ > $ $ $ $ $ $ $ $ $ $ $ $ $ # $ $ $ $ $ # $ $ $ $ # # $ $ $ # # $ $ $ $ $ $ $ # $ 8 8 $ # # # # # $ $ $ $ # # $ $ $ $ $ $ $ $ $ $ # # # $ $ # # # $ $ $ $ $ $ # # # $ $ $ $ $ $ $ o + W p . > @ @ @ . . . . i C C V k #.R , $ w w w w w w w w $ r a         ",
"          + @ # o o o o # # o o X ! S p C C Y . . . . . @ @ $ . w F $ . $ $ # # # # $ $ # # # $ # # $ # # # $ $ # # # # # # $ $ $ $ # # # # # # # # # # $ $ $ # w 8 $ # # $ # # $ # $ $ # $ $ # # $ $ $ $ $ $ $ $ $ # $ $ $ $ $ $ $ $ $ $ $ $ $ $ $ $ $ $ $ $ # # $ $ $ $ $ $ $ $ $ $ > $ $ > 3 > 3 3 $ 4 = % eX>XK.!.H.Q.H.H.!.Q.Q.Q.).K.I.G.G.K.L.F.F.Q.).).).(.H.P.).K.G.D.D.L.S.J.T.iXX X O t 5 3 3 3 > > 3 3 > > 3 3 3 3 3 3 3 < < q q 4 1 < < % x <X XW._.Q.Q.F.H.!.).I.K.W.`.).F.H.).H.W.9Xs.= * 3 , y > r t 4 4 i r 3 < O 3 3 3 < 5 3 3 1 1 % =X3XZ.H.H.).Q.Q.(.Q.c.D.4X$X% 1 * 3 3 3 > 3 3 > > > > 3 3 $ $ 3 3 3 3 < 2 X ` 8XL.L.).!.G.!.!.H.Q.Q.G.1Xh.X 3 3 3 3 3 3 > 3 > > > > > > $ $ > $ $ $ $ $ $ $ $ $ $ $ $ $ $ $ $ $ $ $ $ $ $ $ $ $ # # # $ $ # $ $ $ $ $ $ $ $ $ # # $ $ $ $ # # # # $ $ # # # # # $ $ $ $ $ + $ 8 $ $ # # $ # $ $ $ $ # # $ $ $ $ $ $ $ $ $ # $ # # # $ $ # # # $ $ $ $ $ $ # # # # $ $ # # # $ + + W a . $ $ o @ . . . . a S C V > @.F $ > w w 8 w w w > $ $ r a         ",
"          . # o # o o o # # o X . [ Q M C S E . . . . . @ @ 8 . w I $ . $ $ $ # # # $ $ # # # $ # # # # # # $ $ $ $ # # # # # $ $ # # # # # # # # # # # # # # # w 8 # # # # # # $ # $ $ # $ $ # # $ $ $ $ $ $ # $ $ # $ $ $ $ # $ $ # $ $ $ $ $ # # $ $ $ $ $ $ $ $ > > $ $ $ $ o $ $ $ $ $ $ $ > > 3 $ 4 = % eX>XK.).H.(.).!.).`.!.Q.H.F.K.I.).F.F.H.H.(.'.'.'.(.P.P.).).!.Q.F.[.Y.K.R.DX% X 3 3 3 : 3 3 3 3 3 > $ $ 3 3 3 3 3 3 > 3 t q q 1 1 < 2 % % u.2XW.Q.(.(.H.H.W.H.H.F.).!.D.).H.!.c.,XeX% % X 3 5 # y 3 3 4 < ; - < 4 3 3 3 3 < 4 t 3 1 1 % =X6XZ.H.H.).H.H.Q.(.H.J.5X$X% 1 * 3 : 3 O 3 3 3 > > > > > > $ 3 3 3 3 < 2 X ` 8XL.D.H.!.!.H.Q.Q.).!.W.4Xh.X 4 3 3 3 3 3 $ 3 3 > > > > > $ r > $ $ $ $ $ > $ $ $ $ $ $ $ $ $ $ # $ $ $ $ # $ $ $ # # # $ $ # $ $ # $ $ $ $ $ # # # $ $ $ # # # $ $ $ $ # # # # # # $ $ # # $ $ $ $ # # # $ $ $ $ # # # $ 8 # # $ $ $ $ # # # $ $ # # $ $ # $ $ $ $ $ $ # # $ # # # # # # # # 8 + . Y k . $ o @ @ . . . . a S C S r ,.Y > , w w 8 8 $ 8 $ $ > r a         ",
"          . # o # o o o # # o o . Q R k Z Z Y . . . . . $ @ 8 . w I > . $ # # $ # # $ $ # # # $ # # # # # $ $ # $ $ # # # # # $ # # # # # # # # # $ $ $ $ $ $ 8 # # # # # $ $ $ $ # # $ $ $ $ $ $ $ $ 8 $ $ $ # $ $ # # $ $ $ # $ # # # $ $ $ $ # # $ $ $ $ $ $ $ $ $ $ $ $ $ $ $ > > $ $ $ $ O > > $ $ 4 = % eX,XG.).(.H.).`.!.H.H.H.Q.!.K.F.F.P.Q.H.Q.!._._.(.).P.I.).).`.`.'.P.).!.R.iX% X 3 3 : : 3 3 3 > 3 > $ > 3 3 3 3 3 3 > t s q q 4 1 * x = % R.{.c.`.Q.Q.K.H.W.H.H.).Q.`.!.H.G.).!.3Xc % = t 3 3 v > < 7 3 3 3 < 3 t 3 3 3 3 < 4 t 3 < = % =X7XA.).Q.!.Q.Q.Q.).Q.K.5X$X% 1 * 3 O 3 > 3 3 3 3 > > > > 3 > 3 > 3 3 < 2 X ` 8XL.F.F.Q.).Q.Q.).H.Q.G.4Xh.X 4 4 O 3 3 3 3 > > 3 3 > $ $ > $ $ $ $ $ $ $ $ $ $ $ $ $ $ $ $ $ $ $ $ $ $ $ $ $ $ # # # $ $ $ $ $ $ # # $ $ # $ # # # $ $ # # # $ $ 8 $ $ $ $ $ # # # # # # # $ $ $ # # # $ $ $ $ # # # # $ $ # # $ $ $ $ # # $ $ $ # # $ $ $ $ $ $ $ # # # # $ $ # # $ $ $ $ $ w o . Y a . $ $ O @ . . . . i S V V r ,.R > > r w 8 8 8 8 $ $ > r a         ",
"          o @ o # # o o # o o o . ! S a Z N I . . . . . @ # 8 . $ I > . $ # # $ # $ $ $ # # # $ $ # # # $ $ # # # # # # # $ $ $ # # # # # # # # # $ $ $ $ $ 8 8 # # $ $ $ $ $ $ $ # # $ $ $ 8 $ $ $ 8 8 $ $ # # $ $ $ # # $ $ # $ $ # $ $ $ $ $ $ # $ $ $ $ # # $ # $ $ $ $ $ $ $ $ $ > > > > > > > $ $ 4 = % eX5XD.!.(.H.H.).H.H.n.H.H.`.).I.H.H.Q.Q.W.W.Q.Q.H.(.P.F.!.Q.!._.(.Q.`.^..XiX% X 6 3 3 : > 3 > $ $ 3 3 3 3 3 3 3 3 3 3 t y r 3 < < 1 = % ] 5XY.).`.Q.H.!.Q.Q.Q.Q.`.`.Q.v.'.Q.H.F.6Xi.% d 1 * 3 O 3 7 7 3 r 5 < 5 3 3 3 3 3 < 4 t 3 1 = % %X7XD.).Q.H.H.!.(.(.H.K.4X$X% 1 * 3 > 3 3 > 3 3 3 > > > > 3 $ > $ 3 < * 2 % ` 9XL.K.P.H.H.).Q.).v.W.z.4Xy.X 4 4 O 3 3 3 3 $ > 3 $ $ $ $ > $ $ $ > > $ $ @ 8 $ $ $ $ $ $ $ $ $ $ $ > $ $ $ $ $ # $ $ $ $ $ $ $ # # $ $ $ $ # # $ $ $ $ # # $ $ 8 8 $ $ $ $ $ $ $ $ $ $ # # $ $ $ $ $ $ $ # # # # $ $ $ # # $ $ $ $ $ $ $ $ $ $ $ $ # $ $ $ # # # # # # $ $ # # $ $ $ $ $ # $ w $ . W a . $ o o # . . . . p I C a r / R o > w w w 8 8 w w w $ r a         ",
"        r o $ @ # # o o # o o o o ! S a C V I . . . . . $ # 8 . $ F > . $ # # $ $ $ $ $ $ $ # # $ $ $ $ $ $ # # # # # # # # $ $ $ # # # # # $ $ # # # # $ $ $ $ $ $ $ $ # # # $ $ # $ $ $ # $ # $ $ $ $ $ $ $ # $ $ $ # # $ $ $ $ # $ $ $ $ $ $ $ $ $ $ $ $ # # $ $ $ $ $ $ $ $ $ $ $ $ > 3 r 3 > > $ - h = % eX5XG.Q.H.H.H.Q.H.{.).H.v.!.Q.).).Q.Q.Q.Q.!.!.K.!.`.!.Q.!.!.Q.!.Q.H.).G.|.iX% X 4 5 3 > > 3 > > 3 3 3 3 3 3 > 3 3 $ 3 5 < < 7 < 1 h % b yX XK.`.H.).H.).Q.Q.Q.v.W.!.`.H.).G.^.!.|.9Xb X = g < 4 u < 3 r i r 3 < 5 5 3 3 3 < 5 t 3 4 1 % %X7XZ.Q.H.H.H.Q.(.(.v.D.5X$X% 1 * 3 > 3 3 $ - 3 3 > > : 3 3 $ 3 - 3 < * 2 X ` 8XL.K.(.(.H.).H.).Q.Q.c.1Xy.X 4 4 * 3 3 3 $ $ $ $ $ $ $ $ > $ $ $ $ > $ $ $ $ $ $ $ $ $ $ $ $ $ $ $ $ $ $ $ $ $ $ $ $ $ $ $ # # # # $ > $ $ # # $ $ $ $ # # # $ $ $ $ # $ $ $ $ $ $ $ # # # # $ $ $ $ # # $ # # # $ $ $ $ # $ $ $ $ $ $ $ $ # $ $ $ # $ $ $ # # # # # $ $ $ o # # $ $ $ $ # $ $ > . O.p . $ o o @ . . . . a Y A V k #.Q # # w w w w 8 8 $ > $ r a         ",
"        r o $ @ # # o o # o o o . R Y a C C Y . . . . . @ # 8 . $ F $ . $ # # $ $ $ $ $ $ $ @ # # $ 8 $ $ # # # $ $ $ $ # # # # 8 $ # # # $ $ $ w $ # # $ 8 $ # # # $ $ # # # 8 $ # $ 8 $ # # # # # $ $ $ $ $ # $ 8 8 # # $ $ $ # $ $ $ $ $ $ # $ $ $ $ $ $ $ $ $ $ $ $ $ $ $ $ $ $ $ $ $ $ $ $ > 3 3 3 h = % eX5XJ.H.H.).!.H.Q.F.H.'.!._.Q.!.!.!.!.!.!.K.K.K.K.).!.!.^.!.!.!.F.I.I.G.|.iX% . 4 3 3 $ > 3 3 3 3 3 > 3 3 3 $ $ 3 - t 3 : 7 7 7 2 X & rX,XG.K.G.!.H.v.H.Q.(.`.W.!.!.Q.!.H.).c.!.A.4X<X= % 2 * < O 3 3 w w w > 5 5 3 3 t 3 < 5 t 3 4 = % %X7XA.!.H.`.H.Q.).'.v.D.,X%X% 1 * 3 > 3 3 $ > $ $ $ : 3 3 $ $ 3 3 3 3 < 2 X ` 8XA.D.H.(.Q.).H.H.).W.G.2Xf.X 4 4 O 3 > > O 3 > $ $ $ $ > > > $ $ $ $ $ 8 r $ $ $ $ $ $ $ 8 $ $ $ $ $ $ $ $ $ $ $ $ $ # # $ # $ $ $ $ $ # + # # $ $ $ $ # $ # # $ # # # # $ # $ $ $ # # # $ $ $ $ # # # $ 8 $ $ $ # # $ $ $ $ $ $ # $ $ $ 8 # $ $ # # # $ $ # $ $ $ $ $ $ $ $ $ $ $ $ $ $ $ # + w . @.r . o o o @ . . . . y Y V C y #.Y r r w w w w w $ $ $ $ r a         ",
"        r + @ o # o o # # + + o o ! C k V G Q . . . . . @ # 8 . > F $ o $ @ @ @ $ @ + + @ $ $ + # # $ $ # # $ $ # $ $ $ # # # # $ $ $ $ # # $ $ # # $ $ $ $ # # $ # + # $ $ # $ 8 # # # # # # # w $ # # $ $ $ 8 # $ # # $ 8 8 w # # $ # # # # # $ $ $ $ $ $ # # $ $ $ $ $ $ $ $ $ > > > > > 3 3 3 3 3 $ 4 = % eX>XZ.G.'.).).Q.).).H.}.W.).Q.Q.D.n.D.L.Z.C.C.C.k.D.D.F.G.J.J.G.D.S.Y.D..XiXX X < 3 3 - 3 5 5 5 > 8 > > > > > 3 3 3 - r u o : 2 = % -XyX~.G.K.D.K.(.(.H.!.~.Q.!.!.G.K.H.H.).Q.!.!.W.8X%X% % 6 O 3 r r w , > 5 3 O > 3 3 3 5 5 3 - ; 1 % =X6Xk.).).!.c.Q.H.'.Q.J.5X$X% 2 O 3 5 3 3 t 3 $ 3 3 3 $ $ > > $ 3 3 < 3 6 X ` 8XJ.H.H.).`.H.Q.(.v.v.G.oXf.X 3 5 3 3 $ $ $ > > > > w > > > @ $ $ $ $ > $ $ $ $ $ @ $ $ $ $ $ $ $ # $ $ $ $ $ $ > $ $ # $ $ $ $ $ 8 $ $ # # $ # # # $ $ $ $ # $ $ $ $ # $ $ # $ $ $ $ $ 8 $ # # # # # # # # # # $ $ $ $ $ # # $ # # # $ 8 8 # # # # # $ $ $ # # # $ $ $ $ $ # # $ $ # # # # @ $ o . F y . $ @ @ $ . . . . y V N C y #.! $ $ 8 8 w w w w w w $ w a         ",
"        r . @ o # o o # # o o o . Q Y a a Z W . . . . . @ # $ . 8 F $ o $ $ $ $ # $ $ @ $ $ $ $ # # $ $ # # # # # # $ $ # # # $ # # $ # # # # $ $ $ $ $ $ $ # # $ # + # # # # # $ $ # # $ $ $ # $ # # $ 8 $ # # $ w 8 # $ $ # # $ $ $ $ $ $ $ $ $ $ $ $ $ > > > $ $ $ $ $ $ $ $ $ $ > $ > > > 3 3 3 3 $ 4 = % rX,XK.).H.H.H.W.G.(.F.G.Q.}.^..X,X,X1X3X3X1X1X4X3X3X3X3X6X6X6X,X,X4X1X,XpXDX2 X t $ $ - 3 5 < : $ r r 3 5 r w 3 < t 3 > t : : 1 X w.yX}.H.`.H.[.D.H.!.H.c.`.!.l.H.Q.).H.).).Q.!.!.Q.~.yXw.X * 1 : 3 r r > < 4 3 - - 3 3 3 3 5 3 3 ; 1 % =X6Xk.H.H.!.G.!.!.'.Q.G.5X$XX 1 X 3 3 > 3 3 > $ > > $ $ $ $ $ O 3 3 3 < 1 X ` 8XJ.H.H.Q.(.).).Q.H.Q.W.1Xy.X 3 t 3 3 $ > > $ > , , $ $ $ $ $ $ $ $ $ $ $ $ $ $ $ $ $ $ $ $ > > > $ $ $ $ $ $ $ $ $ $ $ $ $ # $ $ $ $ $ # # w 8 $ $ $ $ # # # $ # # # # $ $ # $ $ $ # $ $ # # # # # # $ $ $ # # $ $ $ $ # # $ 8 $ # # $ $ $ # # $ $ $ $ $ # $ $ $ # # $ $ $ $ $ $ 8 $ $ $ $ @ @ o . / V . # @ @ @ . . . . y I S M w @./ o > r r w 8 8 8 w w $ w a         ",
"        r + @ o o o o # # # # o o Q S a C S W . . . . . @ # $ . 8 F $ . $ $ $ $ # $ $ $ $ $ $ $ # # $ # # # # # # # $ $ # # # $ # # # # # # # # $ $ $ $ $ # # # $ # # # $ # # # $ $ $ $ $ $ $ $ # # # $ $ $ # # # $ $ # $ $ # # $ $ $ $ # # $ $ $ $ $ $ $ $ $ $ $ $ $ $ $ $ $ $ $ $ $ $ $ > > 3 3 3 $ - 4 * % rX,XD.).(.).H.).`.U.m.I.K.c.6X:X+Xd.d.d.d.d.d.+X+X+Xd.d.+X#X#X+X@Xs.s.s.#X*X< O $ 3 - - 3 < < $ $ r 3 5 3 r r < < - t 3 > 3 1 = c yX5XG.Q.~.~.).F.).G.W.H.n.m.'.'.B.Q.W.Q.Q.H.H.H.H.^.|.<X~ X g O 3 3 y y 3 3 3 3 3 3 3 3 < 5 3 3 = 1 % %X7XD.).H.!.Q.(.'.(.Q.D.5X$XX 1 X 3 3 > 3 > > > > $ O $ 3 > > $ 3 4 3 < 1 X ` 8XJ.H.H.H.Q.H.Q.b.!.!.W.4Xp.X 3 t 3 3 3 3 3 $ $ $ $ $ $ $ $ $ > > $ $ $ $ $ $ $ $ $ $ $ $ $ $ $ $ $ $ $ $ # $ # # # $ $ $ # $ $ $ $ $ $ # # $ $ $ $ 8 $ $ $ $ # # # # $ # # $ 8 $ # # # # # # # # # $ $ $ $ $ $ $ $ $ # # # # $ $ $ $ 8 8 8 # # $ $ $ # # # $ $ $ # # # $ w # # $ $ $ $ $ $ @ @ $ . O.a o $ @ @ @ . . . . p Z C Z p =./ o $ r r w 8 8 8 w w $ w a         ",
"        r + @ o # # # # # # o o . R S p V M I + . . . . @ @ 8 . w F $ . $ @ $ @ $ $ $ $ $ $ $ # # # # # # # # # # $ $ $ # # # # # # # # # # # # $ $ # # # # # # 8 $ $ $ $ $ $ $ $ $ $ $ $ # # # $ # # # # # # $ # # # # $ $ $ $ $ $ $ $ # # $ $ $ $ $ $ # # # # $ $ $ $ $ $ $ $ $ $ $ $ $ > 3 > 3 > $ 3 4 * % rX>XZ.Q.).).H.H.!.F.[.D.L. X<X& % & & % % & & % % % % X X X X X % % % % X X . 3 r 3 4 3 < : 3 3 r $ $ < 3 r r 3 < > u 3 4 4 X X eX8Xk.D.).B.~.v.'.D.!.`.v.[.U.b.c.Q.Q.!.`.!.H.!.).F.D.W.,XeX1 X 4 < 3 3 t t 3 3 3 3 3 3 3 < 5 3 3 = 1 % %X7XD.).H.Q.!.).`.Q.Q.D.4X$X% 1 X 3 3 3 3 3 > > $ $ $ > 3 3 3 3 3 3 3 < 1 X ` 8XJ.H.H.Q.Q.H.Q.Q.).W.v.4Xy.X 3 t 3 3 $ 3 3 $ $ $ $ $ $ $ $ $ > $ $ $ > > > $ $ $ $ $ $ $ $ $ $ $ $ $ $ # # $ # # # $ $ $ # $ $ $ $ $ # # # $ # # $ $ $ $ $ # # $ $ $ $ # + # $ $ # # # # # # # # $ $ $ $ $ $ $ $ $ # # # # # # $ $ $ 8 8 8 # # # # # # # # $ $ $ # # # $ 8 # # # # # # # # @ $ $ . R a . $ $ $ $ . . . . a A N S > &.Y > 3 w 8 w w w w w w $ w a         ",
"        r + @ o o # # # # # o o X @.W a Z C W . . . . . @ @ 8 . r Y $ . $ @ @ @ $ $ $ + @ $ $ # # # # # # # # # # $ $ $ # # # # $ # # # # # # # # # # # # # # # 8 $ $ $ $ $ # $ # $ $ $ # # # # $ $ $ # # $ $ # $ $ # # $ # # $ $ $ $ $ $ $ $ $ $ $ $ $ $ $ $ $ $ $ # $ $ $ $ # $ $ $ $ > 3 > > 3 3 > 3 4 * % rX|.D.H.).H.).H.H.Q.c.{.c.1XN.% c c c c c c c x x c c x x x x x g g f c f x f 1 < 5 4 3 3 3 3 r r 3 < < < r r 3 < 4 5 O 4 * % j.0XT.G.H.!.H.Q.Q.}.^.k.}.!.).).(.'.).Q.(.).Q.Q.!.L.S.K. X}.6Xf.% = < < < - 0 t 3 5 > 3 3 3 4 4 3 3 < 1 % %X3XD.H.H.Q.!.Q.'.H.Q.D.4X$XX 1 X 3 3 3 3 3 3 $ $ $ > 3 > $ > $ $ 3 3 < 1 X ` 8XJ.H.(.(.(.Q.H.).).H.W.1Xy.X 3 3 - 3 $ > > > $ $ , $ $ $ $ $ $ $ $ $ $ $ $ > $ $ $ $ $ $ $ $ $ $ $ $ $ $ # $ $ $ $ $ $ $ # $ $ $ $ $ $ $ $ $ $ # # # # # # $ # $ $ $ $ # # # $ $ # # $ $ $ # # # # $ $ $ $ # # # # # # # # $ $ $ $ # $ # # $ # # # # # # # # # $ # # # # $ # # # $ $ $ $ # @ $ o + Q k . @ @ @ $ . . . . p E M C $ @.F r $ w 8 w w w w w $ $ w a         ",
"        r + @ o + # # # # # # o . ! S y C Z E . . . . . @ @ 8 . y Y $ . $ $ $ @ $ $ + + @ $ $ # # # # # # $ # # # # # # # # # # $ $ # # # # # # # # # # # # # # $ # # $ $ # # # # # $ $ $ $ $ $ # $ 8 8 $ $ # # $ $ # # $ # # $ # # # $ $ # # $ $ $ $ $ $ $ $ $ # # # $ $ $ $ # $ $ $ $ > > > > 3 > > 3 4 = & rX>XD.G.).F.'.!.`.`.`.b.G. XN.X 1 < 1 1 = = = ; < 1 1 < < < < < = 4 = d % 1 < < 7 < 4 3 3 3 r 0 r 3 < < < 3 r 3 3 O 5 3 = % _ 8X].Z.!.H.).F.H.~._.Q.H.).!.!.W.`.B.(.b.Q.Q.W.Q.H.D.L.Y.(.b. X9X_ X 1 < 1 < t t 4 4 : 3 3 3 5 4 3 - < 1 % %X4XZ.H.(.Q.!.Q.).H.Q.D.4Xg.X 1 X 3 3 $ 3 3 3 $ O O > > $ $ > > $ 3 3 < 1 X ` 8XL.H.H.Q.Q.).G.(.!.!.^.1Xf.X 3 3 $ > $ > > > $ $ $ $ $ $ $ > > $ $ $ $ $ $ $ $ $ $ $ $ $ $ $ # # $ $ $ # $ $ $ $ $ $ # $ $ $ $ $ $ $ 8 8 8 $ $ # $ # # # 8 $ # # # $ $ $ $ # # $ # # $ 8 $ # # # # # # $ $ # # # # # $ $ $ # $ $ # # # # # 8 $ # $ # # # $ # # # $ $ # # # $ # # $ $ $ $ # # $ o . Y a . $ o @ $ . . . . p A M C a @.R $ o r w 8 8 8 8 $ $ # w a         ",
"        r + @ o o o # o o # # o . H Y V S M W + . . . . $ @ 8 . r Y $ . $ $ $ @ $ $ $ # @ $ $ # # # # # $ $ # # # # # # # $ # # # # # # # # # # # # # $ $ $ # # # # # $ # # # # $ # # # $ $ $ $ # $ $ $ $ $ $ # $ $ # # 8 $ # 8 $ # # $ $ # # $ $ $ # # # # # # # $ $ $ $ $ $ $ $ $ $ $ $ $ > > > 3 > O 4 = & rX4XD.H.).H.H.v.Q.Q.~.B.`.4Xh.X 7 7 7 1 1 = = < < = = < 1 1 1 1 1 1 1 d = 1 = < < 3 3 t t t r r 3 < < < < 3 3 3 3 5 : ; X f yXoXk.Y.D.Q.`.v.Q.W.~.`.^.Q.z.W. X,X}.}.b.(.`.~.`.!.L.Y.k.H.}.B.,XyXc % < < 1 < 4 4 < 3 3 3 3 4 4 3 3 < = % %X6XA.H.).!.!.Q.(.H.Q.D.5Xg.X 1 X - 3 $ 3 3 3 > $ $ $ $ $ $ 3 > $ 3 3 < 1 X ` 9XA.F.H.H.Q.`.).Q.Q.!.Q.1Xy.X 3 3 $ > $ > $ > > , $ $ $ $ $ > r > $ $ $ $ $ $ @ @ $ $ $ $ $ $ # # $ $ # # # $ $ $ # # # # $ $ $ $ $ $ $ 8 8 # # # $ $ $ 8 w # # $ $ $ $ $ $ # $ $ # # $ $ $ # # # # # # # # $ $ # # $ $ $ $ # # # # # $ $ # $ # # $ $ # # $ $ # # # $ $ # # $ # # # # # # # # $ @ . Y y . r # @ $ . . . . a C C V y O.R @ r r w 8 8 8 8 w w $ w a         ",
"        r + @ o o # # o + o o . o R Y a C Z ... . . . . $ @ 8 . r F $ . $ $ @ o $ $ $ $ @ # + + $ $ # # $ $ # # $ $ # # # # # # # # # # # # # $ # $ $ $ $ $ # # # # # $ $ # # # $ # # # # $ # # $ $ $ # # $ $ $ $ $ $ $ 8 $ # $ $ # # $ $ # # $ # # # $ $ $ # # $ $ > $ # # $ w $ $ $ $ $ $ $ > 3 3 3 O 4 = % eX5XJ.).).).).).!.Q.Q.`.H.XXh.X 5 7 7 1 1 d d 1 1 1 1 1 7 7 7 1 1 2 1 = 4 2 < 4 4 3 3 t 3 3 3 3 3 3 4 3 3 5 4 3 4 O 6 X = -X4Xk.[.K.).Q.Q.Q.).Q.(.(.v.^./.6Xh.' 9X|.G.).).Q._.!.F.K.!.).(._./.4X:X% = 1 < < 7 < < 3 t 3 3 4 4 t 3 1 * % %X3XZ.c.H.!.Q.Q.Q.Q.!.D.5Xg.X 1 O 3 3 > > > 3 3 > $ $ > > $ > $ $ 3 3 < < X ` 9XA.H.H.Q.Q.H.).b.Q.Q.c.1Xf.X 3 3 - > $ $ $ > > > $ $ $ $ $ $ $ $ $ $ $ $ @ $ @ $ $ $ $ @ @ w $ $ $ $ $ $ $ $ $ # # # # # # $ $ $ $ $ # # # # # $ $ $ # # $ # # 8 8 8 # # # # $ $ # # # # # # # # # # # # # $ $ $ $ $ $ $ $ $ $ $ # # $ $ # $ # # # # # # # $ # # # $ 8 $ # $ $ # # $ # # # $ $ $ . @.k o @ @ $ $ . . . . k I I V $ &.Q o 3 8 $ 8 8 w w w w $ w a         ",
"        r o # # # # # # # # # o . H F p C N I . . . . . @ o $ . r Y $ . @ # $ @ $ $ $ @ @ $ $ $ # # # # $ # # # # $ $ + + # # # # # # # # # # # $ # # # # # # # # # # # $ $ $ $ $ # # # $ $ $ $ $ $ $ $ $ $ # # $ $ 8 $ # $ $ $ $ # # # $ $ $ # $ # # # # $ $ $ # $ $ $ $ $ $ $ $ $ $ $ > 3 3 > > 5 3 3 4 = % rX4XD.H.c.).H.!.!.b.Q.F.K.oXu.* $ 7 1 1 1 d 1 1 1 1 < 1 < 7 1 < 1 1 1 1 < < 4 3 < 4 4 * < < 1 < 5 > 3 y y 3 3 t 3 < < X w.8XD.D.).(._.~.v.Q.H.(.).P.F.z.>XiXf & j.0XC.I.I.H.!.`.b.Q.H.Q.`.B.^.{.7Xs.X O O : 4 6 < 3 3 3 3 < < 3 < < = % %X3Xk.Q.!.Q.!.Q.(.(.H.J.4Xd.X = O 3 > > 3 3 > $ $ > $ $ > 3 > $ $ O 3 3 1 X ` yXJ.H.(.H.H.Q.H.(.Q.W.v.2Xy.X 3 3 $ 3 3 > 3 > > > > $ $ $ > $ $ $ $ $ $ $ $ $ $ @ @ $ $ $ @ # # # # $ $ $ $ + # $ # # $ $ $ $ $ $ $ $ # # # # $ 8 $ # $ $ # $ $ # # # # $ $ # $ $ $ $ $ $ $ $ $ # # # $ $ $ # # $ $ $ $ $ $ # # # # # $ # # $ # # # # $ $ $ 8 $ $ $ $ $ # # # # $ $ $ # # # @ @ @ . Q k . $ @ > o . . . . k I C N > *.R o r r w w w 8 8 $ w $ w a         ",
"        r o # # + # # # o # # o . R Y k C Z Y + . . . . @ @ 8 . 8 Y $ . @ # $ @ $ $ @ # + @ $ $ # # # # # # # # # # # # # # # # # # # # # $ $ # $ # # # $ $ $ # $ $ $ $ $ $ $ $ # # # $ $ $ # $ $ $ $ $ 8 8 $ $ # $ # # # $ $ # $ # # # # # # # > $ $ $ $ $ $ $ $ $ $ $ $ $ $ $ > $ $ $ $ > > $ $ > > O 4 = & rX5XL.Q.).F.F.c.H.(.H.F.m.XXh.X 1 x x x f c f f f f f f f f f f f f f f 2 2 f f f 2 x f f < 1 7 O y r 3 r 3 u O * f X b pX|.k.I.b.B._._.Q.H.H.H.).U.K.^.yX] X % 1 R.oXk.I.).(.W.`.!.`.!.Q.!.!.G.|.8X_ X 2 4 : < 4 < 3 t 3 < < 3 3 4 * % %X7XZ.G.c.Q.!.Q.).(.H.D.5Xd.X < O $ > - 3 3 $ $ $ > > > 3 3 3 3 3 - 3 3 < X ` 9XA.H.).H.H.).!.).).Q.G.1Xy.X 3 3 - 3 3 $ > w > > > > > $ $ $ $ $ $ $ $ $ $ $ $ $ $ $ $ $ $ $ $ $ $ $ $ $ # # $ $ $ $ $ $ # $ $ $ $ $ # # # # # $ # # # $ $ $ $ # # # # # # $ $ $ # # # # $ $ $ # $ $ $ $ # # # # # # # # # $ $ $ # $ $ $ # 8 $ # # # $ # # $ # # # # $ $ $ # # $ $ $ $ # # $ $ @ . R a . $ o $ o . . . . a Z k I a / ! 3 $ r 8 w 8 8 8 $ w $ w a         ",
"        r o # @ + o o o o o o o . Q Y M V C I + . . . . @ @ 8 . $ F @ . $ o $ $ $ $ @ @ @ @ @ @ # # # # # # # # # + # # $ # # # # $ $ # # # # # # $ $ $ $ # # # $ $ # # # # # # # # # $ $ # # # $ $ $ $ $ $ $ $ $ $ # # $ $ $ # o o # # $ $ $ $ # # # # $ $ $ # $ $ $ $ $ $ $ $ $ $ > > $ $ > > > > 3 * 4 * % rX>XK.`.).H.).Q.Q.b.H.).F.XXN.= X X % % % & & % % % % % % % % % % X % X X X % % % % X X X = < < < O 5 O < 4 * 4 g X = <X>Xz.W.{.'._.Q.Q.H.`.).(.F.I.c.0Xg.X 2 x X ) uX|.l.`.b.Q.).H.).F.D.H.Q.c.Q.XX9X= X < O t < 3 3 3 3 < < 3 < 1 = % %X6Xl.H.H.!.!.Q.).(.H.D.4Xg.% 1 X $ 3 3 3 3 $ $ $ > > > > > $ $ $ - 3 3 < X ` 8XZ.H.).Q.Q.H.Q.Q.).G.G.1Xp.X 3 3 - 3 3 $ > > $ $ $ > > $ @ $ $ $ $ $ $ $ $ @ $ $ $ $ $ $ $ $ $ $ $ $ $ # # $ $ $ $ $ # # $ $ $ $ $ $ # # # # $ $ # # $ $ $ # # # # # # # # w $ # # # $ $ 8 $ $ # $ $ $ $ $ # # # # # $ $ $ $ $ $ $ $ 8 $ # $ # # # $ $ $ # # # # # # # # # # # # $ $ $ $ $ $ $ @ . W a . > + $ o . . . . a U V S r R R 3 . r 8 w 8 8 8 $ w $ w a         ",
"        r o o # + o o o o o o o . Q Y a V Z I . . . . . @ @ 8 + 8 F @ o $ o $ $ $ $ $ $ $ $ $ $ # # # # # # # # # + # $ $ # # $ # $ $ # $ $ # # $ $ 8 $ $ # # # $ # # # # # # # $ # # $ $ # # # $ $ $ $ $ $ # # $ $ $ $ $ $ $ # $ $ $ $ $ # # # # # # $ $ $ $ $ $ $ $ $ $ $ $ $ $ $ $ > $ $ 3 3 > 3 3 O 4 * % eX5Xk.H.H.'.F.Q.).H.(.b.Q.{.|.g.i.i.a.a.a.a.a.a.a.s.a.a.a.a.a.a.a.a.s.a.a.a.a.s.s.s.a.s.` X 1 1 7 5 5 z : < < 1 % % %X7XC.^.}.v.B.Q.B.).G.'.G.).!.^.>XtX= X h 4 2 % ] 8X].z.!.H.H.`.!.K.K.F.`.'.!.D.4X-XX X h X < 6 3 3 4 4 4 3 O 1 = % %X3Xl.!.`.!.Q.H.Q.H.H.D.4Xg.% 1 O $ 3 3 3 3 3 > $ $ $ $ $ $ $ $ $ - 3 3 < X ` yXA.D.H.Q.).H.H.H.).v.W.1Xf.X 3 3 - 3 3 $ $ $ $ $ $ > > $ # $ $ $ $ $ $ $ $ @ $ $ $ $ $ $ $ # $ $ # # $ $ $ $ # $ $ $ # # $ $ $ $ $ # # # # $ $ $ $ # $ 8 $ # # # # $ $ $ $ 8 $ # # # $ $ $ # # # # # # # # # # # # $ $ $ $ # $ # # # $ $ # # # # # # $ $ # $ # # # # # # # # # # $ $ $ $ # $ $ @ . W a . r o $ o . . . . p I Z V o O.[ r $ r 8 w 8 8 8 $ w $ w a         ",
"        r o o o o # # # # # o . . R R a C Z E . . . . . @ # 8 . r Y $ o $ o @ $ $ $ $ $ $ $ $ $ # # # # # # # # $ # # $ $ # # $ # # # # $ w $ # $ $ 8 $ $ # # $ $ $ $ $ $ $ $ $ 8 $ # # # # # $ $ $ $ $ $ $ $ # # # $ $ # # # # # $ $ $ $ $ $ $ # # $ $ $ $ $ # $ $ $ $ $ $ $ $ @ $ $ $ $ $ > 3 $ 3 $ O 4 = & eX>XD.!.v.(.H.!.Q.`.!.v.`.H.!.7X7X1X4X8X6X3X6X4X5X1X3X6X3X6X6X3X3X5X3X6X6X6X4X1X1X4X5X7XeXf = g < 3 5 : < t @ % = ] yX|.z.G.`.`._.~.Q.Q.H.K.c.H.^./.uXc X v X < x X * h.5X/.W.).Q.Q.G.F.F.D.I.H.H.!./.uXi.% % = < 6 < < < < 4 3 * 4 = % %X7XA.!.Q.Q.H.Q.Q.Q.Q.D.4Xd.X 1 O 3 3 > 3 - 3 > $ $ $ $ $ $ $ > 3 3 3 3 1 X ` yXA.c.H.H.(.H.Q.Q.).G.W.2Xf.X - 3 - 3 3 $ > > > > > > $ $ @ $ $ $ $ $ $ $ $ $ $ $ $ $ $ @ @ # $ $ # # # $ $ $ # # $ $ # # $ $ $ $ # # # # # # $ $ $ $ $ $ $ $ $ $ # # # # # $ # # # # # # # # o # # # $ $ # $ $ # # # # # # # # # # # # # # $ # # # # # # # $ $ # # # # # # # # $ $ # # # # @ $ $ . R k . r # $ o . . . . p Z V A w #./ > 3 r 8 w 8 8 8 $ w $ w a         ",
"        r o o o o # # # # # o . . ! Y a S Z W . . . . . @ # $ . r Y $ o $ o $ $ $ $ $ $ @ @ $ $ # # # # # # # # $ # # $ $ # # $ $ # # # $ $ $ + # # # # # # # $ $ $ $ $ $ $ $ $ 8 $ # # # # # $ $ # # # $ $ $ # # # $ $ # # # # + o # # $ $ $ $ $ # # # # # # + # $ $ $ $ $ $ $ $ $ $ $ $ $ > > > 3 - O 4 = % eX X[.`.Q.H.'.!.Q.H.!.}.}.Q.c.G.Z.S.S.J.G.G.D.S.C.S.D.G.G.G.H.D.F.D.D.G.G.G.D.S.S.L.C.C.uX| X f < 3 3 < 6 ; h % d yX3Xz.!.).G.b.~._.~.v.Q.H.).!.|.uX] % & h 1 1 O h X 2 9X5XZ.H.{.H.).Q.H.).).n.).W.!.^.9X' % 1 < < 3 3 4 < 4 3 < 4 = % %X6XZ.!.Q.H.G.Q.(.(.).D.5Xd.X 1 X 3 3 > $ $ $ > $ $ $ $ $ > > 3 3 3 3 3 < X ` 9XZ.F.(.Q.Q.H.Q.(.`.Q.W.2Xp.X - 3 $ 3 3 $ > $ > > > $ $ $ $ $ $ $ $ @ @ @ $ $ $ $ $ $ $ @ @ $ $ $ # # # $ $ $ $ $ $ $ # # $ $ $ # # # # $ $ + # # # $ $ $ $ # # # # # # # # # # # # # # # # # # # $ $ $ $ $ # # # # # # # # # $ # # # $ # # $ # # # # # $ $ # # # # # $ $ $ # # # # # # # # @ $ $ . W a . $ # $ o . . . . a S N S y / Y $ @ r 8 w 8 8 w $ w $ w a         ",
"        w o o o + o # o o # o . . R Y k C V I . . . . . $ # 8 . 8 Y $ + $ # $ @ $ @ @ + # $ $ $ # # # # # # # # # # # $ $ # # # $ $ $ # # # # + # # # # # # # # $ $ # # # # # # 8 # # # # # # $ # # # # # # # # $ # # $ # # # $ $ $ $ $ # o + + $ $ $ $ $ $ $ # $ $ $ $ $ $ $ $ $ $ $ $ $ $ > > 3 3 $ $ 4 = % eX,XD.G.).).H.v.!.D.K.^.z.`.{.^.K.F.F.Q.Q.Q.H.H.J.J.J.!.!.Q.!.F.F.K.!.!.Q.~.!.K.F.H.[.C.5Xe.% g 4 t 3 2 X = X % eX>XG. XQ.K.D.^.G.H.!.!.`.Q.H.[.3X&XX = g % 2 2 < u 2 X ( 8XXXF.).c.Q.!.!.).(.c.).`.Q.G.,X9Xf X h 3 < 3 4 < 4 3 < 4 = % $X3Xl.!.).!.F.Q.(.(.).D.5Xd.X 1 X 3 3 $ $ $ - 3 $ $ $ > $ > > 3 3 - - 3 < X ` 8XA.H.).Q.Q.Q.H.Q.Q.Q.W.2Xy.X - 3 $ > 3 > > o $ $ $ $ $ $ > $ $ $ $ @ @ @ @ $ $ $ $ @ @ $ $ # $ $ $ # # $ $ $ $ $ $ # $ $ # $ $ # # # # $ $ # # # # # $ $ # # # # # # # $ $ # # $ $ $ # # # # $ $ $ $ $ $ $ # # # $ $ $ $ $ $ $ $ # # $ # # # # # # # $ $ $ # # # # # # $ # # # # # # # # # @ $ $ . Y a . $ # $ o . . . . p S N V > O.Q > $ r 8 w w w w $ w $ w p         ",
"        w + o o + + o o o o o . X Q R V V N S . . . . . $ # $ . @ Y $ . $ @ $ # $ @ + # # # $ $ # # # $ # # # # + # # $ $ # # # + # $ # # # $ $ 8 $ $ $ $ $ # # $ $ $ $ $ # # # $ # # # $ # # # $ # # # # # # # # # + # # # # $ # # $ $ $ $ $ $ # o o # # # # # $ $ $ $ $ $ $ $ $ $ @ $ $ 3 3 > $ $ $ O 4 1 % eX,XK.).v.Q.).!.c.K.K.Q.z.!.v.H.H.I.I.`.`.`.!.!.^.!./.^.!.!.!.H.H.K.H.W.Q.Q.^.!.F.(.F.S.0X] % f = t 3 * < = % j.0X/.K.G.c.H.!.c.Q.).H.`.W.}.W.|.<X< X 1 = 2 < h < O g 1 X g.0X!.K.!.Q.`.}.H.P.F.(.Q.(.H.G.4X-X* X 4 3 < 4 4 5 3 * 6 * % $X7XD.K.c.).H.).(.Q.).D.4X+X% 1 X 3 3 $ $ $ 3 3 > $ > > $ > > 3 3 3 3 3 < X ` 8XD.G.H.H.Q.`.Q.(.H.W.v.2Xy.X 3 3 $ > > $ > > > > $ # # $ $ $ $ $ $ $ @ @ $ @ $ $ @ o # $ r # $ $ $ $ $ $ # o $ $ # # # $ # $ # # # # # $ $ $ $ $ # # $ $ # $ $ $ $ $ # # # + # # # # # $ $ $ $ $ $ $ $ # # $ $ $ $ $ # # # # $ # # # $ # # # # # # # # # # # # # # # # # # # # # # # # # # @ $ $ . Y a . $ # $ o . . . . y C U S > =.@.o $ r 8 w w w w $ $ $ w p         ",
"        r o o o o o # # # # o o . R R k a A ... . . . . @ $ # . r S > + $ # + $ # $ $ # # # # + # # # $ $ # # # # # # # # # # # $ # # # $ $ # # # # $ # # # # # $ # # $ $ # # $ # # # # $ $ $ $ # $ $ # # $ $ # o # $ $ $ $ # # $ $ # # $ $ $ $ # # # # # $ $ $ @ @ $ $ $ $ $ @ $ $ $ $ $ $ w w $ 0 3 < 6 = % eX>XD.H.'._.~.G.!.G.Q.H.Q.H.'.).H.).(.).Q.Q.Q.H.H.Q.G.H.!.Q.H.H.!.H.Q.Q.W.H.!.'.).H.).C.6Xe.% f < 6 * = d % c uXA.K.F.!.!.).W.(.'.'.b.`.!.J.|.iXc X < 4 4 < 4 5 : < < u % % :X4XJ.Q.}.Q.b.F.I.P.'.B.~.G.!./.yXi.% % t 4 < 5 5 5 O 4 = % =X4XD.).H.H.Q.Q.}._.H.D.4X+X% < O > w $ o > 3 3 $ $ o $ > > 3 > 3 3 3 O < X ) 8XK.Q.(.(.H.b.Q.n.).B.W.4Xp.X $ 3 3 > 3 $ > $ > > $ $ $ @ @ $ $ $ $ $ $ $ $ $ $ $ # # # # # w $ $ $ $ $ $ # + $ w $ # $ $ $ # # # $ 8 # # # 8 # + # $ $ $ # $ $ $ $ $ $ $ $ $ $ $ $ # # $ $ w $ # # $ $ $ # $ $ # # # # # # # # # # # # # $ # # # $ $ $ $ # # # $ $ $ $ $ $ $ $ $ $ $ $ $ $ $ > # . Q M . > o o @ . . . . a I a V a / R , > w w w w $ $ $ $ $ w a         ",
"        r o o o o o o # # # o o . ! S k M I W . . . . . @ $ # . o R # . # $ $ o + # # # # $ $ $ # # # # # # # # # # # # # # # # # # # # $ $ $ # # # # # # $ $ $ # # # $ $ # # $ # # # $ $ $ $ $ $ $ $ $ $ $ $ # $ $ $ $ # # # $ $ $ # # # # # # # # # # # # # $ @ $ $ $ $ $ $ $ $ $ $ $ $ $ > > r r 3 * 1 = % eX XD.H.(.~.~.G.K.`.v.H.H.).v.Q.`.H.H.H.Q.Q.Q.Q.Q.).Q.Q.Q.Q.H.Q.).H.H.!.!.Q.!.Q.H.Q.!.Z.8X] X f 1 * X x % % tX3XL.K.Q.Q.G.W.b.Q.Q.b.(.).l.].8X] X * 3 3 5 3 3 5 5 7 4 3 4 % c 9X5X/.~.Q.H.I.I.n.'._.B.).[.J.|.iX~ X ; < z O : 6 < 4 % % $X4XC.K.!.H.Q.Q._.(.Q.D.3X#X% 2 X $ r y 3 $ > > $ $ $ , > $ > > > 3 3 < < . _ 8XF.b.(.).).Q.!.F.P.b.B.4Xy.X $ 3 3 > 3 $ > $ $ $ $ $ $ $ $ $ $ @ $ $ # $ $ $ $ $ $ $ $ $ $ $ $ # $ $ 8 $ $ # $ $ $ # $ $ # $ # # $ $ # # # $ $ 8 8 $ # $ 8 $ $ $ $ $ $ $ $ # # $ $ # $ $ $ $ # # # $ $ $ # # # # # # # # # $ # # # $ $ # # # # # # $ $ $ # # # # $ # # # # # # # # # # # # $ + r . Y V . @ @ @ @ . . . . a S S S > Q [ > $ w w w 8 8 > > > $ w a         ",
"        8 + o # o o o o o # o o X ! R a F M Y . . . . . $ @ # + o R $ . $ > . w # # # $ $ # # # # # # # # # # # # # # # # # # # # # # # # # $ $ $ # # # $ $ $ $ $ # # $ $ # # $ # # $ $ $ $ $ $ # $ $ # # $ $ # $ $ $ # # # $ $ $ $ # # # # # # $ $ $ $ $ # $ $ @ $ $ $ $ $ $ $ > $ $ $ $ $ $ > w 3 > O 4 = % rX XL.U.P.B._.H.L.H.H.H.).!.H.H.Q.Q.).H.Q.H.v.H.H.Q.H.H.H.H.H.H.Q.Q.Q.Q.H.H.Q.Q.H.Q.G.C.8X] % g * < < d % g.0Xz.^.Q.Q.Q.G.Q.Q.!.H.P.F.L.J.7Xg.% X 4 5 : < 3 > 3 5 7 4 - ; d % ~ 9X.XB.}.}.b.(.).(.b.(.H.D.[.z.1XrXf . 2 < u 3 6 X g = % =X7XZ.K.G.G.Q.Q.Q.b.H.L.5X+X% 1 X r > O O $ $ $ $ > > > $ O $ $ > 3 3 3 < . _ 8XG.b.(.F.F.!.!.P.P.Q.B.2Xu.X $ 3 3 > > $ $ $ $ $ $ $ $ $ $ $ $ @ $ $ $ $ $ $ $ $ $ # # $ $ $ $ # # $ $ $ # 8 $ # # $ # # $ $ $ $ $ $ # # $ # $ $ $ # # # $ # # # $ $ $ $ $ # o # $ # $ $ # # # # # # $ # # # # $ $ # # # # $ # # # # $ # + $ # # # # # # $ # # # # # # # # # # o o # # o # $ $ $ . R k . $ $ $ @ . . . . a A C C r [ ! . > w w w 8 8 w $ $ w w p         ",
"        w o o # @ # o o o o + o . / R V C V S + . . . . $ @ # + y S # # # # # $ $ # # $ # # o # # # # # # # # # $ $ $ # # # # # # # # # # # $ $ $ # # # # # # # $ # # $ $ $ $ $ # # $ $ # # # # # # # # # # $ # # # # $ $ $ $ # $ $ $ $ $ $ $ # # # $ $ $ $ $ $ # $ $ $ $ @ $ $ > $ $ $ $ > > $ $ > > O 4 * % rX>XL.K.U.Q.~.H.H.H.`.Q.H.c.).).H.H.!.G.Q.Q.G.).H.H.Q.!.Q.Q.!.Q.H.Q.H.H.H.G.H.!.Q.G.!.C.8X] X v < 6 1 X _ 0XC.!.`.B.Q.!.G.!.Q.!.G.H.K.C.1XrX= X - 4 < O < t 3 3 5 : < h t ; d % s.yXT.T.W.`.!.`.'.(.H.(.'.D.{.J.7X:X= X 1 O 5 < 2 ; % % $X7XL.[.!.!.!.Q.Q.H.G.D.,X&X% = X $ @ O 5 O $ $ $ > > , $ $ $ $ > 3 3 3 4 X ) 6XL.).'.F.K.H.Q.H.P.Q.v.oXu.X - 3 3 > $ > $ $ $ $ $ $ $ $ $ $ $ $ $ $ $ $ > # $ $ $ # # # $ # # # # # # # # 8 # # $ $ # # $ # # # # $ $ $ $ # # # # $ # # # # # # # # # # $ $ # # # # # $ $ # # # # # # # # # # $ $ # # # # # # # # # # # + $ # # # # # # # # # # # # # # $ # # # # # # # # # > # o F r @ > $ @ @ . . . . a A C V > @.*.y , w w w 8 $ $ $ # 8 w p         ",
"        r o o o @ # # # # # # o . R R r Y C W . . . . . @ @ # + r Q $ . > o $ o # o # # $ # # $ $ # # # # # # # $ $ $ $ # # # # $ $ # # # $ # # # # # # # # # $ # # # # # # # # # # $ $ # # # # # $ $ # # $ $ $ # # # $ $ $ $ # $ $ # # $ $ $ $ # # $ $ $ $ $ $ @ $ $ $ @ @ $ $ $ $ $ $ > r > $ , > > O < X % eX>XD.L.K.~.^.G.!.).Q.!.H.`.H.).).H.).H.!.!.G.`.!.W.!.!.!.!.!.!.H.G.H.!.!.Q.Q.!.Q.K.[.C.7Xe.X g 3 ; X c 9X>X`._.(._._.~.Q.H.D.K.J.^.A.].9Xc X h < < 5 < < r r t 3 6 : * t X = = % g.uXA.!.G.G.~.B.B.).(.Q.`. XD.G.0X] % = < 6 7 : a * % $X3XC.L.).^.^.!.`.!.K.J.6X#X% 2 X $ $ : < > $ $ $ $ $ $ $ $ > $ > 3 3 3 4 % ` 9XD.F.I.H.!.^.^.).).).G.4Xy.X - > 3 > $ 3 $ , $ $ $ $ $ $ $ # # # $ $ # # $ # # # # # # # $ # # # # $ $ $ $ $ # # $ $ # # $ # # # # # $ # # # # # $ $ $ # # $ # # $ $ # # $ $ # # # o # $ # # # $ $ # # # # # $ $ # # # # $ # # # # # # # # # # # # # # # # # # # # # # # $ $ # # # # # # # $ $ + + @.A . $ @ @ @ . . . . k Y S C y Q / y > w w w w $ $ $ $ $ w a         ",
"        r o o o o o o o # # # o . [ ! k V S I . . . . . @ # # + . F Y . + $ + $ # o o # # # # # # # # # # # # # # # # # # $ # # 8 $ # # $ $ # # # # $ $ # # $ $ # # # # # # # # # $ $ $ $ # # # # # # # # $ $ $ $ $ # # $ $ $ $ # # # # # $ $ $ # # # $ $ $ $ $ @ $ $ $ @ @ $ $ $ $ $ $ > > > $ > 3 > o ; % % tX>Xk.k.F.H.Q.D.G.D.z.G.H.!.G.c.G.G.H.G.G.G.z.G.c.G.G.G.G.v.G.G.c.G.G.H.G.c.G.H.D.D.L.k.7Xe.X g 4 % X E.oXA.v.(.(.Q.Q.!.W.L.D.G.A././.uX( = h % < O 3 3 3 $ 0 y 3 O < 3 a q t 1 = & N.7XA.Z.G.z.B.B.c.b.v.W.v.D.J.{.8Xj X 1 O 7 o y X X %X4Xk.D.U.D.D.c.F.F.D.Z.>X#X% 1 X r r O o > $ $ $ $ $ $ $ $ > $ > 3 3 O < X ` 8XD.S.F.G.G.T.W.D.F.G.z.4Xy.X - $ 3 > O 3 $ > , $ $ @ @ $ $ # # # $ $ $ # $ # # $ $ # # $ $ # # $ $ $ $ $ $ # # # $ $ # # $ # # $ # # # # # # $ $ $ # # # $ $ # $ $ $ # # $ # o # $ # # $ # $ $ $ $ # # # # $ $ $ # # # # # # $ $ $ $ $ $ $ # # # # $ $ # # # # # # # # # # # # # # # # # # . $ . S &.o @ o @ @ @ . . . . a Y M V M / F > w 8 w i w w > w > $ w a         ",
"        r o o o o o o o # # # o . [ / k C M I . . . . . @ o # # o . Y A . o $ o # $ # # # # # # # # # $ # # # # # # # $ $ $ $ $ $ # # # $ $ # # # # # $ $ $ $ # $ $ # # # # # # $ $ # # $ $ # # # # # o o # # # $ $ $ # # # $ $ # # # # # $ $ $ $ $ $ $ # $ $ $ $ $ $ $ $ $ $ $ $ $ $ $ $ $ > $ 0 0 0 * 4 = & tX8X XOXOX{.XX{.OXOXXX{.XX[.XX XXX{.{.XXXXXXXXXXXXXXXXXXXXXXXXXXXXXXXXXX{.{.XXXX{.XXoXOX8X] % d = % :XuXXXOXOXoX'.{.{.XX{.XXXXXX XoX8Xe.& % h X u $ r 3 - 0 0 r - 6 : : O a o 3 g & & <X4X{.oXoX X X XXX X XoX X{.{.4XiXf X t O 6 4 % = -XuX{.{.{.{.{.{.{.{. X{.yX&X% = X r w > > > > $ $ $ $ $ $ > > $ > 3 > $ ; % ' yX{.{.{.{.{.{.{.[.{. X XuXd.X 3 $ 3 > $ > O $ $ $ $ $ $ $ $ $ $ $ $ $ $ $ $ $ $ $ $ $ $ $ $ $ $ $ $ # # # $ $ # # # # # # $ # $ $ # # # # # # # # $ # # # 8 $ # # $ $ # # $ # o $ $ # # $ # $ $ # # # $ $ $ # # # # # # # # # # $ $ $ $ $ $ # # # # $ $ # # # # # # # # # # # # # # # # # o o . Q R > . o r $ # o . . . . a S V a r &.&.k $ 8 w w w w w w > $ w a         ",
"        w o o # # # o # # # + . . Q Y M V A I . . . . . @ o # # . + . R Y . . o # $ $ # # $ $ # # # # # # # # # # # $ $ $ $ $ # # # $ $ $ # # # $ # # $ $ $ # + $ $ # # # # # # $ # # # # # # # $ $ $ # # # # # $ $ $ $ # # # $ $ $ # # # $ $ $ $ $ $ $ # # $ $ $ $ $ $ $ $ $ $ $ $ $ $ $ $ > 0 0 0 0 - 4 * % wX:XM.R.R.M.M.M.M.M.R.:XR.R.M.R.R.R.R.:XR.R.R.M.R.R.R.M.M.M.M.M.M.M.M.M.M.R.R.M.N.M.N.y.d.c X j X ` tX:Xh.R.R.N.M.M.M.N.N.N.M.M.M.<Xs.% % h % 4 3 8 r 3 3 t 0 q $ O < 5 5 > t O ; j % d :XN.N.N.N.N.M.N.N.M.M.M.N.N.:X:X| X t O < < X X *XeXR.R.M.M..XV.M.M.M.M.:Xe.X 1 X $ w $ # 3 > $ $ > 3 > $ > 3 > 3 3 3 $ < X ~ eXR.R.M.M.R.M.R.M.:X-X-XrXe.. 3 $ 3 3 $ > O $ $ $ $ $ $ $ $ $ # $ $ $ # # $ $ $ $ $ $ $ $ $ # # # # # # $ $ 8 # # + # # # # # $ # # # $ $ $ $ # + # $ 8 8 $ $ # o # # o # $ $ $ $ $ + o # $ $ # # # # $ $ $ # # # # $ $ # # $ # # # $ $ $ # $ $ # # # # # # o o # $ $ $ $ $ # # $ $ $ # # o . R @.o . $ $ . $ o . . . . . p I S M r / F $ > w w w 8 w w w $ $ r m         ",
"        r o # o @ @ o # o # # o . H R k V S I . o . . . . + $ $ o $ + . Y Y . # $ . $ # $ # o $ # # $ $ $ # # # $ # # # $ $ # + $ $ $ $ $ # # # # $ $ # # $ $ # w $ # # $ # # # $ # # # # # # # $ $ # $ $ $ $ $ # $ $ $ $ # # # # $ $ # # # # # $ $ $ # # # # $ # @ $ $ $ $ $ $ $ $ $ $ $ @ @ $ > > , $ O O O X X X X % % % X X % X X X % % X X X X X X % % % X X X X X X % % % X % % X X X X X X X X X X X * O . X X X X X X % X % % % X X X X X X % < < : , , w 8 O O - 0 0 0 3 5 3 : > 3 3 O 4 O O X X X X % X X X X % X X X X X X X X $ > > 4 O X X X X X X X X X X X X X X . X O O $ $ > : > > > > > $ $ $ $ $ $ $ 3 3 - $ O . X X % % % X X X % % % X X X O @ $ $ $ $ $ $ > $ $ # # @ $ $ $ # # $ $ $ $ # $ # # # # # # + 8 $ # # $ $ $ # # # # $ $ # # # # # # # # $ # # 8 $ # # $ $ $ $ o # $ # o + # $ $ # # # # # # # # # # $ $ # # # # # # $ $ # # # # # $ $ $ # # # # # $ # # # # # $ $ # $ $ # # o # o $ # # # . . I &.$ . r # > o . . o . . . . a C V M y *./ $ y w w 8 8 w w w > # w a         ",
"        w . o o o # # # $ # # # o F @.a k M K . . + . . . . . $ # @ o . o Y C + # > # # # w . $ # # $ $ $ # # # $ # # # $ $ # # # # # # # # # # # # # # $ $ $ # $ # # # # # # # + # $ $ # # # $ # # # # # # # # $ $ $ $ # # $ # # # # $ $ # # $ $ $ # # # $ $ # @ @ $ $ $ $ $ $ @ $ $ $ $ $ $ $ $ , , , , , O O : O O - 0 0 0 - - - ; 3 3 3 3 t ; 3 3 3 3 t t 3 3 3 t 3 t t t t t u u t t 3 3 3 y y t 4 3 y 5 5 5 3 t t t t 3 3 t 3 4 4 t 0 ; * O O : 5 7 : , , > > > : 3 - - $ 3 > > > 3 3 5 > 5 5 > > r r 3 ; 4 < < 3 3 r i r o o O $ 8 w , > 4 : O o O O $ $ w > 8 w > O O O O O $ > > > > $ O O $ $ $ $ $ $ > > $ > 3 3 $ O # # O X - 0 $ O * * * * $ O O O O @ $ $ > > > > $ $ $ $ $ @ @ # > $ # # $ $ $ $ $ # # # # $ # # 8 $ # # $ $ # # # # # $ $ $ # # $ # # # $ $ # # $ $ # # $ $ # # # $ $ $ # # $ $ # # # # $ $ # # # # # # # # # # # # # $ $ $ $ $ # # # # # # # # # # # # # # # # $ # o o # # # # o w $ + $ # . R &.$ . @ @ o @ . . . . + . . y M C C V k Q Y y > r w w w w r > o $ w a         ",
"        > . o @ o o # # $ $ $ $ . ! ! C V k C C 8 . . . . . . + @ $ . o $ o R A . r $ o w o o $ # # # $ $ $ $ # # # # # # $ # # # # # # # # # # # # $ $ $ $ $ # # # # + # $ # # + # $ $ # # $ 8 # $ $ # # # # $ $ $ $ # # $ $ $ $ o # $ $ # # $ $ $ # # $ $ $ # @ $ $ @ @ @ $ $ $ $ $ $ $ > $ $ 8 8 > $ $ O O O * O O $ - - - 3 O O * < * O * 3 * < 3 < * < * < * O * * * < * O O < < < * < * < : < < * - - * * X O o O O O O o 3 * * < 3 ; 0 - - O < < 7 : > > > > < < < 3 - $ w $ > w r > : 5 : O O > : O O O O O o o o @ o o $ $ 3 3 < 3 < * 3 - - 3 < < > 8 $ O O $ O O O O O O O $ $ $ $ $ > $ $ $ $ $ > > $ $ $ $ 3 3 3 > O O O O @ @ $ X * * X O @ @ o O O $ $ > > > $ $ $ $ $ $ $ # @ @ $ $ # # # $ $ # $ $ # # $ $ $ $ $ # # # # # # + $ $ $ $ $ $ $ $ $ $ # # $ $ # # # # # # $ $ # # $ $ $ $ $ $ $ # # # # $ $ $ $ # # $ $ # # $ $ # # # # # # # $ $ $ # # # # # # # # # # # # # # # # # # # # # $ $ $ > + w # . C @.$ . w w . $ o . . . o . . a C S V V Y > / @.w $ w w w w w w $ $ $ r m         ",
"        r o # @ o # # # # $ $ $ o Q R y M M C C S $ . . . . . . @ o $ $ o . o / C . r $ o $ $ # $ # # # $ $ $ # # # # # # # # $ $ $ $ $ # # # # # $ $ $ $ # # # # # # # # $ $ # 8 $ # # $ $ $ $ $ $ $ $ # $ $ $ $ $ $ # # $ $ $ $ # # $ $ # # $ $ $ # # $ $ $ # $ $ @ $ @ @ $ $ $ $ $ $ $ $ $ $ 8 0 0 $ $ O O O 3 $ O $ > 3 < < O O O O O O O < O O O O O O O O * O O * < < O O O O O O O O < < : : < * - 3 < ; ; - - O : : : : O O O O - - - - 0 $ O : < > 3 3 : : : : < : > 3 > 8 w w w > > 3 5 5 3 3 < < < : < 3 3 3 3 3 > 3 3 - - 3 * < < < - - - - < O $ $ O X O O O o O O - : > > 3 w w w 3 3 $ $ $ $ > > $ $ $ $ 3 3 3 3 o O O O @ $ $ X < < * O 8 8 $ $ $ $ $ $ $ $ $ $ $ $ # # # $ $ $ # # $ $ $ $ $ # $ $ $ $ # # $ $ $ $ # # # # # # $ $ $ $ $ $ $ $ $ $ # # # # # # # # # # # $ # # $ $ # $ $ $ # # $ $ $ # o # # # # $ # # # $ $ $ $ $ # # # # # # $ # # # # # # $ $ $ # # # $ # # + # # $ $ $ # # $ $ $ + . V =.$ . $ > @ @ . . . . . . . a R C S A V a > 1.>.> p w w w w w w w > $ w a         ",
"        r o # # # @ # # $ $ $ $ @ Q @.$ M a a m S S i . . + . . . . y @ . w . $ / S . # $ r # # # # # # # $ # # # # $ # # # # $ $ $ $ $ $ # # # $ $ $ # # # # # # $ $ # # # $ # $ # # # $ $ # # $ $ # # # $ $ $ # # $ $ $ $ $ # $ $ $ # # # # # # $ $ $ $ # # # $ $ $ @ @ @ $ $ $ $ @ $ $ $ > $ $ $ 0 0 - $ - 3 3 > > 3 3 3 3 3 3 3 3 3 3 3 3 3 3 3 3 3 3 3 3 3 3 3 3 3 3 3 3 3 3 3 3 3 3 3 3 3 5 5 < < 3 3 t t r r r 3 3 3 w > 5 3 3 r r r < O i i 3 3 3 > $ $ : : : > > $ 3 3 $ w w w w r 3 3 3 > > $ > 3 < < 3 3 3 5 < : < < t t 3 - : : , $ 8 8 - 3 3 - - - 3 3 3 3 3 3 3 3 3 3 3 3 > > $ $ > $ $ $ $ $ $ $ > > $ $ - - - $ $ 3 3 O $ r 0 - 3 < 3 3 r r w r 8 - $ $ $ $ $ $ $ # # # # $ $ $ $ $ $ $ > $ $ $ $ $ $ # # # $ $ $ $ $ $ $ $ $ $ $ $ # # # # $ $ # # # # # # $ $ $ # # # # $ $ $ # # $ $ # # # # $ $ $ # o # # # $ # # # $ # # $ $ $ # # # # # # # # # # # # # # $ $ $ # # $ # + o # $ $ $ $ $ # $ $ + . C ,.+ . > r o @ o . . . . . . p R S C V V a y C ,.R y y p i w 8 w w w $ $ w a         ",
"        r o o o o @ $ $ $ $ $ # . O 9.Q p p Z m M S D r . . . . . . o o w o $ . $ @.a . $ o $ # # # # # # # # # # $ $ # # # # # # # # $ $ # # # $ $ # # # # # $ # $ $ $ # # # # + # $ $ $ # # $ $ # o # # $ $ # # # $ $ $ $ # # # $ $ # # # $ # # # $ $ $ # # # $ $ $ $ $ $ $ @ $ $ $ $ $ $ $ $ $ $ 8 r 8 $ $ $ > > > > > > $ $ 3 $ $ 3 3 3 3 3 3 $ $ 3 3 3 3 3 3 $ $ 3 3 $ > 3 $ 3 3 3 > > $ O > : : : O $ $ 8 r r 3 > 3 r r w 5 > w 8 r 3 < : r r r r r $ $ $ > > > > $ $ $ $ $ > w $ > r t 3 3 > w w r 3 3 3 r r 3 3 < < < 3 3 t r 3 > > > > w w r 3 3 3 3 r $ > 3 > > 3 r r 3 - $ $ $ $ $ o $ $ $ $ > > $ $ $ $ $ $ $ $ - - 3 3 $ O $ 3 r 0 $ O O $ 8 8 8 w 8 $ $ $ $ $ > > # $ $ $ $ $ $ # $ $ $ $ $ # # # $ # # # # $ $ $ # # $ $ $ $ $ $ $ # # # # # # # # # # # # # $ $ $ $ # # # $ $ 8 # # $ $ # # # $ o $ $ # # $ $ # 8 # # $ $ # # $ # # # # # # # # # # # # # # # # $ $ $ $ # # # + # $ $ $ # $ $ $ $ # . S >.. . # . @ $ o . . o . . o a I S M C C a a C 8.V . . r i p p i w $ $ > $ w p         ",
"        > o # @ $ $ $ $ $ # o o $ . a hXY # V Z V a D L y . . . o . . @ o r . r . + Q M . # > # # # # $ # # # # $ $ # # # # # # # # # # # # # # $ $ # # # # # $ $ # # $ $ $ # # # # $ $ $ $ $ $ $ $ $ # $ $ $ # # $ $ $ $ $ $ $ # # $ $ $ $ $ $ # # $ $ $ $ # o $ $ @ $ $ $ $ $ $ $ $ $ $ @ $ $ , $ $ 8 8 $ $ $ > , , > 3 > $ 0 $ $ $ $ 3 3 3 3 3 $ $ $ $ $ $ 3 3 3 3 3 3 $ > 3 $ > 3 3 3 3 3 > > > $ > > > w w 8 > > : : 3 3 > : : 8 8 0 r r 3 > $ $ w w 8 $ $ > w 8 e e w $ O : , , $ > 3 3 - $ > > $ $ $ $ $ 0 0 - > 3 > > $ $ $ $ > w w > : $ r r $ : : w 8 8 > > : : > w > 3 $ $ $ 3 > > > $ $ $ $ $ > > > $ $ $ $ $ $ - 3 - - O $ > $ $ $ > : > > 8 w > > $ $ $ $ $ $ $ $ # $ $ > $ $ $ # $ $ $ $ # # # # $ $ # # $ $ $ # # # # # # # # $ $ # # # # # # # $ $ $ # # # $ $ $ $ $ $ $ $ $ $ # $ $ $ # # # $ o $ $ # # $ $ # $ $ # $ $ # # # # # # # # # # $ # # # # # # $ $ # $ $ # # # # # # $ $ # # # $ $ $ . C =.+ . w + r @ . . + . . . o V Q I M C S C M S t.V . $ . . # w p p w > w w w w p         ",
"        > o $ w r $ $ o + . . . . o . > sX/ o C V V C Y Y a . . . . o . . @ $ o > . o @.S . # # # # $ $ $ # # # $ # # # $ $ # # 8 $ # # # # # $ 8 $ $ $ $ # # # 8 # + # 8 $ # # $ # + + # $ # # # $ $ $ # # # $ $ $ $ # # $ $ $ $ # # > > # # $ $ $ # $ $ $ # o $ @ @ @ $ $ $ $ @ $ $ $ $ $ $ > , $ $ $ 8 8 $ w $ # : : : > $ 8 $ $ $ 3 $ $ $ 3 3 $ $ 3 3 $ 3 r 3 3 3 3 $ O $ 3 > 3 > > $ 3 3 $ r w w w > > 8 8 > > > : > 3 3 3 > : w 8 $ $ 8 w : : $ 8 8 8 $ > $ 8 8 i i i > O 5 : O > > > 3 3 > > > > $ $ $ 3 r r - w 0 8 8 8 r w > $ 8 $ : : O $ 8 $ : < w 8 8 w > : : > > $ 3 $ $ $ $ $ O o $ $ $ $ $ $ $ $ > > $ $ $ $ $ $ - $ $ > > $ $ $ > > , $ $ $ , > $ $ $ $ $ $ $ # $ $ $ # $ $ $ $ # $ $ > > $ $ $ $ $ $ $ $ $ # o # $ 8 $ $ # $ $ $ $ # # # # # # $ $ $ $ # # $ $ $ $ $ $ $ # # # # # # # # # # $ $ $ $ # o $ $ $ # $ $ # # 8 8 $ $ $ $ $ $ # # # $ # # # # # $ $ # $ $ # # # # # o # $ $ $ $ $ $ . C @.> . $ o @ o @ . . . . o . V @.I V S G S w S 9.V . o . r + . + # r M M y $ r w i         ",
"        r w y $ o . . . o o o o X o o . k hXV > k F V C C W p . . . . . o o o @ o $ . # / C . # $ $ # o o # $ $ # $ $ # # # $ > $ $ # # # # $ $ # # # # # # # # # # # # + + # # # # # # # # # # # $ $ $ # # # $ + # # # # # # $ # # $ $ $ $ # # $ $ $ # # # # # # # $ $ $ # # # $ $ $ $ $ $ $ $ $ > r $ w $ w $ $ > > > , $ $ $ $ $ $ $ $ $ $ $ $ $ $ $ $ $ $ $ 3 3 $ $ $ $ $ $ 3 - $ - $ $ $ 3 $ $ $ $ 3 > w w > > > > > > > $ > > > > > > > $ 3 > > > r r > $ 3 r r w $ $ $ $ O , > 3 3 > $ $ 3 $ 3 $ r > 3 $ $ $ - $ $ r r w $ $ $ > > > > > > > $ $ $ $ $ $ $ $ > > , , > $ r > $ $ > > > $ $ $ $ $ $ $ $ 3 $ $ $ @ 3 $ $ $ $ $ $ $ , , > > > , , > $ , > $ w $ $ $ $ $ $ $ # # # $ $ $ $ $ $ $ $ $ # # $ $ $ $ $ $ # # $ $ $ $ $ w 8 $ # + # # $ # # # $ 8 # # $ $ $ $ $ $ $ $ $ $ # # $ $ # # o # $ $ $ # $ # # # o # # # # # # # # # # # # # # # # # # # # # # # $ $ $ # $ $ $ $ # # # # $ # $ $ # > $ . C @.$ . w + # > @ . . . . . . S / C C G V S y S 9.C . o $ > # # # o . . # r p a w > a         ",
"        y @ @ . o o o o # o o o @ . o $ . V fX! O u V V S V Q p . @ . o . . @ $ o $ @ . + Q A . + + o $ $ # + + # # # # o # # $ $ $ # # # # # # $ $ $ $ $ $ $ $ $ $ $ $ $ $ $ $ $ $ $ $ $ $ $ $ # $ $ $ # # $ $ $ $ $ $ $ $ $ $ # # # $ $ # # $ > $ $ # # # $ $ $ $ $ $ $ $ $ $ $ , , $ $ $ $ $ # $ # > # > # $ $ $ , > $ $ $ $ > > > > 3 > 3 3 > > > 3 3 3 > > $ $ $ $ $ 3 3 $ $ $ $ $ $ $ $ $ $ $ $ $ $ $ $ $ $ $ $ $ $ > 3 3 $ $ $ $ $ > > > $ $ > 3 > > > > > > > $ $ $ $ > $ > > > $ $ $ $ > > $ > > 3 > > > 3 3 $ $ $ $ $ $ $ $ $ > > $ $ 3 > $ $ $ $ > > $ # $ , $ $ $ # w > $ $ > > > $ $ $ $ $ $ $ $ $ $ $ $ $ $ $ - $ $ $ $ > > > > $ $ # $ > $ > > $ $ $ # $ $ $ $ $ $ $ $ $ $ $ $ $ $ $ # # $ $ $ # $ $ $ $ # # $ $ $ # $ $ $ # # # w $ + # $ $ # # # # # # # # # $ # # # # # # # # $ $ $ # $ $ $ # $ # # # $ $ $ # # # # # # # # # # # # # # # # # 8 8 $ $ $ # # + # # # # # # # # w # $ # r $ . a / . . r # $ > . . . o + . . V Q A C I M S w S sXk o o @ + o # # + # # o . + > y k a M         ",
"          o o . o o o # # o o o . o o X . . y 9.Q > S C C M S Q a . o . . . . o @ o $ @ + . S I . @ $ o + . o @ o o o o o o o @ # # # # # # + + + + + + + + + + # + + + + + + + + + + + # # + + + + + + + + + + + + # + + + + + o o o o o o # @ o o o + + + o o . . . . . o X X o o o o o o X o o o . $ o $ o o o o o o o o o o . o o o o o o o o o X X o o X . @ o o o o o o o $ $ $ $ $ o o o o $ $ @ o o @ o @ o o o o o o o o o o o o o o @ o o $ $ $ o @ $ @ @ O $ o o @ @ o $ $ @ o o o o o $ o $ o $ @ $ o o o o o o o o o o o o o o o o o o o o o o o o o o o @ o o o o $ $ @ o @ o o o o o O O o o o o X o o o o o o o o o o # # # o o # o # $ o o o . o # # # o o # # + + o o + . . . + + + + + o o o o o o o + + + + # + + + + + + o + + + + + + o o o o o + + + + o o o # # o o o # + + + + + . . + + + + + + + + . + + o o o o + + o o o + + + + + + + + + + + + . o o o o + o o o o @ . o $ o a #.w . r o + r . . . . . . o V @.C C Y G M w Y 9.C . . > $ # # $ $ # # o o o . + o r p V         ",
"            $ # o o o o o o o o . o X X . o . u 9./ $ C S I Z Z Y a . . . . . . @ o @ $ # + + W S > o y k y r a > w r r w > r r w w w w w w 8 $ w w w w r r w w w w w w w w w w w w w w r r w 8 p r w w w w w w w w w w w w r r > w w w > w r r $ > r r r r r r 3 3 r r r r t r r r r r r r r t y 3 r 3 y 3 r r r 3 3 r r r r 3 t y u u y y u a y y y y y y t t y y t t t t r r t r t y y r r r > t y r 3 t t 3 3 r r r r 3 3 > r r r r r 3 3 > > r r r r 3 3 3 r r r r 3 > > > r t t r 3 r r 3 t y r t 3 r 3 t r r t r t y y y r r t y y y t r r t t t r r t t r 3 r r r r r > 3 3 3 3 3 > > > > > 3 3 > > 3 3 3 t r u 3 t r t w > > > > > > r r w r r > > > > r r r r w $ $ > w r r r r r r r $ w r w $ $ w r > w w w w > > > w w > > > > w w $ > w > $ $ $ w w w w w > > > w w w w w w w > w w w r w w w r r r r r r r r w w $ $ > > > > $ $ > > > $ $ $ $ $ w w w r r r r r w w w > > > > > $ w r p o V @.o . o $ $ @ o . . . . o . C O.M G C G M r Y sXa . $ @ @ # # # + # $ + . # $ # o . . $           ",
"              @ o o o + o o o o @ X . . o . $ . a 9.>.> V M S V V W a . . . . + . $ + > $ o $ . C W R A C Y R S Y Y Y Y Y Y Y Y R R R R R R R R R R R R W W R Y R Y Y Y Y R Y Y R Y Y R R R R Y Q W Y Y Y Y Y Y Y Y R Y R R R R Q Q Q R R R Q Q Y Y R R R R W R R R R R R R R R Q Q Q / Q Q Q Q @.Q / Q / R / @./ / Q / @./ / Q Q Q Q Q R R Q Q Q Q Q Q Q Q Q Q R R R R R R Q Q Q R Q / O./ O.@.R Q Q R R Q Q R R Q Q [ [ [ [ Q [ [ [ [ [ Q Q R Q Q Q Q ^ Q Q Q @.@.Q Q Q Q Q R Q @.@.Q Q Q Q Q @.[ @.Q Q R Q Q Q Q Q R R R R R R R R R R R R Y Q Q R Y R R Q @./ Q Q / Q Q Q R Q Q Q Q Q R R R Q R R R R R Q Q Y W Y Q Y R Y W Q Q Q R R R Q Q Q Q / / Q / @./ / O./ Q Q R R Q Q Q Q Q R W W R Q / @.O.Q R Q @.Q Q Q Q Q Q Q Q / Q Q Q Q Q Q O.O.Q R R Q Q R Y R Q Q Q Q Q Q Q Q Q Q Q Q R W W R R W W R W R Q R R R Y Y Y Y Y R R R R R R R R R R R R R W W W R W W R R W W R Y Y Y Y Y Y Y Y R Y Y Y W S $ + $ o + > o . . . . . . Z Q Z G S M S y C 9.D o X @ @ o o # + + # o o # $ # # # > $             ",
"              @ @ # o + o o # o . > o o . o o $ . $ sX@.$ S C M V V W r . . . . . . w o @ + . . . . . . . . . . . . . . . . . . . . . . . . . . . . . . . . . . . . . . . . . . . . . . . . . . . . . . . . . . . . . . . . . . . . . . . . . . . . . . . . . . . . . . . . . . . . . . . . . . . . . . . . . + . . . . . . . . . . . . . . . . . . . . . . . . . . . . . . . . . . . . . . . . . . . . . . . . . . . . . . . . . . . . . . . . . . . . . . . . . . . . . . . . . . . . . . . . . . . . . . . . . . . . . . . . . . . . . . . . . . . . . . . . . . . . . . . . . . . . . . . . . . . . . . . . . . . . . . . . . . . . . . . . . . . . . . . . . . . . . . . . . . . . . . . . . . . . . . . . . . . . . . . . . . . . . . . . . . . . . . . . . . . . . . . . . . . . . . . . . . . . . . . . . . . . . . . . . . . . . . . . . . . . . . . . . . . . . . . . . . . . . . . . . . . . . . o @ . r > . . . . . o . C W S K G S S r Y t.S . o o . $ $ @ # # # # o # # # + o $ r               ",
"                @ @ # o o o o o $ . @ o @ $ . . o . 3 9.&.a V V S V M Q r . o . . # . o o $ @ @ o $ $ @ o o @ $ @ @ o o @ @ @ @ $ $ @ @ $ $ $ $ @ @ @ @ @ @ # # $ $ @ @ @ @ @ @ @ @ @ $ $ $ @ @ $ $ @ @ $ $ $ @ @ $ $ $ @ @ @ @ $ $ $ @ @ @ @ $ $ $ @ @ @ @ @ @ @ @ @ $ @ @ @ @ $ $ $ $ $ $ $ $ @ $ @ $ o $ @ @ @ $ @ @ @ @ @ @ $ $ $ $ $ $ @ @ $ @ @ @ $ $ @ @ $ $ $ $ @ @ @ @ $ $ $ $ $ @ @ @ @ $ $ $ $ $ $ $ $ $ @ @ @ @ @ @ @ @ @ @ @ $ @ @ @ @ @ @ @ $ $ @ @ @ @ @ @ $ @ @ @ @ $ @ @ @ @ @ @ @ @ @ $ @ @ @ @ @ @ @ @ @ @ @ @ @ @ @ @ @ @ @ o o @ @ @ @ o o @ @ @ $ @ $ @ o $ @ @ @ $ $ $ @ $ $ $ $ $ $ $ $ $ $ $ $ $ $ $ $ $ $ $ $ $ $ $ $ $ $ $ $ @ @ $ @ $ @ @ @ $ $ $ $ o o @ @ @ @ @ @ $ @ @ @ $ $ $ @ @ $ $ $ @ @ @ @ @ o o $ $ o o $ o $ $ $ $ o $ $ $ $ $ $ $ o $ $ $ $ $ $ $ $ $ @ $ @ @ @ @ $ @ @ @ $ $ $ @ @ @ @ $ $ $ $ $ $ $ $ $ $ $ $ $ $ $ $ o o o o o o @ @ o o o o o o o o $ > . @ > + @ $ > + . . . . . . . C Q S A S C S y I 9.D . $ o o o $ o o + + # . $ # + + # $ #                 ",
"                  o @ o . + o o + $ . o o . o o @ $ . u sX[ a V A V V C Y p . . + . . o $ o + + $ @ o o @ $ @ o @ @ @ @ @ @ @ @ # o o o # # # o # # # # # # # o $ $ @ @ @ @ @ @ o # @ # # # @ @ @ @ @ @ @ # o o @ @ @ @ # # # @ @ @ @ @ @ @ @ @ @ @ @ @ @ @ @ @ @ @ @ @ @ @ @ @ @ @ @ @ @ @ @ $ @ @ $ o $ @ $ o $ @ @ @ o o @ $ @ @ @ @ @ @ @ @ @ @ @ @ @ @ @ @ @ @ @ # # # @ @ @ # # @ @ @ @ $ o o @ @ @ o o @ @ @ @ @ @ @ @ @ @ @ @ @ @ @ @ @ @ @ @ @ o o @ @ @ @ o @ @ @ @ o @ @ @ @ @ @ @ @ @ @ o $ @ $ @ @ @ $ @ @ @ @ @ @ @ @ @ @ @ @ @ @ $ @ # o o @ @ $ @ o o @ @ @ @ o @ @ o @ @ @ @ o @ @ # @ $ $ @ @ $ @ $ o $ # $ @ $ @ @ # o # @ @ @ o $ $ @ @ $ @ @ @ @ @ @ @ o o @ @ @ @ @ @ @ @ # @ $ @ o o @ $ # # @ @ # # # @ @ o o o o o o o o o o o @ $ o o @ @ o o o o o o o o o o o o o o $ @ # @ $ $ $ @ o @ $ $ @ # o o @ @ @ @ @ @ @ @ o o @ @ @ @ @ @ $ o o o o o o o @ @ @ o o o o o o o r . + > . # # @ . . o . . . C W Z V V S T w F t.C . @ o @ o # # . $ # . # + # # o # $ >                   ",
"                    @ $ o + o o + + o + + # o o o @ @ o u 9.#.y C G Y k A Q r . . . . . @ + o 8 $ @ @ @ @ @ @ @ @ @ @ @ @ @ @ $ @ @ @ @ @ @ @ $ $ $ $ $ @ @ $ $ $ $ @ @ @ @ @ @ $ @ $ $ $ $ $ $ $ $ $ $ $ $ $ $ @ $ # $ # $ @ $ @ $ $ $ $ @ @ @ $ $ $ $ $ $ @ @ $ $ $ @ @ @ @ @ o $ @ @ $ @ o $ @ $ $ $ $ $ $ $ > $ @ @ $ $ $ $ $ @ @ $ $ @ @ $ $ $ $ @ $ @ $ @ @ $ $ $ $ $ $ $ $ $ $ $ $ $ $ $ @ $ $ $ @ @ @ @ @ $ $ @ @ @ @ $ $ @ @ @ @ $ $ o @ @ $ $ @ @ $ $ @ $ @ $ $ @ o $ $ $ @ @ @ @ $ $ @ @ @ @ @ @ @ o $ @ @ $ @ @ @ @ @ $ @ $ $ o $ @ $ @ @ $ $ @ @ $ @ @ @ @ @ o @ $ @ @ @ @ @ @ @ $ @ $ $ $ @ @ $ $ $ $ $ $ $ $ $ $ $ $ r $ $ @ $ $ $ $ $ $ $ $ $ $ $ @ $ $ 8 $ $ @ $ $ $ $ $ $ @ @ $ $ $ $ 8 $ $ 8 $ 8 8 $ $ $ $ $ $ $ $ $ $ $ $ $ @ $ $ $ $ $ $ $ $ $ $ $ $ $ $ $ $ @ $ $ $ @ $ $ $ $ $ $ $ $ $ $ $ $ $ $ $ $ $ @ $ @ $ @ $ # $ $ $ $ $ @ @ $ $ $ $ $ $ $ $ $ $ @ $ $ @ @ $ $ # @ # @ @ # # @ $ @ + + . . # . . S Q C V S Y K w Y sXI . $ $ o o $ @ # # # o o o # @ + o > >                     ",
"                      $ $ o o # + + + + + o o o @ o . . o a 9.=.y V S F C a Q k . . . . . . . . . . . . . . . . . . . . . . . . . . . . . . . . . . . . . . . . . . . . . . . . . . . . . . . . . . . . . . . . . . . + . + . . . . . . . . . . . . . . . . . . . . . . . . . . . . . . o . . . . . . . . . . . . . . . . . . . . . . . . . . . . . . . . . . . . . . . . . . . . . . . . . . . . . . . . . . . . . . . . . . . . . . . . . . . . . . . . . . . . . . . . . . . . . . . . . . . . . . . . . . . . . . . . . . . . . . . X . o . . . . . . . . . . . . . . . . . . . . . . . . . . . . . . . . . . . . . . . . . . . + . . . . . . . . . . . . . . . . . . . . . . . . . . . . . . . . . . . . . . . . . . . . . . . . . . . . . . . . . . . . . . . . . . . . . . . . . . . . . . . . . . . . . . . . . . . . . . . . . . . . . . . . . . . . . . . . . . . . . . . . . . . . . . . . . . . . . . . . o . . A Y M Z I V S w C aXI # . $ $ o o o # o o # @ o o o o @ $ $                       ",
"                        @ @ @ # o # # # + o o + o o $ $ o . > sX&.> F F V F C T p . . . . . + . . . . . . . . . . . . . . . . . . . . . . . . . . . . . . . . . . . . . . . . . . . . . . . . . . . . . . . . . . . . . . . . . . . . . . . . . . . . . . . . . . . . . . . . . . . . . . . . . . . . . . . . . . . . . . . . . . . . . . . . . . . . . . . . . . . . . . . . . . . . . . . . . . . . . . . . . . . . . . . . . . . . . . . . . . . . . . . . . . . . . . + . . . . . . . . . . . . . . . . . . . . . . . . . . . + . . . . . . . . . . . . . . . . . . . . . . . . . . . . . . . . . . . . . . . . . . . . . . . . . . . . + . . . . . . . . . . . . . . . . . . . . . . . . . . . . . . . . . . . . . . + . . . . . . . . . . . . . . . . . . . . . . . . . . . . . . . . . . . . . . . . . . . . . . . . . . . . . . . . . . . . . . . . . . . . . . . . . . . . . . . . . . . . . . . . . . + . . . . V Q S C S S S $ I t.S + + $ $ # @ $ $ # o o # @ # o o @ $ $                         ",
"                          $ $ o o + + + + # # + @ # . + . r o > sXQ y k S Y C I O.k # + . . . . . . . . . . . . . . . . . . . . . . . . . . + . . . . . . . . . . . . . . . . . . . . . . . . . . . . . . . . . . . . . . . . . . . . . . . . . . . . . . . . . . . . . . . . . + . . . . . . . . . . . . . . . . . . . . . . . . . . . . . . . . . . . . . . . . . . . . . . . . . . . . . . . . . . . . . . . . . . . . . . . . . . . . . . . . . . . . . . . . . . . . . . . . . . . . . . . . . . . . . . . . . . . . . . . . . . . . . . . . . . . . . . . . . . . . . . . . . . . . . . . . . . . . . . . . . . . . . . . . . . . . . . . . . . . . . . . . . . . . . . . . . . . . . . . . + . . . . . . . . . . . . . . . . . . . . . . . . . . . . . . . . . . . . . . . . . . . . . . . . . . . . . . . . . . . . . . . . . . . . . . . . . . . . . . . . . . . . . . . . . . . . . . . . . . . . . . . + . . S Q M S C S S $ I sXY . # > > o + # @ @ # # # # o o # @ > @                           ",
"                            $ @ o + . . + # + + $ . # # o o . . 3 *X=.C A A M S I I M o . . . . . . . . . . . . . . . . . . . . . . . . . . . . . . . . . . . . + . . . . . . . . + . . . . . . . . . . . . . . . . . . . . . . . . . . . . . . . . . . . . . . . . . . . . . . . . . . . . . . . . . . . . . . . . . . . . . . . . + . . . . . . . . . . + + + . . . . . . . . . . . . . . . . . . . . . . . . . . . . . . . . . . . . . . . . . o . . . . . . . + + . + . . . + . . . . + . . . . . . . . . . . . . . + . . . . . + . . . . . + . . . . . . . . . . . . . . . . . . . . . . . . . . . . . . . . . . . . . . . . . . . . . . . . . + . . . . . . . o . . . . . . . . . . . . . . . . . . . . . . . . . . . . . . . . . . . . . . . . . . . . . . . . . . . . . + . . + + . . . . . . . . . . . . . . . . . . . . . . . . . . . . . . . . . . . . . . . . . . . . . . . . . . . . . . . . . . . . . + S W C C V D Y $ F 9.F . $ $ $ # + # # # # o # # o o # $ $ $                             ",
"                              @ $ # + + # # o o @ $ . w o $ @ $ X v sXQ # F A A M I G V C C Z C A A C C A A S S A A A C C C C C C A C Z Z C C V Z C C V Z C S A S S C C C C C C Z K S C S S C S A A A S S S A C C C C Z C V C V C C C C A A A S V C A A S S S S S S S S S S Z C V C C A C C V V A C S S S Z S L S S S L L L S C A K I K S S K K S S A K S I K I C A S S S S S S K K K S A C C A S C C C C C C C I F S S S S S C S C A S S S S C C I S C C C C S S S C A I I S S I I S S S K S A S S S C A A C C C S C C F S C S K S I S C C V C K C C I I A C S S S S S S S L S I L S S L S S S S S S S C C S I C C S S K K S S A S S K C S S I S K I I K S K I L S Y S L A L L S S S S L L L S I I I I Y I I Y S I I I I I K S I I I I I I I K S I I Y I I Y Y S S S S S S A C I A S Y Y S C S F F S S C C C S S C C C S S S S S S C S S S C C S C C C C C S S C C A S S K S S C S A A S S C S S S C C C C C C V V V S Y C V S V a Q 9.S . $ o $ @ # $ 8 # # $ + o # o o @ $ $                               ",
"                                $ $ # o + + + + . o + + @ @ . o X . C 9.R p M S C C S U W Y I I E Y Y Y Y Y Y Y W W W W W W W W W Q Q W W Q Q W W Q W W W Q Q W W W E W W W W W Y ..Q E Q W E W Q W W W W W Y I W W Q W Q W W W Y R W W W W Q Q Y Y Y Y Y R W Q W W W W W Y Y I I W W W W Y I Y E Y W W W Y E Q W E E W Q Q W W W W ..W W W Q Q W W Y W U W Y W Y E W W Q Q Q Q Q Q W W W W W E W W T T W W T Y W W W W W W W T T T W W W W W T G Y I G Y I G T Y U I U W U U W W W W W W Y Y Y W T Y Y T T Y I Y Q W I W T Y W W U W E W Q W W W W W O.O.W W Q W Q Q W W W W W Q Q W W W W W E W W W W E E W W E W W W W W W W Q O.W Q Y Y I Y W W Q Q Q Q W W W W Q W W W W W W W E W W W W W W Y Y W W Y I W W W W W W W W E W W W W W W W W E E E E W W W E W W W W W W W E W W W Q ....W W Q Q W Q Q W W W W W R R W W W R W Q W Q W Q Y Y Q Q W W W R W W W W E W W Q W W W W W E E E E W W T T T T Y Y T / I W C M Y S V r H *XD o @ + w $ @ # # + + + + + o o o @ $ @                                 ",
"                                  o # o + . + # o # @ o o $ . @ o o . S t.Y a V A A F S M Z S C Z Z C Z Z V V M V V V C S S S S V Z C V Z S S C C C Z V Z C Z M C C A A K S K S M K K Z S A Z C C C C C S C C M A C S C L C A Z Z Z C C C Z C C C A C C Z Z C S V V V V V C C A V K S C A V V S V V C A Z V V C C V M M V C C C Z S S S C S S S S S Z S Z S C S C A A A A A Z Z K A V Z A A A Z S C Z C Z C V M M M N V Z C Z V C C A S A C A C C S C C S A M C C S S S C M V Y V Z S S C Z Z C S C N M V C Z V V G S M V V N S S Z C V C S V Z Z C C V M N S I C S K C C C C C A V M M M V Z V Z V V V Z Z Z V Z V Z V M V V V M V M V M C Z C C V V Z C C Z V V C C L C A Z Z S S Z V V Z Z V A Z Z A K Z V A K A C Z Z Z A Z A A A A A S K K K C Z Z A K A A A A A A A C Z Z Z C Z M V A S C C C C S F S C V C C C V V M M M A S C I C S V V S S C S S C A S K A Z Z A S A A A A Z M M M M Z V V V C C C C A V V C F V C I y Y sXS . o @ $ o @ @ # # + # # + o # o # $ $                                   ",
"                                    $ @ o o o o o + + o o + o o o @ o . S dX*., F k k C k a M M M M n p m M M M M M p n m M m p N M M l M M M M M M M p M M M p N m m Z Z m m M M Z m M m M M C a a V a a y V C a y a V a V C a M p p i m V m m m Z m Z p M m M a m m m M M a r m m M m m a i M m p m m p M p M M M m M m m p M M a i p m m m m p p p M p p i m m w Z i p Z i p m m m m m m m m p M w M M r M p p M m M M p p p a k k a p p a a y y k k r a M r r m w p p M p M i M m m p N m p M M p p m M Z M p M m p p a M m m p a m p a M m a m a m a M m M p p p m m p m M m p i m M m m M m p m M m p p p M p p m M m m p m p m M p i p p m m M M m m m p p p m m m p p p N i p N m p M M m M p e M e Z p m p p n M M M M M M Z p Z i A i M M m m m M M M m M V M a a m M Z a p m V M a p V l p M M p M N N M a M M M p M M M M N Z M M M M M m n m M M M M A M n Z N M N M M Z M m N a M C k a a a k v l v V a V V V $ Q sXA . o $ o + @ # # # # # # # # o o @ $ #                                     ",
"                                      @ @ o . o + . + o o o o o # o $ . . D gX[ > t V C M V V p M M N N M N M M N M m M M N Z N p M M M k Z M p p M M l p l N Z p p a M m p a V m N p M p V a V S a V a A Y v y D V C C v v v y A V V M m M a a Z A V V a V V V C V V M V V V V C M V M V V V S a M C S C C C I a V V V V C V V V a a a k M V V M k C M C a V C m a Z M V V V V C V V M V V V m k S V M V V S k V A V p y k a a a a p a k V V k y A C k k p y S C C M C a C k k V M M k a p a k a a p k V M V M M V M M V a a a V k k M k V C C a V V A M A M M C M M m a m p p a M M V M a m A M N V M a M m p M M M N M V V M C M C C V M C A M k k M V C C M M M V C V V V M V S M p V C a p N N Z n Z M A M m Z A M m N Z M N V Z N S m A i V M a a m M M M Z V M M M M M a Z M A m A p M M N M M k M k M M N M M M M l p M M l p p p p p l M l a p a M M M p M M p M N p M m M m M m k m p k V a u k a y a k y a u > y Y 9.D @ # $ o @ # @ # # # # # # # # # @ @ o                                       ",
"                                        @ # o o o o + + o + + + o o @ o X . k 9.0.9.sXsXsXsXdXsXsXsXdXdXsXsXsXsXt.sXdXsXsXsXdXhXsXjXjXhXdXkXjXdXjXgXhXhXdXjXhXgXkXfXdXjXhXgXhXfXfXgXdXgXhXkXhXgXhXfXnXsXdXhXdXdXdXdXdXjXfXhXfXjXjXfXhXfXhXhXhXgXhXgXhXhXhXzXzXzXzXgXgXgXhXfXgXnXkXhXgXgXgXkXzXzXkXnXzXzXhXhXgXzXkXnXzXkXzXmXmXmXmXnXnXnXnXmXmXmXmXmXmXzXnXkXxXzXhXzXzXzXxXgXcXxXNXmXcXcXmXmXnXzXzXmXmXgXhXkXgXdXsXfXkXkXnXmXnXzXmXMXmXnXgXhXhXfXkXnXjXjXnXkXjXkXmXkXgXkXdXgXzXkXnXkXnXzXnXkXnXBXnXzXkXnXzXfXfXfXmXnXzXMXmXkXkXzXBXBXmXzXgXhXfXgXzXnXkXmXhXzXfXfXkXhXzXgXnXBXnXBXMXBXCXBXnXgXgXmXMXmXmXnXnXMXmXnXmXmXBXMXMXBXCXnXnXCXgXSXhXAXkXBXzXzXnXnXzXnXmXmXnXnXnXnXmXMXnXnXnXnXBXnXgXnXBXgXnXMXmXbXMXbXMXMXhXMXBXbXgXkXbXgXgXkXkXnXBXMXBXkXmXMXnXzXnXMXMXnXMXMXbXbXMXMXbXgXnXgXBXgXMXjXbXbXgXkXbXgXgXbXbXkXkXkXkXkXkXgXhXkXzXkXnXMXnXkXkXkXkXkXkXgXgXkXkXkXgXgXbXgXbXMXhXkXgXgXhXhXgXhXgXjXsXhXdXsXgXhXsXfXgXhXsXjX8.8.sXS . . $ $ o $ $ o # + + + # # # + $ $ @                                         ",
"                                          $ $ o o o + + + + + + . w . o o . . u r O o o . . + . . o o o o o o o . . X o o # o o . o X o . , o o o # o o . o X . o o . . . . . . . X . . . O . X o X $ . . . . o . . . . o o . . . . o X . X X o . X . X . X . . X . . . . . . X X . . X . X X . X O . . . . X . . X . . . . . o . X X . . . . . . X . . . X . . . o . O o . o X X . . . X X . . o . O . . X . . X X X o O o . . . o o o . . X o o . . . o . . . . . . o . o X . O X O o o . . o O o . O X . . . X . . o O . . . . X . . X o o : X o . O . O . X o . o . . o . . . . . X . . . o X . . . X . . o . o o . . o o . X . O X X . X . . . O X . . X O . . . . X X X . . o O . . . . X . . o . . . . . . . o o X . . . . . . . . . o . o . . . . . . . . . . . . . . . # . o . + . + . . o o . . o o . . o . . X . . . O o . . . . . o o o o o X o o o o . $ . @ $ . . o o . . o o o . . @ . . > $ . @ . . 3 . a Q r . > $ $ @ @ $ # @ # # # + # # # # $ @                                           ",
"                                            $ $ + o + + + # # # $ . $ # o > $ . o . . . o . . o . . . . . . . . . . . . X . . . . . . . . . . . . . . . X . . . . . . . . . X . . . . . X . . . . . . . o . . . . o . . . . . . . . X . . . . . X X . X . X . . . . X . . . . . X . . . . X . . . . . . X . X . . . . . X . . . . . . . . . . . . X . X . O X . . . . . . . . . . . . . . . . . X . . . . X . O . . . . . . . o o . . . . . . . . . o @ . . X . . X . . X X . . . . . X . . . . . . . . . . . . . . . X X . . . . X . . . . . . . . . . . . . X . . . . . . X X . . . . X . . X . . . . . . . X . . . . . . . . . . . O . X . X X . . . . X X . . X X . . . X X X X . X X X . . . . X . . . . . . . . . X . . . X X . X . . X . . . . . . . . . . . . . . . . . X . . . . X . . . . . . . . . . . . . . . . . . . . . X X . . . . . . . . . . . . . . . . . . . . . X . . o . . . . . . . . . . o . + . . + . a > $ @ $ $ o o $ # # # # # # $ w @                                             ",
"                                              w # # o + + o o + o . $ r . > u > $ $ $ $ $ # o # $ $ $ $ $ $ $ $ @ $ r $ o X @ 3 $ o $ O $ O o $ $ $ 3 O 3 O 3 3 $ o o o $ - $ o $ $ $ o - o $ @ o $ $ r w . $ $ @ $ @ @ > $ $ > $ $ $ $ $ r - t @ @ @ @ @ $ $ $ $ $ $ o @ $ $ o $ o @ o o $ $ $ $ $ $ $ $ o $ o $ @ $ $ 3 o o $ o $ $ $ $ $ $ @ $ $ 3 o $ o $ o $ $ $ 0 8 0 8 0 $ $ 8 $ $ $ $ $ $ $ 3 o o $ o o o - - $ $ $ $ o $ @ @ $ $ $ $ $ $ $ @ o @ $ $ o $ r o X $ @ o 3 o @ X o X - @ @ o 3 $ $ $ $ $ o o - @ o o o o @ o o @ $ $ $ $ $ $ @ $ o $ o o o @ $ @ @ @ o @ @ $ $ $ $ $ @ @ @ $ - - $ $ $ $ @ $ @ $ $ @ @ $ $ $ $ o $ o $ $ $ @ @ $ $ o $ $ o $ $ $ $ o o @ $ $ X - 3 X $ t o $ @ @ @ $ @ @ o $ $ $ $ $ @ $ $ @ @ $ $ @ $ > $ $ $ $ $ $ $ $ $ $ O o o O $ O o $ $ $ $ > > > $ > $ O $ $ o o O $ $ O O 3 3 $ $ $ $ @ o o @ $ > o $ $ $ @ @ @ o $ $ o O O o $ O o X > o o > o $ > # @ $ o # $ o o $ $ $ $ $ o @ $ > @ $ $ # @ @ # # # # # $ 8 w                                               ",
"                                                $ $ @ o o o + . @ o . . r > $ o . @ @ o # $ $ $ @ o # @ $ @ + @ @ o o o + # # o o o o @ o @ X o o o @ o o X o o o @ $ $ o . o $ @ $ @ o $ @ o @ @ o o + @ o @ o @ @ o o # o + # $ + @ + + @ o + $ $ @ + + + + + @ @ @ + @ @ @ @ @ + @ o + $ + $ @ o @ . + + $ $ $ $ $ o $ + $ 8 @ @ @ @ @ @ + # o o $ + $ @ $ $ + @ + @ + @ @ @ @ @ @ o + @ @ @ . + @ o @ $ $ @ . $ @ . @ @ $ $ o o @ @ o . . @ o $ @ . @ @ o $ . @ @ $ $ @ @ o $ 8 $ @ @ @ @ + . @ @ @ @ @ $ o @ 8 @ @ $ @ @ @ + o o + + + + + o + + # $ # @ $ $ + @ @ @ $ @ $ . + + + $ @ @ $ @ $ $ @ @ $ @ o $ o @ @ @ + @ @ $ @ $ @ @ @ $ @ + @ $ $ @ @ $ $ @ @ @ @ @ @ @ @ . 8 $ + @ @ @ 0 + $ + @ $ o $ @ + @ $ o o o # + $ @ $ $ $ # @ + $ @ # $ @ # # @ $ o o o o @ o o o o o o $ o @ o @ o o o o o o o o @ o o @ @ o @ o @ @ $ $ $ @ o o @ @ o o o o o o X o o o o o o X o o o o o O o @ o o @ o # $ @ $ o o o $ # . o $ r $ @ $ @ $ o o o o # $ $ #                                                 ",
"                                                  @ o o o # # o . @ o o $ > > o @ @ o o $ @ + . # o o o o o o $ o # @ @ @ # # @ o o o o . $ o o o o o $ @ $ o o $ o o @ @ o o o o @ . o o @ o @ o o $ o o # o o o o o o # o # $ # + @ + + @ + # o + @ + # # @ + @ o + @ @ + o # o # $ + $ $ . + $ . $ . $ $ + + . + $ . $ + @ o @ o o @ $ @ @ $ @ $ + $ o + o o o $ X @ X o o X o o o o o o o o + + @ + @ + + o @ + @ $ $ o . $ @ o o # @ # o o o # o # @ @ o o @ . @ @ . o $ o . o @ o @ o @ + @ $ @ + @ o @ . + @ . + $ + @ @ $ o + @ + + $ o @ # o @ + # o @ $ . $ o + $ . @ @ $ + + $ @ + + @ o o @ $ + + $ $ o @ @ + + @ + . . @ + $ @ $ + $ + + + @ $ $ o @ + @ @ $ $ @ # $ . o $ + + $ o . $ . @ o . $ @ @ o o @ @ @ @ o # . # + $ $ $ @ $ # + # $ @ # # o o # o o o # @ o o o o @ $ @ o @ o @ o @ @ @ o o @ @ o @ o # $ @ $ @ # @ @ @ @ @ $ @ @ o # @ # $ . $ o o $ . o X O o o o X $ X @ # @ @ # o o o o o w . o o $ o o > $ > @ o $ # # # # $ w $                                                   ",
"                                                    $ $ o o # # o + o $ > $ o # # # + + + + o o o o o o o o o o o o o o o o o o o o # # @ # @ # o o # # $ # + o o o X X X o o o o o o o o o o X o o o # # # o # # # # o o # # @ o o o o o o o o o o o o o o o o o o o o o o o o o o o o o o o o o o o o o o o o o o o o o o o o o o o o o o o o o o o o o o o o X o o o o o o o o o o o o o o o X o o o o o o o o o o o o o o o # # # o o o o o o o o o # # # # o o o o o o o o o o o o o o o o o o o o o o @ o o o X X X o o o o o o o o o o o o o o o o o o o o o o o o o o o o o o o o o o o o o X X o o o o o o o o o o o o o o o o o o o o o o o o o o o o o o o o o o o o o o o o o o o @ o o o o o o o o o o o o o o o o o o o o o o o o o o o o o o o o @ @ @ @ $ $ @ # @ @ # # # # # # # o # # # # # # + o # # @ # # o o # o o o o o o X o o o o o o o o o o o @ o # o @ o @ # # o o o + + + o o # # # # o o o o o # # + # $ $ # # # o o o @ w $                                                     ",
"                                                      $ $ o o o + o $ w > # o # # # # # o o o o o o o o o o o o o o o o o o o o + + + + + + + + + + # # # # + o o o o o o o o o o o o o o o o o o o o o # # o # # # # # # # # o . o o o o o o . o o o o o o o o . . . . o o o o o o o o o o o o o o o o o o o o o o o o o o o o o o o o o o o o . o o o o o # o o o o o o o o o o o o o o o o o o o o o o o o o o o o o o o o o + + + + + + + + + + + + + + + + o o o o o o o o o o o o o o o o o o X X X . . o o o o o o o o o o o o o o o o o o o o o o o o X o o o o o o o o o o o o o o o o o o X o o o o o o o o o o o o o o o o o o o o o o o o o o o o o o o o o o o o @ o o o o o o o o o o o o o o o o o o o o o o o o o o o o o o o o o o o o o o o o @ + o + + # + o + + + + + + + + # # # # # # # # # # # # # # # # o o o o o o o o o o o # o o o o + + + + o o + + # # # # # # o o # # o o o # # # o o + + + + o o + # $ w > # # # o > r @                                                       ",
"                                                        $ $ o o . # w w $ # + # # # # # o o o o # o o o o o o + + o o o o o o + # # # # # # # # + + + + + + + + o o o + + + + + + + + + + o o o + + + + + + o o + o o o o o o + # # # # # # # # o o o o o o o + o o o # # # # # o o o o o o o + o o o o o o o o o o o o o o o o o o o o o o o o o o # o o o # # + + + + + + # # + + + + + + + + + + + o + o + + o o o o o o + o # # o o o o o o o + o o # o # # + + o o # # o o # o + + o o o o # # # o o o o o + + + o + + + + o o o o o o o o o o o o o o o o + o o o o o o o o o o o o o o o o + + + o # o + o o o o o o + + # o + + + o o o + + o + + + + o o o o o o o o o o o # o o + + o + o o o o o o o o o # # # o # o @ @ @ # o o o o o o o o o # o # @ # # # $ $ $ # $ $ $ # # # # # # + + + + # # # + + + + + + # # o o # # o o o o o + # # + o o o # # # # # # # # + + + + + + + + o # # o o o o o # # # # # # # # $ + # 8 w $ o + @ r $                                                         ",
"                                                          $ $ # + $ w $ # + # # # # # # o o o o # # # + + + + + + + + + + + + + + # + + + + + + # + + + + + + # + # # # # # # + + + # # # # # # # o o o o o o o o o o # o o o # + + + + + + + + + # # # + + + + + + + + + + + + + + + + # # # + + + + + + + + + + + + + + + + + + + # # + + + + + # # + + + # + + + + + # # # # + + + + + + + + + + + + + # + + # + # # + + + + + o o + + o + o + o + o + o + + # # # # # # + + # # + + # # # + + + + + + + + + # # # # + + + + + + + + + + + + # + + + + + + + # + # + # # # # # + + + + # # # # + + + # # # # # # + + # # # # # # # # # # + + + # # # # + # # # # # # # # # # # # # # # + + # + + + + + + + + # # # # # # # # # # # # + + + + + + + $ $ # + + + + + + + # # + # + + + # # # # # + + + # # # # + + + + + # # # + + # # # # + + + + # # + + + + + + + + + # + o + + + + + + + + o # o o # # # # o o o o + + o o $ # # # $ $ # $ w #                                                           ",
"                                                            $ $ $ > $ # + # # # # # # # # # # # # # # # # # # # # # # + + + # # # # # + + + + + # # # # # # # # + + # # # # + + # # # # # # # # # # # # # # # # # # # # # # # # + + + + + + + + + + # # # # + + + + + + + + + + # + + # # + + # + # # # # # # # # # # # # # # # + # # # # # # + + # # + + + + + + # # # # # # # # # # # # # # # # + + + # # + + # + + + # # + + + o o o o o o o o o o o o o o # # # # # # + + + # + + + + # + + + + + + + + + + + + + + + + + + + + + + + + + + # # # + + + + # # # # # # # + # $ # # + + + $ # # + + + + # # # # # # # # # # # # # # + # # # + + # # # + + + # # # # # # # # # # # # # + + + + # + + + + + # # # # # # # # # # # + # + # # # + # # # # # # + + # o # o # o # o # # # o # o # # # # # # # # # # # # # # # # # # # # 9 9 # # + + + # # # # + # # # # # # # # # + # # # # # # # # # # # # # # # # # # # # + # # # + # $ # # $ w r $                                                             ",
"                                                              > w w $ + + + + + + + # # o o o # + + + + + + + + + # + + + + + # # # # o + o + o + + + + + + + + + + + + + + + + + + + + + + + + + + + + + + + + + + + + + + + + # # # # # # + + + + + # + + + + + # + + # # + # + + + + + + + # + + + + + + + + + # + + + + + + + + + + + + + + + + + + + + + + o + o o o + o o o + o + o + o + + + + + + + + + + + + + + + + + + o o o o o # # o o o o o o o + + + + + + + + + # + + + + + + + + + + # # # # # + + + + + + + + + + + + + + + + + + + + + + + + + + + + + + + + + + + + + + + + + + + + + + + + # # + + + + + # + + + + # # # # + + + + + + + + + + + + + + + + + # # + + + + + + + + + + + + + + + + + + + + + + + + + # # # + # # # + + + + + # # # # # o # # # # # # o o # # + + + + + + + + + + + o # o + + + + + + + + + + + + + + + + + + # # # # # # # # + + + + + + + + # # # + + + + + # # # # # # # # + + + + $ r r $                                                               ",
"                                                                r > # + + # # + # # # # # o o + o o o o o o o o o o o o o o o o o X o o o o o . o o o o o o # # o o o o o o o o o o o o o o o o # # + + # # # # # # # # + # # # X X o o o o X . o o o o o o o o X X X o o . X X o o o o o o o o o o o o o o o o o o o o o o o o o o o o o o o o o o o o o o o o o o o o o o o o o o o o o o o o o o o o o o o o o o o o o o o o o o o o o o o o o o o o o o o o o o o o o o o o o o o o o o o o . . X X X X X X o o o o o o o o o o o o o o o o o o o o o o o o o o o o o o o o o o o o o o o o o o o o o o o o o o o o o o o o o o o o o o o o o o o o o o o o o o o o o o o o o o o o o o o o o o o o o o # o @ o # o o o # o o o o o o o o o o o o o o o o o . o o o . . . o + + + . . . . o o o o o o o o o o o o o o o o o o o # # # o o o # # # # o o o # o o o o o o o o o o o o o o o # # # # # # # # # + + + + + + + + # + . + w r $                                                                 ",
"                                                                  w $ $ 8 w 8 $ 8 $ $ $ $ $ @ @ $ $ $ $ $ O $ O $ $ $ $ $ $ $ $ $ $ $ $ $ $ $ $ $ $ $ $ $ $ $ $ $ $ $ $ $ O $ $ @ o @ O $ $ $ $ $ $ $ $ $ $ $ $ 8 $ $ $ $ $ $ $ $ $ $ $ $ $ $ $ $ $ $ $ $ $ $ $ $ $ $ $ $ $ $ $ $ $ $ $ $ O $ $ $ $ $ $ $ $ $ $ $ $ $ $ $ $ $ $ $ $ $ $ $ $ $ $ $ > 3 > $ $ $ O $ $ $ $ $ $ $ $ $ $ $ $ $ O $ $ $ $ $ $ $ O $ $ $ $ $ $ $ $ $ $ $ $ $ $ $ $ $ $ $ $ $ $ $ $ $ $ $ $ $ $ $ O O O $ $ $ $ O O $ $ $ $ $ $ $ $ $ $ O O $ $ $ $ $ $ $ $ $ $ $ $ $ $ $ $ $ $ $ $ $ $ $ $ $ $ $ $ $ $ $ $ $ $ $ $ $ $ $ $ $ $ $ $ $ > $ $ $ $ $ $ $ $ > $ $ $ $ $ $ O > $ O O $ $ $ $ $ $ $ $ $ $ O $ O $ $ $ $ $ $ $ $ $ $ $ $ $ $ $ > $ $ $ $ $ $ $ $ $ $ $ $ $ $ O $ $ $ $ $ $ $ $ $ $ $ $ $ $ $ , $ $ $ $ $ $ $ $ $ $ $ $ $ $ $ $ $ $ $ $ $ $ $ $ $ O $ $ $ $ $ $ $ $ $ $ $ O $ $ > $ $ $ $ $ $ $ $ $ $ $ $ $ $ $ $ $ $ $ 8 w 8 w 8 8 $ $ $ $ $ $ $ $ 8 8 $                                                                     ",
"                                                                                                                                                                                                                                                                                                                                                                                                                                                                                                                                                                                                                                                                                                                                                                                                                                                                                                                                                                                                              ",
"                                                                                                                                                                                                                                                                                                                                                                                                                                                                                                                                                                                                                                                                                                                                                                                                                                                                                                                                                                                                              ",
"                                                                                                                                                                                                                                                                                                                                                                                                                                                                                                                                                                                                                                                                                                                                                                                                                                                                                                                                                                                                              ",
"                                                                                                                                                                                                                                                                                                                                                                                                                                                                                                                                                                                                                                                                                                                                                                                                                                                                                                                                                                                                              ",
"                                                                                                                                                                                                                                                                                                                                                                                                                                                                                                                                                                                                                                                                                                                                                                                                                                                                                                                                                                                                              ",
"                                                                                                                                                                                                                                                                                                                                                                                                                                                                                                                                                                                                                                                                                                                                                                                                                                                                                                                                                                                                              ",
"                                                                                                                                                                                                                                                                                                                                                                                                                                                                                                                                                                                                                                                                                                                                                                                                                                                                                                                                                                                                              ",
"                                                                                                                                                                                                                                                                                                                                                                                                                                                                                                                                                                                                                                                                                                                                                                                                                                                                                                                                                                                                              ",
"                                                                                                                                                                                                                                                                                                                                                                                                                                                                                                                                                                                                                                                                                                                                                                                                                                                                                                                                                                                                              "
};
