/* XPM */
static char *result[] = {
/* columns rows colors chars-per-pixel */
"449 247 252 2 ",
"   c #020202",
".  c #0A0500",
"X  c #060904",
"o  c #0B0B04",
"O  c #060909",
"+  c #0C0E0B",
"@  c #050509",
"#  c #120500",
"$  c #130C01",
"%  c #1B0D00",
"&  c #120E0B",
"*  c #180905",
"=  c #0E110E",
"-  c #0B1308",
";  c #141203",
":  c #1B1402",
">  c #11130E",
",  c #1A160B",
"<  c #151A0D",
"1  c #1A1B0D",
"2  c #1B1903",
"3  c #0D0E11",
"4  c #120E13",
"5  c #0E1211",
"6  c #0E1619",
"7  c #0E1914",
"8  c #121513",
"9  c #1A1613",
"0  c #151915",
"q  c #1A1B15",
"w  c #141619",
"e  c #151A19",
"r  c #1B1D1A",
"t  c #1A161A",
"y  c #231401",
"u  c #231B03",
"i  c #2B1C00",
"p  c #231C0C",
"a  c #271807",
"s  c #321D00",
"d  c #211D14",
"f  c #211D1B",
"g  c #281E14",
"h  c #220D01",
"j  c #1B210E",
"k  c #1D2115",
"l  c #1D211C",
"z  c #17211B",
"x  c #2A220C",
"c  c #292205",
"v  c #332301",
"b  c #382A07",
"n  c #3C320B",
"m  c #222215",
"M  c #2C2412",
"N  c #22231D",
"B  c #28281C",
"V  c #362B17",
"C  c #3C331B",
"Z  c #3B3215",
"A  c #2C3019",
"S  c #1C1E21",
"D  c #171C22",
"F  c #221E22",
"G  c #1D2322",
"H  c #1E2725",
"J  c #232523",
"K  c #252924",
"L  c #2A2B25",
"P  c #242629",
"I  c #252B2A",
"U  c #2B2D2A",
"Y  c #292625",
"T  c #312E27",
"R  c #2E312D",
"E  c #2C3127",
"W  c #313226",
"Q  c #32332D",
"!  c #35392D",
"~  c #393B2D",
"^  c #3D3525",
"/  c #2E3231",
"(  c #2C3834",
")  c #333532",
"_  c #363934",
"`  c #3A3B35",
"'  c #363A39",
"]  c #3B3D3A",
"[  c #373637",
"{  c #2B2D31",
"}  c #493504",
"|  c #553C05",
" . c #433414",
".. c #4B3C1B",
"X. c #453819",
"o. c #493208",
"O. c #4A3E2C",
"+. c #463A24",
"@. c #413D3B",
"#. c #603F05",
"$. c #3D413C",
"%. c #3C4135",
"&. c #3B412F",
"*. c #5A4408",
"=. c #4C411C",
"-. c #594618",
";. c #564C13",
":. c #65490B",
">. c #634B13",
",. c #644D1B",
"<. c #684C16",
"1. c #6C541B",
"2. c #695418",
"3. c #73571A",
"4. c #6E560C",
"5. c #796418",
"6. c #75630D",
"7. c #4C4228",
"8. c #534423",
"9. c #53452A",
"0. c #5B4C2B",
"q. c #584A27",
"w. c #42433D",
"e. c #494435",
"r. c #524534",
"t. c #574C36",
"y. c #5C5237",
"u. c #5E522C",
"i. c #644E24",
"p. c #6B5423",
"a. c #685628",
"s. c #745B23",
"d. c #735D2B",
"f. c #775B25",
"g. c #665837",
"h. c #725E34",
"j. c #7C632C",
"k. c #796428",
"l. c #7B6433",
"z. c #796737",
"x. c #6D6235",
"c. c #3C3E41",
"v. c #433E43",
"b. c #3E4242",
"n. c #3A4542",
"m. c #434542",
"M. c #484A47",
"N. c #555349",
"B. c #52524F",
"V. c #665B42",
"C. c #786945",
"Z. c #786D4A",
"A. c #5F6154",
"S. c #85681A",
"D. c #927517",
"F. c #83682B",
"G. c #967825",
"H. c #846B33",
"J. c #846C39",
"K. c #8C743B",
"L. c #877239",
"P. c #8E772E",
"I. c #95731C",
"U. c #8B7543",
"Y. c #8A7747",
"T. c #937C4C",
"R. c #937B44",
"E. c #897C55",
"W. c #8A754B",
"Q. c #9A842C",
"!. c #A78926",
"~. c #B59628",
"^. c #AF9332",
"/. c #BDA335",
"(. c #A5871B",
"). c #CDAA15",
"_. c #D1AC16",
"`. c #D3AE1A",
"'. c #D8AD1C",
"]. c #D5B21C",
"[. c #D9B51E",
"{. c #DCBA1D",
"}. c #D6B416",
"|. c #CEAB12",
" X c #E2BA1E",
".X c #D6B422",
"XX c #DBB622",
"oX c #DDBA24",
"OX c #DCB629",
"+X c #DDBB2A",
"@X c #D6B924",
"#X c #C7A938",
"$X c #D9B838",
"%X c #D0AC28",
"&X c #E1BC26",
"*X c #E3BE29",
"=X c #E4BA28",
"-X c #E4BD32",
";X c #E8BD34",
":X c #C39E23",
">X c #DEC128",
",X c #DFC236",
"<X c #E4C125",
"1X c #E5C12B",
"2X c #E9C42E",
"3X c #EAC72A",
"4X c #E5C332",
"5X c #EAC531",
"6X c #EDC933",
"7X c #EAC83A",
"8X c #F2CB38",
"9X c #F6D33B",
"0X c #EECF36",
"qX c #E0C11D",
"wX c #978349",
"eX c #988657",
"rX c #8D8156",
"tX c #A38C57",
"yX c #A99558",
"uX c #AB9450",
"iX c #B7A451",
"pX c #988A64",
"aX c #978B65",
"sX c #A99765",
"dX c #B09B67",
"fX c #B8A469",
"gX c #BCA873",
"hX c #B8B075",
"jX c #D8B947",
"kX c #CCB35B",
"lX c #CBAF51",
"zX c #D5BA65",
"xX c #C3AD75",
"cX c #C9B47A",
"vX c #C8B26E",
"bX c #DDB74C",
"nX c #DDC34A",
"mX c #EAC847",
"MX c #F3CD47",
"NX c #FDDB4C",
"BX c #F7D447",
"VX c #F9D756",
"CX c #ECCD53",
"ZX c #FEE257",
"AX c #FEE24A",
"SX c #D9C36D",
"DX c #F1D66B",
"FX c #FEE56B",
"GX c #CDB882",
"HX c #D2BD85",
"JX c #D9C98A",
"KX c None",
/* pixels */
"KXKXKXKXKXKXKXKXKXKXKXKXKXKXKXKXKXKXKXKXKXKXKXKXKXKXKXKXKXKXKXKXKXKXKXKXKXKXKXKXKXKXKXKXKXKXKXKXKXKXKXKXKXKXKXKXKXKXKXKXKXKXKXKXKXKXKXKXKXKXKXKXKXKXKXKXKXKXKXKXKXKXKXKXKXKXKXKXKXKXKXKXKXKXKXKXKXKXKXKXKXKXKXKXKXKXKXKXKXKXKXKXKXKXKXKXKXKXKXKXKXKXKXKXKXKXKXKXKXKXKXKXKXKXKXKXKXKXKXKXKXKXKXKXKXKXKXKXKXKXKXKXKXKXKXKXKXKXKXKXKXKXKXKXKXKXKXKXKXKXKXKXKXKXKXKXKXKXKXKXKXKXKXKXKXKXKXKXKXKXKXKXKXKXKXKXKXKXKXKXKXKXKXKXKXKXKXKXKXKXKXKXKXKXKXKXKXKXKXKXKXKXKXKXKXKXKXKXKXKXKXKXKXKXKXKXKXKXKXKXKXKXKXKXKXKXKXKXKXKXKXKXKXKXKXKXKXKXKXKXKXKXKXKXKXKXKXKXKXKXKXKXKXKXKXKXKXKXKXKXKXKXKXKXKXKXKXKXKXKXKXKXKXKXKXKXKXKXKXKXKXKXKXKXKXKXKXKXKXKXKXKXKXKXKXKXKXKXKXKXKXKXKXKXKXKXKXKXKXKXKXKXKXKXKXKXKXKXKXKXKXKXKXKXKXKXKXKXKXKXKXKXKXKXKXKXKXKXKXKXKXKXKXKXKXKXKXKXKXKXKXKXKXKXKXKXKXKXKXKXKXKXKXKXKXKXKXKXKXKXKXKXKXKXKXKXKXKXKXKXKXKXKXKXKXKXKXKXKXKXKXKXKXKXKXKXKXKXKXKXKXKXKXKXKXKXKXKXKXKXKXKXKXKXKXKXKXKXKXKXKXKXKXKXKXKXKXKXKX",
"KXKXKXKXKXKXKXKXKXKXKXKXKXKXKXKXKXKXKXKXKXKXKXKXKXKXKXKXKXKXKXKXKXKXKXKXKXKXKXKXKXKXKXKXKXKXKXKXKXKXKXKXKXKXKXKXKXKXKXKXKXKXKXKXKXKXKXKXKXKXKXKXKXKXKXKXKXKXKXKXKXKXKXKXKXKXKXKXKXKXKXKXKXKXKXKXKXKXKXKXKXKXKXKXKXKXKXKXKXKXKXKXKXKXKXKXKXKXKXKXKXKXKXKXKXKXKXKXKXKXKXKXKXKXKXKXKXKXKXKXKXKXKXKXKXKXKXKXKXKXKXKXKXKXKXKXKXKXKXKXKXKXKXKXKXKXKXKXKXKXKXKXKXKXKXKXKXKXKXKXKXKXKXKXKXKXKXKXKXKXKXKXKXKXKXKXKXKXKXKXKXKXKXKXKXKXKXKXKXKXKXKXKXKXKXKXKXKXKXKXKXKXKXKXKXKXKXKXKXKXKXKXKXKXKXKXKXKXKXKXKXKXKXKXKXKXKXKXKXKXKXKXKXKXKXKXKXKXKXKXKXKXKXKXKXKXKXKXKXKXKXKXKXKXKXKXKXKXKXKXKXKXKXKXKXKXKXKXKXKXKXKXKXKXKXKXKXKXKXKXKXKXKXKXKXKXKXKXKXKXKXKXKXKXKXKXKXKXKXKXKXKXKXKXKXKXKXKXKXKXKXKXKXKXKXKXKXKXKXKXKXKXKXKXKXKXKXKXKXKXKXKXKXKXKXKXKXKXKXKXKXKXKXKXKXKXKXKXKXKXKXKXKXKXKXKXKXKXKXKXKXKXKXKXKXKXKXKXKXKXKXKXKXKXKXKXKXKXKXKXKXKXKXKXKXKXKXKXKXKXKXKXKXKXKXKXKXKXKXKXKXKXKXKXKXKXKXKXKXKXKXKXKXKXKXKXKXKXKXKXKXKXKXKXKXKXKXKXKX",
"KXKXKXKXKXKXKXKXKXKXKXKXKXKXKXKXKXKXKXKXKXKXKXKXKXKXKXKXKXKXKXKXKXKXKXKXKXKXKXKXKXKXKXKXKXKXKXKXKXKXKXKXKXKXKXKXKXKXKXKXKXKXKXKXKXKXKXKXKXKXKXKXKXKXKXKXKXKXKXKXKXKXKXKXKXKXKXKXKXKXKXKXKXKXKXKXKXKXKXKXKXKXKXKXKXKXKXKXKXKXKXKXKXKXKXKXKXKXKXKXKXKXKXKXKXKXKXKXKXKXKXKXKXKXKXKXKXKXKXKXKXKXKXKXKXKXKXKXKXKXKXKXKXKXKXKXKXKXKXKXKXKXKXKXKXKXKXKXKXKXKXKXKXKXKXKXKXKXKXKXKXKXKXKXKXKXKXKXKXKXKXKXKXKXKXKXKXKXKXKXKXKXKXKXKXKXKXKXKXKXKXKXKXKXKXKXKXKXKXKXKXKXKXKXKXKXKXKXKXKXKXKXKXKXKXKXKXKXKXKXKXKXKXKXKXKXKXKXKXKXKXKXKXKXKXKXKXKXKXKXKXKXKXKXKXKXKXKXKXKXKXKXKXKXKXKXKXKXKXKXKXKXKXKXKXKXKXKXKXKXKXKXKXKXKXKXKXKXKXKXKXKXKXKXKXKXKXKXKXKXKXKXKXKXKXKXKXKXKXKXKXKXKXKXKXKXKXKXKXKXKXKXKXKXKXKXKXKXKXKXKXKXKXKXKXKXKXKXKXKXKXKXKXKXKXKXKXKXKXKXKXKXKXKXKXKXKXKXKXKXKXKXKXKXKXKXKXKXKXKXKXKXKXKXKXKXKXKXKXKXKXKXKXKXKXKXKXKXKXKXKXKXKXKXKXKXKXKXKXKXKXKXKXKXKXKXKXKXKXKXKXKXKXKXKXKXKXKXKXKXKXKXKXKXKXKXKXKXKXKXKXKXKXKXKXKXKXKXKX",
"KXKXKXKXKXKXKXKXKXKXKXKXKXKXKXKXKXKXKXKXKXKXKXKXKXKXKXKXKXKXKXKXKXKXKXKXKXKXKXKXKXKXKXKXKXKXKXKXKXKXKXKXKXKXKXKXKXKXKXKXKXKXKXKXKXKXKXKXKXKXKXKXKXKXKXKXKXKXKXKXKXKXKXKXKXKXKXKXKXKXKXKXKXKXKXKXKXKXKXKXKXKXKXKXKXKXKXKXKXKXKXKXKXKXKXKXKXKXKXKXKXKXKXKXKXKXKXKXKXKXKXKXKXKXKXKXKXKXKXKXKXKXKXKXKXKXKXKXKXKXKXKXKXKXKXKXKXKXKXKXKXKXKXKXKXKXKXKXKXKXKXKXKXKXKXKXKXKXKXKXKXKXKXKXKXKXKXKXKXKXKXKXKXKXKXKXKXKXKXKXKXKXKXKXKXKXKXKXKXKXKXKXKXKXKXKXKXKXKXKXKXKXKXKXKXKXKXKXKXKXKXKXKXKXKXKXKXKXKXKXKXKXKXKXKXKXKXKXKXKXKXKXKXKXKXKXKXKXKXKXKXKXKXKXKXKXKXKXKXKXKXKXKXKXKXKXKXKXKXKXKXKXKXKXKXKXKXKXKXKXKXKXKXKXKXKXKXKXKXKXKXKXKXKXKXKXKXKXKXKXKXKXKXKXKXKXKXKXKXKXKXKXKXKXKXKXKXKXKXKXKXKXKXKXKXKXKXKXKXKXKXKXKXKXKXKXKXKXKXKXKXKXKXKXKXKXKXKXKXKXKXKXKXKXKXKXKXKXKXKXKXKXKXKXKXKXKXKXKXKXKXKXKXKXKXKXKXKXKXKXKXKXKXKXKXKXKXKXKXKXKXKXKXKXKXKXKXKXKXKXKXKXKXKXKXKXKXKXKXKXKXKXKXKXKXKXKXKXKXKXKXKXKXKXKXKXKXKXKXKXKXKXKXKXKXKXKXKXKX",
"KXKXKXKXKXKXKXKXKXKXKXKXKXKXKXKXKXKXKXKXKXKXKXKXKXKXKXKXKXKXKXKXKXKXKXKXKXKXKXKXKXKXKXKXKXKXKXKXKXKXKXKXKXKXKXKXKXKXKXKXKXKXKXKXKXKXKXKXKXKXKXKXKXKXKXKXKXKXKXKXKXKXKXKXKXKXKXKXKXKXKXKXKXKXKXKXKXKXKXKXKXKXKXKXKXKXKXKXKXKXKXKXKXKXKXKXKXKXKXKXKXKXKXKXKXKXKXKXKXKXKXKXKXKXKXKXKXKXKXKXKXKXKXKXKXKXKXKXKXKXKXKXKXKXKXKXKXKXKXKXKXKXKXKXKXKXKXKXKXKXKXKXKXKXKXKXKXKXKXKXKXKXKXKXKXKXKXKXKXKXKXKXKXKXKXKXKXKXKXKXKXKXKXKXKXKXKXKXKXKXKXKXKXKXKXKXKXKXKXKXKXKXKXKXKXKXKXKXKXKXKXKXKXKXKXKXKXKXKXKXKXKXKXKXKXKXKXKXKXKXKXKXKXKXKXKXKXKXKXKXKXKXKXKXKXKXKXKXKXKXKXKXKXKXKXKXKXKXKXKXKXKXKXKXKXKXKXKXKXKXKXKXKXKXKXKXKXKXKXKXKXKXKXKXKXKXKXKXKXKXKXKXKXKXKXKXKXKXKXKXKXKXKXKXKXKXKXKXKXKXKXKXKXKXKXKXKXKXKXKXKXKXKXKXKXKXKXKXKXKXKXKXKXKXKXKXKXKXKXKXKXKXKXKXKXKXKXKXKXKXKXKXKXKXKXKXKXKXKXKXKXKXKXKXKXKXKXKXKXKXKXKXKXKXKXKXKXKXKXKXKXKXKXKXKXKXKXKXKXKXKXKXKXKXKXKXKXKXKXKXKXKXKXKXKXKXKXKXKXKXKXKXKXKXKXKXKXKXKXKXKXKXKXKXKXKXKXKXKX",
"KXKXKXKXKXKXKXKXKXKXKXKXKXKXKXKXKXKXKXKXKXKXKXKXKXKXKXKXKXKXKXKXKXKXKXKXKXKXKXKXKXKXKXKXKXKXKXKXKXKXKXKXKXKXKXKXKXKXKXKXKXKXKXKXKXKXKXKXKXKXKXKXKXKXKXKXKXKXKXKXKXKXKXKXKXKXKXKXKXKXKXKXKXKXKXKXKXKXKXKXKXKXKXKXKXKXKXKXKXKXKXKXKXKXKXKXKXKXKXKXKXKXKXKXKXKXKXKXKXKXKXKXKXKXKXKXKXKXKXKXKXKXKXKXKXKXKXKXKXKXKXKXKXKXKXKXKXKXKXKXKXKXKXKXKXKXKXKXKXKXKXKXKXKXKXKXKXKXKXKXKXKXKXKXKXKXKXKXKXKXKXKXKXKXKXKXKXKXKXKXKXKXKXKXKXKXKXKXKXKXKXKXKXKXKXKXKXKXKXKXKXKXKXKXKXKXKXKXKXKXKXKXKXKXKXKXKXKXKXKXKXKXKXKXKXKXKXKXKXKXKXKXKXKXKXKXKXKXKXKXKXKXKXKXKXKXKXKXKXKXKXKXKXKXKXKXKXKXKXKXKXKXKXKXKXKXKXKXKXKXKXKXKXKXKXKXKXKXKXKXKXKXKXKXKXKXKXKXKXKXKXKXKXKXKXKXKXKXKXKXKXKXKXKXKXKXKXKXKXKXKXKXKXKXKXKXKXKXKXKXKXKXKXKXKXKXKXKXKXKXKXKXKXKXKXKXKXKXKXKXKXKXKXKXKXKXKXKXKXKXKXKXKXKXKXKXKXKXKXKXKXKXKXKXKXKXKXKXKXKXKXKXKXKXKXKXKXKXKXKXKXKXKXKXKXKXKXKXKXKXKXKXKXKXKXKXKXKXKXKXKXKXKXKXKXKXKXKXKXKXKXKXKXKXKXKXKXKXKXKXKXKXKXKXKXKXKXKXKX",
"KXKXKXKXKXKXKXKXKXKXKXKXKXKXKXKXKXKXKXKXKXKXKXKXKXKXKXKXKXKXKXKXKXKXKXKXKXKXKXKXKXKXKXKXKXQ Q 0 _ B.M.M.M.w.m.w.M.w.w.w.w.] ` _ w.m.M.M.M.M.M.N.M.N.M.M.M.B.M.B.M.M.M.B.B.B.M.M.N.B.B.A.M.B.B.M.$.w.w.w.m.w.w.w.M.KXKXKXKXKXKXKXKXKXKXKXKXKXKXKXKXKXKXKXKXKXKXKXKXKXKXKXKXKXKXKXKXKXKXKXKXKXKXKXKXKXKXKXKXKXKXKXKXKXKXKXKXKXKXKXKXKXKXKXKXKXKXKXKXKXKXKXKXKXKXKXKXKXKXKXKXKXKXKXKXKXKXKXKXKXKXKXKXKXKXKXKXKXKXKXKXKXKXKXKXKXKXKXKXKXKXKXKXKXKXKXKXKXKXKXKXKXKXKXKXKXKXKXKXKXKXKXKXKXKXKXKXKXKXKXKXKXKXKXKXKXKXKXKXKXKXKXKXKXKXKXKXKXKXKXKXKXKXKXKXKXKXKXKXKXKXKXKXKXKXKXKXKXKXKXKXKXKXKXKXKXKXKXKXKXKXKXKXKXKXKXKXKXKXKXKXKXKXKXKXKXKXKXKXKXKXKXKXKXKXKXKXKXKXKXKXKXKXKXKXKXKXKXKXKXKXKXKXKXKXKXKXKXKXKXKXKXKXKXw.] ] w.w.KXKX` ] ] ] [ ' ] KX) m.m.' ] $.m.m.m.m.w.w.w.m.m.w.w.` KXKX$.w.KX@.m.B.M.m.M.M.M.m.M.B.m.m.M.B.B.B.B.N.M.M.N.M.KXKXKXKXKXKXKXKXKXKXKXKXKXKXKXKXKXKXKXKXKXKXKXKXKXKXKXKXKXKXKXKXKXKXKXKXKXKXKXKXKXKXKXKX",
"KXKXKXKXKXKXKXKXKXKXKXKXKXKXKXKXKXKXKXKXKXKXKXKXKXKXKXKXKXKXKXKXKXKXKXKXKXKXKXKXKXKXKXKX) U 9 > 0 w.` Q Q L Q U Q R R ) ` _ ) Q N Y L U T L L U L L Q U T L Q Q N K B R R L K L I J R ) B J R N J L T U Q U U T ) Q Q ! ) ) ) _ ) U L U U ) Q U ) ) ) ) U U Q ) ) _ ` ` ) Q U R U ! ) Q R T U U ) Q Q Q U U U R R L L K L L U L U U L L Y L U Q L J Q Q L Q _ L L ) Q L L T L J ) Q Q Q Q U U Q T ) Q L U ) ! U L U T L L L J N f N L U L L J L R L J L K J N J Y N f f N N Y L Y Y L Y L L J f N L L L L L Q ! T L L Q Q L N J L L J J L N f J N r N J J N N Y N q q r J K J N J R R N l L L N L U Q Q R U R Q Q ) ! _ _ _ ` $.M.$.w.m.] w.B.` ] ) _ _ ) ! ) ) w.] _ _ @.w.` _ @._ _ ` @.` _ _ w.w.w.m.w.] ` @.@._ ` w.m.w.w.m.w.w.$.w.m.M.M.m.M.$.] m.M.M.m.M.w.] _ _ _ ) R R w.` ] M.w.$.] m.M.b.] $.$.] ] ] $./ U ) $.] ] $.M.w.` @.M.B.KXKXKXKXKXKXKXKXKXKXKXKXKXKXKXKXKXKXKXKXKXKXKXKXKXKXKXKXKXKXKXKXKXKXKXKXKXKXKXKXKXKXKX",
"KXKXKXKXKXKXKXKXKXKXKXKXKXKXKXKXKXKXKXKXKXKXKXKXKXKXKXKXKXKXKXKXKXKXKXKXKXKXKXKXKXKXKX] J r J < > ) _ J J U L Q ) ) R Q U Q U U U ` ) Q ! U _ Y Q U Y L ! L L R L l L L L Q R Q U L N K _ T J L L Q ) Q R Q Q R _ _ R _ _ L Q ) Q U R U ) Q Q L U _ ] ] ] _ ] ) _ ! ) T Q _ Q T ) _ U Q Q L _ Q U L L U Q J U ] _ _ R L U R U L Y Q U Q Q ! Q Q L N ) _ N ! ) L J _ N T Q R T Y U J L Q r L Y Q L Q ) U L U L N U Q L U Y r L L N L L L J L 9 r N J r q L L L L N N L Q L N K L N N N N N N J B q f L N B N L K N N J N N N 9 q L N L f J N N N N L L N L U N l L N U L N N R L K N N J J r N L q 9 L N N q J q U l L R L K K K ) U L L L J U U U R L R R Q ) Q ` w.L ) _ ! [ _ ` [ T ] ] ! ` ] ) Q U L Q Q L Q L Q U ) ) L Q Q P U R Q J L L R ) ! L T _ ) ) ) R ! U J ) L L _ ) ) ) L L ! Q J Q ) ' m.[ ) Q _ _ Q ) ] ) ] m.Q _ w.w.w._ _ m.[ KXKXKXKXKXKXKXKXKXKXKXKXKXKXKXKXKXKXKXKXKXKXKXKXKXKXKXKXKXKXKXKXKXKXKXKXKXKXKXKXKX",
"KXKXKXKXKXKXKXKXKXKXKXKXKXKXKXKXKXKXKXKXKXKXKXKXKXKXKXKXKXKXKXKXKXKXKXKXKXKXKXKXKXKX` K < 0 r N 9 N $.Q U U Q U Q ) R U J L R Q N U Y Q ) Q Q Y T Q L U Q ) ) R U L R R Q ) ) ! Q _ Q U _ _ ) ) ) ) Q Q ) ` ) ) _ W T _ m.` Q L Q ) ) ! _ Q _ ) Q L U _ Q ! _ U T _ M.M.w.] _ ` Q Q U T L L L T L R R K R Q ) U ) ) U L R Q L K J T Q L U Y J L Q Q ) T f R K 9 J Q L J L N U U N L Q Q L Q L L 9 N L Q ) Q L P L Q R Q L L Q U L U Y l f L T Q T L K B Y U L J N N N L N 9 r B J L U N N J L N r L L N J K N N Y K B J N N B L L K L N L L K L Y J J r N R Q L Q U U L J E Q U L U R Q U K L U U J R R K K U L ) L Q ) Q ] _ L ) ! R K L Q ) L K L U ) R L U L T ` U Q ) W Q U Q T U Q L L L L L T U U ) [ L J U Q U T Q U ) T L ) Q ) R ! U J Q ) _ ] ` R K U R Q L L ) ) Q ` Q K L L ) Q U L U _ ] ] ) ) ) _ ) _ $.m.U ) ] _ ] w.~ _ ) N ! M._ KXKXKXKXKXKXKXKXKXKXKXKXKXKXKXKXKXKXKXKXKXKXKXKXKXKXKXKXKXKXKXKXKXKXKXKXKXKXKXKX",
"KXKXKXKXKXKXKXKXKXKXKXKXKXKXKXKXKXKXKXKXKXKXKXKXKXKXKXKXKXKXKXKXKXKXKXKXKXKXKXKXKX_ U 0 0 q 0 N k 0 _ ` L L ! ) L Q Q E ) ' ] Q / Q K ) R U Q ) ) ' U I ) _ _ / ) ] $.] ) Q _ ! ` w._ ) _ ! Q ) ) ) Q R _ ` _ R _ R R ) [ ' ` @.] ] ) ) _ Q ) ) ) N Y U J L ' Q Q ` m.w.@.@._ ! ] ` ] _ U U L T Q U L Q _ U L U L Q Q Q Q U L L L U Q Q Q L L Q T J N L L U Y L J R L L Q Y R R L U T N J Q T L K I K S J Q ) R U U I L U R J t r L L N N ! U U L N J Y N L L r U U U Q L J L L N Y Q L L T U L N R L J U _ R R K K L L L J K R R R Q K L L N J L N L L J Q ) U L Q L U L R J N J K L K L U L K R L Q _ L R U Q Q L L L L ) ! U P U / R Q $.] U N J L R R U / P U ) Q L U U L L Y L Q L Y L U L L Q ) L L U L L U ! R L J L Q L L L U ) Q ' _ U U ) ' _ ) L K L L K N L U R L R Q J L Q _ Q U R ) ] ] ) ) _ ] [ ) ' w.m.) ) ) _ ` ` Q Q B f L U M.T KXKXKXKXKXKXKXKXKXKXKXKXKXKXKXKXKXKXKXKXKXKXKXKXKXKXKXKXKXKXKXKXKXKXKXKXKXKXKX",
"KXKXKXKXKXKXKXKXKXKXKXKXKXKXKXKXKXKXKXKXKXKXKXKXKXKXKXKXKXKXKXKXKXKXKXKXKXKXKXKXR J 0 9 r l r 9 r 0 J w.K N L _ L Q ` ) ] ] $.R _ ) U ) L P R ] _ ) L U ) R R R Q ) ! _ ) Q _ _ Q _ ) [ ) Q R ) ) [ ) ) _ ] _ / ) ) @.[ ) ) ) ' _ ) U U ) P R K ) Q ) ' Q U ) ) ) Q _ Q Q ] Q Y T T Q L Y L P L U R Q R Q L L L N U Q R L U K L L U U U Q Q U Q ] L L L U U U Q L U T Q ) L L Y J L L U U Q U U U Q L N J L R K U L K P U ) U L N Y L N K L L U Q U U U T _ ) L Q T R L U T U U U U Q Q L N J P Q Q P L L ! U J L U U L P K L K K U L J U U K L Q L ) ! U U E L l R R R ) ) L U L L K L U U L L L K L L J L P L ) L U R U U Q ) R ) _ ] ) ) ) ) U U P L U ) [ L Q L Q L Q U L P J L L L L _ ) U L Q ! Y N L U Q U Q T U T Q L J U R / / U / Q L L ) { L K U R U ) U J Q R U L L L R ) U U U U Q U [ ] Q U Q ] ' / ) _ @._ ) ) ) ` ` _ Q Y L Q f U m.) KXKXKXKXKXKXKXKXKXKXKXKXKXKXKXKXKXKXKXKXKXKXKXKXKXKXKXKXKXKXKXKXKXKXKXKXKXKX",
"KXKXKXKXKXKXKXKXKXKXKXKXKXKXKXKXKXKXKXKXKXKXKXKXKXKXKXKXKXKXKXKXKXKXKXKXKXKXK Q J r J l 0 r r r l q > _ R L R ) ) ] ] ) Q U _ U U ( _ _ ) I _ ' ] / R $.] _ _ ' Q L P ) ` _ ] ) U _ ] ) _ ` ` Q ] ' _ _ ] $.' $.' ` $.' ) _ I I [ ] @.] ' Q ] ] _ ] _ ) { U ) ) T [ [ L / ] [ U ) ) { Q Q { U U L K L K Q L L / J L L P U U L J Y U U Y Y U Y Y ) U ) U Y U { f U U Y R L Y Y J r Y J L Y ) L Y L I U U I J G K I I / U I E / / U U U P L U U ) R ) U L Q ) R L L L I J P Q / P U L { R I P / ' $./ / ' U ( / I U ( ' U L U U K / R E G K I l J ) / E K I R I ( K U U U ) U P Q U Q ) ) U J L ) Q U I K J ) U U ) U R U Q Q Q ) b.[ ) [ ) U ) ) _ ) I L { ) ) I L L _ U ) ) L K U R L R ) Q ) N P L L P K Q R U Q U I R ) _ ) L U U ) ) / L U L P Q ) L L ) [ U ) ) R ) L ) ) L R ) ) U I Q ) U P Q $._ ) L ) ] [ _ ) [ ] ] _ ' U ) T U T J N U 0 U M._ KXKXKXKXKXKXKXKXKXKXKXKXKXKXKXKXKXKXKXKXKXKXKXKXKXKXKXKXKXKXKXKXKXKXKXKXKX",
"KXKXKXKXKXKXKXKXKXKXKXKXKXKXKXKXKXKXKXKXKXKXKXKXKXKXKXKXKXKXKXKXKXKXKXKXKXJ R N 0 J J r N r r r N q > J w.) _ ! ) ] _ ) R U ) ) / ) ] ' $.( $.$.$.] $.$.b.$.b.$._ Q ! ] ] ! ` @.] ` $.` ` w.] ) ] ` R ( $.b.$.' $.' _ { R _ ` ) R ) ] _ _ ) _ ) _ m.) L Q Q Q ) ) [ [ U ) @.[ [ ] ] Q [ { T Y F ) J J U [ U L [ L R U K U U U K Y R R Y Y Y U U N f U R U T [ Y Y R ) [ L U U Y J Q Y U F U U J U / R I I U E I L ( R U K N I I U U ) R ) Q U ) ) ] ) R ' _ ) ) ) ) { P U ' ] { ) ' ] ' U Q ) ) U K { ) P I { U I ( / I K U / I R I H K K Q ( ( $.$.( U _ n.$.m.$.) ) ) $.U U U U U ) ) U K K U U R ) U Q ] _ ) ) ) ' ) ) ] ) ) c.) ) U L / { ) ) U U ' ) L / ) Y / $.R P ) R P ) Q P ) ' R ) P U L R U I / ) U R R / R R U U ) U P L U ) U / R L / ) U K U ) U U ) Q K J _ ' / U R ) U U ) { I Q ) ] ] w.' ' _ ) [ R ) ) ) ) _ ) Q T ) ) Q U U f N L m.) KXKXKXKXKXKXKXKXKXKXKXKXKXKXKXKXKXKXKXKXKXKXKXKXKXKXKXKXKXKXKXKXKXKXKXKX",
"KXKXKXKXKXKXKXKXKXKXKXKXKXKXKXKXKXKXKXKXKXKXKXKXKXKXKXKXKXKXKXKXKXKXKXKXJ L l 0 9 r 0 0 P P r J N N 9 0 $.M.$.) ] ' U ] ] ' c.' ( ) ' ' _ ( ' b.' ] ' ' [ ] b.( R U ] m.] [ _ M.] ) _ @.w.] ] w._ ) / / ' ' ' _ ' ' ' / / ) $.' _ ) _ Q ] ] ) U Q ' [ ] ] ' ) ) @.) U T Q [ / / [ ) Q / [ [ T { Q ) ) U _ ' ) L R ' ] ) U U U U [ [ ) R [ ) ) T U U T [ @.R [ _ T / ] @.[ [ ) R R @.] @.Q [ [ U U ' $./ / ] ' I _ ) U / _ / ) R ) ) ' R ) ) ) ] ' ] ] ] ] ' ) ' ' ' ' ' ) c.' / ) / c.' c.n.c.' / ' ) / / { { ' / / ' { / / / / ( R / ( K ) _ ( ) ( / I R _ _ ' ) L / _ ' ) ) U ) ) ) ) _ _ Q U J I Q U ) ) / U Q ) ) R Q ) R U ' ' [ ) { { { K I { { ] [ / ) ' ) ) _ ) L / ) U ) U K _ ' ) ) U R R _ R E R ( R I R _ R K K K R Q L U I L L U L R U ) U K L / R R Q U P U Q _ ) R R R R ) ] / L ) ) R ) ] ] ) U ) _ R R U ) ) ) [ Y U ) U ! Q N N L d N m.Q KXKXKXKXKXKXKXKXKXKXKXKXKXKXKXKXKXKXKXKXKXKXKXKXKXKXKXKXKXKXKXKXKXKXKX",
"KXKXKXKXKXKXKXKXKXKXKXKXKXKXKXKXKXKXKXKXKXKXKXKXKXKXKXKXKXKXKXKXKXKXKXL U l 9 l 0 r G 9 0 r J r G G N < L B.` ' _ ) K ` ] _ m.m./ ' ] m.' ' ' m.b.n.' ' ' n.m.) ] _ m.m.w.m.] ] ` ` ] ' [ ' _ ) / ) ' ] ] ' ) ' ' ] ) ) ' ) _ ( ' R ] R [ ] ) ) ) / R ) U U ' ] ] R Q [ [ U Y T ) L Q T Q [ U T R _ ] ' ] ' ) ) _ $.] ) ) ) / U @._ R Q ] ] [ ) R ' ) Y ) R Q Q ) ) [ ) ) ) ] Q [ _ [ _ / U w.] ' n.' ) [ n.] ' m.n.( ' ' / ' ' ] w.m.' ] ] ] w.' ] m.B.] ) ] ] ) ' c.n.b.] ' ' c.' / c.c.$.c.' ' ' / G ' c.c.m./ [ ' c.c.' ' c.U E ` $.R $.$._ ) ) $.) K K R / _ ) ) b.Q ) ) U ) _ ) ) [ ] ) ) L R [ R ) U ) ) ) ) ) ) ) ) ' m.) / ) ) / ) [ [ I ) ) ) ) [ m.' [ U I ' ) U L K U K U / R U L / I K R / / / R K K K / { U / K K K I ) U ) / ) I R I U ' / R ) ) ) J P L ) P L ) U _ ' R L ' ) L ' ' U ) / ) ) ) _ [ ! _ ) ] ) R R ) ) T Q ) Q ) 9 Q J 9 N m.w.KXKXKXKXKXKXKXKXKXKXKXKXKXKXKXKXKXKXKXKXKXKXKXKXKXKXKXKXKXKXKXKXKXKX",
"KXKXKXKXKXKXKXKXKXKXKXKXKXKXKXKXKXKXKXKXKXKXKXKXKXKXKXKXKXKXKXKXKXKXR Q 0 r r r r 0 r 9 0 r J G r G 0 o g M.M.m.] ` ! ! &.$.' ] M.m.M.m.] b.m.m.] m.] m.M.$.' m.m.w.] ' [ [ ' ) @.] ] w.` [ ' ' [ ' $.' ) [ [ [ ' $.' [ Y ) _ U ' b.( n.n./ c.) R ) ) ' [ / _ ] [ / U / T U ] b.v.@.) _ [ R ) ' / [ @.[ $.) ) [ L ) _ ` M.M.) ) $.R R ! ) %.) _ m._ w.w.) _ _ _ / ) ] U U $.' _ ) ) ) ) ' ) ) ' ) c.m.c.] b.' / ' c.] ' ' ] m.b.c.b.] / / ' ' / U c.] ' ] ' ] ] { $.( ' $._ ' ' n.$.] ( ( _ $.' c./ ' ] c.) ' ] b.$.[ ' ' ) ) ) L P R / ' m.] ) / ' / ) [ ) / / b./ / ' ' ) _ $.I ) _ ) ] ] [ U ) { { U ) ' / ) ' ) I ) U K _ $./ Q R R ) / R R _ ' R G U ( I { ( U / I I / { U / / { / U I U U ' I H R / { U R I { R / / / / U ) / R / ( { I / ) I { ) U U ) ' { I [ ) / U ' / / I c.) / ( ' / Y M.M.( c.c.' b.[ [ @.T ` ! / ( K U ) U R R R ] Q l K 9 0 U w.w.KXKXKXKXKXKXKXKXKXKXKXKXKXKXKXKXKXKXKXKXKXKXKXKXKXKXKXKXKXKXKXKXKX",
"KXKXKXKXKXKXKXKXKXKXKXKXKXKXKXKXKXKXKXKXKXKXKXKXKXKXKXKXKXKXKXKXKX) L 0 r r r 0 r r 0 r r J J K r e l k 9 @.N.] ' $._ W _ ! ' / ' n.n.' ) / $.' I ' ' b.' $.b.c.R ' @.] ` ] ' ' [ ] ] ' @.[ Q ] M.m.$.) _ m.] ) $.w.@.] ) ' _ _ ) $.n.n.' ' _ ' R ( ) ] m.w.$./ [ ) L E [ ) U ) ] ] ) ` [ ) _ ' R ) ) ! $.) _ w.U ) ' ) ] m.w.m.n.( R ` $.' w.m.` _ ] @.] b.] ] m.c.m.m.' ) ] @.) c.M.m.m.m.b.[ ' ' ' ] b.] ] ' ) b.b.) / ' ] ' M.M.v.) ' m.] U m.m.] ' ) ' c.] ( ' / R / $.b.$.' ) / ) ( ' n.$.' / ) _ ' U U ) ' / [ [ ' _ ) ' _ [ m.) ' ] _ ) / ) U I U R { U / R / ) ' _ ) / U ) ) [ ] ) T / ' ) [ / [ ] ) ) U U U _ ) R ) ) ) ' ' Q R / ( ' / / ) ' ) [ ' ] c.[ [ U { ] _ J ( ) ) [ U / ( ) ' _ ) ( [ / / ) / ( I U R ( ' ' { ) U / ] ' ) U ' / / ( R P I { U I ) Q U { ' ) U I ) [ ' ' ' ) [ / $.n.' n.c.c.[ ~ ^ T W T { { U / ) ) ) ) Q ' ) q J P l > r w.w.KXKXKXKXKXKXKXKXKXKXKXKXKXKXKXKXKXKXKXKXKXKXKXKXKXKXKXKXKXKXKXKX",
"KXKXKXKXKXKXKXKXKXKXKXKXKXKXKXKXKXKXKXKXKXKXKXKXKXKXKXKXKXKXKXKX) U 0 r J 8 0 N 0 e 0 r J Y J l f r N Y 9 g M.w.) @.` ! ' { ' { { $./ / ) ( $.' ( ' / ) R _ $.b.' ] c.b.m.) { ' [ ' ' / m.] { n.] $.$._ &.$.` _ ` _ ) _ ) ) ) %./ $.$.&.( $./ $._ _ ( / ) ) $.$.) ] _ _ ] ) E b.) ) R ( ) Q ` ` %._ _ Q ( ! ) _ ) %.$.&._ $.%.$.%.n.( n.n.$.n.n._ $.` ) c.] ) _ ) c.m.m.[ ) m.' [ ] v.c.c.m.] ) c.] ' c.c.[ ' c.) c.m.' ' c.c.c.c.[ ) [ ) [ [ ] ] v.' _ ) [ @.[ _ $.v.m.( ' ' ) ' ' ' ] ' [ _ ) [ ' c.) [ ) ] ) [ U / Q { L / [ ] ) ' ! ) ' ) ) ) _ [ Q ) ! Q K R / ' [ ' [ [ / [ ) { c.[ [ [ [ ) ] [ ) ) [ U ) ) U Q Q R Q Q ) ) ] _ { Y Y R R [ U [ ] ' / [ [ _ R R R ) ' ) U U [ ) R U { Q ) @.' / U R R U U L ) [ [ ) ) [ ) / [ Q U ' ) Q ) R [ ) / [ R Y ) R Q ) ) R [ _ ) / L ) ) ' [ ) ) [ ( _ $.&.W _ [ ) [ ! W U U / / R R ) R R ) U ) P K P N l P N P m.w.KXKXKXKXKXKXKXKXKXKXKXKXKXKXKXKXKXKXKXKXKXKXKXKXKXKXKXKXKXKXKX",
"KXKXKXKXKXKXKXKXKXKXKXKXKXKXKXKXKXKXKXKXKXKXKXKXKXKXKXKXKXKXKX) L 8 8 0 8 9 r t 0 9 8 9 J J r r r Y N f f 9 @.M.v.@.[ [ ' c.n.c._ $.` ` m.b.b.$.$.m.$.$.$.' / ] ' ) / ' m.' ' n.n.] ' ' n.c.{ b.) ! ( ) $.m.$.) $./ R ' ` ) _ m.%.n.%.%.%.$.n.$._ ) I U ) ) ` E m._ _ ) ) _ ` $._ ` ) _ ) R ) _ ' ` _ ` $.%.` ] $.$.$.$.%.$.$.R { $.n.$.$.n.n./ ' b.n.' ] ( R $.[ [ ] m.] v.m.) [ ) Q ] ] ' ) [ ' _ [ [ / Y / ] ' ) _ ` ) ) [ ] ) U R [ [ U [ m.R ) ) ) I / [ U ) ' ] ] / / [ _ { I ) ) U P P P / [ [ { { [ [ ' L { J c.[ F ) P R Y L L R @._ T [ _ Q J J U Q ) _ U / [ ' U U Q { ) ) ) { ) ) R [ _ _ ! _ ) L Q U L Q Q U Q L U K U L U ) ) ) U [ I I ) { ) [ / Q U U ! ) ) _ ] Q ) ` ) _ ) ) ) ] [ I L R ) Q U L [ ' [ I L ) ) [ ) L U ) ) U [ Q [ T / _ [ ) ) ) [ ` [ T _ ) ! _ ) Q Q ) Q E E _ ' _ R ! w.] [ _ _ Q ) Q ) { / { U U I L U U R U U N P I R N r J N.` KXKXKXKXKXKXKXKXKXKXKXKXKXKXKXKXKXKXKXKXKXKXKXKXKXKXKXKXKXKX",
"KXKXKXKXKXKXKXKXKXKXKXKXKXKXKXKXKXKXKXKXKXKXKXKXKXKXKXKXKXKXR R w r l = 8 r 0 0 r r 0 0 J r r l r H H 0 z z E B.v.@.@.M.v.M.w.w.$.b.b.$.m.m.) ' ] m.m.v.] m.] ' ] b.c.' M.M.n.c.m.c.c.c.n.b.c.M.c.[ ' c.b.c.' c.m.c.' c.c.( c.M.c.M.M.c.n.M.B.n.c.c.' c.c.c.[ P M.$.$.' _ ' $.] ` _ ' _ ) ] ' ] $.' c.c.b.n.c.] c.c.] ' _ ] c.' $.m.n.$.n.M.w.] M.n.M.M.w.! ` M.w.Q ` w.` _ ` ) ) R R ` ` _ L E E ! ) ! L K R &._ ! R E ( ! ) ! ! Q R E Q _ _ ! ! R ! E B E R R _ K K K L L L R U U R R L K Q ! Q Q L E E I L ! K K N _ R l _ E _ U R U ! ] ) ) _ T Q R K R Q $.] E R _ ) K I Q Q _ w.) L U ) L Q R R Q _ Q U _ Q R ) Q U ) R R ) R L W ) E L L L L N B L E L L Y E Q L E R ! ! ) ! ` Q $.) ` ) ) U U R Q ) ) ) Q ) ) ) ) ) _ [ ) Q L Q w.] ) _ @.' _ ] _ ] ] _ ) _ Q ! ) %.` $._ %.` ! %.w.$.%.$._ ` ] ] v.c.F &._ R ( { [ U U ) U / L I ) U ) U K J U J N r l N ! m.Q KXKXKXKXKXKXKXKXKXKXKXKXKXKXKXKXKXKXKXKXKXKXKXKXKXKXKXKXKX",
"KXKXKXKXKXKXKXKXKXKXKXKXKXKXKXKXKXKXKXKXKXKXKXKXKXKXKXKXKXR R 0 9 P r r Y 0 0 N r 0 0 r r r r l K z H r l z z $.M.^ M.m.M.w.! ~ ) _ m.$.@.] R w.m.] m.] U M.M.) ' ' c./ ' $.c.' c.' ' b.$.$.m.b.c.' m.M.n.) / c.b.n.c.' c.[ ' M.c.c.B.b.b.M.M.M.m.M.v.b.c.c.m.m.' M.M.m.M.$.b.M.' ] n.` ' w.m.m.B.M.M.M.B.M.M.m.v.M.M.M.n.m.M.m.M.m.M.m.M.B.w.M.B.M.M.M.m.&.M.m.w._ e.w.~ @.` e.` ` ! ` ~ ` ~ Q R ! &.! Q ! ! _ Q ! E E E ! ! ! A E E E E ! ! ! R E ! E K E ! ~ ) L E ! _ L L E L W ! Q L R Q ! Q $.! E R ! Q ! ! K W ) Q ! ! $.%.` $.! U ! ) ` Q E ` w._ ~ Q Q ) ! _ _ Q R R ! _ Q ! R _ Q ~ U Q B E ! _ ~ ~ w._ Q ! L L ! _ ` L B B L R E L ! Q [ Q L Q Q L _ R Q E Q ) Q ! ) Q Q ! L ! Q ! ! Q L U ! ) Q R Q U ) Q ) ) ) _ ! ] ! ) _ $.w.$.w.m.] ` $._ ` $._ @.e.e.w.e.w.w.e.w.M.w.~ w.%.w.&.w.` O.w.v.c.[ c.&.( { { { Q R T ) U ) U U ) U P J L L L J P L J L r N M.[ KXKXKXKXKXKXKXKXKXKXKXKXKXKXKXKXKXKXKXKXKXKXKXKXKXKXKXKX",
"KXKXKXKXKXKXKXKXKXKXKXKXKXKXKXKXKXKXKXKXKXKXKXKXKXKXKXKXR L 0 > 0 e 0 r 0 0 r 0 9 0 0 r r r r N N q J S G l j A y.^ W B K A B A A E ! L N L L ! L E Q A B ! Q B N K P L R E U R Q ! R ] ` ) ` ! ) U ) ` ] ' { ) ) ` ] Q c.[ _ $.{ / M.m.) c.c.c.] _ ) ` v.' ` [ Q ] U _ M.] ] _ b.$.m._ ) ` ) ) $.R _ ) [ ` w.` ) ' ) ` _ R ) ) ! ) _ ` m.] ! ] w.$.%.%.` ~ ` W B T ~ Q Y T T L T T W T T W ! T B L W B B B L E m N N 9 1 B B m t q d q q m B L 9 < d q m B r N , > q , d 9 9 g & 9 1 9 , , , = > q , > > q > > ; o r N N q > , 1 : q , $ ; ; 2 , $ 1 : $ , o > > = 0 , ; $ > & d > . & q , > , 2 o , 1 , 9 , , , , , 9 1 1 q , 1 , 9 > 9 9 < 9 0 , & + < , q B 1 1 ; 1 m 1 1 d 1 m 1 q 1 d m m g N m q m m q 9 1 d q 2 , < g m N d d m d m K m g q d l d 1 m m d 1 1 m B k 2 j 2 m m 2 m B A k p M M V V T Y U { I I I U / W Q Q U ) U L R U J P J r Y U K L K J 9 N T M._ KXKXKXKXKXKXKXKXKXKXKXKXKXKXKXKXKXKXKXKXKXKXKXKXKXKXKX",
"KXKXKXKXKXKXKXKXKXKXKXKXKXKXKXKXKXKXKXKXKXKXKXKXKXKXKXU R 9 8 9 9 = 9 r 0 r 0 8 r 0 0 r r f J J k N r r l k o c Z.u.=.=.7.9.7.Z 9.y.r.C V X.+.~ +.7.Z A +.C x 7.C C +.C C +.+.Z C C A Z C Z +.M V V A C C C V X.x Z V x V M V A V B C C M C V d c M M V M a x V M M x ^ C p V M M M V V B V M M ^ V Z x M M V M x M x V C V V V V Z M M C Z Z Z x Z Z Z Z Z  .Z V V b Z Z x X. .Z X.+.X.+...+.8.7.7.r.7.+.+.7.q.7.7.+.X.Z Z C Z ..7.Z V Z C C V X.C C V Z C b V Z V +.b +.+.Z V +.+.X.Z V ^ X.Z +.X.V +.+.Z x  .V C C X.C V X.+.7.X.+...+.9.+.+.+.X.7.+...7...X.7.7.9.7.O.+.7.8.r.t.r.0.r.9.9.g.V.g.V.g.y.g.g.u.V.V.g.V.g.g.V.g.V.V.V.V.V.V.V.y.V.r.t.V.V.V.N.t.g.V.y.y.V.y.g.V.g.V.g.V.y.V.g.y.t.g.V.y.0.t.g.V.y.y.t.y.V.V.g.r.r.0.y.y.y.V.V.r.0.y.t.0.t.9.7.0.y.y.9.q.y.9.9.y.V.V.V.g.V.y.g.y.h.g.g.u.q.C.V.g J H E U Q U W L U L U L P U L L l U J r R L L P N L L N R N.[ KXKXKXKXKXKXKXKXKXKXKXKXKXKXKXKXKXKXKXKXKXKXKXKXKXKX",
"KXKXKXKXKXKXKXKXKXKXKXKXKXKXKXKXKXKXKXKXKXKXKXKXKXKXU Q 0 8 l < r 0 0 r r r 0 0 0 0 0 r r r J r N r F Y 1 $ =.R.cXSXcXuXdXcXfXdXgXcXfXsXgXfXyXfXgXcXgXfXGXcXsXgXfXHXxXfXdXgXgXfXdXfXsXtXdXfXdXsXfXyXtXuXuXiXgXfXfXdXfXfXgXgXfXyXyXtXyXfXyXdXfXdXxXfXyXxXvXyXdXsXgXdXsXgXgXsXgXGXwXT.eXtXsXdXdXgXgXdXgXfXdXxXfXvXfXfXvXfXxXfXxXvXvXfXfXyXfXvXgXfXvXxXxXvXiXfXcXcXvXvXvXvXvXcXcXzXvXxXvXvXvXvXvXvXxXcXxXgXfXfXxXcXxXhXvXfXgXfXvXxXgXcXxXhXxXcXcXxXcXxXxXvXxXvXxXxXGXcXcXcXcXvXhXxXxXcXgXfXhXxXcXcXxXgXfXfXfXfXdXfXfXgXfXdXdXdXiXsXcXcXxXgXfXcXGXcXcXcXHXcXxXxXGXcXxXvXSXHXSXcXSXHXcXvXvXcXxXxXcXcXHXcXvXxXcXcXHXcXcXHXHXcXcXGXGXxXGXGXHXcXcXcXGXSXGXGXGXHXHXGXcXcXGXxXxXGXHXxXgXgXGXhXgXcXGXgXfXgXgXxXcXcXGXxXxXGXxXfXfXhXxXxXcXGXxXcXGXGXcXGXHXHXGXHXxXgXxXHXHXxXHXJXJXHXGXGXGXHXHXHXGXcXGXHXHXJXJXSXJXGXvXSXhXn j &.E E ( ! E K L U ) ) L P U U K P N J K J P U L K L K l ) M.Q KXKXKXKXKXKXKXKXKXKXKXKXKXKXKXKXKXKXKXKXKXKXKXKXKX",
"KXKXKXKXKXKXKXKXKXKXKXKXKXKXKXKXKXKXKXKXKXKXKXKXKX) L > 9 N q l r 0 r 9 r 0 r r r r r F r r J 8 e S t f $ -.fXuXQ.D.I.S.P.R.wXR.z.z.z.d.l.z.j.l.a.,.a.l.d.d.l.j.z.L.l.H.Y.L.J.J.J.K.J.l.J.J.L.K.K.L.L.wXwXtXtXwXwXQ.wXwXwXuXuXQ.tXuXtXuXwXwXuXuXuXuXuXfXfXfXiXgXdXdXyXtXsXsXfXeXeXwXtXtXtXsXtXtXdXyXiXyXdXfXiXfXuXuXdXyXyXuXuXyXwXtXyXyXyXyXiXfXuXuXyXiXuXuXiXuXdXuXyXuXyXyXyXyXyXuXwXwXwXuXtXwXK.wXwXQ.R.L.K.K.j.H.F.j.j.H.H.H.j.j.j.H.H.L.L.L.K.H.j.H.L.L.H.j.K.U.L.L.L.z.H.H.s.k.k.2.k.k.j.j.s.k.k.s.3.j.l.k.s.k.f.k.k.k.j.d.j.l.l.l.j.j.k.s.j.j.l.l.l.k.d.s.k.k.k.j.z.L.L.Y.L.H.L.Q.K.K.L.F.H.l.j.j.l.j.j.j.s.p.p.p.s.s.a.s.s.2.2.2.2.s.d.a.;.2.;.a.2.2.2.a.i.i.a.-.a.;.,.-.2.>.-.-.-.-.-.-.i.-.-.;.=.*.-.;.i.a.2.2.0.,.i.;.=.*.;.;.-.-.;.*.-.;.,.;.;.;.-.-.,.,.2.,.;.;.;.a.,.,.;.;.;.,.,.,.,.s.u.x.F.H.fXL.x.Z K &.( ( ! l U U R I P U Q R L K I L L L L U K L N 9 q N Q B.) KXKXKXKXKXKXKXKXKXKXKXKXKXKXKXKXKXKXKXKXKXKXKXKX",
"KXKXKXKXKXKXKXKXKXKXKXKXKXKXKXKXKXKXKXKXKXKXKXKX) R q = 0 f q 0 r r r r r 9 r l r N N J N r r 0 D F p # i.GXuXG.S.3.F.i. .M u $ 2 u y : : u p p M x M +.M x ^ V X.Z V Z +.V g v V X.+.X.+.+.+.t.8.7.8.0.0.t.y.0.9.8.q.7.O.9.0.9.0.g.u.q.0.0.9.g.q...9.8.+.=.X.q.9.y.q.7.+.9.0.X...7.8.8.7.7.X.X...X.X.X...-...+.8...8.....X...+.+.+...O.8.X.X.O...X...+... . .Z v x x c c c x c c c i u u c 2 y u : : 2 2 : : u : y 2 2 : : y : : $ ; : : : ; ; $ : $ ; : $ # $ : ; $ $ ; $ ; ; ; $ $ $ $ $ : ; $ u u : ; u p 2 ; : $ : u : : : : ; 2 ; 2 2 a 2 2 p u u u 2 : u 2 u u u u c c c i c x c c c x u 2 u 2 2 2 u : : : $ ; : 2 : : : ; ; - ; ; ; : ; ; o - ; o . . $ 2 2 ; ; ; ; ; ; ; ; o $ ; ; ; ; 2 2 ; ; ; $ $ ; o 2 ; ; ; ; - o $ ; : $ ; ; ; $ $ ; : ; : $ ; ; o ; ; ; ; ; ; 2 ; ; ; $ ; ; ; ; $ ; X ; * h d.dXsX=.c U &.I z &.) Q Q U U _ ) Q L U U Q U L K P N L L L U l 0 Q m.! KXKXKXKXKXKXKXKXKXKXKXKXKXKXKXKXKXKXKXKXKXKXKX",
"KXKXKXKXKXKXKXKXKXKXKXKXKXKXKXKXKXKXKXKXKXKXKXR ) 8 > r < 0 q > 0 r r r r r r r e L J r J r r J S e # q.cXuXG.S.K.J.g.h . . X X . . . . . . & . . & . . X   . . X o . . . .   .     . X .   . . X     X     . . . . X X   .   . . .   . . . . . . . .   .     . . .   . .   .     . X . . .   . . . . . . . . . .   .   . . . . . . . .   .   . . . @ . . . . . . . o X .   . X . X o X . . X X o o . X . . o + X o o X X . X . + + X X + + X X . X + + + +   + + o + = + - = = = = = + + X = O + + + = + + o o o > + o & X + X - . . . o + = + + + X . + + + < o - + o o o X   o > ; o o ; > ; > ; - < + > & > 0 > > 0 9 < > 1 = 0 0 7 = = > 8 0 5 0 7 8 8 8 8 8 = > - = = = = = 8 > > 8 5 = - = - = < 0 > > > < = > 0 0 > > 0 > > 0 8 > = = = q = - = 0 8 = + - 5 7 0 = 5 0 0 > = 0 8 5 0 8 > 8 + 4 6 4 . h z.yXsXa.p H I &.E I J P ) ) U L P P I L U U U U ) K P U L L J N k T M.[ KXKXKXKXKXKXKXKXKXKXKXKXKXKXKXKXKXKXKXKXKXKX",
"KXKXKXKXKXKXKXKXKXKXKXKXKXKXKXKXKXKXKXKXKXKXI R > 0 0 r 9 9 0 r 9 r l 9 0 r r l l P J r r r N L r < =.hXiX4.5.k.h.+.d   t t e r r r r q l q r 0 r > 8 > 8 9 8 < 0 0 q 8 > 9 r q 0 0 0 0 0 < 8 = 0 0 0 0 0 8 0 > r 0 8 0 r r 0 0 8 8 4 9 0 0 > > 0 0 8 0 0 > r 0 q 1 ; < k k 1 1 > < ; > ; > 1 < t 8 0 9 0 f 0 9 t 0 0 9 8 0 t t - < q < > < 9 < 9 9 1 1 d q 1 q q 9 9 t 9 q q 9 0 f f t 9 9 t r 0 r 9 t q 9 9 0 q 9 9 9 9 q 0 t 0 , 0 0 9 9 q 9 r q 0 9 l q 0 < > < > 0 < , 0 9 9 9 0 9 0 < k 0 q 9 0 q r 0 < 9 > q 0 8 0 8 9 0 0 9 r r 8 8 0 0 < r 0 8 0 r 0 0 9 q k q q q 1 < $ > > > , < & > > , 8 0 & 0 8 0 0 < 8 8 8 & > > 0 > & > 0 0 > & > 8 8 8 9 8 8 8 e 0 0 8 q 8 0 8 8 8 t t t w 8 8 8 8 > 8 & 8 8 9 t + + 8 0 > & 0 t 0 8 8 8 0 8 + q 0 t 0 > > 8 & 8 8 8 0 0 0 0 8 4 8 8 t 8 8 8 0 & 8 e 5 8 4 . : l.yXeXa.M L %.I I K U ) _ ) U R U Q R U U U U ) U P R U N N K l q Q m.) KXKXKXKXKXKXKXKXKXKXKXKXKXKXKXKXKXKXKXKXKX",
"KXKXKXKXKXKXKXKXKXKXKXKXKXKXKXKXKXKXKXKXKXR ) 9 8 r r 0 l r 0 l r r e 0 0 r l l J r K L r J K q o 7.GXyXI.3.5.2.+.$ @ 3 w 3 4 8 = 8 8 + 8 5 + = 0 + 0 = > 0 8 8 0 = 8 - = > + = = 3 - 5 8 0 8 = 8 = + 5 8 8 5 8 5 5 O + 5 8 + 8 8 4 8 0 + & 8 0 8 w 5 6 0 = 0 = 0 = = + 0 > > - > 0 < = = = 0 8 < 8 4 8 8 8 8 4 > 8 + & 3 8 > > > = 0 8 < = = - & < > > 0 > > < > 8 < 8 0 0 0 > 9 0 < 8 9 0 , > > 0 > 0 0 1 9 > > > > > 0 < < > 0 5 > 0 0 8 8 0 0 0 0 0 0 0 5 > 0 9 9 < 8 > 0 9 > > < > < > r 9 > > < > = < 8 > = 9 0 0 0 < 0 > 8 8 5 r 8 w 0 e 3 r r 9 6 0 0 8 0 < 9 0 9 q 9 q 0 > 9 9 0 , & 8 8 8 8 w 8 8 5 5 8 0 0 0 8 8 8 8 0 < > 0 8 < 8 8 0 > 8 8 4 8 8 0 t 3 4 8 e 5 4 8 8 4 0 8 8 9 8 8 8 8 8 8 8 4 8 8 t 9 8 8 9 0 8 8 8 8 0 9 9 8 8 & 8 0 0 0 4 8 8 8 8 4 3 5 6 8 8 4 + 8 8 4 4 4 4 4 4 8 - O = 0 < X : ,.tXtXq.M B ! L ! ) U U U U U ' ) ) U L L I L ) U / U L N N N B J L M._ KXKXKXKXKXKXKXKXKXKXKXKXKXKXKXKXKXKXKXKX",
"KXKXKXKXKXKXKXKXKXKXKXKXKXKXKXKXKXKXKXKXU K 0 q N e 0 0 r r 9 0 r r r 0 r J P N r r N K P J l d } dXyXQ.S.4.d.q.$ X 7 z 7 + > $ & > > & > > > & & > > + > > - > 8 + 5 7 - 5 = - 5 - - 5 = = = + 8 = + + + + > > + + = + + + + 0 0 8 > 0 + + 8 8 + - = = = = 5 = = 5 8 8 8 + + 0 3 8 + 6 = - 4 & 8 8 > 0 0 > 8 > 8 > 0 8 0 0 0 8 8 5 O = 8 5 8 8 0 0 0 8 8 8 8 8 & 8 w 8 3 3 8 0 w 8 4 8 0 w 8 8 4 8 > 8 > 5 0 8 0 8 0 8 8 8 > 8 5 5 5 5 5 5 = 5 5 5 e 0 + 3 6 e > > 8 > 8 > > > 8 0 0 + 8 + 8 > 7 0 8 = 5 0 0 = - 0 5 - 5 - + + e 5 5 + + 8 5 + + 5 3 + O 5 5 = > = = 5 > = 8 0 8 > + 8 8 & & 0 = 3 5 5 3 + 3 5 3 8 5 = = = 5 7 > > 8 8 4 + + 5 8 + 8 + & 3 4 3 8 + 5 + + + 3 > 8 + + 8 O 8 0 4 + 3 4 8 8 8 8 3 8 8 8 8 8 0 8 4 + 8 0 8 4 3 5 8 8 8 + 3 3 8 5 + 8 3 3 5 8 8 3 3 8 3 > 4 8 4 & 3 4 4 + - 7 - 7 7 . % h.eXdX..M W ) $.] Q Q ) U ) R U U K I U ) ) ) I J N R R L R L N N L w.` KXKXKXKXKXKXKXKXKXKXKXKXKXKXKXKXKXKXKX",
"KXKXKXKXKXKXKXKXKXKXKXKXKXKXKXKXKXKXKXKXK 9 > 0 0 9 r 0 0 r r e e r q l J L P K r G l 0 N N 2 Z dXuX5.F.<.s.8.$ X - 7 7 < 9 > > + o 8 < + > < + > < + > 8 > < O 5 - r 5 O 5 = 5 = = 5 = + - + 5 > > > = 4 + + + + - + = 0 > + > 0 > o = 8 > + + = O = - + = = 7 3 8 3 3 w t 6 8 4 8 3 8 w O 8 8 > > 8 > 0 = + & 8 > 0 > 0 = > + 5 6 e 6 5 5 5 w 3 3 + 4 3 8 8 + 3 3 3 3 6 8 6 8 3 6 6 8 6 5 3 6 8 8 5 0 8 + 8 8 + + + 5 5 8 5 5 5 e 6 5 5 e 6 5 6 5 6 5 3 5 5 = 0 + + + = 5 > > + 0 > + 0 & 8 8 - = = 5 = 6 - - 0 5 O - 0 = = = O + w 6 8 8 0 5 6 + 6 8 3 5 5 5 5 = = 6 0 5 = 5 8 5 8 8 4 8 8 5 8 5 6 + 8 6 8 e 8 5 = 5 8 5 0 0 8 8 3 8 0 8 8 & 8 8 4 8 8 8 0 8 8 0 9 = > + 8 8 0 + 8 8 + & 8 8 0 8 5 & + 8 8 8 0 8 8 8 4 5 5 8 8 3 3 + + 8 8 4 0 8 + 3 > 8 3 8 5 3 5 + + 3 8 + 5 & 8 8 8 8 8 4 t 3 8 O - 7 - - 4 . # h.sXsXg.x Q ) Q R Q U L { Q U U I L { R U / I I L L R I B N L L f L m.w.KXKXKXKXKXKXKXKXKXKXKXKXKXKXKXKXKXKX",
"KXKXKXKXKXKXKXKXKXKXKXKXKXKXKXKXKXKXKXK 0 < r r 0 0 0 0 r r r S D r 0 k z k K L H I { G H 2 ..dXiXS.F.F.z.0.: + > 7 6 0 6 3 & 0 8 > + 8 8 + > 0 8 > > > 5 8 8 8 8 8 8 + + 5 5 8 8 8 8 3 5 8 5 8 + 8 8 8 5 = = + 5 = & 8 8 + + 6 5 = 5 + + + = 8 8 8 + = = + 3 6 8 8 & 3 5 8 3 + 8 8 8 8 4 4 0 0 8 0 8 0 8 8 8 8 5 5 5 5 3 5 5 8 6 8 8 8 8 0 8 8 3 5 8 8 3 5 8 8 8 8 6 5 5 5 8 6 3 5 8 8 8 3 5 3 0 = 5 8 = + + 5 = = 5 + = = 5 + + + + 3 8 5 3 0 5 3 3 + + 8 5 + + > & 8 + + 0 8 8 > + > 8 8 + + = = 5 8 5 5 7 5 0 7 5 0 0 8 0 0 8 = 8 = 8 8 > > > = 8 = 4 = 8 8 = 5 5 5 5 5 3 + 5 5 3 5 8 8 6 5 5 = 4 3 8 = 5 8 8 > > 4 > 5 8 8 > 8 & 8 8 > 4 8 + > 3 8 8 + 8 5 5 5 5 = 5 8 8 6 3 8 5 5 5 8 8 8 3 4 8 8 8 5 3 8 + 8 5 3 4 8 8 8 8 6 + 5 5 5 5 5 5 8 8 8 8 8 8 8 > 0 8 + 8 8 3 8 8 & & 8 + & 8 4 5 5 5 = - 7 6 5 0 > . y x.sXeX=.k l E ~ ) R ] H K R K I ( ( R U U U U R L L I L r U R N N K m.w.KXKXKXKXKXKXKXKXKXKXKXKXKXKXKXKXKX",
"KXKXKXKXKXKXKXKXKXKXKXKXKXKXKXKXKXKXL 9 0 r r r r r r 0 r r r S e G l l k N G G I G ( { 2 c tXuXS.S.3.U.g.$ , > 5 0 8 6 5 0 w 8 8 = + 8 0 8 8 0 0 > 8 8 8 w 8 8 4 > 8 > 5 8 8 8 0 0 w 8 8 = 8 > 8 > 0 0 8 > 8 0 8 > 8 8 8 8 8 8 > > 8 8 8 8 0 0 0 8 8 8 8 8 > 8 8 8 4 8 8 8 8 & 8 4 8 8 8 8 8 8 8 0 8 0 8 0 8 8 8 & 8 8 w 8 8 0 8 8 0 8 8 0 8 8 4 8 8 0 8 8 8 8 8 & 3 > 3 8 & 8 8 0 8 3 8 8 8 0 0 0 0 w 0 8 8 e 8 8 8 6 8 = 8 6 8 8 6 8 0 8 5 0 0 0 0 8 0 8 0 8 8 > 8 8 > 8 8 > & 8 8 8 8 > 8 8 8 8 5 0 8 5 > 0 0 > 8 0 0 7 7 5 8 8 > 8 8 0 8 8 8 > > 8 > 8 = > 8 8 4 8 8 8 8 8 4 4 5 5 5 5 & 8 8 > = 8 8 > = 8 8 8 8 8 8 > 8 8 0 0 8 0 8 8 8 8 > > 8 & > 8 8 8 8 5 5 5 5 8 8 8 8 3 5 4 8 8 4 8 8 w w 0 8 8 8 0 8 8 0 8 w 8 8 8 8 4 5 8 4 8 8 + 3 8 8 8 4 8 8 8 4 0 8 & 8 > + 4 + + + + + 8 8 8 8 6 5 - - = = 5 8 3 , . < x.sXsXy.m ^ ! Q U U ' L E l G H I { K Y U U Q U K I U Q J P U L J ) $.m.KXKXKXKXKXKXKXKXKXKXKXKXKXKXKXKX",
"KXKXKXKXKXKXKXKXKXKXKXKXKXKXKXKXKXL l 0 9 r 0 0 r r r r r 0 r e 6 r J F N B N r G H H 1 u rXuXS.S.3.U.i.% o 9 6 = 7 6 - 8 0 w 4 0 < o + & o > = 3 3 + 8 3 3 3 3 o + & + + & & + + + + o X X o   X o X + + o + + X o o + + o o o X + + o X o o + o + X o X + o o o o X + + o + + X X + o + X + o X X o + + o + o + X X + o o o + X X @ o X X + X X + & o + o + o o + + o o o @ X + o + . X X + + O + o O o O o O + + O o X o o o + + o o + o X + + o + X @ o + + + o 3 + O + & + @ + O o @ o @ o o O - + o O + + + O o O 3 o + X O + O o X o @ @ & O o 3 O + 3 o o + O @ @ + @ @ & + + + @ @ @ @ + o o O o O @ o X + + O   o   o + + o @ X + + o o O + + + @ o @ O O O o   + + + @ @ + + + + o + + + + o O @ @ @ X @ @ + + + O o @ + @ + @ + + @ o O + @ @ @ @ + o 3 O X @ + @ o @ o X @ @ o + 5 8 5 = = = = 5 = O r 0 $ o u Z.sXdXy.m E Q L H n.U U K L E E ! H L P J J U U L Y U N P L U J L U m._ KXKXKXKXKXKXKXKXKXKXKXKXKXKXKX",
"KXKXKXKXKXKXKXKXKXKXKXKXKXKXKXKXL 0 0 l q > 0 0 9 r r r r 9 r N l J P P J K H G K I 1 x eXyX5.wXH.J.i.* . > 0 6 5 = = 8 0 8 5 & > -                     @                           .       .     .       .   . .                 .   .                   .             X                           .           .     .       . .     .     .                               .               .                                             .   .   .       .                                                                                                     @     . .     .         .   .                                                                                   .   .                       .         .         .           .           .     .         .   .     .             5 = > > > 5 3 5 3 3 8 , : o a h.tXwXt.N I E &.I E U { ) U R ( K I L J J { ) U U L J U l P U P N L w.] KXKXKXKXKXKXKXKXKXKXKXKXKXKX",
"KXKXKXKXKXKXKXKXKXKXKXKXKXKXKXL 0 > q l 0 > 9 r r r r r r e l J Y Y { F F S H H K ; 2 Y.xXF.6.3.J.9.y $ q > w D 7 5 5 0 0 8 = = 3 O                       X                     .                           @           .             @   @ X @ .             @ O O   O O     @ O @ @ @ O   O O       @     O           O         @ .   @ @   @ @     . .     @                   .   X @         . .     .     .   .   . .     .           @       @       O   .   .   . .   . . .     .   . .         .   .   .   .       .     . . . .   . . @ . .   .   .                   .           .   @ .   . .   . . .   .   .       . . .   .         .     .   . .       X X               .       .           .   .         .       .       . .   .     .       .       O O                 O   + O = 8 = > 8 8 3 4 4 4 6 9 . . b p.fXsX7.k I &.H / ) [ Q Y Y L H I ) ) L U U Q ) { L ) P I U L U Y L M.w.KXKXKXKXKXKXKXKXKXKXKXKXKX",
"KXKXKXKXKXKXKXKXKXKXKXKXKXKXE l 0 q 0 0 N r 0 9 l r 9 0 9 e r P Y F F F P F G G M j rXvXP.S.5.H.0.. : q 0 r w w 6 0 0 0 0 0 7 =                                                                                                                                                                               X                                                                                                                                                                                                                                                             O                   .                                           .     .                                                                                                                                               + > = & 8 8 + 6 6 3 D w & * $ n z.sXrX7.< E E / ' [ [ U L R R U ) ) P J L L K L U ) / ) U L U L L J M.w.KXKXKXKXKXKXKXKXKXKXKXKX",
"KXKXKXKXKXKXKXKXKXKXKXKXKXR 0 q l q > 9 J l 0 e l r r r r r r J U L U { { { { N X wXiXI.S.F.U.q.: o < + 8 6 w 6 e e r 0 0 5 = O   @   3 6 8 r 0 8 0 8 > = > ; > > > > 8 0 > 8 > > 8 8 0 0 0 8 8 0 0 8 8 t 0 0 8 8 0 w 8 8 8 0 0 0 8 8 + 3 4 & + 8 8 w r t 8 8 0 0 8 4 4 8 4 8 8 8 8 4 8 4 8 4 > + 8 8 > 8 > > 9 0 0 0 t 0 8 > 8 8 > & 8 8 8 > & 8 8 > + > 8 8 > 8 8 8 0 0 0 8 8 > 8 8 t 0 0 8 8 r e 8 e e e e r w w 6 8 w w w 5 8 > 0 8 8 8 0 & 8 & > + + & 5 < 5 3 3 3 3 3 6 3 5 6 3 6 5 5 5 6 w 8 6 5 6 5 6 3 5 6 w 8 6 6 5 5 8 6 6 w 6 8 6 5 5 3 6 3 + 3 6 5 3 3 3 + 3 3 4 5 8 8 4 8 8 8 w 6 8 6 6 8 w 8 6 6 e e 8 w r e e r r e w e S e e S e w e w w w w 8 e w 3 3 8 8 4 t w t t r t t t w e t t e r e r D r t w t e r t t w w w w 8 t w w w r t 8 t D e 8 0 8 8 e 8 8 e 8 r e r r r 0 O       X + 4 8 8 3 6   3 4 3 S & ;   v a.L.dXC m E ) ' [ [ ) [ [ [ ) Q L L I ) { L L ) ) U ) U L I R R N L B.w.KXKXKXKXKXKXKXKXKXKXKX",
"KXKXKXKXKXKXKXKXKXKXKXKXE k 0 q 0 > q l r 9 r N G r l J Y J J P I L P F P { F % x.fXP.6.3.H.-.: $ > 0 e w 3 D w w w q l 0 - X     @   8 S J U ) L L L Y K J J N J P P L L P Y J Y N J J J P K I Y Y P P U U Y P Y I Y P P L P K Y K F J J K K f P Y P I P J J K P Y Y Y P F Y Y U Y Y Y Y J Y F Y J J J N J K I J J J Y L P L L L P K P K J N J J J Y J Y J J J J N Y J J Y K K r J Y L U K Y l { H G P I I I { I P J G H I I K S N J P r J K r r J r r r z l K G G G G H I U I r G G H G S l G G G S G G K G G G G G G r G G G G G G G G G G l K H P G G H P I P J P F J J J P S S S S P J K G S G G P P G G G P G G G G H H G I G G P P H G P H H K I I I H K I J S S S J P I J K P P P J P J P P P P Y I U I P J P I P P J P J P J F J P I P I { { P J U I S P G G I G K I I { U { ( { G e O       + 8 8 8 6 3 D 6 6 3 w o + -   o.L.Q.yX9.m ! _ Q T [ ) [ T Q P P L L L ) / ' _ Y J L J L Q Q L Q ! U m.B.KXKXKXKXKXKXKXKXKXKX",
"KXKXKXKXKXKXKXKXKXKXKXU k 9 q 0 q r r q 9 0 0 r r N J G r N J G I { I I I f % a.fXI.6.3.L.x.a * q 7 5 = 6 5 w 0 t 8 9 9 8 @ .       = l N N N U Y Y Y Y P J F r G l G G G z G H 6 H G z H H G G G G G H H H G z e G G 6 7 z z 6 G D 6 z G G 6 7 6 r G 6 6 H G 6 w e r G S G S G F S J I K S S G H G G 6 6 z G H H H H e G e H G G G H G z G z D e G z z G 6 z G e 6 G z 6 z 6 H 7 G G z z G G l G r r r z l r l r G N l l l l l I G H H G G G H G r G z D z G H G G z r l l l l G G r r G G z l r l q l z l r N G l l k G H N K H l z z G l z z H l H K l J G K K H K G z G z z G H z G G G z G J l H B H H l I l l G H B G l K G K l z l H K z z z l E K l K l H H z H H l H G l G z z G k H H G E { H H H H G H H H H G G G z H H H H l H I K I / ( H G I I H K K K K K I K I H R K U U z r l @ @     + 8 0 8 0 6 7 3 5 3 O 6 6 > . ..H.K.dXq.j A E H $.%.I [ U L { ) U U ) ) L Q ) U L U ) ) U L K Q N U b.w.KXKXKXKXKXKXKXKXKX",
"KXKXKXKXKXKXKXKXKXKX) K 0 l q 0 9 q q q r q r r G N f r r S K K S P z H E $ C.xXuXS.6.z.Z.u $ 0 q 0 7 5 5 6 0 9 t t 9 & @ @       = 0 q l N L L U / { Y Y I Y Y G G G G H G G H H H H H E H G H G H I G G e G H G r G G H H G z G G G r 6 H G G z G G G z z G z G G G K H K H K S G G G D r e G z H I { { I H G z G G G H z G G z G G G G G G z G H G G H G z G G z G G z G z G G G G G G H H l J G K l r q z K l N J l l l z r G z r z 6 z G H H z G G D G H l l l G l G l z l z k z l K l z l K l z z l l r z G J H K K K K l z K I B K l G K K K l l l z G l G G G G H { I H G l G z G l z G K H K K K K H B l z K l l H H H G H K H K E I l K H K I J z I k H z I I H H K K H E K K K H K K I I { I H E I K K H I I I I I H H l I I I H H I I I I G K { I l K L I E R R R R I R U I K l l K e     @   + t 0 = 5 = 5 7 6 5 7 w r , @ | p.dXdX=.x &.&.H $.[ [ U U ) ) U ) _ ) { ) ) R P J J U U L l R ) U Q B.M.KXKXKXKXKXKXKXKX",
"KXKXKXKXKXKXKXKXKXL N 0 0 q > q l l N l N J J l J l N r r l P J H K { E $ 8.cXQ.5.P.L.Z.: o & 8 8 0 7 8 5 = > 9 q d 4 @         8 9 r G N J L U ] [ T R ) R L Q R ) ( R Q R R R R L { ( R K I / I U I L I R H { L J J U H I K I K I E K K E { I U I U U H G K I G G G G G G H l H I K H H K H I N K G l z z l K H G l B H z J I z H K K H G K B G B G K K z z H J l B J H H l B G G K l G H K G I K K l G K I E P K U Y H K K J I N l l l k G H B z l J G H K H l l K K H z G G z z H H G z r G G z z K G H P J K H K K I K I H G K I J H K K E I E H l I G G G G K I H P I U R E K H H P K P I G H H H H I H l H K U I E K I I G K I I I I K H I K I I H z K H K z I E K H R K I R U I U J I I G l G G H H H G H H K I H K U I z I U I H K I G H K I K I I { H P L L L K K N l K L L L K K N J P w         o 0 7 < 7 7 7 5 - 3 w 6 4 8 * ..K.uXrXb N &.( H / I U ) _ ) Q ) ) Q { L L ) ) ) R U Q U U U J K L ) M.m.KXKXKXKXKXKXKX",
"KXKXKXKXKXKXKXKX_ K > 8 q q 0 N l N l r r N J l r l J N N J P N I r z ; 7.sXQ.I.4.wXE.m . 3 w e 8 5 0 < > 7 > > t > o .     @ 3 e e N P K J L L T ) Q T ` ` ! ^ ! ~ %.! W ! ~ ~ w.! ! &.~ W ~ _ ! ! ! _ ` &.) ! ` ! W Q ) R E ! R ! Q W E ! ! ( ~ ! ) ~ R E ! ~ ! ) ! ! ! ! E E Q ! _ &.&._ ! ! ~ ~ ` ~ ! ! ! &.w.! ! ~ %.W W ~ W W W Q ! E L Q W ! W ! ~ W Q ! ! W ! ! ! ! Q ! E ! W Q A E L T Q E L Q ) ! ) Q T Q T T R Q Q Q ! W W ! Q E E E W L E W E E W W E K E R R L K L L L L E B K K K K K L Q N L Y F K B N L K B K B L L N N K E K N l K N l K B l f N N L K N J N K K N N K N N L N B B L K K E A K N J L U K K K A B K E E K K A K E L L U R E R E R A B K B A E L L R L L W T ! ! Q T L R ! E R Q L L L R E R W L L Q ! R L R ) U L U Q Q R E ! ! ! _ _ w.] ` _ _ R K L J K U N N G K 4         & 0 0 0 = - = = = 4 O D @ * * #.R.uXtXZ A $.( / ) ' ) ) ) _ ] [ R Q ) ' ] _ ) / Q U ) _ K N Q Q U Q m.B.KXKXKXKXKXKX",
"KXKXKXKXKXKXKXQ I k 0 q 0 8 r G l N N q r N N r N J J J N P L K N B $ v gXwX4.6.U.h.g . 4 e 6 e 8 8 > 0 0 7 > > + @         3 D e F P S G L L N L e.M.t.N.N.V.N.t.N.N.y.N.g.N.V.y.y.t.y.t.N.y.t.t.t.N.y.t.r.r.r.y.N.t.r.r.r.e.r.r.r.r.r.r.e.r.t.O.O.e.O.O.O.O.e.e.e.e.e.e.e.e.e.e.e.e.t.t.e.e.e.e.r.t.t.r.r.e.r.e.r.e.r.t.e.O.O.7.e.e.r.e.7.r.r.+.O.+.O.+.O.O.^ O.+.e.O.O.O.O.e.e.e.r.9.e.O.7.r.O.r.r.r.r.r.t.t.r.O.r.O.O.O.r.r.r.e.r.t.r.e.9.O.e.O.e.7.O.O.e.7.e.+.+.O.O.O.+.+.7.O.O.t.O.O.O.O.X.+.+.O.^ +.+. .O.O.O.+.+.O.O.O.+.O.O.+.+.+.+.+.7.O.O.+.e.O.+.O.O.+.O.O.r.e.e.7.e.+.+.+.+.O.O.+.r.O.r.e.r.e.r.t.O.O.r.O.O.O.O.e.r.r.r.r.9.e.7.r.O.O.O.O.O.O.O.O.t.t.e.7.e.r.9.r.y.y.r.r.t.t.y.y.t.r.t.t.r.r.r.t.t.t.t.t.t.t.t.r.y.t.r.y.t.e.r.t.O.O.+.e.e.O.O.e.w.w.M.M.M.w.m.m.! L L L K L N J l G r 8         + 8 0 8 - = + = + 3 6 6 4 > # q.K.wXZ.x B ] ] _ ` ) R _ $.m.] _ ) ] m.] _ ) U U / ) / K ) ) J ) U Q M.M.KXKXKXKXKX",
"KXKXKXKXKXKXQ K q < 9 l 0 0 f r N N l l r N J l N J L P J I U K B u Z gXuX5.:.k.h.* # w w w z + 0 0 > + = < 7 -           3 e l J J G F J K Y N m.@.! R W B B m M x x x g M M p M g m x a p M p g g p 1 p p p g p m g p p p p p g p p m x p g M g M g M p g M p x p p p p a p x p p 2 p m 2 2 p p u p : 2 y p x u u p u p u u : 2 p a a g 2 p y p p p m x M x p p p p p : p u p x a p x x M M p a a a a a a a a M M V M V M V M V V B M M V M M M M M V M M M M V M M M V V V V C V C ^ V ^ V V T V T  .C +.+.T C T V C ^ C ^ V T +.O.+.^ ^ O.+.Z ~ ^ +.O.^ ^ X.^ ^ ^ ^ +.+.+.^ +.^ ^ ^ +.~ ~ ^ ^ V ^ V C V V +.C T  .^  .C ^ C T V V V C ^ ^ C ^ C V V V T V C A C V A W C V ^ W Z M M V M M g M M m M M m M M M x M B m x g p B p g M M x M M M x p x M M x p d k d q q 9 9 < N q L Q L L N L I K K r 4         + 5 5 0 5 > > r 3 4 4 3 4 $ # k.K.eXY.A B w.$._ [ ) ] ] ' _ $._ ' [ _ _ ' _ ) [ / ) I / L N L R Q R N.M.KXKXKXKX",
"KXKXKXKXKX) N 0 N 9 0 N N r K G 0 9 9 r r r l l K P K J J U L N , V dXuX4.S.H.U.a . f t 4 D 6 = 8 8 > = = 7 + O       @ O e z l K l l K L J L W R ;   $ o . . . + o X O o X X X + + O -   O + O + X X X + = + + O + + O X X + O O + O = + + O + 5 + + 3 o + 5 + > 8 > + 3 8 8 8 + & 4 8 8 = > & + + + - > + - = X O + . O X = + = - - > 5 - - = + X - = + = + . - = = = + > - + + O X X + + o X > & + X + = & @ @ X @ o * + + = > + X X O - = o o X X + X X X X .     O O + + + O   X X   @ O X + o @ o X + +   @ . O O o O X X O O O o @ @ = X X X   X - + X X   X + X O O O O O X O + + + + + + . = + + X @ + O X o @ @ O O + o o + + = + @ & + + +   @ & O - . - - O = - X - + = X o = + & = = + + + O o + = 5 + > > + + + + + = 8 + = = 5 + 5 = + + > > + X + + + & ; = > > > > d Q Q N L L K E N l t 4   @   @ o 8 e 0 5 =   0 > & w O 8 . ; Z.K.eXY.x ) ' ) ' ] ] _ ) ) ] _ ' ] ' [ Q ) ' ' ' ] ' ) ) ` L Q R ` @.A.M.KXKXKX",
"KXKXKXKXw.K > k 0 q 0 r r r l r 0 0 r r N r Y J K B J P L U K 1 b eXsXF.F.P.U.V . 1 + t 4 3 5 5 & > 8 8 0 - O         5 G z r l l m N N N L L Q > - 0 q < q r 8 0 6 e e e 6 D G e e e 6 e e 6 e w e D e 6 6 6 6 G D e D 6 e D 6 e e e D 6 6 e w 6 7 6 6 6 6 6 e w w e 0 w e w D w e e w e D e w D e e e 6 0 6 6 0 e G e z 6 e e G e 6 z e G e D e 0 6 z 6 7 e e e e z 6 e r 5 7 6 6 z e 6 7 w e 6 e D D w w w w D e w w w 6 6 6 e 5 7 5 5 6 e 6 6 6 7 e e e e 6 6 G G e e 6 6 6 e 6 D G w w e 6 5 w 8 w 6 e 6 8 6 w 6 6 e w D w e 6 D e 6 6 z 6 r 6 6 e 6 6 6 5 e 6 7 6 e D 6 e 5 6 6 6 e 6 5 6 6 e D e 6 e 6 w D w 6 6 w D e 6 w w 6 6 6 6 w e 6 6 6 5 e r 6 e e 7 6 6 6 e e 5 6 e 6 6 w 5 6 6 6 e 6 z 6 e e D w 7 6 w 6 6 e 6 7 6 e e 6 6 e 6 6 e D e e 6 6 e 8 0 , 0 8 < < 0 9 > 0 L T Y T L B z K P e t w         + w 0 8 8 5 - < & 8 8 + 0   2 a.R.gXrXc R U ] ] _ ` ' ] v.@.) Q ) ` ) R R ' c.b.c.$.R Q L J W L _ ] m.KXKXKX",
"KXKXKX) L > 9 N 0 9 l J J K z r r G K P F F Y L W j I l J N 1 c yXuX3.3.d.E.Z o > = 7 = = - 8 + 8 3 8 8 5 .       X + e P G H G t B m 1 N Q L > > > > = 8 r 0 8 0 5 6 5 6 5 8 6 6 5 e r e 5 5 6 w 6 6 6 6 6 8 e 6 0 e 6 6 e 6 6 6 e 6 6 6 0 w 5 6 e e e e 6 5 r 8 6 e r 6 0 r 0 8 0 0 8 > 0 q w w 0 0 0 > > < q 0 0 9 0 9 0 0 7 0 0 r 7 8 r 0 0 0 0 0 0 0 0 w 0 e 8 + 8 8 0 8 5 t e e w 0 8 0 8 8 0 8 6 7 0 e e 6 7 5 7 5 6 0 5 e r 8 8 w w t r 0 3 8 w 8 8 w w 8 8 > 8 0 w 8 8 3 3 8 0 e 5 = 6 e 0 9 q 9 q 9 q 0 0 r r r w w w w 0 8 0 r q q q q q 0 0 e 7 7 7 0 0 0 r 0 0 r 0 e 8 0 0 e 8 0 0 r r r 0 0 r r 0 8 6 8 8 w 8 w w e 6 6 6 0 e 6 e e 6 5 7 6 6 5 5 7 6 6 5 0 e 6 6 6 0 e 6 8 r r 6 e G r 6 7 8 w 5 5 6 e 6 5 5 6 0 6 6 e e 6 8 6 e 6 5 5 5 6 8 6 8 5 5 0 e 0 0 0 8 8 8 + > N W T B E B J K Y J S 6         3 8 w 8 w 3 + = < + 8 8 + . : x.U.fXz.c I n.&.&.b.c.v.v.' ' _ ( ! ] ) U ' c./ ' @.w.Q ` T U ~ @.Q @.KXKXKX",
"KXKXm.~ f o > 9 r N 9 q r J L l z G l G F J P N m B k K K < M rXuXG.:.p.W.b o > = - 7 7 = = 8 8 8 w 8 = X       . 8 r l S S G G m m q m ! E < o > < 8 8 8 e w 5 8 8 8 5 8 6 e 0 8 6 e e 0 5 5 5 8 w 8 8 8 8 8 e 8 6 8 5 8 0 0 8 e 8 8 8 0 8 8 5 0 e e 6 8 6 5 e 8 5 0 0 7 0 0 8 9 9 0 < 0 9 q 9 , 8 0 9 q 0 q l q 9 < < > 0 0 r 0 0 < 0 0 < > 8 0 1 0 = = 0 0 0 r r 8 & 8 8 0 r 0 0 0 0 0 0 8 8 8 6 0 0 0 0 0 0 0 0 0 0 0 0 0 0 9 8 0 8 8 0 0 0 0 8 > 0 0 0 0 0 0 0 8 8 0 8 0 9 9 0 0 0 8 > 8 r 8 0 0 9 9 9 1 9 q q 0 0 e w w w r 0 9 9 0 0 0 q q q 0 z 7 j 0 z 0 0 0 9 r 9 0 8 e 9 t r r 9 r t 8 0 0 8 8 9 r 8 0 0 0 0 0 0 8 8 8 8 8 8 e e e r 5 5 5 5 8 6 8 8 5 5 8 8 0 e 0 0 8 5 8 e e 6 5 8 8 6 5 5 5 6 0 6 5 8 6 5 5 5 8 6 8 8 8 6 6 8 8 5 e 8 5 6 6 0 e e 5 5 e e 6 w e 6 4 0 9 & 9 B T Y E N J K l l K S 3         3 t 4 8 6 8 0 0 + + 3 w 4 # u C.eXeXz.l &.&.&._ M.c.B.v.' ! E I ] ] ' ' c.' { U _ ] ` ^ @.M.w.Q Q KXKXKX",
"KXKXw., K ! L N 0 > ; N J l 9 l z J K K / U P G l N K K p y E.fXP.6.>.T.O.. $ 8 7 = 0 = = 7 8 8 6 0 8 O           e r F r J P N N q N ~ ! 1 + > > 0 0 0 8 e w 6 8 8 6 6 8 0 0 8 0 6 8 8 6 5 6 8 5 5 5 8 5 8 8 8 8 8 6 5 8 e e 8 e 8 8 e e 8 5 6 0 8 0 6 5 5 5 5 = 0 0 7 = 8 8 8 0 > > < 0 0 < > < < > < 0 0 0 e 0 0 0 0 0 8 w e q > < q q > = q 0 0 8 0 0 0 0 8 0 8 8 8 8 5 8 > 0 0 8 0 0 0 8 9 0 = 5 0 0 0 7 0 0 0 0 0 = 0 0 0 8 0 0 8 > 0 0 8 0 8 = 8 r r 9 8 8 8 > 0 8 8 0 0 r r 0 > 8 8 0 9 7 7 0 0 0 0 0 0 < < < j 0 0 0 9 r 0 q q 0 > 0 9 q 9 < 0 0 < 0 0 0 0 < 0 9 0 8 0 0 8 8 8 0 0 8 0 > < 0 0 > > 0 8 = > 8 8 > 8 5 + 3 5 5 5 5 5 5 8 5 5 8 w 8 e 0 e 6 8 5 8 e 8 6 8 e 6 w 8 5 = O 5 0 6 5 8 8 5 8 w 8 8 5 = 8 8 e e 8 8 8 8 8 6 8 6 8 8 8 6 8 e e e = 5 0 0 6 8 w 6 8 8 9 0 , & B ^ B N B r q K U S e 6         @ 8 8 8 0 0 8 4 + > 8 > & $ x z.R.pXV.k W &.$.` n.n.M.v.' ` n.n.$.$.%._ / ) ` W L Q N.M.@.B q L L KXKX",
"KXKXw.. ; 9 N R w.L J + > E z k B R L N P J S S { J L , y E.dXF.3.>.U.a.# , 9 0 0 7 7 7 = = 8 + e 5 O @     O 5 e G e r J f N r d B ~ ! 9 + > q 0 0 0 8 5 6 w e 6 0 0 8 8 8 8 8 0 8 8 6 0 8 8 8 5 5 5 5 5 8 6 5 e 8 5 8 8 e e 8 w 8 8 0 e 6 8 0 5 5 8 5 5 8 0 + 8 0 0 0 0 8 8 > 0 0 0 q r 9 0 > q q 1 z 0 6 8 6 5 0 > 0 0 0 e e 0 - > q q 0 > q 0 0 9 9 e 0 0 > 0 0 0 r r 0 & 8 8 < 8 0 8 0 8 8 0 0 8 7 7 = 0 0 0 0 6 7 = 7 7 0 & 0 0 9 0 0 0 0 8 0 > 8 9 0 > 8 > 8 8 0 4 8 0 0 0 0 0 0 0 0 9 0 = 0 0 6 w w 0 8 7 < < - < q q 9 8 0 9 q 9 1 < 9 1 < > < 0 7 0 0 - 0 0 > 0 0 0 0 0 8 8 0 0 0 8 0 0 0 0 < > > 0 8 > 0 0 > 8 0 w 8 5 8 6 8 8 5 6 0 8 w e e e w 8 0 8 8 6 8 8 8 5 0 8 e 0 + = 5 6 5 e 8 8 8 e 0 6 5 6 8 8 5 5 0 8 e w e e 8 8 8 0 5 5 5 8 8 8 8 0 e = 5 0 e 3 6 8 8 8 4 8 r 8 & , L Q T N q G R U l G P 3       . X 8 = 4 3 8 8 8 > 8 & 8 & . a x.eXrXu.p W $.) c.n.M.c.] ' ' c._ ( ! _ w.) _ A w.A.w.L m 1 d T B KXKX",
"KXKX` X o o X , B ` B.! 9 B 0 k q L B K l G D H I { 9 y a.cXP.#.1.Z.a.$ o , 0 w 0 7 7 7 3 8 8 3 8 .       @ 3 z S r r N P r t q m w.~ > X & > < 0 0 0 5 6 8 e r 0 8 8 8 8 8 6 6 r 5 5 5 8 8 8 8 0 8 8 6 8 0 8 5 8 8 0 8 6 0 8 e 8 5 5 8 8 8 8 e 6 5 8 8 6 e r 6 0 e 0 r r z 0 0 q q 0 r l q 9 q q q 0 0 0 0 0 7 0 0 0 0 0 0 t t 0 > < 0 0 < 0 q 0 0 0 < > 0 0 0 r 0 8 0 0 8 0 0 8 9 0 9 0 8 8 > 7 0 0 = 7 0 0 = 7 0 0 0 7 = 0 0 > 0 r 8 8 0 0 8 0 0 > > 0 0 8 8 0 0 0 0 8 > 8 9 8 0 0 0 0 0 0 > < 0 0 e e D e w > 0 0 < < 9 r 8 0 8 0 9 q 9 q 0 0 0 0 0 9 0 0 r > q 0 8 0 0 < 9 9 0 0 0 0 t 9 0 0 0 9 0 < 0 0 0 8 r 9 8 8 9 r 0 5 8 5 8 e e e r 8 8 8 0 8 6 5 5 e 8 6 e 8 5 5 0 e e 8 8 5 e e 8 5 8 6 5 6 8 0 6 = 5 5 6 5 5 5 5 8 8 8 8 8 6 8 5 6 5 8 8 8 8 w e 7 5 0 0 8 8 w 6 O 8 r 0 > < 0 < W ~ B q J N N L K G r 5         - = 5 3 5 8 8 5 8 O t 3 9 . V U.yXwXX.E ) $.$.%.n.c.' / W Q _ ' ( E ! W ! e.N.%.m q k m N E B KXKX",
"KXKX_ - $ o o ; - < q Q e.N.R < q B B k K I I I P r p g.fXK.4.3.U.g.$ ; , 0 4 6 6 5 5 6 8 9 9 4 O         6 6 G 6 r r J L d f B _ L 9 X > 0 < > > 0 0 0 6 0 8 8 6 8 6 e w 8 5 5 0 6 = 5 5 8 6 8 e 8 5 8 8 8 8 8 6 6 0 6 8 8 8 w 8 5 8 6 8 5 6 e 0 8 8 5 5 8 e e 7 0 0 0 0 0 0 0 0 0 < 0 0 8 0 q q 0 0 0 7 0 z 0 0 r 0 q t q q 0 q 0 q 0 0 0 0 q 8 < 0 9 0 < 0 9 0 > + > 8 > 8 0 8 0 0 t 0 0 8 8 - 0 0 7 7 0 0 7 8 7 0 7 0 8 0 7 > 8 0 8 > 8 9 8 8 0 8 8 8 8 8 0 8 8 8 9 8 > 0 0 0 0 0 0 0 0 8 8 < < 0 e w e w 8 > 0 < 0 0 0 t 8 r 0 0 < 0 q 0 9 q 9 q 0 0 < 0 9 > q 9 < > < 8 8 0 8 > 8 0 0 0 8 9 > 0 0 < 0 r 0 8 0 9 0 8 8 8 8 8 6 5 8 e 8 6 8 8 6 5 8 8 8 8 6 e e 8 8 6 5 5 6 0 6 6 e r e w e 8 8 5 5 = 8 0 8 6 8 8 8 5 = 5 6 8 8 5 5 8 0 0 8 8 8 e e e 8 6 8 > = 7 0 8 8 w 5 6 8 8 8 8 0 > = 0 W Q N N N l L I G G l 3         + > 8 > = = 8 3 8 6 w 9 & . V z.dXrX^ T $.$.%.c.( ] ) ~ ~ ' c.! ! W %.A.N.B ; 1 m N q 9 E L KXKX",
"KXKX) o = > + + X < X o + B w.N.` ~ E k j z N J Y , y.dXR.<.:.L.g.$ $ , > r 3 3 7 5 = 5 8 8 4           5 e G D G G G Y Y f B T ! < X > 9 8 0 0 8 7 0 0 0 8 5 6 8 8 8 8 8 0 8 5 8 5 5 5 8 6 8 6 6 8 6 5 6 8 8 6 5 8 8 w 6 0 6 8 6 8 8 8 5 8 6 0 8 8 6 5 8 6 8 e 7 8 0 0 = 8 0 0 q 9 0 0 < 0 q q q q k 1 < 1 0 0 0 9 r d g 1 : , q q k q q q 0 q > 0 9 k r 9 > > 8 8 8 9 0 0 0 t 0 0 0 9 0 8 0 < 5 7 0 0 0 0 0 5 = 0 0 0 0 0 7 = 8 8 8 > 8 8 8 0 9 0 9 8 8 9 0 9 & 8 8 8 > 0 0 0 0 0 8 0 0 0 0 q < < < 9 e 9 8 0 > > < , 9 0 0 0 r 9 0 > < < 0 q 0 1 0 9 0 0 < 0 < 0 0 0 > 0 0 = 9 8 8 0 0 0 0 0 0 < 0 0 8 8 9 0 0 0 0 t 0 9 8 8 0 0 8 8 e 8 5 0 8 8 6 8 e 8 8 5 8 e 0 8 8 5 8 8 e 5 5 0 e 5 5 8 e 8 8 w 8 5 8 e e 8 8 8 8 8 8 e e 8 8 6 8 e e e 5 8 8 0 0 0 e 8 = = 5 0 6 8 w 3 e 5 5 0 0 + - 0 . N W L L L L L N K G l G -         o - > > 6 6 6 D 3 3 4 o , .  .z.pXpXC ) $.$./ / [ ` ~ ! ( ( _ E w.A.! k B N q N B q l Q L KXKX",
"KXKX` + > + + < 8 o ; 9 + X X k e.w.w.( A j q , * 0.sXR.s.:.f.,.$ . < > 6 5 6 6 7 5 = 5 8 > X         5 r D G G e l r f f B W O.- < > > 0 > = 0 > 8 8 8 8 6 8 8 5 6 8 e e e 8 6 0 8 8 6 8 8 8 8 5 8 8 8 5 5 8 e 8 8 0 8 8 8 5 5 8 e e 8 6 e e 0 e e 8 e r 8 5 e 0 0 z z = 5 9 0 0 0 9 9 0 0 9 0 < 1 1 1 < 1 < 1 9 t 0 t q p 1 p q < 0 k q < > 0 q 0 0 0 q 0 > > & 8 0 0 > 8 0 9 8 > 8 8 0 9 0 0 0 5 = = = = 7 0 = 0 7 0 0 0 0 = 0 0 & 8 & 8 0 0 0 8 0 0 > 0 r 8 0 0 0 9 0 8 8 8 4 & & 0 r 0 0 9 k < 1 q r 0 9 f d q d q k k 9 < < < q 0 < 0 q q q 0 0 9 q q 9 0 0 > 0 0 0 q q > 0 8 & > 8 8 8 < 9 0 9 0 > > 0 9 9 0 8 8 8 8 8 0 6 8 5 5 6 5 5 e 0 6 8 8 8 6 5 5 8 8 e 5 5 6 8 8 0 8 6 5 + 5 5 8 5 5 8 e e = 6 e r 8 6 6 8 e 8 e 6 8 5 6 8 e e e 5 5 5 5 6 6 8 8 < 7 = 8 8 e e 6 6 8 e 8 8 = 5 0 0 . < Q ~ L N N l 9 l K l r 6         o < < w 6 6 O 6 O 0 8 4 & ; ..x.fXeX7.A ) _ U T ` ! E E _ %.e.~ B < k k q m q N N l U KXKXKX",
"KXKX' O + 8 8 0 8 > > 8 0 0 & . + ; Q M.N.w.T % v eXL.2.p.d.h.: # + 5 5 5 6 8 6 8 5 0 0 > .       . 3 e G D r D D G l 9 N ~ ^ & > > > > 8 0 0 5 0 0 r r e 8 8 6 = 8 0 6 = 8 8 w 5 6 0 r e e 8 8 6 0 e 0 8 8 8 e 5 5 5 5 5 8 0 5 8 e r e e w 8 5 6 e e 8 e e 8 8 0 0 0 0 e 0 0 0 q 0 0 0 0 < 0 0 0 0 z < 9 q < q r 8 r 0 z 9 9 f q 0 < 8 0 k q 0 0 0 q 0 0 > > = > 9 9 q 0 9 0 9 > > < 0 9 q 0 0 z 0 0 = 0 = = 7 0 7 5 0 0 0 0 = 0 > 4 0 0 > > 0 > 9 0 9 0 0 0 8 0 8 0 0 8 > 8 9 0 8 0 0 8 8 0 r > 1 r q < k k k , < d d 1 < j < k l m q r q q q 9 > 9 l 9 0 z 9 < 0 < 0 q 0 q r 0 0 9 8 9 0 0 0 = 0 k 0 > > 0 0 0 8 8 8 9 0 w 0 8 6 8 e e e 0 6 8 5 5 8 6 5 6 8 8 8 8 8 8 8 0 0 6 8 8 6 5 5 8 0 0 5 5 8 e 8 8 8 6 5 8 e e 8 6 8 5 + 5 e e 8 5 e 8 5 8 w e 8 6 8 = 5 0 - 8 e w 8 8 6 8 0 5 0 z e > 9 > 1 L Q L B L N N L z r l O         o > 0 e 6 6 6 - = 8 8 5 X ; n z.yXtX=.B v.[ { Q ) T %.$.w.W k 9 q q q r l l N r J ] KXKXKX",
"KXKX_   + + + 8 0 9 8 & > 9 8 > 9 .   . k e.A.V.Z.l.4.3.x.0.u X < 8 3 3 6 8 6 5 - 6 0 -           8 e J r r G r r K N 9 ` ~ $ 9 < > < 0 0 0 0 5 5 7 6 0 w 8 8 8 = 6 8 5 8 8 e 0 e w 8 8 3 5 8 6 0 e 8 8 8 5 8 6 e 0 e w 6 8 8 5 = 5 8 e e 0 8 8 5 e 8 e e e w e 0 7 8 7 e 0 z r q q q r 0 9 q 9 z B 0 N f 9 t d r k 0 = z z e f q k q q q q q 0 q q 0 q q q q 0 0 > 8 0 < 0 0 0 9 z l 9 0 0 0 q 0 0 0 7 0 7 5 0 0 0 7 = 7 > 6 - 9 > 8 9 9 0 0 8 8 8 8 8 8 9 0 0 8 0 0 9 8 8 0 r r 9 0 r 0 0 0 r 9 0 0 0 0 q < k 9 d N 0 9 k < z k q 0 1 k q q 0 q < 0 q < 9 q q q 9 0 0 > < 0 0 < 8 > 0 9 8 8 0 0 r 9 > > 0 r r 8 0 0 0 & = 8 0 e e 0 e e e w 8 5 + 6 e 0 8 8 e 6 8 w 8 8 6 6 5 8 0 e 8 5 5 5 6 6 = 5 e 8 6 5 5 8 8 8 e e 8 5 8 8 6 8 e e 5 5 8 e e e e e e 8 5 5 0 0 7 5 5 8 5 e e 0 6 7 0 r e 0 , > + 1 L L K K ! L q N l G e 6       X + = r - 3 7 7 = = 5 5 7 X 2 o.wXuXrX9.+.v.@.^ ` r.e.` m q q q q q r N N r N r r ) KXKXKX",
"KXKX[ @ 3 + 3 8 8 8 4 + 8 > > = & 9 r > o o 2 b fXiXQ.yXa.: X r r 8 3 8 0 0 5 8 0 0 5 @         8 r r r r z J N r N 9 ! ~ ; X 1 > 7 8 8 8 8 8 5 5 8 5 5 5 5 8 8 8 w 6 6 6 e e 8 0 8 e 8 = = 5 5 8 8 8 8 w 0 8 8 e 8 e 0 8 5 6 5 5 5 8 8 e e e e 8 5 e e 5 5 8 e 0 0 5 0 0 0 0 9 0 0 q q 0 0 q 0 7 H 0 z > 9 N 1 j < k k < z 0 q q q k q q < 0 9 q 0 < 9 9 r 9 0 < 0 > > < 0 0 > 0 q l 9 8 > 9 q 0 7 0 7 = - 7 0 z 0 0 0 0 0 0 r 8 8 8 8 0 0 0 > 8 > 8 8 9 0 9 0 > 0 0 8 8 9 0 r r 0 q 9 0 8 9 9 0 0 7 7 0 < 0 q 9 < 9 8 e l 7 z 0 1 1 q q k k k l 0 9 q 0 0 9 0 q q 0 < 8 < > < 8 0 < 0 0 0 > q < 0 0 9 0 9 0 9 8 0 0 8 4 + 8 t 0 8 8 8 8 8 8 8 e 8 8 8 8 8 8 r 5 5 6 8 0 8 8 8 5 8 e r w 5 5 8 6 0 e e 8 8 5 8 8 8 e 8 e 8 5 = 6 w 0 e 8 5 5 5 8 8 e 0 8 0 0 5 6 0 8 0 8 5 8 w 0 e e 5 5 6 6 w 0 > > & - q B B E ! N q N P P K r +         X < - 7 5 - 5 5 > 0 - 7 X $ 1.wXwXz.y.T ^ e.N.e.l 4 < 0 q l l r G L J e J P J ' KXKXKX",
"KXKX[ @ 3 3 3 3 & 3 = 8 3 8 8 + 8 8 O 6 j 1 . # | F.S.yX+.. 6 3 6 6 8 5 5 = = = r =         . = J r r e e l N d l l _ _ 9 + > < = 5 = 5 > 5 5 = 0 0 8 8 5 6 8 5 8 8 0 8 8 e e e 5 6 e e 5 5 6 5 5 6 6 5 6 e e 8 e 5 6 8 8 5 8 5 5 8 6 5 5 5 6 5 8 5 8 8 5 5 8 6 7 7 0 0 0 0 0 8 > > 0 0 < 0 0 0 H z 8 l 9 , , 1 j j j j < z j k < 1 q q q q 9 q q 9 < 0 0 9 0 < 0 q 0 > > 0 9 0 = > 8 > 0 0 q 0 0 = 0 0 5 5 0 0 0 7 0 = 7 7 0 0 0 9 > 8 8 0 8 8 0 8 8 0 0 8 8 0 & 8 8 8 9 0 0 8 0 0 e 0 0 8 0 8 7 0 z 7 7 7 q 9 1 $ : : ; 0 0 z 1 1 k q q q 9 0 q q q q q 9 9 < 0 0 q q 9 < 0 8 < 0 0 0 9 9 0 0 > > 0 l q 0 0 8 0 > 8 > 0 0 0 0 0 6 w e 8 6 5 8 e e 5 8 5 6 8 e e e 0 8 8 6 w 0 5 5 e e 0 5 6 8 + w e 8 5 5 8 6 6 6 8 8 8 5 5 5 = 8 8 8 8 6 5 = o 5 6 5 5 8 6 5 6 6 8 e 8 8 6 0 6 r 0 6 0 5 5 e 8 8 0 < > - k L E B N L J N J J r e w @       X 7 - 3 = 7 5 > = 7 - 0 o i K.P.j.g.O.w.w.A 2 > S F q r l N J G G r r r S f [ KXKXKX",
"KXKX' X + 8 + 5 8 8 5 = + 3 5 8 0 q 8 0 = 0 * y *.k.4.d.* 4 w 3 + 8 8 > = = 8 = 3           8 J r S r S N d t q N ! ` 9 + < > > 8 8 6 5 5 6 8 6 6 8 8 8 6 8 6 8 5 8 8 e 0 e 8 8 8 5 8 8 5 5 8 8 8 8 e e e 6 8 8 8 = 5 8 8 8 0 8 8 8 w = 5 5 5 6 8 = 5 8 5 8 8 5 0 0 0 0 0 0 0 8 0 < 9 0 0 < 9 0 z - - j : y 2 o o < 0 k z l < k < 9 1 9 q k q q q q q 0 9 0 0 < 9 q 9 0 < 0 9 9 0 0 8 > 0 q 0 < r 0 0 0 = 0 0 0 5 - = 7 = 7 0 0 r 0 8 0 9 0 > 0 9 8 8 0 0 8 8 8 8 8 > 0 9 r 0 8 9 0 t 0 0 r q 0 < 0 z G e e 0 o : v } b b i y : 1 m d 1 1 k < > 0 q k q k q q 1 < 0 0 q q q 0 0 < 9 0 0 q 9 < 0 9 0 0 q 9 8 0 9 0 8 0 0 0 0 8 8 8 8 e r e 8 8 8 6 5 5 8 e 8 6 5 r r e e 6 8 5 5 w 8 e e 8 6 6 8 5 e 0 5 3 5 8 e = 5 6 8 5 5 6 5 5 e e 6 5 5 6 = 6 8 w 5 5 5 5 5 0 6 6 e e 5 4 8 8 0 0 8 t w 8 e 6 e w 0 0 = > k L B L T L N N r k H J 3 @       - - - 5 3 5 8 + - 7 t . y T.<.F.J. .d & ; k w w r r r r G G l e e e N r t ` L KXKX",
"KXKX[ @ & > + & 8 8 6 5 5 5 = 8 + < 8 6 0 r & # ;.wXP.-.. w 5 - 5 8 & o + = > +         O 0 r G w e r J N t m T ^ ~ < o > = < = 8 w 8 8 5 8 8 e 8 6 6 8 0 8 8 8 5 6 e e e 8 e e 5 5 0 e 8 6 0 5 8 8 w e 0 6 5 8 w 5 5 8 6 8 e 8 8 0 e 6 5 8 e r 8 6 6 8 8 e e 8 0 0 0 0 7 0 q 0 9 0 0 0 0 0 q q m X - } ;.3.a.;.b $ ; B q k q , q 9 0 < q q l q 0 9 q q q q q q 0 0 0 < 8 > 8 0 q 9 q 0 0 0 q 0 0 7 5 7 0 0 0 z 0 0 0 0 0 0 0 7 0 8 0 r r 8 > 0 9 0 0 0 8 8 9 0 0 8 & 0 0 0 8 8 8 0 9 8 8 q z 9 z < 6 6 w r o $ b Q.iXuXwX2.v y $ , 1 p 1 1 q q q k q < q q q q l q q 0 0 q q q 0 9 9 0 0 9 0 9 q 0 0 0 > > 0 0 8 0 0 0 0 0 0 t 5 6 8 e e e 8 5 8 8 8 8 8 8 8 = e 6 8 8 8 8 8 = 8 e 8 8 8 8 8 e e e 0 6 8 8 e e 5 8 0 8 8 8 w 8 e e r 8 5 8 5 5 8 8 0 8 5 6 8 5 e 0 w e e e 0 8 5 8 8 0 e 8 w w 8 G w + 9 1 - ; m E Q L Q Q J J K l l r 3       X X 5 5 3 & 8 0 7 . 4 o a E.3.3.R.b $ 9 k 9 0 r r r e e e r r r r l J r l ] T KXKX",
"KXKX` X > > > > = = 7 0 5 = = - 0 0 7 6 5 7 8 . =.Y.U.8.4 t 7 X - = > + + > + . @ @   @ w G G e e e G f t d Y ~ Q , , > 0 0 = z 6 8 8 6 5 8 0 8 6 5 5 8 8 8 8 8 8 8 5 0 e 0 w 0 6 5 e e 8 8 6 5 5 8 6 8 w 0 e 8 5 5 8 6 = 6 w 6 6 5 5 5 5 8 e 8 6 8 8 8 e r 0 t 7 0 7 5 0 0 z 9 9 0 0 q 9 9 q 9 o $ 3.SXFXFXZXCX^.;.c : $ 9 d , q q < < q q r 9 1 0 1 9 q q q q 0 0 0 0 < 0 0 8 0 0 < q 9 0 0 q 0 0 = 7 7 0 6 0 0 0 = 0 0 = = = 8 > 0 0 e 0 8 0 9 t 0 8 9 0 0 0 > > > 0 0 8 + 0 8 8 8 0 0 0 0 0 1 1 = e 0 , o } lXFXVXZXFXjX!.*.i 1 ; 2 1 > < j q k q < 0 j 1 q k q 0 < 0 k q k 8 0 0 0 0 q 0 0 > 8 < 0 0 < 8 0 8 8 8 0 8 0 0 t 8 5 5 0 e 6 5 8 r e 8 6 w w 8 8 5 = 5 8 w 0 6 6 8 6 5 5 5 e e 8 8 8 5 5 6 8 8 5 8 w e 8 6 8 0 8 0 e e 8 8 6 8 8 8 5 5 5 8 5 8 8 6 6 e 0 e w t 0 8 4 8 0 8 8 w e 6 D 6 6 0 q > - ; k L m Y T Y L I k r r t 3       O - - 8 8 t 4 X 4 3 . b wX*.S.U. .. 8 e 6 0 k r r e e 6 0 e z r r N q 0 ~ Y KXKX",
"KXKX_ . = > > > > > 5 5 - = 5 8 = - 5 O 7 6 8 X -.,.j.q.& w k - o + > 0 >           @ w G S S r e S J N d B B T $ ; > < - 0 z 5 3 8 8 8 5 6 8 8 8 8 5 5 5 8 6 5 8 6 3 5 5 5 6 5 r 8 6 8 8 e r e 8 5 5 5 8 e 8 8 = 6 0 6 + 5 0 0 e 0 5 5 w e 8 5 8 e 8 8 e w 0 r = 0 0 0 0 z 0 0 r 0 q q q z l 2 % k.JXFX,X}.0XAXFXDXk.2 : a * F q 1 9 q q m N q q 0 < 9 l q 9 9 0 9 q 0 0 9 0 < q > > q q 0 0 9 0 0 = = 0 0 7 0 z 0 0 = 7 0 7 5 & 8 0 0 0 0 0 9 8 8 0 8 0 0 r 0 0 8 0 r t > + 8 0 > > 0 0 0 8 9 < d 0 r 9 : : wXFXZX XqX3X9XFXjX5. .: : m q 0 0 0 k q 0 q 1 1 q 0 0 0 < < < q q < < 0 0 0 q 0 9 0 8 < > 9 t r 0 0 9 8 & > 8 8 8 0 6 5 5 8 8 6 8 w w 8 0 e e w 0 e 6 5 5 5 8 8 5 e e 8 5 5 0 8 5 0 6 5 8 8 8 5 5 5 8 8 6 5 8 e e 5 6 8 8 5 8 8 e e 6 3 5 8 5 6 8 6 r e 6 5 6 8 8 8 8 8 t 8 0 r e w 6 e e 0 0 9 9 0 > B L N L L K L J N l f r 3         + 8 t w 3 + + 6 - c eX*.k.Y.Z . w G 0 q 0 0 r r G D e r r l z f r r ~ KXKXKX",
"KXKX) X & + > = 0 = = 8 5 5 4 + 8 + = O 6 5 8 . ..U.d...p e 0 9 +   + + o O       3 6 r G l r G N N m 9 N ~ L & < = = = = 5 8 e 6 0 8 6 5 8 8 5 8 0 w 6 5 8 w 6 0 6 5 0 8 6 5 8 w 0 8 5 5 0 e 8 8 8 e 8 0 8 6 8 8 8 8 6 8 e 6 8 5 0 e e 6 8 8 8 0 0 9 8 > & 8 8 > 8 9 r k 0 > 0 0 0 < 0 < 0 q ; i SXFX%X).%X).4XBXZXCX!.v % a , N < > 9 0 r 0 r 0 q k k k 9 , , 0 0 < 0 < 0 0 q < 0 0 0 9 0 0 < 0 0 0 0 8 0 0 0 0 8 8 t r 4 0 0 r 0 8 8 w t 0 8 0 w 8 8 t 0 8 t 0 e r 0 7 0 5 0 8 8 > 0 9 q 0 < q k q r 9 ; y fXCX.X|._.XXOX7XNX$X!.| h y 9 0 e G e G f q m 1 q k 0 < q j j j z < < 0 0 8 8 8 0 < 0 0 0 0 7 < 0 0 6 0 7 0 7 r 0 0 t 0 0 8 8 8 9 0 8 8 8 8 > > 8 8 6 8 w 5 6 8 8 e 8 5 6 0 5 6 8 = 6 6 e 8 6 8 e 8 e 8 8 8 8 e e 8 e e 8 8 w e 0 5 8 5 8 8 e e 8 r r 0 6 e 8 5 5 8 e e e 8 8 8 8 6 5 5 6 0 6 5 8 & > > q L L B W N U U q > K r 8         - o O 4 5 6 6 o v U.:.H.U.n $ t t 0 0 r 0 r 0 r e r w e r l N J l ! KXKXKX",
"KXKX[ o 4 = 8 = 5 5 0 8 5 = 8 0 8 = 8 - 4 8 0 . u.T.d. .. + 0 N 9 8 + .     @ O O e w e G G G K N q > N _ U > > q 9 0 0 0 0 0 8 e e e 8 8 8 8 6 8 6 5 O 5 5 0 8 8 e e 0 e 8 8 8 5 6 5 5 5 e e 8 8 8 5 6 6 8 8 8 8 8 5 5 8 w 5 5 5 w r r e 6 5 0 t 0 0 0 0 0 0 0 q q 0 0 0 0 q q 0 q q q 0 0 0 ; b vXCX).%XOXOX`.}.>XAXZX/.| * 2 1 1 m f 0 0 0 r < q 1 1 q q 9 t q q 9 0 0 k r q 0 q q 0 0 9 0 8 0 0 9 0 > 8 8 8 8 & 8 0 0 8 w 8 r e w 0 0 0 8 4 8 9 8 8 0 0 8 0 8 e 0 0 = 0 0 0 0 0 t q 9 0 q 9 t 1 , q q 2 y uXCX*X'.{.OX.X=X8XBXVX/.:.u 2 0 r z r 8 f N q > k q 0 0 0 < 1 j ; q k r r 0 0 0 0 0 0 0 < 0 < 5 = 0 0 0 0 0 = 0 6 & 8 0 8 0 0 8 0 8 0 9 > > 8 8 > e 8 e e 8 8 e r 6 5 8 e w 5 5 8 8 8 8 e 8 8 8 e 6 8 e 6 6 5 8 8 e e e e e 8 5 6 5 5 6 8 8 5 5 5 e e 0 8 8 0 6 w 8 8 0 8 6 8 6 8 0 5 5 0 e 0 6 0 0 8 + > B W W L Q N K U r l G r 3       o + & 0 r 5 8 + u U.1.H.J.b . r 8 9 w r 9 r 0 r r r e G l l l N r Q KXKXKX",
"KXKX[ X > + > = = 5 0 8 5 + 8 r 8 5 0 5 8 5 9 X 8.R.l.q.: 0 0 0 l r +       @ O w S w e l G N l q 9 B ! Q t > < 8 0 7 5 6 8 8 5 8 e r 0 8 0 e r r e 5 5 5 6 0 e 5 8 8 8 6 0 e 5 = 6 5 5 8 e e 8 8 6 5 6 5 5 6 8 0 6 8 8 e 8 8 6 0 e 6 8 5 = = z 0 8 8 8 0 0 0 8 0 0 q q 0 < 0 k q k q q 9 0 9 ; s iXmXOX-XOX-X.X@X}.>XBXFXkX5.2 $ + d d d r r 0 0 k k d 1 1 q l k 0 < 0 q q q 0 q r r q q q q 0 > < 0 0 0 0 e 9 9 0 0 0 0 w e 0 8 8 e 9 0 0 0 0 9 8 8 8 8 8 8 8 5 5 0 7 0 0 0 9 0 r q 0 0 0 9 0 k 9 0 < d : y P.nX8X=X=X-XOX=X=X$XBXCX#X6.b : y 9 N 0 1 k 1 1 q q r r r 0 q j < 9 q r e 0 0 9 0 0 0 7 < 0 0 0 - 7 0 z q 5 7 0 0 > 0 0 8 > 8 9 r > 0 0 & 8 0 0 > 8 8 8 8 8 8 8 e 8 8 8 0 8 6 8 e r e 8 8 8 6 8 8 5 8 e 8 5 5 6 5 8 w e e 8 6 8 8 8 8 8 e e e 8 8 5 6 8 5 6 5 8 0 8 8 8 6 8 5 8 8 7 5 0 0 e e w e 8 0 0 > , k B ! _ L L E J J G N r O     + 8 0 w e 5 6 o u T.s.F.U.n $ r r r F r 0 e 8 0 e r e r r r r l q Q B KXKX",
"KXKX) X + + 8 + + 8 8 5 8 + 3 0 = = 7 5 8 = 0 . q.U.j.a., r r 0 0 0 O       O 6 S G r l G K l 9 = N ` E > o > > > 8 0 5 8 e r 6 6 5 5 5 5 6 8 e r e w 8 0 e 8 8 5 6 8 6 5 8 8 5 5 8 8 8 8 8 8 6 e 8 8 8 8 8 5 5 e 8 8 e 8 8 8 0 r e 0 e e 5 0 q 9 8 8 9 0 r 0 8 > 0 9 z k 9 0 q 0 k 0 9 < 0 0 $ s iXCX-X;XOX;XOX>X|.qX>X7XVXCXQ.n : : d f 9 < 0 0 q 9 1 < 1 q q q < < 0 0 q 0 < q r q q 0 r q 9 9 0 0 0 0 8 0 0 0 8 8 9 0 8 t 8 0 9 r 0 0 8 8 8 0 4 0 0 > & 8 8 = 5 5 0 0 0 0 8 0 0 < 8 0 q q < 9 q 9 0 q $ y k.#X;X=X6X7XOX'.).@X7XBXNX#XD.*.y % 2 q k m q k m q r f e 9 l k 0 9 0 0 0 9 q k < z 0 = 0 z 0 0 0 0 0 z l 5 0 0 e 0 0 0 > 8 0 0 0 > 8 0 8 0 9 0 4 6 8 5 8 8 6 6 8 r e 8 8 8 5 8 e e e 8 8 8 8 8 6 8 8 8 8 8 8 8 8 5 5 8 8 8 8 0 8 6 8 6 8 e e 8 6 6 8 5 = 5 5 5 5 6 w 0 8 8 5 5 6 - 6 6 7 6 w w 8 0 9 t 0 = + k ! ~ _ Y N B I 9 z G +     + 0 0 0 e z r X b T.:.p.wX .$ r 0 r r 0 9 r 0 9 r S r G 9 r l N N _ KXKXKX",
"KXKX) @ = + 8 + = 7 = + 8 8 3 8 > = 5 = 8 8 0 . =.l.<...o e J N r r O       + 0 G r N K K N r q N ) Q < > 9 0 > 8 0 r 0 6 0 8 6 e 8 5 8 8 6 5 5 8 8 8 8 8 8 8 8 8 8 8 w 8 8 5 8 8 e 0 8 8 8 8 6 6 8 0 e 8 8 5 6 8 8 8 e 8 5 5 0 0 5 5 e r 0 5 7 0 0 9 0 e r r 0 < 0 0 9 0 < 0 q q q 0 9 q q 0 o i lXVX`..X=X-X*X,X@X}.}.=X6XNXNX!.*.j $ d t q q 0 < < 0 0 r q t q q q q k q 9 < 0 0 0 0 < 0 9 0 0 q 0 0 8 9 0 0 0 > & 0 8 8 r t 0 0 8 0 8 8 > > 8 > 0 0 & 8 9 8 = 0 0 0 z r 0 5 q 0 < 0 q q q 9 < 9 q 9 < ; i k.jX8XXX}.%X@X*X*X+X.X.X0XBXMX~.4.b $ $ j 1 < 0 t q q q 0 9 r e t r t q 1 < k 0 0 0 < < 0 0 0 0 0 0 0 0 z = 0 7 0 0 t 9 8 8 8 8 0 0 8 8 0 9 e 0 0 8 e 8 8 e 8 6 0 r 0 6 8 6 8 6 8 8 8 8 8 e e e 8 6 8 8 8 5 5 8 e 6 6 8 8 6 8 8 6 e e 8 8 0 8 6 5 8 e 6 = 8 8 5 5 5 8 8 8 8 8 6 8 5 5 0 5 6 8 8 6 t 0 0 0 < > < r L ~ B N N N 9 l z =     + 9 8 0 5 e w . V T.#.<.Y.n o 9 > 8 e w r r 0 r r G r r N J N J N ) KXKXKX",
"KXKX) X > = 0 8 = 0 8 5 3 = 4 8 8 7 7 5 8 8 9 o q.U.d.q.: r t 0 r z O       + 8 r r r N l 0 q N L Y < > , 0 > o = 8 8 5 = 5 5 5 e w 8 e e w 8 8 8 6 6 8 8 6 8 0 e 8 8 8 0 6 5 8 e e 8 8 6 8 8 8 w 8 8 8 6 8 8 e w 8 8 8 6 5 6 e 5 5 O 5 6 5 5 0 0 0 0 0 0 0 9 t 0 0 0 0 0 < < q k z < 0 q r q $ s iXVX.X{.oX.X-X@X>X<X}.}. X<X9XZX/.4.2 $ : g f q 0 7 j r q f 9 q l l l l q 0 0 0 < 0 > 0 9 0 0 8 0 8 < 9 9 r 9 r 0 8 t 0 8 r r > 8 + > > 0 0 0 0 8 0 0 8 8 0 > 0 7 0 0 0 0 0 0 9 0 0 q 0 0 q q < 9 q 0 q 2 y k.jX8X=X*X+X4X-X=X@X>X@X+X<XNXMX~.I.} u 2 ; k N N 1 m q 1 9 r t 8 r 9 2 q 1 0 0 0 0 0 0 0 0 0 0 z 7 5 0 0 0 0 0 0 8 0 0 0 0 0 > & 0 8 0 9 r 0 0 0 8 e e e e 8 5 e 6 8 5 8 0 w 5 = 8 6 6 8 8 e 8 5 8 8 8 6 8 6 5 8 0 8 8 0 8 8 8 8 e 0 8 5 6 8 0 8 8 e 8 5 6 w 5 5 5 5 8 6 6 w 8 0 - = 6 5 6 8 w e 0 w 8 3 8 9 8 & d B ~ _ Y L Q L G - X   X 0 0 0 e 6 r = V T.F.F.wXX.; q 0 0 e t r r 0 r w r e r G N r 9 9 Q KXKXKX",
"KXKX) X > = > > = 8 0 8 > 8 0 8 > 8 0 5 8 8 t X ..H.d.-.; r J r r z O O     8 8 9 0 r N 9 < N N L 0 > q 0 > 0 0 5 0 8 6 6 8 w e 5 5 = 8 8 6 5 8 8 8 5 6 6 8 6 8 5 8 8 8 6 8 8 8 e 6 w 6 8 8 6 8 0 0 8 6 8 5 0 e 0 8 8 8 8 8 8 8 e 6 5 5 5 0 r z 0 0 0 0 0 0 0 0 9 0 9 q q 0 0 r q k k 0 0 q q $ s kXVX4X&X[..X>X+XOX[. X=X'.[.=X9XAX,XD.n : o z z k z k q q 0 < r m k q l q q q 0 q 9 9 9 q 0 < q q 0 0 0 0 > < 9 0 > 0 0 > 8 + 9 0 0 8 8 8 0 8 8 0 8 > 0 0 0 8 0 7 = 7 8 0 0 0 0 > 0 q q 0 0 q k k r q q 1 : 5.$X8XoX*X+X*X=XXX=X@X.X=X X*X9XNX#XG.:.v % , t 9 k k j 2 2 q t t r 0 1 1 1 < e e 0 0 0 q 0 > > 9 > > 9 0 0 0 0 0 & 0 0 8 0 8 > > 9 8 0 t 0 0 8 0 8 e 8 8 e 8 5 e 8 6 8 e e 8 8 8 8 8 5 5 5 8 5 + 8 8 5 8 8 8 6 8 8 8 8 6 8 8 8 e 5 5 5 3 3 5 8 8 8 8 5 5 8 8 5 5 8 6 5 5 8 e 0 w 5 5 6 0 w 8 e S 6 w t 8 8 8 4 < > m W w.Q T Q K l =     O 0 0 r r 7 D # s T.3.3.wXn ; l 0 0 0 8 r l 9 r r G e S q r q 9 q ! KXKXKX",
"KXKX[ X + + > + 5 = 8 8 4 8 0 3 = = 0 - 6 + 8 . 0.T.L.q.1 r l 9 G e O       9 0 r r N N q m W Q < 1 > > 0 > = 0 0 8 8 8 8 8 w w 6 5 6 0 8 5 5 8 8 8 = 5 8 5 5 = 5 e e 6 8 0 e 6 8 8 0 w 8 5 8 5 8 e e e 8 8 8 8 6 5 8 6 8 e 8 6 = 5 5 5 5 5 0 0 t 0 0 8 0 0 0 0 q 0 < 0 0 q k k 0 k q 0 > 0 q $ s zXCX@X_.&X5X`.+X1X=X1X=X=X[..XqX0XAXBX^.*.$ ; 1 z k k k j 9 < q q r q q q q 9 < 0 9 9 q t 0 0 0 0 < 0 0 0 0 0 8 0 8 0 0 0 r 8 9 8 8 8 0 9 0 0 9 0 > 8 r r 9 8 7 = 5 0 0 8 < 0 0 > 8 9 q r q 9 9 q N N q 2 # k.jXBX.X*X@X.XXX&X;X*X=X;X.XoX>X3XBX$X!.3.b % : 1 k j j j m q r F r q j 0 j < 0 r z q q l z < > 0 0 < 0 8 0 5 r 0 0 0 8 & > 8 8 0 > 0 0 0 8 > 8 > 5 e 6 5 0 5 5 e 8 e e 0 8 8 e e 6 8 8 5 6 8 8 6 5 + + 6 8 8 5 5 w 0 8 5 5 5 6 8 8 0 8 6 5 5 8 e 6 e e 8 e 8 8 5 0 e 8 8 8 8 e 0 z 0 e e w 6 w e e w w w w & 8 r > $ q e.w.N 0 q r =   X O r 8 8 6 r w . V T.:.f.Z.n - k f r 0 9 0 r 0 r e S e r r l l l r ) KXKXKX",
"KXKX] X + + = = 8 8 8 8 8 & 8 w + - = - 4 5 0 $ ..H.l.q.$ G 9 0 G r O       0 8 > 0 & L N ~ ~ m > 0 0 8 > + 5 0 5 8 8 8 w 6 8 w 5 5 8 e 8 8 8 e 8 8 8 e e 8 8 6 5 5 5 5 5 8 8 8 5 e 8 6 = 5 6 8 0 e e 8 8 w w 6 8 e 8 e e e 8 8 0 6 8 e 0 5 5 - r 0 8 8 0 8 0 0 > 8 9 k 0 8 0 k 0 k N k 0 0 r $ s vXVX'.'.&X X+X,X>XXX*X-X4X-X-X>X@X7XNXVX/.*.2 : , g m q 1 z j q 1 q q q q q q 9 q q q q 9 < 0 q 9 8 < 0 < 0 > 0 0 0 0 0 0 0 0 9 8 8 8 9 r r 0 > 0 0 > 0 9 0 8 0 0 7 0 0 0 < 8 q l q 0 0 < q < q > q q 0 2 # 4.jXMX`.XX4X4X[.6X=X=X=X=X;X@X[.@X=X9XmX~.S.} % % 1 e 1 1 m m m N q 0 0 r 0 < 0 < 0 < 0 q r q 0 0 0 0 > > > r 0 > 8 9 8 & = 0 r t e 0 8 0 0 0 8 0 8 8 8 8 8 5 = 5 5 8 w 8 6 5 5 5 5 0 0 6 8 8 5 5 5 6 5 5 8 6 8 0 r 6 = 5 8 8 = + 6 5 5 + = 5 8 8 5 8 6 = 8 e e 8 w 8 8 6 5 8 8 8 7 6 r e 0 6 5 5 8 8 8 6 6 8 8 8 > > 9 W m 0 r q e -   X - 0 5 6 0 6 z X v Y.:.f.z.n o r r r r r 0 8 0 0 e r r S r J r 9 9 ! KXKXKX",
"KXKX[ + + + = + 8 > 8 8 8 8 8 0 8 5 0 7 8 8 0 .  .p.d.0.2 l 0 9 r r O       0 = t 9 X T T ! B > = > 8 > + + = = 0 6 8 6 8 8 8 w 8 8 5 8 w e e 6 5 8 w e 8 6 8 r 0 8 8 6 5 6 8 8 e 8 8 5 8 8 0 8 5 8 8 5 5 5 8 8 8 8 5 5 6 e 8 8 e 8 8 0 5 5 0 0 0 0 8 8 0 8 > > < 0 0 0 0 < 0 q 0 < q 0 0 < 9 . s lXVX'.=X'.[.oX@X>XoX{.XX;X-X+XoX[.OX4XBXZXnX6.s h y m 1 k z j q q q q k q 9 1 q q l q l q q 0 q 0 0 0 0 q 0 0 0 0 0 0 0 9 e 9 0 8 = 8 0 9 r r 0 r 9 > 8 8 > 8 0 0 0 0 > - 8 q r q 9 < 0 = q 0 q 0 q 0 0 , % 2.#X8X&X*X+X@X].=X=X=X=X5X,X+X@X>X X=XMXMX#XQ.>.u : ; < N q 9 j 1 k r t t t 0 9 q l k q q q q q q 9 < > 0 q r 9 8 0 8 > 8 8 0 0 0 8 8 9 r 0 = > 0 e 8 5 8 6 5 8 0 + 6 e 0 8 8 6 5 w e w 0 0 6 5 e 8 8 8 8 8 8 6 8 0 5 6 8 8 6 5 6 = 5 5 5 8 6 8 6 8 8 w 8 8 e 8 6 8 0 e e 0 8 6 5 = - 5 5 5 6 6 8 6 5 6 w 6 w 8 8 ; ; , Q N 9 N l r =     X 0 - 0 r 7 e X M T.<.f.wX .$ l N t 0 S 8 0 0 r r r e e l r q 0 0 ! KXKXKX",
"KXKX@.o = = > & = = = 8 3 3 8 w 8 5 5 = 8 8 0 $ X.k.l.a.; 8 0 r e r O       0 5 q > + ` L d , o > 0 8 8 8 6 6 5 e 8 8 8 6 3 3 8 6 8 6 5 e e 8 5 8 5 5 5 8 8 8 8 e e w 8 5 5 5 e 8 8 8 6 8 e 8 8 5 6 6 5 5 6 8 8 6 5 5 = 5 8 0 6 0 8 6 8 5 0 0 0 0 8 8 0 0 9 9 8 0 q q 0 0 q q 0 0 0 q 0 q q r $ h lXVX'.&X+X4X>X@X1X<XqX).'..X.X+XOXOX-X*X3XAX$XG.| y : 1 0 l r k q q 9 q N N q k l r k q q q q 0 q 0 q 9 r q q 0 t 9 0 0 0 0 0 < > > > 8 0 0 9 8 0 0 0 > > 0 9 = = 7 0 0 z 0 > q 0 0 0 9 < q q < q k q 9 1 % 2.$XMXXX*XoX+X=X X X}.[.1X>X>X>X>X_.3X<X0XNXjXD.4.c ; 1 f F P K $ 1 < l S t w 9 q k q 0 q 0 0 q q r 0 > 0 q q 0 0 0 9 8 0 0 8 9 0 > 8 9 r 8 & 8 0 e 8 5 6 6 8 w e 8 e e 8 8 8 e 8 e 0 6 8 8 5 8 e 8 e e 8 e 8 6 8 6 6 8 8 8 5 8 8 8 8 6 e e 8 8 = 5 5 8 0 e 8 8 5 6 5 8 0 w 8 8 5 5 5 5 5 8 e e e 6 6 8 8 e 8 8 0 > $ < ! k 9 N r z =     + 0 5 0 6 5 e o v R.>.f.wXn o 9 r r w r 9 t r r r w e r N l r 0 9 ) KXKXKX",
"KXKX] @ + + 8 0 = = = 8 8 + 8 0 = = 5 = 4 3 0 o =.s.p.-.; J F 0 r e O       r 0 < > & @.N o o > 0 0 8 0 0 e 0 8 w 0 0 5 8 3 6 6 8 e r 8 8 8 0 6 8 6 5 5 8 8 6 5 8 8 e 8 5 5 8 8 5 6 e 0 8 5 6 8 e 0 8 8 8 8 8 e 8 5 8 6 8 8 8 w 8 6 8 8 6 0 0 5 > 8 > 0 r r 9 0 > 9 q 0 0 q q < q q k 0 q r l $ s zXCX=X}.].@X.X>X{.}.{.&X1X+X1X-XmX;XOX=X X9XNXVX/.:.u ; < l D 9 q < < < q m q q 9 0 0 9 q 9 q 0 q 9 0 0 q 0 0 0 0 9 q 0 0 8 > > > 0 0 0 > < 0 > + 0 q 0 0 r 9 7 = < 0 0 k 0 = r 9 < 0 q < q k 1 k 0 r q : : 4.jX8X=X*XoX1X1X X3X X1X3X*X>X1XoX*X&X X<X1XNXCX(.F.o.% % 9 t r q < < r l r r q 1 q 0 < 0 0 q 9 0 9 8 > 0 q 0 > 0 0 8 8 0 0 8 0 0 > 8 8 0 r 0 9 9 8 6 5 8 e 8 e 8 8 e 0 6 8 e e e 8 5 5 8 5 = 6 8 = 8 6 8 8 8 8 8 5 0 0 e 8 5 5 6 e e 0 0 8 6 5 8 5 5 6 8 e 8 5 8 8 5 5 5 5 5 6 0 0 8 6 0 0 e e r 8 w w w 8 6 e 0 < > < ! 9 0 z q e -     X 0 0 r 0 6 e o c Y.1.f.Y.=.$ 4 9 r r e l r r 0 e e r G l N r l f _ KXKXKX",
"KXKX] X + & 8 8 5 - 8 8 8 3 8 8 5 5 0 7 8 3 8 . X.U.U.a.$ r r 8 e e +       t 9 9 0 + ` B o > < 0 8 6 8 8 8 8 5 6 e 6 6 5 5 6 8 5 e r 8 6 0 e 8 = 6 e e 6 = 5 0 w 6 8 8 8 6 5 8 = 5 8 8 6 = 5 5 e w 0 e e 8 8 6 5 e 0 w 8 8 8 e e 8 e r e w 0 5 0 0 0 9 0 8 8 8 < 0 0 9 0 0 0 0 k 0 q q 9 9 r $ i kXMX&XoXOX1X4X4X@X{.{.<XoXoXoX.X+X&X|. X X'.=XBXZXjX3.o.h * d q k q 9 9 q q q 9 q 9 9 q 0 q q k k 0 < 0 0 9 0 0 0 0 0 8 0 > 0 0 0 > > < 0 0 > 9 > 0 q 0 < 0 0 < 0 0 < 7 < q q z q 0 0 0 < 0 q q N q 0 0 ; $ >.jX9X+X1XoX@X[.<X>X{.<X{.[.}.*X].&X X3X3X*X1X5XBX/.Q.*.s y f f 9 1 1 k k 0 r r q q q q q q q z q 0 > 0 q q > 8 0 0 0 0 0 8 > 8 0 0 > 8 0 0 0 0 t 6 5 6 e e e 8 8 5 8 e e 0 8 5 5 8 5 8 6 5 8 8 5 5 5 5 5 5 5 6 8 6 0 w e 8 5 = 5 0 e w 8 5 5 8 0 e 8 8 8 8 5 5 6 0 8 8 6 5 5 8 8 5 5 8 5 8 8 8 8 8 0 0 7 5 5 0 z 0 > > ! 0 > r 0 r +     + r 8 0 r 6 6 o x T.1.s.z.X.; j 0 r r e r 9 0 0 0 0 e e r r r l q ) KXKXKX",
"KXKX' o + + + + 5 5 8 8 8 + & 8 8 = 0 0 8 3 8 .  .l.d.,.; l r 0 r r +       t 8 r 9 + ` J ; 9 > 8 5 5 5 6 8 8 6 8 6 w 8 6 8 8 6 8 8 8 6 0 e 0 6 + 5 0 8 5 5 5 6 8 0 6 8 8 5 5 5 8 6 5 5 8 8 w 8 e 8 6 0 0 8 5 5 5 8 0 6 6 5 8 8 0 6 8 e 8 6 0 7 r 9 0 0 0 8 8 8 9 0 9 0 < < < q 0 k k 0 0 0 r $ s lXVX.X*X].+X.X`.OX5X X&X}.1X1X@X]. X=X=X=XOX=X{.9XNXjXK.| * # p q N N N q q m N r k q q 9 0 9 q 0 0 0 < 0 9 q 9 9 < > > 9 0 9 9 < > > 8 9 0 < q 0 0 > = < 0 < q z 0 7 > 0 9 0 q q < q q q q 9 q l q < 0 2 $ 3.#XBX+XXX>X@X}.&X1XoX<X}.*X1X6X=X<X X1X[._.1X6X6XBXjX^.4.b * % q k < k < 0 0 k k z k q q 0 k q l < 0 0 r r 0 9 k r q 0 0 0 8 8 0 0 0 0 8 8 > 0 0 8 8 8 8 e 8 6 8 5 0 e 8 8 8 6 5 8 6 0 0 5 e e 5 8 8 8 6 8 5 8 0 e e 0 8 8 6 5 5 5 8 8 6 5 5 5 6 e e 8 8 5 5 5 8 8 6 8 e e 8 5 6 = 6 6 5 5 5 5 8 6 w e 0 5 5 5 5 9 > , _ 8 0 r 0 r =     X r 0 0 r 0 e o v U.3.s.L.n o z t 0 t f 0 0 e r t e e r r r r q 9 ! KXKXKX",
"KXKX[ X = > + + 5 = 5 5 8 + + 3 5 = = - 8 8 8 . =.U.l.q.; 0 9 r r r o       t 0 8 0 + _ N + 0 < 0 8 8 8 8 0 e w w 6 8 6 8 6 8 w 8 8 5 8 8 e 6 + = 5 5 5 8 8 5 + 8 6 8 8 5 8 8 5 8 6 5 6 0 e e e 8 8 8 8 8 8 8 8 8 8 8 6 5 8 6 0 8 6 8 8 8 8 0 0 0 0 0 0 0 9 0 0 r q 0 < 0 0 q q q q k 0 q 0 r $ h kXZX@X1X1X1XOX=X;X;X&X=X2X4XoX}._..X=X;X=X;X=X[.>X0XVXCX!.#.s : > , l k 9 1 q q k l q q < q q k q 0 q q 0 0 r 0 q 0 0 < 0 9 r 9 0 > > 0 0 0 0 9 q 0 > > 0 0 0 0 0 < 0 0 z q = 0 0 - q 0 k l 9 < k q 0 r 1 % k.#XMX@X].oX1XoX&X1X+X.XoX<X2X X}.=XXX2X*X.XOX>X[.3XBXMX/.S.} u . 5 w 0 0 < j < 0 r q q q 0 q q q 9 9 9 9 q q q r r r 9 9 0 r r 0 9 0 0 9 0 8 0 8 e 0 e e 8 8 8 8 w e 0 6 6 8 e w 8 5 8 0 5 w e 5 6 0 0 8 8 8 6 8 8 e w 8 8 8 8 5 5 8 6 w 8 5 5 O 5 6 8 6 5 8 8 8 5 5 5 0 e 8 8 8 8 5 5 8 8 e 6 7 8 0 0 7 6 7 0 7 0 > 0 ] 8 0 r e l 5     + r 8 8 8 5 e X i U.3.f.K. .; l r 9 0 G 9 0 r r J e e S r r 9 q q Q KXKXKX",
"KXKX[ . + 8 8 > - 5 5 8 + 3 8 8 8 5 - 5 8 8 8 . 8.R.f..., l r 0 0 e @       r 0 4 0 . Q l + 9 0 0 8 5 5 8 8 6 8 8 w e w w 8 w w 8 6 8 5 5 + + 5 5 8 6 8 6 8 8 5 = 6 0 8 6 5 8 e + 5 8 e e 8 8 e 0 5 6 5 8 6 6 8 e 8 5 8 6 0 8 8 e 8 8 e 8 8 0 6 8 8 > 8 0 t 0 > 0 0 0 > < l q < 0 0 0 < 9 0 r # s vXVX<X{.{.[.1X.XXX=X'.=X-X*XXX<X3X4X-X+X%X=X X@X[.>X9XZXVX/.6.u : : m r 1 < q 9 q d m q q q r k q < k q < 0 k q 0 q 9 0 0 8 5 0 0 < 0 0 9 0 > 0 r q < 9 9 0 0 0 z q 0 0 q q 0 < q > 9 q k r < q 0 q > r 2 . 3.#X9X+X_..X&X1X&XOX-X+X2X&X X}.=X2X5X;X7X4X@X+XoX{. X9XZX%XQ.;.i $ > 9 k j < < - d m l r k q q 0 r q 0 0 0 q q 0 0 0 0 0 t r 9 8 r 0 8 8 0 r 0 & r e e e 8 5 5 5 5 8 e 8 8 e e 8 8 + 6 e 5 8 e 5 3 8 8 5 6 5 5 8 8 8 0 8 6 e 8 e 8 5 5 8 8 e 8 + 5 8 8 8 6 8 e e e 8 5 6 8 5 8 e w 6 5 5 8 8 5 = e 0 5 0 7 0 0 0 0 > < ] 0 0 e 5 r +     & f 9 > 0 6 5 . i W.3.k.L. .o 8 8 0 r S 0 0 0 0 0 0 e t r 0 0 r l ! KXKXKX",
"KXKX_ o = - - 5 = = & 0 8 = + 8 5 5 = + 8 8 8 . n p.,.-.$ r r r 0 r O     @ t 8 0 0 X _ B 0 q 0 5 5 8 0 8 6 8 e 6 + 5 r r 8 8 5 8 e e 8 6 8 5 = 8 5 6 0 5 e r 5 = 5 8 8 6 8 8 8 e e e 6 5 8 8 6 8 8 8 5 5 5 6 0 8 8 e w 5 8 8 e w 5 = 6 w - = 0 0 8 + + > 0 9 l l 0 < q q q q d q q q q k N N $ v kXVX[._.).1X.X}.1X*XoX+XXX+X1X_.}.}.oXoX*X+X*X*XoX|.+X5XBXVX$XS.} y $ , t q r 9 B d 1 k 9 r J k k j < 0 1 - < 1 < 1 < > q 0 8 > 9 k q 0 9 0 > = 0 q 9 0 r r 0 0 0 9 0 0 < 9 0 < 0 9 q q < 0 k 0 k k e l ; : >.#XAX=X=X*X4X*XXXoX*X.X*X&X6X6X5XOXoX.X.X*X1X+X&XoX&X[.0X8XnX^.4.} i % 2 1 q 0 0 1 , q q 0 0 z - k 0 0 r r 9 > 1 0 < > > 0 9 0 0 0 > > 0 0 0 0 8 e > > 0 t 0 8 0 8 8 0 0 w 4 4 8 5 8 6 e e 0 8 6 8 w e e 6 = 5 5 w 6 5 8 e 8 6 0 6 + = e r e 5 5 8 0 0 0 w 6 5 5 8 e e 6 6 0 8 5 8 8 0 0 e 5 6 8 5 5 0 e e 0 7 = > > , ! + 5 r > r >     8 8 0 8 z 5 6 $ c T.3.3.T.X.$ t r 0 r r 8 e r 0 8 e w 8 l l q r f ~ L KXKX",
"KXKX_ X = + 5 5 = = 8 8 > 4 & 3 + 5 5 O 3 5 8 . ..z.d.q.+ l r 0 8 r         w 8 0 0 . ! N = 0 8 8 6 w e e e 8 8 5 5 5 8 8 8 6 5 6 8 e e 8 8 8 8 5 5 0 e 5 8 8 6 5 6 8 8 8 8 8 5 6 8 e 8 8 8 8 5 6 8 0 e w 8 0 e 8 e 0 e 8 6 5 5 e 8 8 0 0 5 5 7 8 > 0 0 r r r t q 9 0 9 q q q k q q 9 q q q q $ v zXCX'.XX'.+X@X>X<X1X2X<XoX&X}.<X*X*X5X1X&X.XoX[.1XoX.X[.oXNXZXjX!.2.i $ g 9 r 9 m d d , 0 N 0 q 0 q q z 0 q < < 1 j 9 0 q 8 8 0 9 0 8 > 0 0 0 < > 0 q r r r r < 0 9 0 9 0 q 9 0 < 0 q q 0 9 k k k q 9 9 2 : 2.#XBX'.[.@X.X[.oX&X1X&X5X&X[.}.[.}.=X*X&X1X&XXXoX.XoX[.XXoXNXVX~.I.:.i ; 2 q z 0 q , q q 0 q z < 0 < 0 0 0 0 0 0 8 < 0 9 < > 0 q q 0 > 0 0 > > 8 8 + + 8 w 0 8 8 8 4 8 w w 8 4 w 8 e 8 0 e 8 e 8 8 0 e 0 8 6 8 8 8 e 0 8 e 0 8 8 0 6 5 5 5 5 + 5 6 8 8 3 = 5 6 5 8 8 8 8 w 8 0 6 8 6 8 6 5 5 8 e 8 8 6 8 8 5 5 5 8 > q ` & 0 r 8 9 X     8 8 0 8 r 0 e > i U.<.F.J.n $ F J r e 8 9 9 r r r r r G J J N N N ` L KXKX",
"KXKX_ X = + - 5 = - = = & + + 4 + 5 7 - 3 4 6 . 0.U.l.i.; 9 0 r 0 r O     @ w 0 r 9 + _ N > 0 0 0 6 8 w 0 8 5 5 0 6 6 5 5 6 8 5 5 8 0 8 0 w 8 6 5 e r D 8 8 0 8 6 8 e 8 e 6 8 5 5 5 8 8 8 w 8 8 5 5 8 8 6 8 8 5 8 5 5 6 8 8 6 5 5 5 8 8 6 8 0 0 & 8 0 r 0 0 0 > 0 9 9 0 1 q d q q q q m q q 9 ; i zXVX=X=X=XoXoX<XoX{.*X1X+X1XoX1X&X=XXX&XoXoXoX1X1XoX{.=X.X{.4XVXDX/.6.s $ & r k j 1 1 d g m 1 < < q q 0 r z 9 t q l 9 q q > > 0 0 q q q 0 q q 9 = = 9 r 0 0 9 9 0 q q q q q q 9 0 0 q q q 9 k k 0 t , 9 ; ; 3.#XBXoX*X1X@X&X1X*XoX].<X1X1X&XoX1X1X&X[.oX&X*X1X&X.X.X*X1X+X7XVX/.Q.4.v : ; 9 F t l k k q d k 0 7 z z < 9 r J S q < > 0 > 0 q 9 q 0 0 0 > 8 0 > 0 8 0 0 0 0 t 8 0 5 0 r w 0 w w w e 6 8 8 5 6 5 e 8 8 w 0 e e 0 6 e e 5 8 8 8 8 5 8 w 6 8 6 6 5 8 8 6 5 = 5 0 5 5 5 5 8 0 8 8 5 8 8 w 5 5 5 0 e 8 8 6 8 8 8 0 0 - > q %.8 0 r 0 r +     8 > 8 & 5 0 8 . x Y.f.f.x.n $ S r J G e r 0 e r r e r S r r r q t ! Y KXKX",
"KXKX! X > + = = O 5 & + + 8 8 & = 5 5 = 8 + 8 . ..l.s.i.2 r t r r l + @     e e 8 < - ) N + 0 8 8 8 8 5 5 5 5 6 8 8 8 8 8 8 0 5 6 8 8 8 8 6 5 5 5 5 8 w 8 e 6 5 8 6 0 w 8 8 8 6 8 8 8 8 0 e e 8 e e 0 5 5 8 0 6 8 6 = = 8 8 8 8 = 5 5 5 6 8 8 0 0 0 0 0 8 > 8 < 0 q q < q q d q m q 1 q q 9 q ; s kXVX-X=X;X4X].&X&X}.].1X<X&X2X+XXXoX[.oX&X2X2XoX[.&X=X<X+X_._.4XZXNXnXI.b u : - N q , N N 2 m 1 8 r l 0 r N r r r r t 0 q < < 0 < q k k 9 0 0 q = = 0 0 8 0 0 0 0 0 9 q q 0 0 9 q 9 q q 9 0 l 0 k q 9 q ; : 2.~.BX.X]..X.X&X<XoX1X*X&XoX&X1X1X]..X[.oX1X1X+XoX=X8X*X'.OXoXXX4XZX%X!.5.b y p > q k k 1 1 1 q q j - < k k 0 e F l 0 < 0 > q l 0 9 < 0 0 8 9 r 0 0 0 0 0 0 t 0 8 t 8 w r 0 w w 8 8 0 = 5 6 + 5 = 0 0 6 8 8 w 0 8 5 r e 5 5 8 6 6 + 5 0 e 8 e 0 5 6 5 + 8 e 6 5 0 8 8 6 8 8 6 5 5 6 e e 8 8 8 8 5 e e e 0 8 6 6 0 > > q %.8 0 r > q +     > < 8 8 r 8 w $ b U.f.3.L. .$ e r r G r 0 r 9 w r e 8 8 r N z 9 9 ! L KXKX",
"KXKXQ . = = = + = 5 = + + 8 8 4 6 5 8 = w 5 8 . ..U.s.q.; l r 0 r r o       0 0 = < X Q k = 8 8 8 8 6 8 5 5 0 e 8 e e 8 8 e e 5 8 8 8 6 5 5 5 + 6 5 8 6 8 0 6 5 5 8 0 8 w 0 e e e 8 8 8 6 8 8 8 8 e w 6 5 e 0 5 e 8 5 5 6 5 8 8 6 w 0 6 6 8 0 7 8 0 > 0 > 8 9 q < q q 9 1 k q q q 9 < q q q q ; i lXZX=X`.'.4X+X<X<X&X&X1X&X[.&X<XoX&X&X1XoX+X1XoX[.1XoX[.*X+X[.}.oX0XZXmX!.| : ; N N q N k 1 N k 9 q d 9 9 f F S t r 0 0 0 < j k 9 0 < < > > q 0 < 0 0 > 0 < 0 < 0 0 9 r 9 0 0 q q q q q 9 0 k < z N f q , : >./.NX4X=X+X*X*X+X[.*X&XoXoX[.+XXX&X2X1X*X&XoXXX1X4X X'.XX-X=X=X*X0XAXmX/.G.*.i % 9 z k 1 2 2 q f q 0 j j k 9 w r 0 0 l 9 > q l < 0 0 9 0 9 l l 0 & 8 8 8 & 0 0 8 0 + w r 8 8 t 8 8 e 5 6 8 5 8 5 6 8 8 8 8 e 8 6 = e e 5 5 8 8 8 8 8 8 5 5 8 8 6 8 + 5 8 8 5 5 8 e 8 5 0 8 6 6 8 5 8 e 8 8 8 8 6 6 8 5 8 5 5 8 0 8 > < &.5 8 r > r O     8 1 9 e r 5 e > h J.S.<.R.=.$ r 0 0 S r r r r 0 w r e 8 r r r 9 r _ B KXKX",
"KXKXR . > - - + - 7 5 5 & 8 4 8 8 5 7 5 w 8 0 . 8.U.p.=.$ r J r r r O       0 8 9 0 o Q k = r 9 5 5 8 8 5 6 0 e e 8 e e 8 8 e 6 8 8 0 8 8 6 6 = 8 r r 0 8 5 5 8 8 8 8 5 5 6 8 e e e 8 8 6 8 6 0 = = 5 8 0 w 8 5 8 8 e 8 8 8 6 e 0 0 0 8 w 8 0 0 8 8 9 8 8 8 0 t 9 9 9 0 0 q q 0 9 < < q l q 9 $ s kXVX).&XOX@X@X<X{.1X1X+X<XoXoXoX*X1XoXXX=X1XoX1XoX1X=X].*X+X}.{.{.[.1XAXZX/.5.v $ * f m q q d q q q k < 9 f f t e S t 0 z < 0 q 0 < 0 0 0 0 q 0 q q q 0 0 9 8 9 9 q q q q q 9 9 q q q q 9 9 k j 0 r q r : ; >./.BX&X*X4X@XoXoX&X[.[.+X1XoX<X1X&X2X5X*X1X=X[.[.*X3X2X=X=X=X.X&X}.<XAXCX#XQ.4.v : ; , d B d 9 0 l k z k k f r 0 0 1 0 > - 0 r 0 < 0 q 9 q q k 0 8 0 0 8 8 0 0 0 8 8 r r 8 8 8 8 w 8 5 8 0 5 8 6 6 8 6 e e 8 8 = 5 e 0 5 6 8 w 8 e e w 8 5 5 8 5 6 e e 5 5 8 6 = 8 8 6 8 0 8 8 0 5 8 6 5 6 8 8 8 5 8 8 8 8 5 5 0 > > 1 ` + 0 9 0 9 O     > 0 9 e 0 6 e o a J.F.p.z.n $ l r r r G r l 9 0 r r G e r r q q r Q B KXKX",
"KXKX) o > = 5 - 8 = > 8 8 & 8 4 8 5 8 - 0 8 0 o  .l.p.i.1 r t r e r O @     t 8 0 0 X ! q - 0 8 5 5 8 6 8 w 8 8 8 6 8 8 6 8 e 8 6 8 8 6 8 8 8 8 5 e 0 6 6 = = w e e 6 5 5 6 8 8 e 8 8 5 8 8 8 8 8 6 8 e e e 8 e 8 w e 8 5 8 8 8 8 6 6 8 w 0 0 0 0 0 0 0 8 8 8 < 0 9 0 < 1 q q < < 9 9 k k q q $ a kXVXXX=X[.@X>X<X}.oXoX+X1X<X&XoX1X*XoXXX1X1X*X[.[.1X*XoXoX{.XX@X1X|.}.>X0XAX$XI.o.* d < 0 9 q q k j j 1 < 1 t 9 r e w 0 0 0 k < 0 0 k l k q 0 > 0 9 0 > 0 q 0 0 9 q 0 > 9 9 < q q q q q q q k < j r 9 t , $ 2.#XBX.X'.[.[.&X1X*X1X1X1X&X].1X2XoXoX}._.[.&X&X<X}.{.&X[.8X;XXX2X<X|.}.BXVX#XD.4.} c ; 2 m N q > q l q q q l k < q q > - < 0 q 0 0 0 q 9 0 0 9 0 0 9 r 0 8 0 8 8 8 w t w 0 8 8 8 e 8 5 8 e 6 8 5 5 5 8 8 8 8 6 5 5 e 8 6 8 8 e e 5 8 e e 0 8 8 5 e r r 8 5 8 e 6 8 w 0 8 8 e w 6 8 5 = 5 5 5 5 8 0 8 e w 8 6 6 0 8 > , ` 8 0 r 0 r +     > 0 e e 8 r S # s W.H.f.L.n - l J r G J r 0 0 0 r w e r r G r r N ! L KXKX",
"KXKX) + > = 5 = = = + 8 8 + & 8 = 5 8 = 8 8 w . =.eXl.i.; 0 r 9 e r O       0 8 8 0 = _ N > 0 > 0 e 8 8 8 e e e 5 5 8 e w 8 e 8 5 5 8 5 5 8 8 6 5 8 8 5 e e 5 8 8 8 5 = = 5 8 8 8 6 5 6 5 5 6 8 e 5 5 8 6 5 5 0 r e 6 5 5 5 5 5 8 8 8 e 8 8 > 0 t 0 0 0 0 0 0 0 q q 0 q q q q 1 q q q q 9 q 9 o s kXVX=X'.=X>XoX1X<XoX[.1X1X[.+X&X[.[.6X1XoX}.oX1XXX[.oX1X*X&X2X>X$X0X>X{.>X9XAXmX!.| h # q q N j k j j m c m j q 9 t 0 0 k q k q 0 q q q 0 0 < 9 0 0 > > < q l 9 N q 0 0 q l 9 l l q 9 r k q q j 0 0 9 m 2 : 2.:XNX=XoX+X+X+X[.oX1X1X1X1X=X*X[.&X1X2X*X1X+XoX&XqX X2X[.=X5X=X[.{.1X>X>X9XZX8X~.S.| y % , r z r 0 1 1 q r k k j < q q z k q 9 q > 0 q 0 > > 0 0 8 9 0 0 8 & > 8 0 0 0 8 w 0 8 4 8 6 + 8 0 5 8 = 5 8 8 0 w 8 8 6 5 e e 8 8 e 8 8 + 6 e e 8 5 6 8 e e e e w 8 0 8 e r e 6 8 8 5 + 8 6 5 8 8 5 5 6 8 6 8 8 5 5 0 e 0 - < ) > e r > 0 +     > 0 r r 0 e w * M p.#.3.wXZ $ z r 0 r G 0 8 8 r e 8 5 0 0 r q q q Q N KXKX",
"KXKXQ X + + = > - 5 5 > 8 > > 8 8 5 = 5 5 8 5   ..K.U.-., e r r r e o       r > > 0 + ) N > 0 5 8 e 8 0 e e 8 8 e 6 8 0 e 8 e e 0 8 5 8 8 6 5 8 e e 8 6 5 8 8 8 e e 6 e e 8 8 6 8 0 8 8 8 8 5 5 8 8 8 e e e 8 6 8 8 8 5 8 8 6 e e 8 6 8 8 e 0 0 0 0 0 9 8 8 0 0 9 r 0 9 0 1 d q q k < q l 9 q ; v kXVX=X'.=X4X[.}.&X6X*XoXXX2X<XXX1XXX[.oX<X1X1X&X1X_.2X1X5X1XXX+XOX4XOX[.}.{.>XNXNX#X3.v % $ m 0 N k j j m j j < l N r l q 9 q 0 q k z 0 0 < 0 0 q 9 0 0 0 9 9 q 0 0 9 k q t q l 9 < 9 k q k N < 0 f d 9 ; ; 5./.8X=X=X+XOX*X.XoX}.*X].=X1XXX*X2X1X&X+X[.&X1X1X&XoX>X.X}..XXX=X X3X X}.=X6XBXNX#XG.3.b % q 9 l l 1 q q q 1 l q 0 < 8 q l q q k q k 0 q 0 < 0 9 > 0 r 0 0 0 0 9 t 8 8 w 0 8 8 0 8 5 + 8 e w 5 6 5 8 8 5 5 e e 5 5 5 w 8 5 8 r e = e r 8 8 5 5 5 8 0 8 5 5 0 8 5 8 6 8 e 5 6 e 8 8 5 8 e e w 5 5 e e w 8 5 8 0 0 0 - , $.0 8 9 9 9 +     6 9 e G r 5 e X b z.1.<.wX8.: r J r r J r 0 9 9 0 e e r l 0 J N 9 ) B KXKX",
"KXKX) X > > = = = = 5 8 > + 4 + 8 6 - = 3 8 8 .  .l.H.0.: r J r r r O       w > > 9 X ! N 8 r 0 8 6 6 5 5 8 w e e 8 8 8 6 8 8 8 8 5 6 8 0 w e 0 6 8 8 8 8 8 8 = 8 5 5 8 e 0 8 e 5 6 6 8 8 6 8 8 5 6 8 8 w 8 8 8 5 e 0 6 6 5 8 e 8 5 + 5 8 e 0 0 > 8 0 0 0 0 q 0 q k q q q q N q m N 9 N N q m ; v lXCX=X'._.OX>X1X{.oX{.1X1X1X&X+X&X2X*XoX+X[.=XXX1XoX&X<X1X1X*X'.XX+X].}.<X>X[.[.BXMX$XG.} 2 ; j l k k k k k m j k 9 0 q 9 0 1 0 k q q q k k q > < 0 0 < 0 0 0 l 9 > > > < < q < 0 9 q 9 < q k k < 0 9 q 1 : 2.~.BXXX*X+X@X2X&X*X.X2X*X1X*XoX1XoX[.{.*X.XoX*X<X*XXX1X+XoX1X1X<X<X X*X&X X&X=XBXZX#XD.S.o.% p l 9 z 9 - r q 9 l k q q l k 0 0 0 q 0 q z q 8 > 0 0 9 r l r 0 0 9 0 0 0 0 8 4 4 0 8 8 6 0 e 5 6 r 6 8 8 5 8 e e 5 8 6 8 8 6 e e w 5 e 8 6 6 5 5 5 5 5 6 5 5 8 8 6 5 5 8 0 8 8 8 0 6 8 8 8 8 8 5 = 8 0 6 5 5 8 8 7 0 = < %.8 0 0 > q + @   + 9 0 r l 5 e . b J.F.F.rX..$ 0 r 0 D G 9 0 r r r e r e r r N J q Q L KXKX",
"KXKX! + = = - = + = > > & + + 8 8 8 5 = + 0 e . n z.p.o.$ 0 0 r r r O       D 3 > 0 - ! l > 9 9 8 8 5 5 = 5 8 e 8 8 8 5 5 5 8 6 8 6 8 8 8 8 0 e 8 8 6 5 5 5 8 6 8 8 8 e w 8 8 8 = 5 5 8 8 8 e e 5 8 8 8 5 5 5 5 5 e 0 8 8 0 e 8 8 6 5 6 6 e 0 0 8 0 0 0 t q r 0 > q 0 9 1 < q q 9 q 9 k l 9 9 $ i kXVX=X&X=X*X>X3X<XoX[.<XoX+X1X<XXX5X1X=X+XXX1X1X&X1X1X1XoXoX5X2X=X<XqXoX>X@X>XoX&X8XNXmXQ.| i a d q k 9 0 l 0 0 0 0 k q q q t q q < < q z k k > 0 0 < 0 0 0 0 q q 9 0 < 9 9 l 1 9 l d q 9 1 0 k 0 d r 9 < ; :./.ZX{.=X+X>X6X}.].1X2X].XX<X*X}.*X[.&X2X&XoX*X+X1X+X6X4XoX+X&X&X{.&XqX X3X&X X X9XVXmX~.G.*.% : 1 r K r r > t 9 q q q k q < 0 0 q 0 q l k 0 > 0 0 0 9 q 0 8 > 8 9 9 8 0 r 8 5 e 6 0 8 8 5 5 8 r 8 8 5 8 8 w e 5 0 5 5 e 8 e 0 8 6 0 6 = 5 8 8 6 6 5 5 5 6 5 5 8 5 5 8 8 e 8 8 5 5 8 8 6 8 8 6 = 6 8 8 8 6 8 8 5 8 + < ` 8 4 0 8 z o     > 0 8 r 8 = r o M J.f.<.L.n o t 0 0 r G r 0 0 0 8 w e e 0 r r N q Q L KXKX",
"KXKXQ o = = = = = = 8 8 8 + 4 4 > 6 8 5 3 8 8 . 8.wXl.8.1 r J f r r +   @   w 8 0 9 = ) k - 0 0 6 8 8 8 5 5 6 8 6 8 e 5 5 8 8 8 e w 8 8 8 8 5 6 8 8 5 5 5 6 8 8 8 8 e e 8 5 5 = 5 5 5 5 5 5 6 8 e e e 8 5 5 5 6 8 w 6 5 0 e 8 5 8 8 8 0 e e 0 0 0 9 8 0 0 t 9 9 0 q 9 9 > < k q q m q k k q q ; v kXCX=X;X=X.XoX[.{.1X2X1X@XXX&X&X}.oX[.{.&X&X<XoX[.XX+X.X}.XX1X X X{.<X>X>X>X4X*X6X}.3XBXmXjX3.b u : g d q 9 r 0 < k N d q d d q 9 < 0 0 q 9 0 < q q q q q q q q q k q 9 q q q q k 9 q q k k q < < m t 9 2 : 2.(.NX'.].OX+X2XoX&X1X&XXX1XXX*X+X2X.X1X&X&XoX*X{.oX@X4X+X.XOX*X1X6X1X}.{.3X=X X=X'.9XNX7X:XG.5.s % 1 9 0 B t , f < 1 0 q q q q l q 0 < 9 9 0 0 r 0 0 9 0 > > 8 0 r r 0 8 r 0 0 r e e 8 5 6 8 5 0 8 5 6 e 8 0 e 8 8 6 8 0 0 6 8 5 8 8 5 + 5 8 8 8 e 8 8 e 8 5 5 8 8 e 6 + 6 8 6 8 8 8 8 8 8 6 5 5 8 8 8 8 8 8 8 0 < > 1 $.> 8 0 > q +     = 9 8 8 r 5 e . c H.f.<.wXZ $ r r r G r e 0 8 0 8 8 e e r r 9 q q R B KXKX",
"KXKX! X - = = = 7 = = 8 8 > + 4 8 5 = 5 4 8 8 . q.J.j.h.; 5 N + r r +       r 8 8 0 + ! k + 0 > 5 8 0 0 8 5 8 8 5 8 e 8 5 8 w 8 0 8 w 8 8 6 5 5 5 5 8 8 0 5 5 = 6 8 0 8 8 5 5 5 8 6 8 5 = 3 5 5 e e e 8 5 5 6 8 r 8 5 6 e w 5 5 5 8 6 e 0 0 7 8 9 0 0 8 0 0 0 < 0 9 0 < < < r m 9 N q q q q l ; s kXVX&X&XoX.X+X{.}.1X1X[.XX1XoXoX.X&X&X1X*X1X.X&X6X&X&X[.*X1X&X}. X XoX@X>X&XXX*X3X3X[.*XBXNXjXS.} $ : g M f r k 0 k k 1 < 1 d k q q q 0 j 0 0 0 q k 0 q q k q 9 q q q q q 0 > 9 1 0 1 q q m l k 7 9 9 q 1 : 2.~.BX;X&XoX+X1X6X1X1X{.&X2XoX1X1X2XoX&XoX1X&X1X[.{.[.&X1X4X4X+XOX*X+X6X[.{.1X'.&X'.XX3XNX9X).!.F.} % % 9 d f B , q q q q 1 k k q 0 < < < 0 < q q < 0 0 < < 0 0 0 e 9 8 > 0 8 & 0 e r 0 5 8 0 8 8 8 6 0 e 8 6 8 8 8 6 8 e 8 5 8 5 5 e w 5 8 8 8 8 0 8 8 e 8 = = 6 6 8 5 + 5 0 8 r 8 6 6 e e 5 5 8 0 6 8 8 5 8 6 0 8 > < %.8 8 0 8 l 3     > 0 > 0 5 = e + V W.F.F.wX=.o z r 0 G G 0 0 r l e r e e r r N 0 9 ! N KXKX",
"KXKXQ X + > 5 0 = = - 5 8 > 4 + 8 3 = = 3 8 8 . q.z.l.g.: 5 r r r r o       t + = 0 o ! N + 0 > 5 6 8 6 0 6 8 e 6 0 e 8 8 8 6 8 6 8 6 8 e e 0 8 8 5 8 e w 6 5 5 5 5 8 w 5 8 6 8 8 8 8 5 5 5 5 5 8 e 6 5 5 8 0 w e 6 8 0 e 5 5 e 5 5 8 8 6 8 0 5 > 0 8 0 0 r 0 0 < 9 0 9 9 9 q q < q 1 q 9 q q $ y zXVX'.&X8X7X>X<X{.+X1X}.+X5X1XoX*X5X1X2XoX2XoX+X6XXX+X[.&X*X}.3X<X X<X+XoX&X[.=X&X=X2X5X.X9XBXnX!.*.y % y g r B 0 0 < 1 9 q 9 1 q q q k 0 q k 0 q 0 0 0 < 0 0 0 < 0 9 9 q 0 < 9 q k q q q q q j z q 9 r : % 2.#XNX8X&X+X.X[.}..X&XoXoX1X&X1XoX&XoX&X&X1X1X1XoX2X3X=X{.OX.X-X4X@X|.oX2X=X X'.1X=X_.{. X3XNX;X~.S.*.s * , : q j q k 0 < 0 q 0 < q 0 0 0 0 0 < 0 9 0 0 9 9 0 0 8 0 0 > 8 0 8 4 8 6 r e 6 8 5 6 8 e 8 e e 5 5 5 5 5 5 8 0 5 = 6 8 6 e r 8 8 6 5 6 8 6 8 e 8 8 6 8 8 8 6 5 5 8 w e 8 5 8 r r 6 5 8 8 8 5 6 5 5 8 0 > + 1 ` > 8 0 > r O     > q 0 0 0 = e X b J.<.<.Y.n X r r 0 r r r 0 r r r t e e r 0 N r q ` N KXKX",
"KXKXQ X = > 7 = = = + & & 4 + + 0 5 = - 3 8 8 . 8.Y.H.-., 0 9 P r e @       r 8 8 < o ) N - 0 8 5 8 8 w 0 8 8 e 5 8 8 8 8 5 5 8 5 8 5 8 0 e e 5 0 6 5 5 5 5 8 e 8 8 e 6 5 5 5 5 0 w 8 8 6 5 5 8 8 8 8 5 5 8 e 0 5 8 8 e e 5 5 8 5 8 e e 0 0 0 5 0 0 9 8 0 r r 0 q q 9 q k k m q q m q 1 q q N ; v zXCX;X=X5XoX>X{.<X<X2X&X1X&X&XoXoX1XoX1XXX&X&XoX&X{.1X=X1X2X2X<XoXXX*X2X=X2X5X*XXX*X*X*X5X2X1XBXCXlX6.v y 2 d N N 0 1 k k t q q q q k q 1 0 k k q 0 0 0 < q 0 < 0 q 0 q 9 9 q q q k m m < < q < q q q r : 2 k.#XNX*X=X+X>X1X[.&XoXoX&X1XXX=X1X.X&X+X&X*X+X[. X_.*X&X<X<X{.oX>X1X+XOX*X*X*X8X4XOX'.}.1X{.&XBXMX/.I.<.o.: ; < < 0 0 < 0 < k q 0 q q k k q q 9 > 0 0 9 0 9 0 > > 8 0 8 0 0 0 0 9 5 8 8 5 8 6 = 8 8 w e e 6 5 8 5 8 5 8 8 5 6 8 6 5 r e e e 8 5 5 6 8 8 8 w e e 8 8 6 8 8 8 6 8 0 8 8 8 e e 5 5 0 8 6 5 6 0 8 8 0 > = < ` 8 8 0 = 0 .     = 0 8 9 r 8 w $  .H.f.H.L.n X r l r e r r t 0 0 0 0 e w 0 r l 9 N _ B KXKX",
"KXKXQ o > = = - = = 8 8 8 > 8 8 8 6 5 5 3 8 8 . =.T.K...o r f 0 l e O     @ r > 0 0 - _ N + 8 = 6 8 8 e e e 8 6 5 5 5 6 5 5 5 0 8 8 5 5 8 8 6 5 5 = 5 6 8 8 8 8 5 6 5 = 5 6 0 6 0 e e 0 8 8 8 6 5 e e 6 5 8 e e 5 5 5 5 e 8 5 = = 6 8 e 8 8 7 0 t 0 8 8 8 r r 0 q 9 < 0 9 q k 9 0 k q 9 0 9 q $ s zXVX&X_.'.].+X1X2X{..XoX1XoX2X&X].1XXX6X1XoX1XoX<X1XXX[.&X&X+X+X2X6X=X=X'.=X'.[.{.].&X_.[..X5X6XNXVX$XG.} y # 1 k k k q q 9 q q q 1 q < 0 < 0 0 < < q q q q k < 9 q 9 0 < 9 < q 1 0 q q 9 < 0 k q 0 , N : o 3.~.BXOXOX.X+X6X1XXX1X1X[.[.oX*X1X<X2X1X2X<X[.'.*X=X2X[.}.<X[.{.<X<X].4X*XOX5X@X[.*X&X1X&X&X3X<X8XVXmX!.:.} u ; < j k k 0 l N N q < q 0 0 q l k r k 9 q 0 0 0 0 > > 0 r 9 8 8 0 e e 5 3 5 e 8 6 5 5 5 e 8 8 8 0 5 5 5 6 5 5 8 8 5 5 0 e e 8 8 8 8 8 w e 5 8 e e 0 8 + 8 e 5 6 e e 8 8 8 e 8 8 6 8 8 8 8 0 e e 8 0 0 > < ` > 0 r > 0 O     = 8 = 0 5 8 t * V a.*.3.Y.=.$ N J r w J r 0 9 r w e 8 8 r J q 9 r ! Y KXKX",
"KXKX) o > 0 = = = - 5 5 8 8 8 8 5 8 = + 6 8 8 . ..h.d.-.; G r r 0 r o     @ w 0 0 0 . ! f > 8 0 8 8 8 5 5 5 5 6 5 e e 8 5 6 5 6 8 6 8 5 5 5 6 8 e 0 8 8 e 8 6 8 6 5 5 5 8 0 r r 5 5 6 8 0 e 8 e 3 6 0 0 0 e 8 5 6 8 8 8 8 8 5 5 5 8 0 = 0 0 0 7 0 9 0 8 > 0 9 < < > < 9 q 9 q k 9 0 q 9 0 N q ; i zXVX&XXXXX4XoXoX&XoXoX*X+X{.[.oX1X*X.X*X*X{.XX1X&XoX[.1X*X[.2X2X+X*X&X*X1X=X6X2X1X1X6X2XoXoX.X.X2XBXAXVX~.:.v y p d t < q < l f q 9 N 1 1 m < 1 k m r q 0 r 9 0 < 9 k r q < 0 9 q q r q q N q k k l N r : $ :./.MXXX=X.X`.OX1X1X*XoX1X1X[.oX}.*X1XoX5X1X<X1X0X=X&XoX1X1X+X<X[.1X=X4XoX4XoX=X[.{.}. X*X[.{.&X2X0X7XCX~.S.3.i % ; 0 F f t t 1 k j < 0 q r f r q 0 9 0 0 q l q > 0 9 l 0 6 5 6 0 = > 0 0 9 0 > 0 8 0 9 0 0 8 > 8 6 5 8 8 e 8 6 8 5 8 e r e 5 5 8 8 e 0 w 8 6 5 5 e 8 5 5 8 e e 5 6 e 6 = 5 6 8 = 8 5 5 8 e e 8 e w + q ~ - 0 8 e r       8 w 8 9 > 5 0 . v Y.k.2.K.=.; r r G 0 r 9 q r 0 8 0 0 0 0 z q r t W KXKXKX",
"KXKX[ o = 8 = 8 - 5 8 7 5 = + 3 8 e 8 = 8 8 8 . q.J.d.q.2 e Y 0 0 9 @       e 8 0 0 o _ l > 8 0 0 6 w 8 8 5 5 5 8 8 8 6 8 8 8 8 w 0 8 8 5 5 5 8 5 8 8 8 e e 8 8 8 8 0 6 6 8 8 e 3 5 5 5 5 5 8 8 5 5 6 5 6 8 e 8 8 8 5 5 6 8 e 8 6 0 0 5 7 r 0 > 0 0 9 0 > 0 q 0 8 9 0 0 < < 9 < q m B k q N N $ v zXCX_.*X5X*X+XXX&X1X1X+X+X&X2X2X*X&X*X&X&X&X&X&X1X2X.X*X5X1X1XoXoX*XoX[.oX.X{.[.6X*X[.&X&X&X5X=X.X[.6XNXMX/.I.} h : d < 1 N q 9 m q q < 1 k < < q 9 q r r q q 9 0 0 9 q 9 9 9 < 0 q q 0 q q k k k 1 9 r 2 : >./.BX=X8X8X+X{.&X6X&X1XXX1XoX2X6X2XoX*X].+X6X[.[.oX1X*X].}.*X1X[.oX*X6X1X=X].*X<X3X<X'.7X*X`.{.{.}.qXBXVX#XG.S.} 2 m , > f N t 1 k j q 0 r 0 9 9 0 0 0 0 9 l q 0 > > 5 0 0 5 6 e 8 8 8 0 8 8 8 0 & 0 0 8 8 > 8 > 8 0 e e e e 8 8 e 8 5 6 5 5 6 0 5 5 + 6 8 e 8 5 8 6 5 5 6 8 8 = 8 8 5 + 5 8 8 8 8 6 5 8 w 8 8 e 0 + q &.; > 8 0 r .     3 w 8 0 0 = 0 >  .U.f.1.k.n $ r 7 0 w r t r 9 0 0 0 6 0 0 r q q r Q J KXKX",
"KXKX) o = = = 7 5 5 5 5 8 + 8 8 5 8 0 - 8 8 8   9.U.L.i.: l N 4 9 r O       0 > 8 9 X _ r & t t 8 5 e e 8 w 8 e e 8 8 8 8 e 8 6 5 8 6 5 6 8 8 0 + 8 6 5 8 e 8 8 8 w e 8 8 5 5 e e 0 6 5 6 8 8 6 5 8 5 = 8 e e e e e 5 + = 6 e w 0 8 7 5 7 0 0 7 0 0 q 0 8 9 l 0 < 9 q 9 9 q q q q q q q q q q o s lXVX=X*XOXoX6X1X1X1X*X1X*XoX<XoX].oX*XoX&X1X+X&X&X&XoX&XoX].&X[.1X1X<XoX=X*X*XoXoXoX1X&X].].oX+X.XOX+X1XMXBX,X~.:.s % f t 9 k < 1 < k k q k 1 1 k k q r r r 0 9 9 0 < 1 0 0 q 9 9 q q 9 q q q 0 k 9 q r d 2 :.~.BX.X)._.4X6X<XXX&X2X6XoX5X.X[.}.oX&X].oXXXXX_.oX2X3X[.oX6X6X1X1X*X&XoXoX&X&X.X{.=XOX-X-X-X1X&X{.qX).+XVXjXQ.S.} # : q t q + q k 1 k 0 0 0 0 0 < 0 q 9 0 q 0 0 0 > = 8 0 6 0 r 0 0 8 0 > 0 0 t 8 8 8 8 8 8 > & 8 8 e 8 8 8 0 e 0 6 5 + 5 5 8 8 5 6 8 8 8 8 8 8 8 e 8 8 8 0 6 5 e 8 5 6 5 8 8 6 8 5 = 5 5 5 8 e 0 = < &.> > r 8 r X     3 0 0 < 8 8 t $ v z.3.2.j. .2 J e r e J 0 0 0 r 9 0 0 r r 9 9 r l ! Y KXKX",
"KXKX) @ = 5 = 0 5 5 5 5 5 4 8 8 = 5 6 = 3 5 8 . ..l.z.-.$ J r r z r o       w 8 8 9 X ) 0 > r 0 8 5 8 5 8 e e e 0 6 5 8 8 5 = 8 5 5 5 8 8 8 e 8 6 8 8 5 6 8 5 6 0 6 8 e 8 = 5 e 6 8 8 8 8 5 5 5 8 6 8 8 0 e e 8 8 8 6 5 5 e 0 8 8 8 7 = 8 0 7 = < > 0 0 < 0 r 9 0 9 q q k d N k m q 1 q 9 k q $ i lXVX&X'.+X3XoXoXoXoXoX+X.XoX<X*X*X2X1X&X1X&X_.oX[..X&X1XoX.X6X[.&XoXoX[.[.<X1X6X2X*X*X&X1X6X&X{.*X4X-X@X1X9XAX8X~.G.o.h % d < k < < k N r q q l k q r q q 9 < q q 0 q q 9 0 < q 0 q r k q q 0 < m N N l 2 ; *.~.0XXX'.+X@X[.[.oXoX&XoX}.=X*X1X.X1X*X5X6XXX6X6X1X.X=X1X5XoX}.*X}.].].oX+X1X1X3X1X*X7XOX=X7XOX'.].{.6X1X+XVXCX(.G.*.i ; 1 N N N 1 q q k 9 0 < j > 9 z q 9 0 0 9 t 0 0 0 0 5 8 0 8 0 > 0 9 8 0 0 0 0 9 0 0 8 8 8 6 e 8 8 6 8 8 w 5 5 5 5 8 8 6 8 5 8 e 0 8 = 6 e w e 0 8 5 8 8 5 8 5 8 0 0 6 = 5 8 6 5 5 5 5 6 e 0 > < %.> > r 8 r       5 0 0 0 = 8 w $ Z T.f.2.K...2 J e r t 0 8 9 0 0 e 9 r z r 0 0 0 t ! N KXKX",
"KXKXQ X & 8 5 5 + = 6 5 + 8 8 4 5 8 8 5 6 5 e . ..J.<...: > 0 r 9 r X       w 0 q l $ _ 9 > r 0 w 6 8 5 5 5 5 5 5 = 5 5 6 = 5 5 e 0 6 8 8 8 6 8 e 0 w 8 8 5 + 8 8 8 5 e 0 5 5 8 5 = 5 8 8 w w 0 8 8 w 0 e e 8 5 8 e 8 8 8 8 8 8 8 5 8 0 7 0 0 = > = > 9 > 0 q 0 q q 9 q 9 q q q q q 1 q q q f $ v kXMX=X;X=X@X@X1XXX].XX4X4X=X[.&X&XoX}.oX1X2X6XoX1X1X&X+X&X&X&X&X1XoX1X&X.X*X<X).oX[.[.5X1X=XoX&X3X1XOX].].@X1XZXBX$X^.:.h # m z z 0 < p d t N 9 0 0 < k q q t q q q q 9 0 < < 9 < 0 q q k q q k k 9 q 9 2 : >.~.BX*X*X4X.X].1X&XoXoX2X2X&X*X*X6XoXoX=X1X1X].=X*X}.[.*X*X.X}.5X*X&XoX2X&XoX}.oX+X].+XOX=X7X=X*X5X1X1X6X1X>XBXZX#XD.2.n % , > r q q q q k < j 7 < 9 r r k 0 q q q l q 0 > 0 0 0 8 > 8 9 0 0 8 > 0 0 0 0 > 0 > > 8 e w 5 5 5 6 8 5 5 8 8 e 8 6 8 + 5 8 8 5 = 8 e 0 e 8 5 5 8 5 6 8 6 8 e r 8 5 5 e 8 8 5 5 5 8 e 0 > , ~ > 0 e 8 r .     6 8 0 0 > 5 8 & b z.3.3.R.o.; N r l S e 8 < 0 0 0 r 0 0 0 z 0 9 q R Y KXKX",
"KXKX) X & 0 - = + = 5 + 5 8 8 + 8 5 0 5 3 5 0 . ..T.H...; 0 9 0 0 q O       r 8 0 9 + ~ q 8 r 8 8 5 8 8 8 6 5 5 8 6 8 8 8 8 5 6 e 8 0 8 8 6 8 5 8 8 6 8 0 5 + 6 0 6 8 8 w 8 5 6 8 5 = 6 8 0 8 e e e 0 w 0 6 8 6 6 8 8 6 6 8 8 6 6 8 0 0 r 0 0 0 > 8 0 > < 0 0 q q 0 0 q q q q k 0 9 9 k q q q o i zXVX&XXX*X1X@X*X2X2X1X*X+XoX&X&X*XoX&X5X*X}.[.&X2X1XoX[.&X*X[.{.].[.*X1XoXXX=X1X1XoX&X1X[.oX2X_.&X*X{.>X].@X3X6XAXBXnX/.5.s : ; < k j , d t t e 0 < j 1 1 q , q 9 q 9 q 0 0 9 m 0 < 9 9 t k q k k 1 t 9 1 : ;.(.MX&X'.@X1X1X<X&X6XoX1X].*X1XoX&X=X].[.}.[._.[.=X&X1X*X&X1X2X5X&XoXoX6X2X*XoX*X1X1XoX+X*X=X4XOX@XoX[.|.>X+X`.7XZX$X(.3.o.h : , k k k q 0 < j j 0 q q z q 0 0 0 0 9 q 0 0 9 9 < 0 8 > 8 8 0 8 0 9 0 0 0 8 8 8 8 e e e 8 = = 5 5 5 5 6 e e 0 e e 6 8 8 6 6 8 6 8 8 8 w 6 5 8 8 e 5 5 5 8 w e w 8 6 8 8 8 5 8 8 e 0 > 0 &.> 0 t 0 r O     4 w 0 0 0 e r . i d.2.3.L.X.o G z z J r 0 0 0 8 0 0 0 7 9 r r l k Q N KXKX",
"KXKX) @ 3 8 = = - = 5 5 + 4 8 + 8 5 0 = + + w . X.U.U...$ K r r r l +     @ w 8 0 > X _ t > t + 5 5 e 8 8 8 5 8 8 w 0 8 e e 8 5 6 8 8 6 8 e 8 8 5 6 = 5 e 8 5 8 8 8 0 5 5 6 8 w 0 5 + 5 6 = + 5 8 8 8 8 6 6 8 5 + 6 8 5 + 5 5 8 8 0 0 0 0 7 0 0 8 0 8 > 9 0 > q < 9 9 q q k q k 1 q k N N q l $ b kXCX].'.=X1X1XXX&XoX{.+X+XoX&X6X1XoXoX=X+X1X2XoXoXXX&X<X1X5X1X=X].&X1X6X2X<X1X2X2X6X2X&XoX1XXX=X=X{.}.{.>XoX].|.[.5XNXCX#XD.| i $ 2 d d t 0 0 k z j < j 1 1 9 q q q q q 9 9 q N q q q q q l k k j 0 N r , : >.~.BX'.'.OX>X1XoXXXoX*X_.oX.X2X]..X2X1X1XoX].1X1XoX1X5X2X{.&X1X].&X1X1X2XoX.XoX1X<X3X{.&X1X=X5X&X*X4X6X].<X0X}.>X4XAXmX~.F.| % $ 0 q k q j k k z z q q q q 0 > 0 0 0 0 0 0 q 9 0 8 8 8 0 0 0 8 8 8 0 e 0 8 > > 8 0 e 8 8 5 6 8 5 8 8 e e 8 8 0 e e e 0 8 6 8 8 8 6 8 0 8 8 8 e 8 5 5 5 5 6 e e e 5 8 8 5 5 6 8 8 0 = k ` - , e r r X     w w 8 > 0 0 e * ..eXf.<.K.=.o l r r e e r 0 0 0 q 0 7 0 0 r z l r Q N KXKX",
"KXKX)   + 8 = = = 5 8 5 5 8 8 8 0 5 7 = 3 4 e . a.U.d.=.; 0 r 8 0 q X       w 8 9 0 + ` q > 0 @ + 5 0 6 + 5 5 e + 5 5 6 8 e 8 5 8 8 8 w 0 8 6 5 8 8 6 5 8 e e e 5 6 8 8 5 8 8 8 8 6 5 e 0 6 5 5 6 8 e 8 0 8 8 8 = 8 0 8 6 5 8 e 7 6 r 0 0 7 7 0 8 0 > > 9 0 > r 9 q k q 9 q 9 1 0 m q N m t r $ s kXVX'.=X*X)..X1X6X1XoX+X1X&X<XoXoX1X1X&X1X1X_.=X{.[.+X&XoX1XoX2XoX&X.XoX&X.XoX+X*X}.&X6XoXoX5X=X;X2X*XqX<X6X+X@X+X@X1XZXVX-X(.*.i % p t r 8 z k j z < 1 q 9 q q q q N l q q l 9 0 9 q l q q q 7 1 < q t : : 3.~.BX4X5X4X>X<XoX*X].*X2X&X{.).].1X[.oX[.*X+X[.oX.X].XX*X[..X5XoX&X=X[.].&X1X1X&X>X_.}.{.3X<X3X4X*X`.*X7X&XXX1XXX>X.X7XVX~.S.3.v $ < q k 0 0 0 0 l q < q 0 q q z q 0 < 9 q q 0 > > 9 0 9 9 0 8 > 0 t r 0 & 8 & > 6 8 8 5 5 8 8 5 w 8 8 e w 6 8 0 6 0 e 8 5 5 w r = 5 6 5 8 6 w 8 5 5 5 5 5 0 e 0 e 8 8 6 8 e 8 e 8 + k ~ o 0 8 8 r X     4 w > > 0 0 8 o Z J.>.2.wXu.$ r l r e t 9 > 0 r r e 0 r 9 r 9 q q R N KXKX",
"KXKX) @ + = = - 5 7 7 5 5 5 5 8 e 8 = = 8 e e . =.z.d.-.o 5 0 9 l r @     @ 0 8 r 0 o _ t > > > 5 5 8 6 5 8 8 8 6 8 e e 0 8 5 5 e 8 8 6 5 + 5 8 5 8 0 8 5 8 e e e 5 8 e 8 8 r e 5 e 0 6 5 5 5 8 8 6 5 6 8 0 e e 8 5 8 r r 8 5 8 = 5 0 0 0 7 = = 0 + > > 0 0 0 q q r 9 0 q m q > d q 1 9 N q N $ v zXVX'.'.1XoX>X+X}.}.*X+X.X*X1X.X<X2X&X}.*XoX1X&XoX1X+X2X&X[.XXoX*X&X[.1X[.[.1X1X6X{..X<X@X1X2X.X'.@X_.XX6XoX[.oX[.@X[.@X9XNXMX#XF.s % p G r 0 1 k 1 f q N 0 < 9 q q 0 q 1 0 k q r q q q q q k N q q N t ; ; 5.~.8X=X&X*X4XoX<X2X1X].2X1X5X1X2X*XoX&XoXoX=X].*X2X&XoX*X1X1XXX1X[.2X1XXX2X*X].*XoX1X6X{.qX{.{. X6X*X*XOXoX4X*X*X1X+XXX>XMXjXD.D.} % , r J e N r N q q q q k z 0 0 0 0 0 9 < < q 9 r 0 0 0 0 t 8 0 0 0 0 8 8 8 & 6 5 8 6 5 5 6 8 5 5 8 8 0 w 8 5 8 8 e 8 5 6 8 0 6 8 8 8 8 8 8 8 8 0 r e 8 8 8 5 8 5 8 e r e 8 8 = = q ! ; 0 t 8 r X     8 0 < 0 0 + w . Z J.1.>.tXa.$ N r z w 0 > 0 t 0 r q 0 r r r 0 q 9 T L KXKX",
"KXKX) o = = = = - = = 5 5 8 8 4 5 5 = = 6 5 8 . q.U.p.-.: l f 0 r r @       0 8 0 0 o Q 9 > w 0 8 8 e 8 8 8 8 6 5 0 e r 8 6 8 r w 8 8 8 6 = 5 5 + 8 0 6 5 5 8 8 8 5 8 e 8 6 8 6 6 8 8 8 5 e 8 8 8 0 8 8 0 e e e 0 6 6 8 e 6 5 5 5 8 7 = 5 0 7 7 0 8 0 < 0 9 0 q q k 0 < < q N q 9 < < q q q N ; s kXVX=X7X5X@X@X4X*X*X1X7X*X[.{.1X&X=X+X*X1X&X.X1X2X2X[.&X.X].1X1X1X*X1X8X6X&X*X1X.X6X2X[.XXoX+X4X4X6X@X.X=X{.<X}.>X>X>X@X[.3XBXVX#XG.} % : k k q r r f 8 0 0 q 9 q 9 0 0 9 0 9 q q q N l q 9 q k k m d 9 d 2 2.#XBX&X'.OX+XoX1XoX2X*XoXoX*X1XoX&X1X2X*X1X4XoX}.1X&X1X1X*X5X1X&X&X2X2X1X2X*X*X2X4X3X].}.{.qX XqX<X=X=XOX.X&XoX=X1X+X1X>X>XBXmX~.D.| # : 0 w N t k q q q 0 k q 0 < 7 < 0 0 0 9 q 0 r 0 0 0 < t 0 0 0 0 0 8 0 0 0 0 e 8 8 8 8 e e 8 5 6 5 8 8 5 6 8 8 e e 8 6 8 8 = 5 8 8 8 6 5 5 8 5 6 w 5 6 5 5 8 6 6 e e 8 6 8 8 > q W - > 0 > e       4 w 0 0 l 4 8 $  .K.2.1.L.=.X r 0 0 w r 0 0 q 9 0 0 0 z l r 0 q 9 U B KXKX",
"KXKXR o + + = 7 6 = = = = 8 5 + = = 5 5 3 8 8   ..K.i.q.; l J r q r @       0 8 8 0 X ~ 9 0 r 9 8 e e e e 8 8 8 8 5 = 5 8 8 8 8 6 8 e 8 8 8 6 8 6 e e 8 5 6 6 8 5 5 6 8 e 8 e 0 0 8 8 5 8 e e 6 8 8 8 w 8 6 6 8 8 8 5 5 5 5 8 8 6 5 = = 7 0 0 0 0 8 9 0 < 0 0 9 < 9 < 9 9 < q N 1 q 9 q q 9 N : o.zXCX|.`.XXoX1X+X+X1X&X+X+X[.3X1X*X*X*X1XOXoXoX&X[.*X1X2X5X&X}.&X+X[.[.].oX&X1X&X[.&X1X2X1X[.}.>XqX>X>X;X;X;X2X<X3XqX>X<XoXXX4X8XVXjX!.4.v : 2 f r H r > 9 L 1 k N k k m q q q q q q q q 1 q k - k m t 9 m : *.~.MX+X*X>XoX[.{.}..X2XoXXX|.[.2X.X{._.].oX+X1X1X&X+X1X[.{.*XoX_.].].[.oX].].*XoX@X7XOX6X5X{.<X X<X&X[.oX=X*X*X=X=X+X}.<X3X3X9XMX#XD.4.c # M t t q q 1 1 < 0 0 0 0 0 9 0 9 < 0 9 0 9 0 0 0 8 0 0 0 8 8 > 8 0 0 0 8 w 8 8 8 8 0 e r 8 5 8 6 = 5 8 5 8 e e e e 8 6 e e r r e 8 5 5 e 5 5 8 8 5 + 6 8 8 8 0 8 = 5 8 0 > k ! < 0 0 3 e .     6 w 0 < 5 0 w . b U.2.3.L.q.; l 0 e w r 8 0 r 0 0 e 8 r r r q l z Q Y KXKX",
"KXKXU   + + = 5 0 8 5 5 5 4 8 5 8 5 6 - 8 + 8 . 8.Y.k.q.$ r N q 0 r O       0 5 > > + _ q > w 8 8 w e w 8 w e e e 8 6 w e e 6 + 5 0 e e 8 8 8 8 8 e e 8 5 8 w e 5 8 5 8 e e e e e e 8 6 8 e 8 5 6 e e 8 8 5 5 5 8 w 5 5 6 8 8 6 5 0 0 8 = > 0 0 9 8 0 > < 0 0 q > 0 9 l q 1 q q q q l k q 0 N ; i zXVX[.=X*XoXXX1X[.{.[.oX2X*XoX[.&X*X&XoX}.1X2X}.1X<XXX*XoX[.oXoX1X1X5XoX&X1X5X&X2X[.=X1X[.+X6XqX}.qX@X;X'.=X=X;X<X>XXX@XoX+X}.=X8XNXmX~.S.} y ; r S 0 N 9 , N < < q 9 q q q m q 9 , 1 q 9 q k k k N N l p : >.(.7X.X&X+XoX1X1X<X+X2X[.1X2X2X*X2X5X<X2X1X[.&X1X[.XX2X*XoX&X5X1X1X&X[.*XXXoX0X1X+X+XOX-X3X{.<X{.].3X1X1X5X=X*X2X+X*X'.oXqX}.3X6XAX$XD.S.b * , t d d 1 , < k 0 q 0 k r q 9 0 < < 0 0 9 t 0 0 0 8 9 8 & 8 & & 8 9 8 8 5 5 5 6 8 8 e e 8 6 5 5 8 8 5 6 8 8 8 8 8 0 8 e w 6 5 5 5 8 0 e 5 8 e 8 5 e 5 6 5 8 6 6 8 8 > > k ~ < 8 r 0 r X     4 w > > 0 l 8 . X.Y.k.3.Y.q.X q 0 r t 0 0 0 r 0 r 0 8 0 9 r 9 k t U L KXKX",
"KXKXU X = = - 5 5 5 5 5 = 8 8 8 5 5 8 = 3 3 8 . 8.J.z.=.$ z r 9 q q +       w 8 > & X ` r > > 0 0 8 8 8 5 6 0 e 5 6 0 e 8 5 5 6 = 5 8 8 5 8 8 5 0 e 8 5 = 6 8 8 8 0 8 8 8 w 8 e e e 8 8 8 8 8 8 8 8 0 w 6 8 8 8 e r e 8 8 8 8 5 5 6 0 7 = = = > 0 > 9 > 0 9 0 9 q 9 < 9 q > q k 9 k q q m 0 q $ i zXCX=X=X=X@X>X5X<X*X2X+X1X2X_.[.oX.X{.&XoX1X1X4XXX[.oXXX6X6X&XoX&X*X5X&X1X1XoX+X&X*X6XoX}.1X1X3X3X>X1X;XOX=X=XOX*X*X@X.X>X1XXX>X>X<X9XNX%XD.*.i : 1 q 1 1 g 1 > 9 9 < 9 < 0 9 q k m N q q 1 < k k < q 9 ; $ 2.~.NX&X&X+X+X1XoX1XoX*X[.oX1X&X[._.&XoXoXoX&X2X*X2XoX1X*X*XXX1XoX1X2X&X1X1XoX2X*X1X+X1XXXXXoX<X&X}.5X1X<X<X+X&X+X4X8X3X X3X1XoX4X.XNXMX~.S.| s # : g d 1 m q 0 z 0 0 0 7 0 0 0 q > 0 0 0 0 0 > > 9 t 0 9 8 > 0 0 8 0 6 6 8 8 8 8 e e 0 6 5 e e e 8 8 6 5 8 6 8 w 5 5 = = 5 + 6 0 6 e 8 5 8 e 0 e 0 5 5 6 0 8 8 8 8 + q ! > = e r r O     4 w 8 = r D 6 $ ..d.2.2.R.q.X e e l r w 0 0 q 9 r r > 7 r r r q 8 Y N KXKX",
"KXKXU + 8 5 = = 5 5 5 5 + 5 & 3 + 5 5 = 3 + 5   8.l.J.-.; e t t 0 q X     @ w 8 0 < X ) r > 8 8 e 8 8 8 5 5 8 w + 5 6 8 5 5 5 8 5 6 8 6 8 5 8 6 6 w 8 8 8 8 8 8 8 6 e 6 6 8 e 8 8 8 8 6 5 5 6 8 8 5 6 5 8 8 8 0 6 8 8 e 0 e e 8 e 8 = 0 0 7 0 8 8 8 0 > > 0 0 0 q 0 > q 9 < q q q q l q N 9 N $ i zXVX X&XoXOX[.*X*X2X2X.XOX0X&X&X1X1X&X1X1X1XoX_.oX.XoXoXXX+X1X2X&XoXoX.X&X1X1X<X[.oX1X1X5XoX].}.{.}.XX&X&X*X'.&X2X=XOX4X6X>X1X@X{.{.qXAXNX%X^.S.v $ p m 1 r N q m k q q 9 < 9 q q q k m q q q k l m N 9 1 : 2.~.NX=X*X+X.XXX}.=X[.+X1X}.'.[.&X1X1XoXXX&X1X&XoXoX_.|.oX<X+X*X.X].&XoX&X&X].oX.XoX1X4X1X+X4X*X1X*X1X{.[.<X2X3X[.OX1X&X{.3XXX).,X6X@X6X7X%XD.f.s % ; 1 d q q 0 k 0 z 0 0 q q 9 q 9 0 0 0 8 9 8 0 r 0 0 0 8 8 8 r 8 6 8 8 6 6 8 5 8 w 8 8 e e e 0 w 8 0 8 8 8 5 5 6 5 5 8 5 6 8 0 5 0 8 5 6 e 8 8 8 8 8 w 0 w e 8 0 > q ~ - + t e 0 .     3 w 8 > - r 8 $ X.p.<.>.R.-.o r e z w 0 r 0 e 0 r z 5 0 0 l q r < J KXKXKX",
"KXKXR + = 5 5 - 0 = 5 5 4 + 3 5 = 5 5 5 8 4 8 . q.U.J.q.; 0 0 9 9 r X       e = 8 0 o ! 9 8 9 4 8 6 8 e 8 8 8 8 e 8 5 8 e e e 0 8 8 8 0 8 5 5 8 5 8 8 8 e 8 8 e 5 5 e 8 5 8 e e 8 5 5 5 5 8 8 8 5 5 5 5 6 5 8 5 5 = 5 w e 8 e r r 6 5 8 0 7 8 8 0 8 0 > < 0 0 < q 9 > q k 9 0 < q k d k q q N $ v zXCX'.XX=X1XXXXXXX.X.XOX*X2X1X1X1X2X1XoX*XoX<X8X2X1X6XoX=X1XoXoX{.&X*X&X[.&X1X1X*XoX_.*X2XXX2XXX5X5X6XoX>X+X<X&X&X X X<X+X@X*X@X1XoX`.].9XNX$X!.G.| * : m 0 0 0 9 q 1 q q q k q 9 1 0 9 q q k < k l f q , % ;.(.mXOXoX@X].+X1X2X3X&X1XoX5X6X&X*XoXoX1X2X1X.XXX&X2X1X1X&XoX*X<XoX1X1X2X1X*X1X<X XqX}.oX*X7X+X+X+X@X<X+XoX&X1X1X&X<X5X1XOX*X$X@X@X>X>X9XNX%XD.S.n p : : 1 1 q q 0 z 0 0 0 0 q 0 r 0 r 8 8 0 0 0 9 0 8 8 8 8 0 0 0 8 8 5 8 8 6 5 8 5 5 8 e 0 6 0 8 8 8 8 8 6 5 = 0 8 5 6 8 6 = 5 8 5 w e 5 8 8 5 6 8 8 8 8 8 6 8 0 + k ~ , = 0 r 0       5 0 0 0 0 0 3 . X.U.k.:.U.=.. 0 0 0 w r 0 9 r 0 9 r = 0 0 r q r 9 U KXKXKX",
"KXKXT @ + + = = 5 - = = 8 8 8 8 8 5 8 5 8 5 8 . ..l.d.-.; 0 t 8 l l O       0 + > 9 + Q 9 0 0 O 5 5 8 e e 8 8 8 6 5 5 8 5 5 5 5 8 6 8 e 6 = 5 8 6 5 5 6 8 e e e 5 5 e e = 5 8 5 w 8 5 5 5 8 6 5 0 0 8 8 w 0 8 5 6 5 5 8 8 5 6 e 5 0 0 0 8 - + 8 0 0 0 < 0 9 0 0 k q 0 9 q < 1 9 q m q 9 9 < r o v kXmX=X1X+XoX>X+X1X2XoX1X2X{.<X&X[.oX&X.X*X=X6XoX&X&X2XoX{.*X1X.XoX2X2X2X&X1X2X*X1X&X1X*X1X5XXX;X5X=X1X{.>X{.>XqX[.<X<X&X1X7X@X1X4X,X+X>XoX6XAXMX%XG.4.i $ 1 d q k k q q q < 1 k q q k k q 1 q k 1 q N f , : 2.~.8X=X1X4XXX[.<X6X.X_.+X*XoX1XoX&X&X*X.X=X5X1X5X1X1X[.[.&X6X2X.X5X.X[.[.[.*X&X[.{.<X{.&X5X.X+X*X1X[.<X&XoXoX[.XX1X<X'.[.mX;XOX-X>X>X>X@X4XNX;X~.F.X.: $ : m r 0 0 0 0 < q z q r 0 8 r 8 8 0 8 8 0 0 > 8 9 8 0 0 e 8 5 5 5 5 e 8 e 5 O 8 0 6 5 w 0 6 6 8 8 8 8 8 r 6 5 8 8 8 6 8 e 6 e r 0 5 5 5 6 8 e 8 8 5 6 8 8 - 1 &.0 > 0 8 0       5 8 0 q 8 4 0 & Z Y.3.3.wXq.. e 0 0 w e 0 9 r 0 0 0 5 0 0 e q r q L KXKXKX",
"KXKXU o + = 8 8 < + + = = 0 6 = + - 6 5 8 3 8   ..h.p.X.: q 0 0 0 q 3       e 8 8 0 X Q l < 9 5 5 e 0 e e 8 w 8 8 8 6 8 8 e 8 5 = 6 e e 6 5 5 5 8 8 6 8 5 8 6 8 = 5 8 6 8 8 5 5 0 5 5 5 5 8 6 5 e e e 8 8 8 8 8 0 0 e 8 5 8 r e 8 8 0 7 0 = 0 7 0 r 9 0 q 0 < 0 k 0 0 0 q q q q N 1 < < = 1 l ; v kXCX5X=X=XoX>X0X*X.XoXoX1X[.XXoX*X*X&X1X1X}.*X].[.[.[.+X1X1XoX1X*X1X&X&X6X2XoXXX1X*X5X1XoX.X}.=X*X1X1X[.<X+XXX<X1X[.2X[.*X]..X<X*XOXOX4XOX[.1X9XAX%X(.F.} h h 1 k k k 0 k > q < 0 z r 1 , 1 1 k k k N r d y 2.~.BX=X&X_.OX=X[.oX&X&X*X[.}.&X3XXX2X1X1X&X}.].}.&XoX1X*X&X1XXX&X&X&X1X6X=X}.1X&XqX<XoXoX*X5X*X1X5X1X&X&X1X1X&XoX&X1X2X@X=X@X4X*X1X1XXX1X*X5XNXMX:XG.s.v $ 2 t k z q q , q > 6 0 9 9 9 9 0 0 0 0 0 9 r 0 0 8 8 r 0 6 8 w 5 8 8 6 0 8 8 6 5 5 + + 8 e e e 8 5 8 6 6 0 8 8 8 0 w 8 8 6 6 0 e 8 6 8 5 5 8 5 5 5 8 5 5 + 1 %.< 0 r 8 q X     6 w 0 9 0 0 8 $  .l.} <.wX,.o 0 0 w r 0 r 8 0 0 0 7 0 0 8 0 9 0 > L KXKXKX",
"KXKX) @ + 5 & 8 = = = 5 5 - - 5 + + - 5 8 3 w . 8.J.l.=.; l r r q r o       r 8 = > X R r > w + 5 8 6 8 5 5 8 e 8 6 5 8 6 8 5 5 8 8 8 8 8 8 8 e e w 5 5 5 5 8 8 5 5 5 6 8 0 w 8 8 5 5 6 8 8 8 8 6 5 5 5 6 8 6 5 5 5 6 8 6 8 e 8 8 e 0 6 0 0 0 0 0 0 0 9 q 0 9 0 q 0 0 r q 9 1 q q t r m q k l ; i kXCX=X&X*X*X].+X[.1X=X1X[.1X6X1X*X*X2XoX&X<XoX4X*X*X1X1X*X*X2X=X&XXX{.|.XX&X1XXX=X2X}.&X.X2X2X*X=X{.oX&X1X<X&X+X6X&XoX}.1X1X5X&XoX@X;X-X+XXX&X|.9XAXmX~.G.3.h ; ; j 9 l l 1 < < q q k q 1 q d 1 < 9 q 9 p y 2.~.7X&X.XOX.X*XoXXX1X&X*X1X*XoX[.XX*XoX1X*X*X4X5X&X.X2X6X1X1X{.&X1X*X[.oX&X+X2X*X1X&X&X1X2X*X&X'.+XXX&X1X5X2X1X*X|.[.1X1X&XXXoXoX=X&X>X1XoX.X8X9XBX#X^.5.b : $ t r q 1 ; 0 r 0 - 8 0 0 0 9 0 9 r 8 r 0 0 0 8 8 0 5 5 8 0 0 e e 8 5 8 8 e 8 8 8 e e e r e 8 5 5 8 = 8 6 5 w e 8 8 8 5 8 0 8 8 6 8 6 8 0 6 8 0 e 8 8 + j &.> 8 r 0 0 O     8 0 0 9 e 8 4 $ X.L.,.2.wXp.; J r 5 8 e r 8 e z r e r r 0 r l r 0 U KXKXKX",
"KXKX) o + + + 8 = 8 8 6 5 = = = 8 8 = 5 4 8 w . =.U.J.8.; q 0 0 l q +       r 3 > < o R t > 0 8 5 6 = 5 5 6 e e 8 8 6 5 8 5 8 6 8 8 5 8 8 e e 8 0 8 8 6 5 8 8 e 8 5 5 8 e e e e 6 5 w 8 e 8 8 e 8 5 5 5 8 8 6 = 6 5 8 e 8 8 8 5 6 e 0 0 5 7 0 0 0 > 9 t 0 q r 0 q 9 q q 9 q q q q q q q q 1 0 o s zXVX_._.oX>X`.<X>X.X5X1X1XXXoX}.=X].oX*X&X*X+X1XoXoX*XoX[..X*X&X&X1X6X1X1X*X&XoXXX2X[.2X5X1X&X6X*XXXoX*X.X[.XXoX1X1X&X[.&X&X1X<X&X&X5X-X4X-X&X6X}.[.BXCX/.(.6.v : , t r 0 r r q r q k k q q 1 < 1 q q 9 2 2 2.~.MX1X=X4XoX&X&X[.oXoX&X*X1X5X+X&X1XoXoXoX}.[.oX1X&XXX_.[.1X&X+X+X2X&X*X1XoX{.].oXXX1X&X1X*X5X2X{.+X<X&X[.].[.&X*X=XoX[.&X&X1X1X&X.XoX+X*X}.[.*XBXBX,X^.G.*.h # g 0 , q l 0 0 z 0 8 0 0 < 0 8 8 0 9 r 0 8 0 8 t 6 8 5 8 e e 8 5 6 8 e e 8 6 6 8 6 8 8 e 8 5 8 e 5 5 5 5 6 8 6 5 8 5 8 6 8 5 8 8 8 r 8 6 e e 8 e 8 + q ~ > 8 r 8 e .   @ 4 0 0 0 0 0 8 o X.T.1.-.K.;.X P r 5 5 r t 8 0 r r r r r r r l r < K KXKXKX",
"KXKXR X = = + + 8 5 = - 5 7 - + 8 & 5 = 6 5 8 .  .z.p...< z l r l r +       r + > 0 - Q q > 0 0 8 e 8 8 0 8 e e 5 8 8 8 8 5 8 8 5 6 5 8 0 w 8 5 6 8 8 e 8 8 6 5 e 8 5 8 e 8 8 e 5 5 0 w 8 6 0 e 8 8 e 8 w 8 8 8 8 5 w e e 8 8 6 8 e 8 0 = 0 7 0 0 8 < 9 0 q q 0 0 0 q q 0 q q 1 k m q < 0 k q ; a zXVX=X*X1X1X+X1X<X&XOX>XoX6X2X*X0X&XoX1X*XoX&X[.=X&XoX{.=X<X&X1XXX*X.X5X*X*X].oXoX.X[.&X2XoX[.*XoX&X=X2X{..X&XoXoX&X1X1X=X.X}.<X&X{.&X.X=X=XoXXX*X+X>XBXBX$X(.F.} : $ q l r r f r m q k k q 1 N m m N f p 2 s.~.0X-XXX*XOXoXXX1X&X*X*X_..X2XXX}.oX&X1X1X+X&X5X].*X2X.X}.*X&X&XoX&X{.oX+XXX+X1X1X1X1X[.@X}.[.*X5X1XoX.X&X2X1XoX0X1X1X1X2X1XoX[.2X{.&X&X9X1X&X1X X8XBXCX~.(.1.b % , q < 0 0 0 7 q 9 < 0 9 0 0 8 0 0 0 0 0 8 8 0 8 e 5 5 8 6 5 5 8 8 8 e e 8 5 5 5 + 5 e 0 6 8 8 5 8 5 5 8 5 5 8 5 5 8 0 8 6 8 8 8 e 8 5 e 8 6 e t = j ~ + 5 9 8 e   @   w 0 0 9 5 0 e $ ..eXp.:.K.-.o G S 0 0 r e 8 0 0 7 0 q 0 q l q 0 > K KXKXKX",
"KXKXU X = = + + + = + = = 0 7 = = = 5 = 3 3 8 . 8.J.a.=.; e 0 8 l r O       D 3 8 0 + Q 9 = 0 3 e r 8 e 8 5 8 5 6 8 8 8 8 8 w e 5 = 5 8 6 8 8 5 5 6 8 8 8 5 5 + e 8 6 8 6 8 6 8 8 8 8 8 5 5 8 0 8 e e 8 6 5 8 8 8 6 8 e 8 6 8 8 6 0 = 0 7 0 0 0 0 0 0 8 q q 0 0 0 0 9 0 < q k q q N q k k k k ; s kXVX;X;X=X@X1X1X2X4X*X1XoX1X[.1XoXoXoX_.<X2X2X[.1X1XoXoX2X1X*X1X<X2XXX*XoX1X*X5X6X1X6X1XoXoXoXoXoX1X=X1X&X&X1X1XoXoX*X1X1X&X+X{.>X[.}.{.&X{.=X*X+XOX+XXX0XAXAX%XQ.4.j   < N r f d q 1 1 j 0 z j j 1 q 9 : % 3.~.MX=XXX.X+X=X&XoXoXXX&XoX+X1X1X*X1X5X1X3X&XoX*XoX*X2X6X2X*X*X5X1X[.[.&X&X&X1X1XoX[.[.1X*X1X1X1XoX*X1X1X&X*X*X*XoX[.oXoXoX*X*X6X1XoX1X}.*X.XoX<X X}.*XBX9X:X(.S.o.i % > k 0 e 5 0 > > 9 q q r r 0 0 9 0 0 8 8 0 8 8 5 + 0 w 8 8 8 8 0 e w 8 8 e 8 5 5 e e 8 6 5 5 e 8 6 5 5 8 0 6 w e e 8 8 8 8 5 e 5 5 8 5 = 8 0 = j &.> 8 9 8 0 X     8 9 0 0 + + 8 o o.U.p.<.K.p.o G S e 9 0 e 0 0 0 5 5 0 0 r q 9 r 0 L N KXKX",
"KXKXU X = > = > - 8 8 = - = 5 5 = = 5 5 8 4 w . =.l.p.-.1 r N l r 9 O     @ e 8 + < o Q r & 8 5 e r 8 e e 5 8 6 8 5 5 8 w e 0 8 5 5 5 5 6 8 e e 8 8 8 8 8 6 5 5 e 8 8 5 5 8 8 8 e e 8 5 = 6 8 8 e 8 5 8 0 e 8 6 e 8 8 0 8 8 e 0 5 7 = = > 0 0 7 0 r < 8 q 0 > 0 q 0 9 0 0 q q 9 , q q q 0 q q o s zXmX'. X{.OX@X}.&XXX4X+X6X1X{.4X1X2X1XoX1X[.&X&X1X<XoX=XoX&XoX_.+X<X&X{.oX[.oX}.[.XXXX5X[.2X1X1X1X*X&X1X<X&XoX&X&X*XoX&X1X1X1X{.1X<X{.3X<X=X2X4X+X.X+X}.|.}.9XAX$X(.4.c o ; q t 1 p , 1 q z k < k 9 q f , ; 2.(.NX-X=XOX4X*X&X&X6X1X&X3XXX[.1X1X*X+XXX+X&XoX&X1X.X}.[.oXoXoX&X1XoX1X6X*XoX1X[.5X[.&X6XXX*X1XXX1X1X&X&X1X2X<X+X&XoX1X1X&X1X.XoX2X1X6XXXoXXX[.&XqX X=X2X3XNXBX~.R.| % : q > 8 e 0 = + > 0 0 e 9 8 r 0 8 8 8 8 t 5 6 6 8 e e 8 8 + 6 e e 6 5 8 e w 5 = 6 8 8 5 8 8 8 8 8 8 6 5 e 8 8 e 8 6 8 8 5 5 8 5 5 8 5 5 8 8 + j ! = 8 r 0 q       4 0 0 9 e r r * X.U.,.,.j.a.. z e w 9 0 0 0 z z 0 0 0 0 r r r q q U J KXKX",
"KXKXR O + + + > = 8 6 5 - 5 = = = = 5 5 8 4 w   ..z.p.=.; 0 l 0 q 0 @       r 8 0 0 - R q = 0 5 6 e 8 e 0 w r e 8 5 5 5 6 0 0 e 6 8 6 8 8 8 0 e e 0 e e e e 8 0 8 8 8 5 6 8 e 0 0 e 8 5 5 8 8 6 e 8 6 8 e e 0 8 8 w w 0 8 e e e 5 5 = 7 0 0 0 7 0 0 0 0 0 < > 9 9 0 q k q 9 q q q q m r q k l ; i zXCX=X=X2X*X+XoXoX5X.X@X_.oX*X}.=XoX+X1X1X_.&X1X+X&X1X1XoX+X<XoX&X.XoXoX1XoX1X2X1X+X}.&X[.*X&XoX&XoX&XoX&X1X*X.X<X<X&XoX&X&X&XoXoX<X{.3X X&X1X.X;X-XOX6X1X}.qXqXAXmX~.2.c 2 ; 1 q t 1 1 1 k z 7 j = 0 d : $ 2.~.BX-X=X+X=X&X].].1X+X=X*XoX*X2X*X1X1XXXoX&XoXoX+X1X5X2X*X&X1X1X&X*X2X*X[.oX*X*X1XoX&X1XXX}.oX&X[.[.XXoXoXoXoX*X6X&X=XoXoX2XoX*X[.[.*XoX&X&X&XoX7X*XOX=X;X;X8XVXjXQ.*.c X 0 7 5 0 0 < 0 0 0 0 r 8 0 0 8 0 0 8 9 0 8 8 0 8 w 8 6 5 6 8 8 8 5 5 5 5 6 = 5 8 8 8 5 6 8 6 8 e 8 5 6 5 8 8 5 6 6 8 8 8 8 8 8 w 5 5 6 8 + 1 ~ 8 8 r e 9 X     5 0 0 < 8 8 8 $  .J.| *.K.k.o G r e 9 0 0 w 0 0 0 0 q 8 q r q r 9 E J KXKX",
"KXKX) X + o + 8 = < = = 5 8 8 - > + 5 5 8 3 8    .z.p.=.; r J 0 q 0 @       r > 0 0 o Q q = 8 5 5 e e e e 8 e e 8 6 5 5 5 0 e e 8 5 5 8 6 8 5 5 6 8 8 e e e e w 5 e e 5 5 0 e e 6 8 5 6 8 e 8 6 6 8 8 8 8 6 8 8 5 8 e 0 6 e e 6 8 5 0 7 0 = 0 8 0 8 q 9 > 8 q 0 0 0 q l q 9 q d q q q B q q k $ y zXCX'.'.&X=X1X5X{.=X4X1X1X}.[.1X1X[.2X*XoX+XoX[.[.+X1X1X&X&X1X*X1XoX&X1X&X+X6XXX*X2X&X+X1XXX&X[..X&X1X]..XoX&X&X*X+X1X*X&X&X1X*X.X*X[.&X}.*X&X*X-X7X-X+X+X3X<XqX>X9XZX/.n $ 2 1 q d d q 0 k z j j < 0 f p % s.#XBXXX`..X.X<X&XoX}.oX1XoX1X6X_.].=X5X&XoXoXoX<X&X=X*X1X*X{.[.+X].&X*X[.oX1X=X[.&X1XXX[.0X1XXX8X5X&XoX1X5X1XoX_.oXXX1X*XoX1X_.}.1X1X2X6X&X&X*XoX@X*X*X1X=X=X=XMX7XjX!.2.: < 6 7 z 0 0 < < 8 0 9 0 0 & 8 0 t 8 0 e 6 8 0 5 6 e 0 0 5 + 5 e r 8 5 5 8 8 8 6 8 5 5 8 8 8 8 e 8 = 5 8 0 8 5 5 e r r 8 6 e e 0 6 8 8 w + 1 ~ & 0 e 0 e @     4 0 0 0 r e 8 $ ..Y.,.s.tXz.. K G S 0 r r 8 6 0 e r l r r r l l 0 U N KXKX",
"KXKXU X + 8 + > + = = 5 - 6 5 7 & > = 5 3 3 4 . 0.a.-.-.1 0 G 9 l q O       D 8 8 9 + Q 9 > r 8 e 6 = = = 5 8 8 8 8 8 6 5 5 8 8 8 8 5 5 0 8 8 5 8 5 5 5 0 e e e 6 8 w e 8 5 5 8 = 5 6 8 8 8 8 8 8 6 8 8 6 5 5 e 8 8 8 e 8 8 8 r r e 5 5 5 = 0 0 0 0 0 < > 0 9 r 0 0 0 9 9 q k q q q 9 < k l k o h zXCX=X*X&X@XoX[.{.4X+X1X5X6X1X&X{.=X+X[.&X6X1X1X1X&X[.[.oX&X5X+XoX&XoXoX*X&XoX1X|.oX1X1XXX1X2X1X1XoXoX[.oX[.&X&X*X[.1XoX1X1X[.4X.X4X1X1X1XoX[.=X4X=X.XOX*X;X*X1X5X.XNXFX5.$ 2 < 7 j k l t 0 k j m m t t 1 2 s.~.8X=X=X;X*XOX&X2X1X]..X*X1X[.&X2X&X1X[.1XoXoXXXoX{.]._.*X&X*X2X1X*X6X&XoX*X6X{.oX1X*XoX].=X5X}.&X6XoXoX_.|.1X*X&X8X&X.X*X*X1X&XoX&XoXoX&X1X2X*X4X;X+X}.=X7X%X;X7XNXCX^.c X 7 z 0 r < > 9 8 & 8 0 8 0 r 0 0 0 4 0 e e 8 6 5 6 8 8 8 5 8 8 e 8 5 8 e r e 6 5 5 8 8 8 e 6 5 5 5 + 8 6 8 8 8 5 8 e 0 8 8 0 8 5 6 8 0 = 1 ~ = w r 9 0 o     3 t > > 5 r 5 . o.h.-.>.K.x.X 0 e w r r e r r r r z r r l r r 0 > L N KXKX",
"KXKX/ o = + + 8 + > = = 7 5 = 5 5 = + 5 O 3 8 . ..l.p.q.1 0 l r N q X       w 8 0 0 = Q r > r 8 5 5 5 8 8 6 6 8 e e e 0 8 6 8 6 8 5 6 8 8 8 6 5 5 5 8 8 8 8 5 8 0 0 e e 8 5 5 6 5 5 5 8 8 6 8 8 5 5 8 8 0 5 5 0 6 8 e e 8 6 e e 0 e 7 0 0 7 0 0 5 0 0 0 0 > 0 < > > < 0 0 q N q q k m q q < k ; s zXVX&X=X1X-X1X[.[.=XoX*XXXoX{.oX&XoX&X1X1X.X_.1X=XoX&X1X2X1X[.oX[.2XoXoX6X[.&XoX1X1X&X&X[.=X1X&X1X1X1X2X6X1XoXXX=X[.oX&X+X1XoX4X1X4X*X.X+X*X&X1X=X&X=X4X4X-XOX4X6X*X*XFXK.o < 7 z z < t S 1 1 j k q f d 2 : 3.~.MXOX&X-X*X[.&X&X&X&X1X6X1X&X&X1X&X1XoXoX*X<X2XoX6X0X1X*X1X1X<XoXXXXX&X2XoX.X&X&X&X1X2XoX.XoX[.&XoX+X5XoX[.2X=X[.1X[.}.oX[.1X&X1XoX[.+X=X[.oX@X.X.X+X1X].OX;X-X{.>XAXDX} . r 6 8 > > 0 9 0 0 0 8 & 8 9 8 > 8 5 5 5 e e 8 8 8 0 e e 8 6 8 e e 6 8 e 0 6 = 8 w 8 8 6 8 8 8 0 0 8 5 5 6 8 8 6 e 8 e 6 8 6 8 6 0 w 4 + 1 &.& 0 w 8 0 X     + 0 > + 0 0 + X ..U.1.<.K.d.X e e e 0 0 r S e 0 0 0 0 0 l r q r 0 U B KXKX",
"KXKX) O + > + > = = 5 = 5 - = = = = = 5 + 8 6 . 9.T.z.-., 0 r J J r O       e & 0 0 - ! r > r 8 8 6 8 e e e 8 6 8 0 e e e e e 8 6 8 8 e 8 6 5 6 = 6 e e w 6 5 8 0 8 8 w 5 5 5 8 0 5 5 8 8 e 8 0 5 5 8 e w 5 5 8 6 8 e e 8 5 6 0 5 6 = 0 0 0 0 0 8 0 q q q 0 < 0 l q r q q q q q 1 q m q q 9 k ; h kXmXXX=X&X+X>X<X{.oX.X1X<X1X&X*X6X1X&X1X1X1X5X+XoX1X2XoXoX1X*X[.=X+XoXoX&XoX].2X[..X[..X6X&X[._..X*X&XoX[.oX2X+X1X1X&X6X&X*X&X1XXX.X4X5X*X+X=X[.{.&X3X;X*X{.[.>X@X|.%XDXF.o , 7 z k < f d q j j 0 q d d : $ 1.~.BX;X.X'.OX&X<X1X*X*X[.oX[.&X&X+XoX[.+X*X6XoXoX).}._..X.XoX{.=X*X*X].}.oX+XXX&X&XoXoX1X1X&X1X6X1X&X].[.6X2X+X2X].*X1X2X5X&X2X&X}.oX1X1X1X[.oX1X&X{.}.[.+X.X;X-X>X}.BXFX*.$ z 6 5 = 0 9 0 0 0 0 8 & 8 t 0 & 8 0 5 6 8 8 8 e w e 6 0 e 5 8 e 8 5 8 8 5 + = 0 e 8 8 8 w 8 8 e e 6 5 8 8 8 8 e 6 5 8 5 + 5 8 e e 0 0 > j &.& 8 0 8 0     @ + r < 8 0 w 0 $  .l.-.<.K.d.o r e r r e r e 0 7 0 r r r r r r l 9 U N KXKX",
"KXKX/ o > + + > = = = 5 = = = = 8 5 = 5 3 4 3 . X.Y.z.=.; r 0 r N r O       e 0 > 0 X Q r & 0 3 0 8 8 w e 0 e e 5 6 8 8 8 e e e 8 8 w 0 8 5 5 8 8 8 e e 8 8 8 e 6 5 5 8 5 5 5 8 e 8 8 6 6 8 e 8 0 8 8 6 8 5 5 8 8 8 e 0 8 5 + 5 5 0 = 0 0 = 7 8 8 0 0 0 9 0 0 q 0 < 0 9 1 q q q q q 9 q k q l ; b zXVX*X=X&X+X+X>X>X&X].1X+X5X&X.X<X1X+X=X{.[.oX&XoX&X&X.XoX*X*X<X5X{.1X2X*X5XoX1X=X[.5XoX&X0X1X0X2X1XXX*XoXoX[.<X1X1X&X1XoXoX&X<X&X.X4X+X).OX7X*X&XqX}.}. X X&X{.>XBXFXzX*.. 0 7 j 0 j q 1 1 m j j 9 r r : ; 1.~.9X=X=X+XoXoX*XoXoX*X&X*X*X1X&X[.&X<X1XXX=X'.XX6X&XOX1X2X&XXX1X[.*X6X5X}.1X8X1X1X1XoX[.&X+XoXoX[.oX&X2X1XXX{.1X2X1X*X1XoX[.oXXX6X5XXX[.XX*X*X[.{.&X8X@X+X4X*X-X@X7XFXlXn $ - 6 e < 0 q > 0 0 8 0 0 0 0 0 8 8 0 e e 8 5 8 8 e e 5 8 8 5 5 e 8 5 8 6 5 5 6 6 w 8 e 8 8 8 6 8 8 5 8 8 e 8 8 0 8 5 5 = 5 6 e e 8 5 w 0 j ! X 8 0 8 q @   @ 4 r 0 0 r 0 8 $ X.J.1.p.wXx.. 8 0 e 0 0 e e 0 0 0 r l G 0 9 q q 0 K KXKXKX",
"KXKX/ o 3 = + 0 = > = - 5 = = - 8 = = 5 5 5 6   ..l.d...> 0 0 0 q l o       e 0 0 > X Q 9 > w 8 6 5 5 5 5 8 0 e 8 6 5 8 8 5 8 e 5 8 8 8 8 6 8 8 5 6 5 8 8 5 5 8 8 0 w 8 6 5 5 5 5 6 5 6 5 8 5 5 e 8 8 w 6 5 6 8 8 8 8 8 8 5 = 5 7 0 7 0 0 7 0 7 0 0 0 < 0 0 0 9 > > 0 q 0 q q < m k q q k k q o v kXCX=X{.[.OX@X[.oX4XoX@X[.&XXX1X&X&X*X&X1X*X[.<X2X1X*X2X1X&X*XXXXX1X1XoXoX.X2X6X1X&X[.}.=X_..XoX5X6XOX&X*X*X[.1XoX{.*X.X&X=X&X<X<X].OX*X4X7X1X&X{.&X<X<X<X X}.3X0XZXlXs.% . r 0 5 0 k 1 2 1 m z j 0 k d : % k.~.BX;XXX+X4X1X}.oX&X*X3X*X1X*X.X2X*XoX*X5X0X1X2XoX&X2X&X1X*X1X&X2XoX.X3X*X5X*X}.[.&XoX.X&X1X&X&XXX&X&X1X+X}.OXoX*XoX[.1X[.&X&XoX&X1X*XoXoX&X6X6X&X].@X@X>X>X).@XCXFXkX3.h o 5 0 0 0 0 0 > 0 9 0 0 0 0 8 0 8 8 8 r e 6 5 5 6 e e 8 8 5 8 0 8 6 8 8 5 w e e 5 = 6 6 5 5 5 5 8 0 6 w 0 8 6 8 e e w 8 6 8 6 0 e 0 5 4 = j ~ = 0 0 8 q X   @ 3 w < 0 = 5 w : X.J.,.1.wXl.o r r r 9 0 r e 0 z r r r l 0 r q r 9 K KXKXKX",
"KXKX) O 8 = + 8 = = 5 - - 5 5 > > = = 5 3 6 3 . q.a.p.-.; 0 9 N q q O       r 8 0 0 + Q q > e 8 = 5 8 5 6 8 w e 0 8 8 6 8 8 8 e 5 5 6 8 8 8 5 5 5 + = 6 8 6 5 8 8 6 8 8 5 8 5 6 5 8 8 8 5 8 8 8 5 6 8 8 8 8 8 8 8 6 5 6 8 8 8 6 5 8 5 e 0 0 0 0 0 0 9 0 0 < 0 0 q 0 q q 9 9 9 < q q q q l 1 9 o i kXCX&X=X&X*X1X1X&X*X*X1X@X&X&X<X[.oXoXoX&X1X&XoX*XoXoX*X.X}.XX2XoXoX&X1X2XoX}.].1X1X1X.XoX0X5X_.}.{.].oX1X1X+X*XoX=X1X&X1X+XoXoX1X1X*X*X.X].[.*X&X<X X_._.3X9XZXCXQ.*.$ o , f 9 t 0 z < 1 m m j < q f r : $ s.~.7X=X2X+XOX.X=X2X<X[..X}.&X&XoX}.].&X.XoX.XoX2XoX&X1XXXoX&X1X_.*X1X*X&X.X_._.oX&X1X1X&X&X&XoX1X1X6X_._.<XoX.X[.].]..X6X&X6X2X1X.XoX{.1X1XoX[.}.=X7X;X>XoX|.mXZXDX^.*.2 $ < 0 0 r 0 0 < > < 0 0 4 0 8 > 8 0 8 0 0 8 5 8 8 w 8 8 6 = 5 w 0 8 5 8 0 6 e r r 5 + = 8 5 5 5 6 0 e 8 8 6 8 8 8 8 8 e 8 8 5 5 6 8 8 6 + + j ~ + 0 r 0 q X @   O 8 > > r e 0   i ,.>.p.R.k.o r r r 9 0 r e 0 0 z 0 0 9 r l l q 0 K KXKXKX",
"KXKXR + > 8 + 8 = = = = 6 7 = 7 & = = 5 3 3 8 .  .d.h.-.; l z r r r +       D + 0 8 + ! z > 9 0 5 5 8 8 8 8 e e 0 8 6 8 6 8 w e = 5 5 8 8 e 6 5 5 5 5 e 0 8 8 6 5 5 6 8 8 8 e e 8 8 8 6 8 e 8 8 5 6 8 8 e w 8 5 0 8 8 e e 8 8 8 + 8 8 0 0 8 0 7 9 9 9 0 0 9 0 0 > = 8 0 q 9 q q 9 q q q q < q ; s zXVXXX=X&X.X@X5X{.[.OX+X&X&X&X=X+X*X1X&XoX.X[.6X*XoXoX1X2X*X&X}.*X*X*X.X}.XXXX6X[.1X*XXX2X2X_.{.oX*X5X&X}.[.8X[.&X*X&X1X1X}..X.X[.].[.*X*X@X2X.X4X1X1XOXOXBXVXnXQ.s . o 2 c ; d t r r 7 j m d j 1 q m f : $ 2.!.7XOXXXOX1X*X[.oX+XoX=X*X1X1X6X&XoX*X&X1X<XoX*X&X}.].oX&X1X2X&X].&X1X*X2X1X&X&XoX.X&X[.oX&X&X5X1XoX1X2X.XoX1X{.*XoX+X[.]..XoXoXoX*X1X5X1X=X2X8X=X;XOX.X|.0XZXiXs.s # $ p , ; 0 0 9 > > 0 0 8 8 > 9 0 0 8 8 4 r 5 8 6 w 0 0 8 8 6 5 8 8 w 6 6 8 8 6 8 0 8 6 5 5 e 8 6 5 5 8 e 5 0 6 8 8 8 5 5 8 5 8 6 5 + 5 8 8 8 > q ~ + 0 9 0 q X   @ 3 0 8 0 0 5 5 $  .z.,.>.L.a.o r 6 6 8 0 r 6 8 z z 0 0 r r l r 0 9 L l KXKX",
"KXKXR o > + + > > 8 5 0 5 = = = 8 = 5 8 8 8 w . ..wXT.8.o N J r N r X     @ r 5 9 < + ! q = 0 8 5 5 8 6 5 e r r w 8 + 5 5 8 8 8 6 8 8 8 8 8 8 e 8 5 8 8 8 6 5 8 8 8 8 8 0 e e e 8 8 5 5 5 8 w 6 8 0 0 e e 0 0 6 w e e e e e 8 6 6 0 0 0 0 7 0 0 0 0 0 8 > 0 9 q q 0 q q q q k q m l k 9 k q r * s zXCX'.*X1X.X}.oX<X<X1X+X1XoX&X1X&X[.].1X1X&X1X[.[.&X1X{..X*X1XXX[.1X[.oX8X&X*X&X&X1X1X2XoXoXoX=XoX[.1X1X+X[.=XXX2X1X_.2X1X.X2XOX1X5X1X1X*X}.oX+X*X.X@X;XVXVX/.3.i $ o k j < 1 f 8 e z z < q q k k q f f p % 2.~.7X=X=X.X[.&X1XoX1X1X*X2XoX&X6X1X1X1X&X=X.XoX5X1X*X*X5XoXoXoXoX1X[.1X&XoXoX2X&X2X2X5X&X1X6X+X[.1X&X5X1XoX&X=X6X1X*X6X[.=X{.&XXX.X=XoXoX&X&X*XXX=X*X%X>XAXZX(.4.s # , > q < < ; > 0 > > 9 9 0 0 + 0 0 t 0 + + r 6 8 0 e e 8 8 8 8 e e e 8 0 0 8 5 8 6 = 5 8 8 5 0 8 5 5 5 0 r 8 6 + 5 e e 6 8 0 + 8 e 8 8 8 e w + + k &.+ > 8 = 0 X     3 w 0 9 r 0 8 $  .U.s.1.K.l.o r e 0 q G r 6 0 0 r 0 0 0 r J 9 0 k R KXKXKX",
"KXKX{ o + > + > 0 = 5 5 7 = = = + > = 8 4 8 8 . -.eXK. .1 r r 0 r 0 O     @ 0 > > 0 = Q t 8 r 8 5 e 8 6 8 e 5 5 e 8 5 5 5 5 8 8 = 6 8 8 6 w 8 0 5 6 8 8 8 8 8 5 8 8 e e e 8 8 8 8 5 5 5 5 = 8 0 5 8 8 6 6 8 8 e 8 8 5 8 e r e e 0 0 0 0 5 7 0 5 8 0 0 > = 0 9 l 9 k q q k m q 9 m k q q k 1 N : i zXVXOXOX8X1X>X1X{. X=X1X=X2XoXoX1X<X[.oXoX1X2XoX&X&X*X[.oX*X&X5X1X=XoXoX1X2X&XoX&X].XX=X&X*X1X1X<X1X}.&X[.2X*XOX=X&X[.[.OX&X=X+X<X+X+X1X+X@X+X1X{.oX0XBXnX!.| % $ ; q q < < 1 1 9 9 k N q q k < q 1 d d p : 1./.NX X=X2XoX[.<X}._.*X&X.X&XoXXX{.].].+XXX*XoX&X1X6X&X1X1X[.1X1X1X1XoX5X&X&X*X[.XXXX1XoX&X&X[.&XoX}.[.[.XX1X1X+X@X%XOXoX3X6X2X&X=X4XOX[.[._.`.'.*X_.mXFXbXS.b u $ & 0 r q q k 1 0 9 0 0 f 9 8 > 8 0 0 8 0 0 8 8 5 8 8 8 6 8 e e 8 8 6 8 8 8 e 8 0 8 6 8 8 8 8 8 8 0 0 8 6 5 5 5 + 5 5 6 8 e 8 e 5 8 w 8 6 e 8 8 8 = 1 &.+ 4 8 & e     @ 8 > > 9 8 e e . ..L.>.<.tXl.X 5 r z 8 r 0 0 0 z l r 0 r J l r J l Q KXKXKX",
"KXKXR + + 8 > > 0 5 = 5 > = 7 5 > > 5 = > 8 8 . b l.l...; e r 9 r 9 O       t 8 0 > - ! l > w 8 e r 8 5 8 8 8 = 6 0 6 5 6 5 5 5 8 e 8 8 5 8 8 6 8 w 8 8 8 6 5 5 5 5 6 8 8 8 8 8 5 5 8 6 5 5 6 8 5 8 5 5 8 e e 8 6 5 5 5 5 8 6 w 5 5 7 0 0 0 0 z & 0 0 > < q z 9 0 9 q q q q q q 1 q q q q 0 q $ y zXCX'.'.OX@X5X1X+X X3X&XXX1X&XoXoX1X*X*X0XXXXX*X2X*X&XoX1X1X5XoX[.oX2X2X+XoXoX&X&X.X{.1X1X1X.X&X|.}.<X8XoX&X=X=X&X*X8X=X=X;X+X{.[.oX&XOX1X5X;X}.{.0XVXjXG.} h % > q q k 9 1 9 q 0 1 q m z q N q k q g d , # >./.MX'. X&X1X1X1X1X1X&XXX&X1XoXXX1X1X1X2X5X6X*X&XoX[.XX=XoXXX&X+XoXoX*X5X1X*X2X*X*XoX+X<X*XoX+X6X1XoX*X1X&XXX.X1X@XOX+XoX X XoX@X.X4X*X].=X6X5XXX4XNXVX^.>.i % : ; < 9 0 0 q q 9 0 0 0 0 r 0 8 8 8 > + 8 t e w 8 e 8 5 5 w 0 8 5 w 8 8 5 = 6 6 8 8 6 8 8 6 5 5 8 6 8 e 8 8 5 6 8 5 5 8 0 0 w 8 8 8 8 6 8 8 8 8 8 3 - 1 ! o 8 8 8 r     @ 8 0 0 0 0 5 3 . i.tX3.>.R.d.o r l e 8 l r z 0 z r e 0 0 9 0 0 9 0 P KXKXKX",
"KXKXL + + 8 + 0 8 > = - = = 5 5 > > 8 = 8 8 4 . ..j.l.8.2 J J J J q O       w 8 0 0 + ) m > w 0 e e 5 + 6 8 5 5 + 8 e w 0 8 5 8 5 6 8 5 8 8 e 8 5 5 5 5 5 8 6 8 5 8 8 5 6 5 8 6 5 8 8 e 8 5 5 8 8 0 5 5 0 8 5 5 8 e 8 5 5 5 8 e 5 5 0 z 0 0 0 0 0 9 0 - > 9 q q 0 0 9 0 q q q k q 1 q k q < q o s SXVX=X4X*X@X}.oX{.{.&X.X@X&XoX1X1X[.XXXX*X1XXX.X2X&X1X1X*X}.XX.X1X1X{.}.[.&XoX].&X1X*X2XoX&X[.&X&X*X-X=X=X&X{.=X<X{.&X1X1X[.<X1X{.oX*X@X}.[.&X=XMXCXiX3.b % $ 1 9 1 1 q 9 q k m 9 1 q q q m k q m m B m 2 : p.~.BX2X*X}.].oXXXoX1XXX[.1X2X1X&X*X2X1XoX}.[..X&X1X[.2X3X&X2X1X3X&X[._.].].}.*X1X*X2X1X&X&XoXoX[.=X+X&XoXXXoX[.oX=X XqX3X<X>X.XOX=X*X XqX&X{.*X;XFXSXG.} h * : , < q 1 q < q 0 0 0 0 9 z 0 8 9 0 8 0 8 > 0 8 8 t 8 6 = 6 0 0 8 + 6 w 8 8 5 5 5 5 5 8 8 e w 8 6 8 5 5 6 e 8 8 6 8 5 6 0 w 6 5 6 8 6 8 8 5 5 5 6 8 w > j &.> 8 8 8 r X     8 0 < 0 - 0 t   o.U.>.1.j.i.  e N 0 8 S r e e e 0 0 0 0 r l r r 0 J KXKXKX",
"KXKXL X + = + 0 > = = - 7 = = 6 > 0 4 > 8 & 8 . -.H.U.q.o 0 r r l r 3       0 8 9 > o ! r = 0 8 6 e 5 5 5 8 6 8 5 8 e e r 8 6 0 5 5 5 6 0 e 0 8 5 5 = 5 6 e e 8 0 e e 5 5 8 8 = e 8 e w 8 5 5 6 8 e 8 6 0 w 5 5 5 8 6 5 = 5 8 e 5 5 0 0 7 = 0 7 = 0 9 0 0 0 0 0 0 9 q q q q m q k k q q d 9 N $ s zXCX'.OX@X>X@X<X&X=X*X&X*X*X}.+X1X[.oX*X].2X{.&X1XoXoX*X1XoX*X2X*XoX&X1X1XoXoX5X5X{..XoX2X1X1XoX2X4X+X.X1X<X>X<X X{.&X[.&XqX<X>X6X1X].oX&XXX2XNXnX^.4.h % 1 q q 9 q 0 < < 9 N 1 q q q q q 9 0 q q 9 d 9 : % 1.!.7X=X&X[.oX*XXXoX2X+XXX&XoX&XXXoXoX*X&X*X2X1X1X*X[.*X.X.X+X[.&X1XoX1X1X1XoX*X*XoX1XoXoX&X1X1X.XoX1X1X[.*X3X*X*X3XqX{.}.@X>X$X7X2X X}.qX1X4XCXFXiX<.s h % h f 4 q 0 k j 1 q 9 0 0 > 0 r 8 8 8 0 9 0 8 4 8 8 8 0 5 8 8 0 6 8 6 8 5 8 e e e 6 5 + 5 8 e e e 8 5 8 5 5 8 0 w 8 5 8 5 5 8 8 5 5 8 8 = 5 5 5 5 8 8 8 0 = < e.0 8 8 8 q X     3 8 0 0 0 0 t    .U.:.1.L.U.. r l 0 8 e 0 6 0 0 0 0 0 0 0 e 0 r r U KXKXKX",
"KXKXL + = > + 8 = = = = - 5 = - > > > = 8 8 4 . -.J.T.g.; 0 G S r 0 X   @ @ e 8 r 0 X ! l > 9 e 8 e 8 6 w 0 6 e 6 0 8 8 e 6 = 5 8 8 8 w 0 8 6 6 0 8 0 8 8 6 8 8 6 e 0 6 6 0 8 5 r e 8 8 8 6 5 5 5 8 w 6 8 0 6 8 6 8 5 8 6 5 8 8 5 5 0 0 = = 0 0 > > 0 9 q 0 0 q q q 0 0 1 9 q q k q 1 1 k 9 d o s zXCX'.;X=X1X>X].=X3X=X1XoX1X1X*XXX6X1X1X&X&XoX3X1X&X1XoX1X1X1X.XoXoX1X4X*XXX=X_.1X2X5XoXoXoX&X=X.X.X5X4X*X].[.{.{.{.>X[.>X>X{.].>X@X.X=X6X8XNXjXG.} y $ , q r q q k q q q 1 k 1 < q q m k k 1 k k g N g 1 : 3.~.BX6X X[.].[.>X=X<X&X1XoX.X1XXXoX[.=X&X1X1XoX&X1X2X*XoX<XoX[.1XoXoX1X1X*X[.oX*X&XoX].oX&XoX1X6X[.oX*XoX&XoX[.*X&X X&X&X,X>X@X@X2X3X}.|.;XNXjXG.b y % : 9 d f 8 9 q 9 < 9 9 9 9 0 & 8 0 0 8 0 8 0 8 5 4 t r 8 8 + 8 e 8 8 6 5 8 5 8 e e 0 w 8 5 8 5 6 8 8 5 = 5 5 8 8 8 8 5 8 8 8 5 8 8 8 0 8 8 5 5 8 8 6 8 8 5 4 X 1 %.8 0 t 0 0 X     3 8 < 0 r 7 8 . q.tX<.*.K.W.. 8 q 0 r e r 0 z 0 r r 0 8 0 0 0 r 0 Y KXKXKX",
"KXKXI o = > + 8 = = 5 = = = - 5 > > 5 = 4 8 8 . X.d.J.8.; r N 0 r 0 o       w 5 0 > o Q q > r r 0 r r e r 8 8 8 8 8 6 5 w 8 5 8 0 8 8 8 w e 8 8 6 8 e e 8 5 5 0 5 8 8 8 8 0 w 6 r 6 5 6 8 8 8 5 5 e 0 8 8 8 5 8 8 8 8 8 e 8 8 8 6 5 0 0 7 5 0 0 r 8 > 0 q q r J q q 9 q 9 < 1 q 1 q 9 q N k N $ o.zX;X'.=X=X@X.X{. X=X X*X+X2X2X1X<XoX1XoX1X*X*X+X=X&X1XoX&XoX[.{.1X1XXXoX&X<X1X&X*XoX].&X.X1X&X*X1X&X2X*X*XOX.X.X<X<X}.>XoX.X@X,X`.@X*X;XNXMX#X6.v $ o , 9 q 1 k q 1 1 < 1 q k 1 k k q q k k k > 0 , d d p $ 2.!.7X&X{.4X0X>X>X&X.XXX*XoX<X1X=X2X1X6X1X+X[.oX1X[.1XoX&X2X*X*X5X1X&X&XXX&X<X+X1X*X1X&X*XoX}.oX1XoX*X1X1X1X1X&X*X&X<X=X&X@X>X+X*X=X[.&XNXZX#X6.b $ , > > t q 0 f 0 0 q q q 0 9 9 0 8 & 8 0 9 8 8 0 0 0 0 r w 0 8 8 8 6 8 8 8 5 5 6 0 8 5 6 8 8 e e 8 5 5 6 8 6 8 8 6 5 8 8 6 w 8 8 6 5 5 6 e 6 5 6 0 e 0 e 8 8 6 8 + < &.8 0 r 0 0 X     3 8 8 > 7 0 e o -.U.<.2.s.z.. e 0 q l r 6 0 0 r r z 0 0 r Y P l 0 N KXKXKX",
"KXKXI o = 8 = > = > 5 = = 7 5 = > > = 5 8 9 8 . ..d.i.o., l r 0 r 0 O       0 + 8 < = Q t > r 0 8 0 e e e 8 5 8 6 8 5 5 e e e e e 8 e 6 0 8 e e 8 8 6 8 6 0 e 0 8 8 e 8 5 8 5 6 e 8 5 5 8 8 6 8 8 e e 6 6 5 5 6 5 5 5 5 5 5 5 6 0 0 r 0 7 0 0 0 0 0 0 q q r 0 q l 9 9 q q 9 q q q 1 q q k r N $ h zXVX;X;X=X.X>X2X1X X*X*X+XoXoXXX1X[.1X1XoXoXoXoX&X[.oXoX*X&X1X2X1XoX1X8X2XoX1X&X1X1X&X&X[.<X2X*X6X3X[.[.4X7X-X7X*X3X&X{.OX7X+X-XOX0X6X5XMX^.*.* . ; < 0 j j ; m k q < < 1 k m q k k q 1 q q 1 q N m B d , % 2.~.MX5X&X<X>X[.[.1X&X&X1X1X&XoXXX&XoX*XoX1X*XoXoXoX&X&X1X2X1X6X2X1X<XoX=X2X6XoX[.[.&X1XoXoX=XoX&X&XoX&X[.oX2X*X{.].oX=XOX4X4XOXOX].8XNXmX^.*.y . o 9 0 = q < + 1 < 9 q r q 9 9 9 0 8 8 > 0 r 0 9 8 r e t 8 8 4 e e 6 5 6 0 e 6 5 0 e 6 5 = 8 0 8 0 8 8 8 8 8 8 e 8 8 8 8 6 8 8 8 8 5 8 8 8 e 8 5 8 8 e 8 e e 8 8 r > 1 &.+ 0 0 0 r     @ 8 0 0 < 8 6 t . ..L.j.L.H.z.o G r z r r 0 0 0 0 r r r 9 0 r N r 0 J KXKXKX",
"KXKXU O = 8 = = = > = 7 = = 7 = > > = 5 8 9 8 . -.d.i. .2 r e r 9 8 O       e > 8 8 = ! 0 + 8 8 5 6 + 5 5 5 5 5 5 8 8 5 8 8 8 8 r e 0 8 5 5 6 r e 8 8 5 w 8 8 8 5 6 8 8 8 5 5 8 e 8 8 5 8 5 5 5 e e 0 5 w 0 8 0 8 8 8 6 8 8 8 8 7 5 6 0 0 5 0 0 0 r 9 > = = < 0 q 0 < q q 1 q q 1 k q 1 q 9 B ; v SXVX'.'.OX].@X[.&X[.*XOX.X}..XXX[.2X=X1X1X[.1XoX1X&X1X*XoX].[.).*X2X&X&X[..X1X<X*X[.&XoX.X[.+X6X X{.oX=X*XOXOX7X*X;X{.2XXX&X=X;X.X7XBX$X!.} o $ 8 0 < < < c 2 1 1 k m N m m q < 1 q 1 1 q k k q m m m q : : s.~.MX5X{.|.[.oX+X&XoX1X1X6X2X{.1X1X1X6XoX[.{.*X1X5XoX&X1X.XoX1XoXXX1X1XoXoX*XXX1X&XoXoXXXoX*XXX1X6X*X1X&X[.&X*X2X6X7X4X-X7X7XOXOXNXZXjXI.o.% . 8 0 0 < < 0 1 1 9 < 1 q q k 0 0 0 9 r 8 8 0 r 0 0 8 0 8 8 0 w 8 0 8 5 8 8 0 w 0 8 0 8 8 5 5 8 8 6 8 6 8 5 6 5 8 r 5 6 5 5 8 8 6 8 5 5 6 0 8 8 8 5 6 8 8 6 8 8 e 5 w > j ~ & 0 0 8 z @     8 r q 0 < e w . ..j.f.F.H.h.. r 0 r r S r z z 0 0 r l r r r J J r U r KXKX",
"KXKX{ + 8 8 0 o = 8 8 7 = = 5 0 > 0 = = 8 8 4 . 8.L.a...: 0 S 8 0 0 o       w w 8 < + L < > w 8 5 e e 8 8 0 w 5 6 8 5 5 5 5 5 5 6 8 8 6 5 6 8 0 8 6 5 8 e w 6 8 8 8 6 8 8 5 0 r 0 8 6 8 5 5 5 5 5 5 6 8 8 0 8 6 = 8 8 6 = 5 5 5 e 6 7 8 > = - 5 > 0 q 0 0 9 q 9 9 0 < 0 q q q q 1 k q q 0 1 9 $ s DXVX[.OX6X>X>X1X=X=X X;X7X&XoX*X&X1X&X*X1X&X2XoXoX6X1XoX5X6X1X1XoX1X2X&XXX&X1XoX1X1X.X1X6X1X{.qX|.6X4X7XOX-X*X*X*XXX*X&X=X&X X8XNXMX#X6.c   - 0 0 0 9 q 2 1 2 m 1 q k q k q 1 q q 1 1 1 k m k q N N d d 1 $ 2.~.MX&X&X3X&XoX*X+X[.&X+X[.[..X&X[.[.oXoX1X*X1XoX&XoX1X2XoXoX*X&X3X].}.*XoX=XoX&X1XoX1X1X1X&X2XoX*X[.&X*X*X[.oX3X{.}.`.4X%X%X'.BXCX~.4.h $ t 1 < ; j j < > 9 l 9 1 1 , 1 q q < 0 9 r 0 0 0 8 8 0 0 0 0 8 3 + 8 8 8 8 w 8 8 8 8 8 8 8 e e 0 8 6 0 8 8 0 6 5 8 8 8 0 5 5 8 5 5 8 8 5 0 e e 8 = 5 8 8 e 8 e 8 6 = 6 8 + < &.- > r > 0       3 0 0 > 0 - F . X.p.<.3.tXU.. r r 0 r 0 e z e = H z 9 r 9 l l N r P S KXKX",
"KXKXL X + = 8 + = > 0 = = = - = = > 8 8 > 8 8 . a.T.l...$ r L K 9 0 O     @ 0 8 8 8 = Q 9 0 e w w 8 8 e e 6 5 8 8 8 8 8 6 5 5 6 8 6 5 + = 8 8 8 0 e 0 8 6 8 8 0 e e 8 8 8 5 w e 8 6 8 8 e 8 8 8 5 5 5 5 8 5 5 5 6 5 8 e e 8 8 e 0 8 7 0 0 5 7 0 8 9 0 0 < 0 0 > 0 q 9 9 9 k k q q 1 1 q 1 9 0 o s kXVX=XOX+X>X|.[.<X8X3X=X&X&X*X<XoX[.XX&X1XoXoX_.&X1X+X*XoX}.XX=XoXoXoX*X2X6X&X2X1X1X&X1X2X*X1XqX{.1X>XOX%X*X5XoX2X3X X=X X X8XMXCX^.*.2 - - z 0 0 9 t d 1 1 k q < < 1 1 1 1 < k k k k k k N N k q d d d 2 $ 2.~.MX=X&X&X{.oX2X<X=X1X*X[.[.oX2X*XoX1X1X1XoX&X&X&X[..XoX[.oX&X+X.X*X6X*XXX{.1XoX1X2X1XoX5X1XoX&X*X&X2X&X1X1X&X.X{.2X@X%X:XMXVXjXG.*.y . & 8 ; 1 j ; < < < r N r 9 1 1 < j 0 0 9 0 0 8 8 8 8 > r 8 9 0 t 0 8 8 8 8 6 6 5 5 5 6 5 6 8 w 8 8 5 5 5 8 w 8 5 8 6 0 6 e 6 5 8 8 5 5 8 5 6 8 e e 6 = 6 8 0 e 8 8 5 5 e 0 + 1 %.= 0 S 0 0 .   @ 8 e 9 0 = e w . i.T.j.| s.z.o 9 z 0 w J e l z 0 l z q l r r l G r L KXKXKX",
"KXKXL @ + > 8 > 8 8 0 5 7 7 = = + > 0 5 > 4 8 . g.l.p. .; r r r l r +     @ w > 0 > X Q r 0 0 0 0 8 6 0 8 5 5 6 6 8 e 8 8 8 8 8 8 8 6 5 5 w 8 6 6 8 0 8 = 8 8 8 w e e 6 6 8 0 e 5 8 e e e 8 5 5 0 0 8 e e 0 8 8 8 = 5 r r 6 8 e 5 6 = = = 0 0 5 8 8 8 < 0 0 0 0 0 9 q 0 9 k q , m m q k k N k $ o.kXCX=X*X+X4X>X=X&X]. X+X+X*X[.1X1X&X=X[.]..X1X2X=X[.].[.XX[.oXoXoXoX&XoX[.oX1X).]._.oX&X[.[.}.}.qX+X5X7XOX=X3X3X}.<X<X}.oX8XBXjXG.b # o < 0 j k 0 d d q t q N k q q m k q k 0 q k q q q q k k k q 1 d d : $ 3.~.MX=X X[.oXoX[.oX].oX*X1X2X1X1X&XXX=X1XXX&X1X&X1X1X*X*X*X*X1X1X1X*X&X=X1X&X&X.X&X}.XXoXoX&X2XoX&X&X1X.XXX[.1X6X[. XOX*XNXFX^.6.o.% $ 8 r k < 1 m < < 0 r t f t r r q q k < < < 9 r 9 0 0 8 > 0 0 0 t r 8 8 4 5 8 0 8 5 8 6 5 5 8 8 8 8 5 5 6 5 8 8 6 8 e w 0 8 e 8 8 8 8 5 5 8 5 5 8 8 0 6 + 5 + 6 8 8 8 w e r 0 + 1 ~ & w r r e X   @ 3 0 0 0 = l G . 8.L.<.2.K.h.o r z l 0 r e r 0 0 0 r r r l r r r 0 L KXKXKX",
"KXKXU + 8 + > 8 = = 5 5 = = = 7 ; 8 8 = & 8 0 . i.1.<...2 r 8 8 r q O   @ @ 0 = q 8 o Q q > 0 0 6 0 8 5 6 0 8 = 5 8 e 8 8 8 8 e 5 8 0 e 8 8 8 8 O 5 8 8 5 8 w 6 5 8 8 5 5 8 0 6 8 6 8 8 8 6 5 5 5 6 8 w e w 8 5 6 + 5 e e 5 = e 8 0 5 = - 7 0 = 8 > > > > > 9 q q l N k q k q 1 q k q q q q q $ h zXmX=X.X*X@X>X[.*X&X&X*X*X1XoXoXoX1X6X6X1X1X1XoX].[.1X5X6X6X1X1X6X6XoX&X1X1X=X*X8X}.1X*X+X0X1XqXqX|.[.oX+X*X*X X XqX}.@XZXVX#X4.s . $ N q 0 k q 1 1 p q q q k q < 1 k j q k 1 1 q 1 1 < , 1 q k k 9 d g , : p.(.MX2X XoX1X2X&X2XoX&X*X1X1XoX[.+XoXoXoX}.1X6XoX&X*X1X<X<X&X+X1XXX[.[.&XoX.X[.1X1X5X1XXX1X&X&X1X}..X1XoX1X&X[.oX'.&X4XVXCX(.| : . & r r q 1 1 1 q 9 0 q f t e 0 r r q q 0 < < 0 0 9 t 0 0 9 > 8 0 0 t 0 8 5 4 8 e e e 8 0 e 0 8 e 8 8 6 5 5 8 8 0 5 5 8 8 e e 5 e e 8 e 6 5 5 8 5 5 5 8 e 8 5 3 5 8 w 6 8 8 6 0 8 + 1 ~ + 8 0 0 e       3 0 0 0 7 0 e X 8.L.*.1.T.h.. e 0 > 0 l e e 0 e 5 0 r r r r 0 9 0 Y KXKXKX",
"KXKXR + > + > 8 = = = - - = 7 = > > 5 = & 0 t o 0.,.p.q.: z l r 0 0 O       w 6 9 0 - ! r > 0 t 8 e 8 5 5 e e 8 8 e e 8 5 = 5 6 + 8 0 e 8 5 5 0 + 6 8 5 8 e e 8 6 8 5 5 = 8 8 8 6 8 8 8 8 6 8 8 5 6 6 8 6 8 5 5 5 5 5 8 6 = 5 0 0 0 0 5 0 0 0 = 0 0 < 9 < > 0 z q q q q q q q q 1 q q q q q q $ b DXVX;X).4X+X]. X&X2X=XOX@XOX*X[.].].&X<XXXXX[.+X6X&X}.=X[.].*X[.}.].*X5XoX=X0XoX2X].*XoXXX&X].@X>X1X<X<X3X XXXqX>X@XmXCXnXQ.*.$ . , d d 9 f q q j 1 j k q q t 1 < 1 0 1 q q 9 q q q q q 1 1 q k k d d d , % 1.~.7X X&XoX}.@X1X&XoX&XoX.X&X*X1X<X1X1X1X[.1X5X.X{.=X1X1X1X1X*X1X].1X2X2XXX&XoX&X=X1X+X[.*XoXXX*X2X1X+X].&X1XoX}.-XMXCX#X6.} $ o $ - < < 1 < 9 q r r r q r q < 0 0 w w t e 9 < 1 0 8 0 q 9 r 0 8 0 8 0 w 0 0 0 t 8 8 e 6 8 8 0 8 e 8 8 6 5 6 8 0 6 5 5 8 e e 0 6 e e e 8 6 6 8 8 = 6 5 8 8 8 5 5 8 r r e 8 5 6 8 8 > k &.= 8 0 0 <     @ 8 9 0 0 > 6 3 ; q.T.j.*.H.U.  8 l z e e z 0 7 e 5 z r q 0 e r r r I KXKXKX",
"KXKXR + > + > + = = = = 5 = = 8 + > 5 = 8 0 0 . a.1.,.9.; 0 r r r e o       w 0 8 > - _ r + 8 0 8 5 5 5 8 8 8 e 8 0 e 6 5 6 8 8 0 6 5 5 w 6 8 6 e 8 6 5 6 e 8 8 8 0 8 5 5 6 8 8 e 0 8 5 5 8 8 6 e 0 8 8 8 5 8 8 8 8 0 6 5 5 6 0 5 6 5 < 0 6 0 7 8 8 0 t 9 0 < 9 0 0 > 0 9 < 9 k < q q B m q k $ s zXbX'.'.4X1X5X2X&X&X[.OX1X+XoX6X6XoX+XXX[.1X*X[.1X1X*X*X*X1X1X=X5X6X1XoX[..XoX2XoX*X<X&X1XXX&X5X1X>X@X}.*X'. X].BXBXVXiX5.b . > 6 0 1 4 d f 9 j 2 < 1 j k q q k t q q < q m q 1 q q k q q q k q N d d d 2 % 1.lXBX=X*X>X>X+X&XoX.X&XoXoX&X1X*X.XXX1X2X&X&X1X&XoXoXoX=X&X&XXX[.1X1X2X.X1X2X1X].oX[.1X1X<X+X2X1X&X[.1X1X&X&X2XMXMXDX^.4.h # X 0 k < 1 q t r q l 0 r 9 9 q 1 < z e e w 0 e 0 > < 0 > 0 9 0 0 0 8 8 0 0 0 w 0 8 0 5 5 5 5 5 8 6 8 8 e 8 5 5 5 8 8 8 8 5 8 8 e e w e 8 8 8 8 8 6 8 = 8 5 5 8 6 5 5 5 8 6 8 8 5 5 8 8 < k &.> 0 0 0 0       w q q 0 8 8 w . o.H.3.*.j.z.. G N 9 F e 0 5 0 e 0 z l r r r r r 9 L KXKXKX",
"KXKXU + > + 8 + 5 5 = 5 5 = 8 > o > 8 8 8 8 8 . g.H.i.=.d 0 e r r r 3     @ r 0 8 > < ) 9 = 0 8 8 6 5 6 8 8 6 8 5 5 e 8 8 0 8 8 e 8 = 5 6 0 0 8 e 8 5 5 8 8 8 6 0 8 6 8 8 8 8 w e e 8 5 5 8 5 = 8 8 8 5 5 5 8 6 w 6 6 8 8 8 0 e 0 6 = 8 0 7 7 8 > 0 0 q r r q 0 , 0 q 9 q q m N 1 1 q q q q q $ o.zXMX'.=X.X).}.{.&X&X&XOXOX.X[.1X1XXX*X1X1X2XoX1XXX[.[.}.XX6X.X*X}.].&X&XoX{.oX[._.*X1X1X<X.X[.5X1X1X1X1X3XqX{.>XZXCXuXf.y # , k < > q d , q m 1 k j < < q k k 9 q q 9 0 q q 1 1 q q q q q m k q q q N d : : 3.~.BX&X}.oX6X1XoX6X1X2X<X&X=X]._.].}.&X1X*XoX&X*X5X1X*X1X*X1X1XoX+X}..X[.oXoX2X1XoX&X1XoX2X[.}.oX&X[.3X=X[.&X9XNXCXI.} y * , , ; < d q r e w 0 0 t q 1 < q 0 1 k r l e 0 r r 8 8 q 8 0 0 8 8 0 & 8 9 w r w 8 4 5 5 5 6 5 5 8 6 8 8 e 8 6 5 8 5 8 5 5 8 8 8 8 8 8 e 8 5 w 0 0 8 5 6 0 8 6 8 8 5 5 5 = + 6 8 8 5 e 3 > 1 ! 8 0 w 0 8       8 e 0 < 0 0 F . ..J.:.*.2.a.X P 0 - G K e 8 0 0 0 e r 9 N r 0 r 0 U KXKXKX",
"KXKXI . + 8 0 + + = - - = 5 = + + 8 > > + 4 4 . a.eXd...: 0 9 l N r O       0 > 0 8 = ! 9 > e r 8 e e 8 8 e e 5 6 e 8 e 0 w 8 = w 8 6 e 8 e 8 8 5 5 8 e e 8 8 5 8 6 5 8 8 5 6 e w e 8 8 e e 8 5 8 8 8 e e e e 8 r 8 = 8 e 8 5 6 r 8 7 = 0 0 0 0 0 8 8 0 9 q 9 0 > 9 9 < > q q q q 1 < q 9 q k $ s kXMX=X.X4X0X1X*X=X=X&X+X*X7X=X[.1X1X1X[.].&X1XoX1X*X5X5X*X<XoX1X+X1X&X.X*X*XoX1X1X+XoXoXoX9X1XXX.XoX5X1XoX1X4XVX#X^.} # . t 4 - < 1 , > d k 1 m k < < > < q 0 < 9 k m q m N 9 9 q q 1 q m q t N q d B m , % f.(.MX2X[.}.oX&X<X].[.&XoXoX1X6X5X1X1X1X=X&XoXoX[.oX.X&X<XXX<X1X<X1X&X*X8X=XoX*X1X2XoX1X1X&X+X1X1X1X&X2X.X,XNXCX~.4.o.# $ g > 0 2 q d 8 S r 0 0 - 1 q 1 < k 1 7 < q k 0 0 r t t w r 8 8 8 8 0 9 0 8 8 0 e t 0 8 0 5 8 8 8 8 e e w e 0 8 5 6 0 0 5 6 8 5 5 6 8 8 e 8 6 5 0 e e 8 6 0 e e 8 e e 8 5 e 6 5 8 e 8 5 r 8 = , ! & 0 t 0 8   @   8 r 0 0 0 0 8 # ..U.H.1.f.l.. 8 z K r l r 0 l r z 0 l r r r 0 r r U KXKXKX",
"KXKXU o = > 8 8 > + + 8 8 5 = > & 8 8 = 0 8 8 o 0.U.h.8.: l P z l 0 X     @ t 4 0 + > W 8 > r 6 e 8 6 = 5 0 w 5 0 e e e e 8 8 8 8 8 8 0 8 6 = 8 5 8 8 e e 8 6 = 6 5 5 6 8 8 8 e e 8 5 0 e 6 5 = w e e e 8 5 8 8 8 6 6 8 5 8 e e 5 0 0 0 7 0 0 7 > > > > 0 0 9 < 0 < 0 < 9 q q q 1 1 k k q q 9 $ b SXMX3X'..X4X]..XoX&X{.oX+X.X2X}.5X].&X1X*X*XXX].1XoXoX1X[.XX2X+XoX<X5X1X=XoX+X+X1X5X}.{.+X{.2X1X].oX=X}.8X7XVXlXD.s # & t = k < < < 1 9 < < < q k q q f l 9 9 q 1 q k 1 < q k k q q 9 1 9 q q m m 9 q q 1 % 1.!.8XOX&X1X1XoX&X&X1X1X<X=X}.+X[.&X&X+X{.&X1X1X&X*X+XoX>X3X3X&X<X'.&X-X.X4XOX*X@X1X1X2X{.&X6X2X*X=X_.'.7XVXjXQ.*.$ $ $ , 9 , 0 < q q 1 8 9 0 0 < q 0 9 < < 0 q q 0 < 0 0 9 4 8 0 0 e e e 8 e e r 6 8 8 e 8 e e w = 8 6 = 5 5 5 8 e e e e 8 e 8 6 0 8 e 5 + 8 r = 5 8 8 5 5 8 8 5 8 w e e 8 6 8 e 0 6 6 8 5 8 e e 8 & q ~ 0 9 S 0 0 .     8 r r 9 < 0 r o X.f.<.2.R.x.$ S J 0 5 8 e 0 0 r 0 r z z 0 0 r 0 9 L KXKXKX",
"KXKXU O 8 = > + = + + > > & + 8 8 > + = 8 8 & $ 0.p.#. .1 0 0 9 l q O     @ r + 9 + + ! 9 q l 8 0 8 6 8 8 e e 8 5 5 6 e e 0 w 6 e 6 8 e 8 5 6 8 8 8 8 8 e w e 8 e 8 8 8 8 0 e r 6 5 6 8 0 w 8 6 8 0 8 6 5 8 8 e 8 0 e 8 8 5 8 e 5 8 6 0 = 0 0 8 0 0 0 0 0 9 0 0 0 0 9 0 q q q q q q k 1 q 0 q X v zXMX=X'.XX4X.X+XoXoXoX*X4X.X=X1X&X*X1X1X1X[._.&X6XoXoX1X*X[._.+X].>X1XoX=X4X7X;X.X&X{.<X*X|.=X+X8XoXoX7XmXCX^.:.h # * t 0 z 7 k 0 < k q q q 9 q < 1 < 9 f N r q q q k 9 q q q 1 q 9 < 0 < 1 q k k q 0 0 1 % 3.~.NX*XOX@XOX=X X2XoX+X_.oX1XXXXX[.oXoX&X1X*XoXoX*X*X2X<X}.{.3X{.=X5X;X*X*X7X1X[.&XXXOXoX1X<X}.&X X2XBXVX/.6.} $ $ , < q q 1 q q k q < < 9 0 q 9 9 < q 9 > < q q 9 9 0 9 0 9 8 0 8 w 8 8 6 8 8 8 + 5 8 e e r r 6 6 e 8 5 = 6 8 0 8 w 8 e e e 8 w 6 5 8 8 5 6 0 5 r 8 5 5 5 6 8 8 8 8 w 8 8 8 8 8 8 5 5 5 8 8 8 8 8 = 1 W 8 w e r > .     5 e 0 8 0 7 0 $ q.U.2.>.J.h.. D e 0 0 G r e 0 t 0 r r 0 0 r z q 0 L KXKXKX",
"KXKXU X = = 8 + + > + 8 + > = 8 0 8 8 = 8 4 @ . 0.h.,. .1 l 9 l l q       O r 4 0 + + ) q > r e 8 8 0 8 w e e e 5 5 5 8 8 6 8 5 6 e w 6 8 8 e 0 8 5 5 6 8 e e e 8 8 6 e 8 8 8 r 6 8 8 8 8 0 0 8 8 e 8 8 5 5 6 w 6 0 e e 8 5 6 8 6 8 8 7 7 = 7 6 0 q q 9 0 < 0 0 1 0 q 0 q r q q q k k 1 k q l ; i zXVX=X.X-X*X@XXXoX1X<X@XXX.X*X&X+XoXoXXX1X&X6X5X*X[.1X5X.X}.oX1X5X*XoX1X>X}.}.2X*X-XOX1X6X X X2X'.*XBXBX#XP.b * % d d , 9 m q < < q 1 q m k k l 9 < < q q q q q q q q 9 k m 9 q q k q 9 q d k k k m 9 r m y s.~.BX;X=X@X*X1X&XoX&X+X1X0X1X1X*X2X1X*X&X&X&X*X2X1X1X1X+X@X>X2X2X&X<X<X2XoX[.>X3X1X*X4X-X4X6X*X X=XVXCX^.*.y $ ; ; 9 1 q q q m q q 1 < 9 9 N q q 0 < 0 0 8 9 q r q q 9 0 0 < 9 r e 8 6 8 e e 8 e 5 5 8 e 0 e 8 5 8 8 8 6 5 8 e 6 5 5 8 8 8 0 0 e 8 5 5 6 6 8 8 6 r e 6 5 8 8 8 6 0 8 5 6 e 6 8 5 8 5 5 5 8 e 8 6 8 $ 1 W > 4 e w 0       6 9 0 0 l 8 8 . =.wX<.>.j.g.$ G G l Y Y r t 0 0 0 r z r 0 0 q r 0 L KXKXKX",
"KXKXU O & + 8 > 8 + > = > + > 8 0 > = 0 8 & X . g.U.a. .o r r r l z O       t & 9 > ; ) 0 + 5 6 6 8 w 8 8 0 e e 8 8 8 5 5 5 5 5 5 8 8 = 6 8 e w 6 8 8 0 e e 8 5 5 8 8 8 6 5 6 8 5 w 8 8 6 8 8 8 w 8 e 8 5 5 5 8 8 8 e 8 8 5 5 8 r 0 > 8 = = < 0 8 r q 0 0 0 < 9 0 < 0 0 0 9 q q q q j 1 q k l ; y zXVXXX=X1XOX@X&XoX&XoX=X+X=X&X[.1X[.1X1XXXoX5X}.oX1X2X1X*X1X*X}.>X@X.X6X3X{.}.{.1XXX=X*X*X;X=X'.8XNX7X~.5.% . . t 8 > 1 , : d ; < q 1 9 q q q N k 9 9 q q q 0 q q q q q q m q q q q 9 < 1 q q k 1 q q q 1 % f.:XMX=X*X+X*X*X X=X1X<X*XoX'.oX[.oX1X1X1X1X&XoX&X1X1XoX+X4X>X@X>X2X{.{. X<X}.<X>X{.2X*XOX;XXX].8XVXbXF.} % # p , 1 q 1 9 1 q k 9 q q q q r q q 9 l < < 0 9 r q 0 q 0 9 8 < 0 t 0 r 8 8 e e e 8 8 6 5 8 8 5 5 5 5 5 5 0 e 8 8 8 5 8 8 5 6 5 6 w 8 e 8 8 8 8 8 5 5 e 6 5 8 e e 8 8 e 8 5 8 8 0 8 5 8 6 8 8 8 8 8 8 0 > j ~ 8 w e 9 0       8 9 9 9 = 0 e * -.U.;.<.R.h.o w 8 0 r t w 0 0 r e z z 9 0 0 l l q U KXKXKX",
"KXKXU O 5 = > + 8 = 5 & 8 > > > & + = = 8 4 + o g.d.i.8.h F J N z l O     @ t 8 r > X ! r > 8 = 5 5 8 8 8 5 8 8 e e 8 8 8 6 5 5 5 8 8 5 5 e 0 8 6 8 8 e e w 5 + 6 0 e w 8 6 5 0 5 8 8 8 6 8 6 5 5 6 6 8 8 8 8 e 6 0 w 8 8 8 w 6 r 6 = 7 0 = 7 0 8 8 0 8 0 9 9 0 > < 0 0 9 0 q 1 k j d 1 q q k $ o.zXMX_.'.-X1X0X*XoXoX=X+X*X1X*X+X&X}.*X&X+X=XoXXX.X[.}.].=X1X&XoX{.4X7XOX+X6X>X<XqX{.6X;XXX=X;X;XVXjX!.*.:   1 z 7 - z N f g d q q k q 1 < q 9 m q q q q r q q 1 < < 9 > 0 q q q q q 1 9 q q k q k k r r 2 % 3.~.MX=X+X@X@X2X&X[.'.2X[.[.2X6X1XoX&XoX[.XX&X&X*X=X=X*X<XXXoX0X@X*XoX&X{.qX{.>X}.+X*X1X<X}.*XBXVX^.k.s # 9 9 $ , k 9 1 q q q 1 q q q k q q k 0 > q 0 0 0 0 q q 0 0 0 > > 0 0 0 8 r e e e e 5 5 5 5 5 8 6 5 5 0 6 6 = 8 r 8 8 8 = e 8 5 5 5 8 8 5 8 e w 5 8 e 6 5 8 5 8 8 e e 8 5 8 w 5 8 5 8 6 8 8 6 8 8 6 5 5 8 8 & 1 ! 4 w t 8 <       5 0 0 > = l w . o.d.*.>.f.q.  e r r r 8 r e r r 0 0 0 0 z r N r q R KXKXKX",
"KXKXU O = > 8 > > 8 = > 8 8 8 + 5 4 8 = 8 8 & # i.i.<.8.* t l 9 0 z X     @ 0 8 9 < + Q q 0 e 0 5 6 6 8 8 6 w 8 6 8 e e e 0 8 5 8 0 8 5 6 8 8 6 8 8 8 8 0 8 5 5 5 e 0 8 8 8 0 8 8 5 5 8 5 8 8 8 5 5 6 0 e e e 8 8 8 6 e e e 8 8 0 5 = = 0 0 0 0 0 8 < > > 0 0 8 0 < 0 9 9 0 q q q q k 1 q k l o i kXVX'.=X=X.X@X.X&X<X<X+X@X*X*X5X_.&X*X}.5X1X1X5X*X1X*X1X1X1X1X<XoX*X*X'..X+X[.<X_. X*XOX'.=XMXMX/.5.b X X B < 7 7 l z & q f $ d k d q 0 9 q q q q 9 q q q q q d 9 < 9 < < , t q q q q q q k m q B N q 9 d % 1.~.8X+X+X@XoX=X3X2XoX1X1X+XoX1X=X.X&X&X=X1X1X1X*X=X*X=X<X1X+X4X,X4X7X<X3X{.<X<X6X+X.X1X3X2XZXVXD.} y $ r 0 9 t , 9 , q N m 9 0 k 1 q 9 0 0 q 0 9 0 < 0 9 0 0 q 0 q 0 0 0 0 r 0 0 8 6 8 e 8 5 5 8 5 5 8 0 6 5 0 8 e 8 w e 8 6 8 8 e 8 8 6 e e 8 = 8 e 8 5 5 e 8 5 8 6 5 8 0 5 6 8 6 0 8 8 6 5 8 8 8 e e 8 5 5 8 e 0 & 1 Q & 8 t 8 0       8 0 0 0 5 l 8 o 9.R.k.j.T.z.& D 8 0 e r l S r r 0 0 z 0 l l N z 9 U KXKXKX",
"KXKXU o 8 > 8 > > > > + > 0 8 & 8 0 0 + 8 8 > $ O.d.h.8.& r G r 0 k O     @ 0 & & 8 > Q q > e e 0 8 6 8 8 e 8 0 5 6 8 8 w e 8 6 e 8 8 5 5 8 8 5 6 8 8 6 5 5 6 8 5 8 w 0 6 8 0 6 e 6 5 8 8 8 8 w 5 0 e e 0 8 8 6 5 8 e 8 8 8 5 5 0 6 5 = 7 0 7 7 > 8 > > > 9 0 0 0 q 9 0 9 0 q q q 1 1 1 q q N ; b SXBX_.'.OX+X+X*X1X.XoX1X*X&X.X&XoX4X1XXX1X].oX_.oX2X1X1X5XoX_.*X*X.X{.1X4X-X*X&X{.3X*XOXMXMXnX^.*.y . : 1 0 k < < j q 9 q t d q q q q q q k m q l q 9 9 0 q q q 9 q q 0 1 q 9 9 q q 9 q q 9 0 < q m 0 0 1 % 3.~.BX*X*XoX.X*X&X*XoX_..X[.|..X*X1X1XoX{..XoX&X2X5X6X X=X7X.X.XOX*XoX|.&X=X&XOX=X}.1X>X9XVXjX5.v ; ; - < < d t d 9 < m q q q , r 0 9 0 < < 0 k k 0 < q q 0 0 9 0 0 0 0 9 0 0 0 0 6 8 8 0 e 8 0 8 8 8 e e w 8 8 6 e 8 8 5 e 8 6 8 6 8 e e 8 0 8 6 0 5 6 8 3 5 0 5 0 6 5 8 8 5 5 w 5 8 8 8 5 5 5 5 e e 8 0 6 8 e e 8 & 1 W + 8 t 0 k X     w 0 w 0 0 0 0 $ i.U.*.*.T.h.$ H r 0 J F r r q q 0 0 r z l l l q 9 U KXKXKX",
"KXKXU o = + 8 + + 5 8 + 8 8 8 = & 8 > + & 8 > o ..d.i. .$ r r N k l O   @ O w 8 0 9 + Q r 0 e 8 r 8 8 8 8 6 6 5 0 8 8 5 5 8 0 e e 6 8 5 5 5 5 5 8 8 0 8 8 8 6 8 6 8 0 8 8 8 6 5 l 8 = 6 8 6 5 0 5 8 8 e e 8 e 8 8 0 e r 0 6 5 5 5 0 0 7 0 0 0 5 0 0 0 > < 0 9 q q 0 0 q < 0 9 q k q 1 < < 0 q $ s kXCX'.=X+X*X.X+X2XoXoX*X@X=X1XoX6X[._.&X&X_.oX6XoXoX[.oX&XoX4X-X=X.X[.=XXX.XXXoX<X1X1XMXVXjXD.b $ . p d 9 8 k < < k k q k N k m q 1 q q 9 q k q q l k q 9 9 q 0 < 9 0 0 q q - q 9 q k r k q 1 1 < q k r 1 % k.~.BX*X.X+X<X&X=XoX*X2X}.&XoX}.&XoXoX*X6X6X&XoX1X=X1X*X5X+X@X4X@X'.*X*X=X4X*XoX[.1X6XBXCX!.*.u . = - < k ; q f d N q q 0 1 m q q q q q < 0 0 q 0 q 0 0 q q r 9 < 8 8 0 0 0 & + 8 5 8 e w 6 8 6 5 8 8 e 8 6 8 0 8 5 8 5 6 e 8 5 e 5 8 8 8 8 6 8 w e 5 8 e 5 5 8 5 8 5 5 e 6 5 5 0 6 8 8 6 8 8 5 5 8 8 8 6 8 8 e 8 8 + 1 ! 8 4 0 8 0 X     4 r 9 0 0 0 e . 0.U.;.1.J.i.  G S r J J J r 0 0 7 6 z e 0 0 0 0 q R KXKXKX",
"KXKXI o & + + > > + + + = 8 & 5 8 8 8 > 8 4 + . h.i.i.... l J N l r       @ t 9 0 > X W r 9 0 0 8 6 8 5 5 6 5 5 = 5 5 8 8 8 8 8 8 8 w 8 8 8 8 8 5 5 6 8 8 8 8 8 8 8 8 0 8 e 8 w e 0 8 w 8 5 e r 8 8 8 6 8 8 8 6 5 e r e 6 6 8 8 8 6 8 0 0 0 0 0 0 8 0 0 > 0 q 0 < q q r r t 1 < q k m k m k q X v SXVX=X;X+X@X].1X}.6X[.1X4X+X<X.X1X&X1X5X&XoX1XoX&X2X2XoX*X1X<X&X*X=X&X=X=X X X]..XMXBXnX/.4.i o ; 1 1 1 q f r f r m 1 j < 1 k q q q q k m q 0 0 0 d 9 0 q > > q q 0 = > 9 0 < < 9 q 0 q q 9 q 1 k k k N 1 % 3.:XMX5XXX@X+X6X1XoX[.oX1X<X1X2XoXXXoX.X&X[.+X{.+X X&X*X+X4X*X1X3X X3X;X=XOX=XoX&X9XNXlXD.n $ X < < < : 2 2 k q q q q k q k q q 9 > 0 < 0 0 0 0 < 8 9 0 q q q 0 < 0 0 0 0 0 0 0 0 e e 0 8 w 8 8 5 6 5 6 8 0 e e 8 5 5 5 = 8 e e 5 8 6 8 5 5 5 8 r e 0 6 5 5 8 8 8 e = 6 r r e e 5 6 w e 0 5 5 8 8 3 5 = 8 e e 6 8 8 + 1 ~ > 8 w 8 0       8 r 9 9 r 5 8 $ g.eX>.3.L.a.. S l l e 8 8 e F r l l r 5 0 l l l r Q KXKXKX",
"KXKXL + = 8 = + > 8 > = 8 > > = 8 > > > 8 8 > $ V.p.p.q., l 0 8 q z         0 8 8 > > ) r 0 e e 5 8 8 5 8 0 e 8 8 8 6 8 8 6 w 0 6 6 0 8 8 5 8 6 8 e e e 8 8 5 6 5 6 8 w 8 6 8 8 8 6 8 8 8 6 5 8 e 8 5 5 5 5 5 8 5 8 e 8 8 0 8 8 8 6 > 0 7 7 0 0 > 0 9 q 0 q q > 0 < < 0 q r q N q q m 1 l k l o b SXmX).'.1X4XoX1X4X{.1XoXOXoX=X[.].}.*X1X&X1X1X1X[.oX].6X[.XXoX<X<X[.=X5X=X X5X,X>XnXnXQ.*.y . ; < q d q d f f f d m 2 2 1 0 q q q q q q q 9 0 1 0 z 9 9 q < q q r q q q q q 9 q q q 9 0 9 0 < < < 9 0 0 1 % s.~.MXOX'.>X4X&X&X2XoX=X1X1XXX.XoX8X3XoXoX[.=X[.[.*X=X+XoX*XoX{.}.<X X=X5X-XOX1XBXCX~.4.i o o 7 z < , 2 2 2 k k z q q , 1 q q q < q q q 0 < 9 q q < 0 0 0 0 0 0 0 0 r 0 0 0 0 e 0 8 6 8 8 0 e 8 6 e 8 8 8 8 e e w 5 5 6 5 8 0 e 8 8 8 8 8 6 6 e 0 8 w 8 e e e e e 8 + = 8 w 6 0 6 5 8 8 8 5 5 8 8 6 5 6 0 0 e 8 5 & o < ~ 8 4 t 0 0       w r r > > r e . u.wX>.>.R.C.& S e r r e 8 r r r e r z 0 r l r q 9 L KXKXKX",
"KXKXL O = 8 + 5 > 8 & = > 8 5 > 8 > > > 8 8 4 . q.-.p.0.; r r l z l @     O r 8 9 0 & ! r > e e 8 5 6 5 8 e e e e 8 5 8 0 6 8 e 5 8 0 e e 8 8 8 8 8 e 0 0 w 8 e = 5 8 6 5 8 6 8 6 5 8 0 e w 8 8 e 8 8 8 8 6 = 5 6 5 5 5 8 e e 5 0 0 0 0 0 0 0 0 8 0 9 0 q 0 0 9 q 0 0 > > 0 9 < q m k 1 0 1 z $ s lXMX=X_.OX7X.X].&X}.1X*X.X+X].2X*X&X1XXX+X&X|.*X6X*X.X*X&X.X2X*X=X&X3X=X=X=X=XBXVXlXF.b o 2 : j d d 9 9 q q m m d 1 q t q f q 0 q m k q 0 q 0 q < q q q q 9 r 0 1 9 q 9 q 9 < 0 q q q q q q 9 < k l 0 0 ; : j.(.8X=X*X+X>X&X X1X&XXX&X&X[.].*X[.oXoX1X1X2X1X1X4X-X*X>X3X XqXqX X X<XXX;XmXBXmXS.| % o ; 0 q 0 9 p d d d k z 0 k 9 0 9 q q 0 0 q 0 0 < 0 0 0 0 8 0 0 0 0 0 8 0 r 0 0 0 e 0 e e 5 = 5 6 e 6 8 8 e 8 8 5 5 5 8 6 5 8 0 8 5 6 8 8 5 5 6 8 8 8 5 5 6 5 8 0 e e 8 8 8 5 8 8 5 8 r e 8 5 5 5 5 5 6 8 0 8 w 8 8 w 8 6 > + q ~ 8 4 0 0 0       e r 0 > 0 = S . =.L.<.| F.C.. S r 0 8 w r r l r 0 0 z 0 0 r 9 r l L KXKXKX",
"KXKXL + + = > > + = = 5 + + > 8 8 5 > = & 8 + . h.i.-...; r r N k l @   @ @ t 0 8 & & Q q 8 0 e 8 8 5 5 5 8 8 e 0 6 6 8 0 5 6 e 6 0 e e 8 6 6 0 5 5 6 5 6 8 e 0 6 8 8 8 8 8 8 5 5 8 6 0 e e 8 5 8 6 8 e 0 5 5 8 5 8 5 5 8 e 0 6 5 8 7 5 0 0 0 7 0 9 < > 0 0 0 k 0 < 0 > 0 9 q 9 q k m 1 1 0 r ; v kXCX5X8X*XoXoX1X@XOX[.-X5X2X2X[.&X&X&X=X1X5X}.|.=X*X].oX}.[.1X*X&X X X*X'.-XNXCX/.4.s X o d q d k k 9 9 1 j j m j 1 q f f r t < q m q k 0 q k q 0 < 0 0 0 0 9 q q q 9 0 q q q 9 < 0 q k N N k k l k q 0 1 : k.~.BX8X7X@X+X3X<X&X1X1X*XoX1X5X1X&X*X1X&X.X{.oX&X*X1X1XoX&X{.{. XqX X|.3XNXmX/.3.i * $ q q 0 0 , p 9 p d q z 7 0 0 q k q 9 < 0 q q q 0 < 0 < 0 8 0 = < 0 0 0 0 0 0 0 7 5 0 0 8 8 8 5 5 5 8 = 5 e 8 8 6 5 5 8 8 0 6 w 0 5 5 5 5 8 5 5 8 8 8 5 6 5 5 5 5 5 5 5 8 6 6 8 e 8 5 8 e e 8 5 6 8 w 8 8 6 0 8 6 8 0 0 e 0 0 > m &.8 4 w 8 0       w r 0 0 0 0 w . a.J.>.| p.h.. S r l r t e r r r 0 e 0 0 = 7 0 r q L KXKXKX",
"KXKXL O + > > 8 8 & > = > > 8 8 8 8 4 = 4 4 & . g.i.-..., 0 0 q q z X       t 8 8 > + Q q > 0 8 8 0 w 8 6 8 8 8 8 3 5 8 8 5 5 8 5 8 e 8 5 = 5 w e 0 8 5 5 6 8 8 e e 8 8 e e 8 6 0 e 8 8 8 8 5 6 8 6 5 8 8 6 5 w 5 8 8 8 8 8 8 8 = 5 0 8 7 0 8 = = 0 0 0 q 9 0 0 = < 0 9 q q N q q j k 1 q q k ; s zXMX).).OX'.+X[.&X1X1X].4X_.oX&X2X&X.X&X&XoX[.oX[.+X2X5X&X=XoX*X'.;X7X{.0XZXjXS.} # * 9 9 < l < t d q j c 2 j j j 9 t q r t 9 9 q q k 0 q q q q 0 > 0 0 < < 0 r q 9 0 0 9 q l q < 0 9 q k q r 1 q k q k 1 : k.~.BX.X].@X>X@XoX[.&X1XoX_.oX1X}.&XoXoXoX+X&X1X1X{.<X<X{.oX*X-XOX[.*X3XAXnX(.*.y : + > t , , 1 1 , 9 < 9 r l e e q k k q 0 0 q q q q 9 0 0 0 7 < 0 = 0 0 0 0 5 0 z 0 0 0 e 0 0 w e 6 5 8 8 5 5 e 5 8 8 5 8 w e 8 8 6 5 5 5 5 8 6 8 8 8 8 8 w e w 8 8 6 5 5 5 8 6 5 6 8 6 5 5 8 0 0 0 6 8 w 0 6 8 e 8 8 6 8 8 8 e 8 & q ~ 9 w w 0 <       8 r 0 0 l > r ; g.J.s.| J.C.. S e r r G 8 8 w r r r r 0 0 z q l l L KXKXKX",
"KXKXI o + = > 8 8 8 8 5 + 8 > 8 9 > 8 > 8 8 4 . O.,.<...; 5 0 l 0 r       @ e 8 9 < + Q q = 8 6 6 8 e e 8 e 0 8 5 + = 6 8 = 5 5 8 0 e 8 8 6 8 8 e e 8 6 8 8 0 8 e e 0 e e e 8 8 e 8 8 6 6 8 0 8 w 8 e r e 8 8 e = 6 e w 6 5 6 8 5 0 0 7 0 0 0 8 > 0 9 0 q 0 > = 0 q 9 0 < 0 q 9 q q k 1 0 < r $ s zXVX'.).XX-X+X6X*X].[.@X7X*XXX&X&X[.oX1XXXoX6X1XoX].6X].2XXXoX8X;X-X7XmXBX/.6.h # 9 4 t r < q 9 d k m j q k m q q t r t d d q 9 0 0 < < 0 < 0 < 0 > 8 0 0 0 0 9 < < 0 0 < < 9 0 q 9 q 9 9 q k < q q q 0 1 $ 3.~.BX+X@X,X5X&X{.&X*X2X1XoX&X*X[.*X1X2X1X1XoX&XoXqX<XoX&X1X7X;XOX=XNXVX#X6.b y # > 4 0 q 9 1 q , q 0 < q r r e r l q q q k q q < 0 < < 0 0 z k 0 0 0 0 0 7 7 0 0 0 0 0 7 6 6 e 8 8 8 e e 0 6 5 8 5 6 0 8 8 8 5 6 8 6 8 5 8 8 8 e e e 0 6 8 e 8 8 6 8 0 8 5 8 8 5 5 0 8 8 8 8 6 8 e e e 8 8 0 8 0 e e 8 8 6 5 5 5 0 = 2 ` 8 w w 0 -     O e 9 8 + 7 z e . g.L.<.;.K.x.. r w 0 r r r e 9 r z l l l z l r r q U KXKXKX",
"KXKXU O + = > > 8 > & = + > 8 > 8 8 8 > 8 0 4 * i.i.-...1 r r q q z       @ t 8 0 8 > ! q > 8 8 5 8 8 6 8 8 8 5 5 5 5 5 w 6 8 6 e 0 w 8 8 8 8 8 8 6 5 5 8 6 w 0 0 w 8 8 8 8 8 5 8 8 8 5 5 e e r 5 8 e r e 0 0 8 5 5 8 e 8 6 8 8 = 6 0 = = 0 8 = 0 0 0 < > > 0 0 > < 0 0 0 q q q q 1 q 1 1 < 0 o i kXVX[.*X4X).[.).[.1X<X1X|.*X2X*X&X[.*X*X.XoX4X=XoX1X&X[.oX2X X5X=X7XVXnX!.;.$ % p t 9 9 9 < < m k q q 9 r r N q 1 q 1 1 q k q 0 < 0 0 0 0 < 0 0 q > < 0 9 9 > q 0 0 9 q q 9 0 0 9 q r r 0 9 k k < k 0 0 < $ 3.:XmX*X*X@X.X&X{.oX&XoXoX1X*XoX+X*X1X1XoXXX[.+X<X1X1X&X&X&X1XoXOXNXjX!.<.c # $ > , 9 j 1 < 1 9 < r q q q q 9 9 1 l q 9 q q k q 0 < > > 0 0 0 0 z k 0 0 7 = 7 0 0 0 0 e 5 5 8 0 5 8 8 e 0 8 5 6 8 5 5 5 8 6 8 8 5 8 8 8 w e 8 0 e 0 w 6 = 5 8 8 6 5 8 e 8 5 8 5 5 8 w 8 8 e 8 5 6 0 8 0 e 8 8 6 8 8 8 8 8 6 8 6 8 8 & 1 ~ 4 4 e 0 =       w 0 8 = = 0 t . g.J.| >.L.g.X S r q t J G r r l l l l l 0 z q 9 9 L KXKXKX",
"KXKXU + + = + + 8 = + + 8 > 8 + 8 8 > 5 & 8 4 * 0.p.-..., 0 q r q 0 O   . X t 8 8 , > ) r = 0 e 8 e 8 5 5 5 6 8 6 e 8 0 8 0 8 e 6 8 8 6 5 5 6 5 5 = + 5 5 5 5 5 5 5 6 5 5 = 6 8 8 8 6 5 5 5 e e 5 8 6 5 = 6 e 0 6 5 5 8 8 8 8 5 6 0 0 5 = 7 0 0 0 0 0 0 > 0 q 0 0 0 q q r f q < q 1 k k k q N : v lXVXOX.X1X>XoX+XXX+X5X4XoX+X5XoX[.&X1X&X&XoX].}.}.oX6X*X&X&X&X&XMXCX#XP.} % ; , q 1 q N 1 m 1 < 2 < k r S t t f q 2 q 1 1 1 0 < 0 q q q q 0 k q q > 0 < 8 q 8 9 < < q 9 9 < 0 9 q q q 9 < > < < 1 0 q 9 , $ f.~.MX1X>X4X@XoX8XoX5XoX[.5X2XXX1X1X=X1X*X6X3X1X&X+X<X=X<X&X2X0XVXlXG.| h # & 9 r > 1 1 1 1 j k 0 t 9 9 r d 1 < 1 , 0 9 0 q 0 0 0 l q 0 0 < < = = = 7 0 7 0 0 0 7 5 r e 8 5 e w 5 w e e 8 5 5 8 e 8 8 8 6 0 e r e 8 e e e e e 8 6 8 0 5 5 5 8 0 8 8 e e 8 5 8 6 = 8 8 6 8 e 5 + 8 5 6 e e e 8 5 5 5 6 w 0 0 0 e 0 8 o 1 ~ 4 0 S l <       0 q 0 > 0 e t $ h.H.| 1.K.a.. D e 8 0 r r e r l G r z G q G N l l R KXKXKX",
"KXKXU O + + + 8 8 > + > 8 8 > + 8 + = = > > & . 0.p.....h r r 9 N r X     O w > 0 > - Q l < 0 0 8 0 e e 8 0 0 6 6 8 8 6 8 5 5 8 5 8 e 8 6 8 0 6 5 + 8 8 8 e 8 w 5 5 5 5 6 8 8 6 8 e 8 5 5 8 w 5 5 + 5 8 5 6 8 e 8 = 5 5 5 0 e 0 8 0 8 & + 0 0 0 8 8 0 r 8 8 r 8 < q k r q q q k < k k 1 N q 9 ; v kXCX`.OXXX]..X4X>X].[.oX[.{.[.+X<X1X'.*X*X[.&X*X0XoX+X6X2XoX2X7XCX/.*.i # * t 9 q j 1 j m 1 1 , q m m q d r l 0 > 1 q 9 , < 9 9 0 8 8 > < 0 0 0 > > q 9 < > > 0 < 0 0 9 0 < 0 q q 0 q q 1 0 q < < k k q ; : 1.~.VX;X}..X1X*X}.XX&X2X1X1X}.oXoX.X'..X-X.X=X&X{.{.1X2X;X=XBXmXlX3.o.. . 9 w < 9 k q 1 q k q 1 q 0 9 q t k q 9 < q 0 q q > 0 9 > 0 0 0 9 0 9 0 8 0 0 0 0 0 = 7 = 7 0 0 = = > = = 6 0 e 8 3 5 5 6 8 e 0 8 0 e 0 0 8 8 e e 8 8 8 e 6 0 e 8 6 8 8 e 6 8 8 5 8 8 6 5 8 8 8 8 8 5 8 8 6 8 w 8 6 8 w r = = = 0 6 5 0 < 0 - m ` > 0 r 0 r       r e 9 0 0 0 r $ a.L.:.<.K.a.. D 0 q r r e r r r r 0 l G K z r N N R KXKXKX",
"KXKXU X + + + > > + 8 + & > 8 + & = = = > > 3 . g.s.i.i.d 9 r l r r       O t 8 > = o Q N < 8 > 5 8 5 8 w e e 0 8 e 8 5 5 8 8 e 8 8 8 5 5 8 0 0 e 5 6 5 6 r 8 e 5 = O 5 8 e 8 8 e 8 6 5 5 8 0 8 6 8 e 8 5 8 e 8 8 6 5 5 5 5 8 6 > 8 8 > 8 0 9 8 9 8 0 0 > > 9 0 0 q 9 0 0 0 9 0 < q < ; q 1 9 ; u zXVX.XoX1X1XoX].>X1X1X=XXX&X<X1XoX6X1X[.].{. X{.oX>X0X@X@X8XMXnXQ.*.: # , t F 0 q j 1 < 1 q m q k k k q q q q 1 1 q q 0 < 0 > = < 0 q 9 0 < 8 9 > 0 0 0 0 0 > 0 0 < 0 q q q 0 q 9 9 0 q 9 < 1 t 9 q l q ; % ,.~.BX'.[.>X@XOX=X4X4X*X=X=X[.&X1X2X8XOX.X{.*X X<X<X1XXX7XMXnXI.} y % * t S t q k q q q k m m q q m 9 < < r q 9 9 0 < 0 q 0 < 0 > 0 0 0 9 9 0 9 8 7 0 0 7 = 8 0 0 = = 0 7 7 7 0 0 5 5 8 8 5 5 5 8 8 8 8 6 6 w 6 5 5 8 8 w 5 6 8 e 5 8 e e 8 8 5 5 e 0 8 5 5 6 8 0 8 6 6 5 5 6 8 6 5 6 8 6 8 8 w e 7 = - 0 0 0 7 = = X f ` < 9 r 0 0       0 0 e 0 e G S $ q.f.<.p.K.a.& P G z r N w e r 0 e r z l l z r q 9 L KXKXKX",
"KXKXU O > + + = + > > + 5 8 > > = = 8 5 0 > & . C.j.a.a.2 0 J r r 9 X     O e 8 > > o Q l 0 8 > 8 8 5 5 e e w 5 8 8 8 6 8 6 8 8 e 8 5 8 8 e w e e e 8 + 5 e 8 8 e 8 6 5 8 8 5 5 r 6 = 8 8 8 w e 5 8 e e 5 e e 8 8 8 8 e 6 8 8 6 8 8 8 0 0 0 0 8 8 > & > 8 0 r 9 9 q 0 0 0 0 0 < < k 1 < q < q ; b kXVX].{.=X.X4X1X@X.X+X5X*X>X>X;X}.[.+X4X6X=X*X&X}.qX>X$XCXVXbX3.v % $ % d 9 8 0 k j k 1 9 r N m q q q q q q 1 0 q q 9 0 9 0 < 9 q q q 0 0 0 9 q 0 0 > 0 0 r 0 9 0 9 0 q q < < 9 q 0 9 k q < < q q < k q 1 % 1.~.mX'.&X1X+X=X5X4X+X[.&X<X3X<X{.*XXXoX2X2X2X2X;X1X;X8XVXjXS.o.* $ , q 9 , q d N d q q q q q q 0 l q 0 0 0 9 0 < 0 1 0 q k q > 0 < > > < 0 8 8 9 < = 7 0 7 > 0 0 7 0 0 = = 0 7 0 5 5 6 8 8 6 5 e 8 6 8 8 8 8 8 8 8 5 e e 8 8 8 e 3 5 8 8 8 6 5 5 5 8 8 8 8 w e e 8 8 8 5 8 e 8 5 8 8 6 8 8 8 5 5 8 5 = = 0 0 7 < < ; N w.> 0 0 0 0       e 0 0 0 6 8 8 $ a.H.:.:.K.0.  e r 0 r N r w r r z l r 0 8 r l 0 0 L KXKXKX",
"KXKX) o > = + = 5 > 8 > = = + 8 > > 8 8 > > 3 . 0.,.....$ q K r z r X     @ e 8 < > - W 9 > 8 > w e w e r e 8 5 8 8 8 8 e e 5 8 e 6 8 e e 8 5 5 8 e e 6 8 e 8 5 5 5 e 0 8 5 6 8 e 8 8 8 8 6 0 e 5 8 e e 8 8 8 6 e e e e 8 8 e 8 r 0 > 0 0 8 0 0 8 & 8 8 0 9 r 0 0 0 < 0 0 k q < q q q 1 q 0 q $ c vXmX].{._..X+XoX4X+X+X=X*X1XoX1X2X@XoX-X*X[.2X<X X[.,XCXCX^.<.h * y y & q 9 9 k k 0 k N l r l q < < 9 m q 1 q 1 q 9 < 0 q l q l l 9 0 > 0 0 q < 0 q > > 9 9 > 0 0 0 9 q 0 0 > 0 9 < 0 q q 9 0 < q q l q : % s.~.VX=X X>X+XoXXXOX+XXX{.{.}.<X2X&XoX*X2X X=X=X=X4XMXCX^.:.u # : 0 < 1 1 1 p 2 g q q < 1 q 9 1 9 0 < q q 9 < < q 0 k 0 q N r < 9 0 > > 0 0 > 8 0 7 = 7 0 5 7 0 7 0 0 7 0 = = = 7 0 5 5 8 8 8 8 e 8 0 e w 0 e e e e 8 8 6 e 8 8 5 8 6 8 8 8 e e e 8 6 e 8 0 e e 8 6 8 8 8 8 e 0 8 w 0 8 8 8 8 6 5 6 5 0 0 7 0 0 0 > + N ` > > r r w       9 0 r 0 e 3 F . a.K.:.<.tXh.  S G r r P r r r N l l r 5 0 q l 0 9 L KXKXKX",
"KXKXU O = 8 + > > = 8 > = & + > > > 8 5 > > 3 o h.h... .> r r 8 r q +     O e = 0 < > Q 9 > 8 0 0 8 w e r e 0 6 6 8 8 8 e 8 5 6 8 6 8 e e 8 5 5 8 e r 0 6 0 8 6 5 6 e w 6 5 8 e 6 e e e 0 6 8 8 e 5 8 e e e 0 8 8 e e e 5 6 e 8 9 8 > 0 9 8 & 0 8 8 > 0 0 0 0 > < 0 0 < 0 9 9 0 q q q q q q q $ v kXVX@X&X7XOXOX@X@X1X7X;X.XXX6XoX&X=X-XOX*X+X1X[.5X8XBXjXG.} # o t F t 0 < 1 q 0 < 0 9 r r 9 9 9 > < q r q q q 0 9 q 0 0 q k q > 0 < 0 q q 9 < > 0 9 0 > < 0 > > > > 0 0 q q 0 < 0 > < q N q k 0 q 9 q < ; # p./.NXoX{.>X>X*X&X&X<X2X1X2XXX1X1X2X*X[.XX=X=X=X5XVXjXG.| $ o < 7 < 7 < k d 1 p m p 9 < q q 1 q k < 0 q N q 9 0 q 0 1 < 0 r 9 8 0 0 > 8 9 0 8 0 0 0 5 8 0 0 0 0 = 0 = 5 < 0 8 0 0 e 8 8 5 6 8 8 8 8 e 8 8 e e e w 8 5 5 5 8 8 6 5 e 8 5 5 8 e e e r r 8 = 6 8 8 8 5 8 8 8 6 8 8 5 = 0 0 0 8 0 6 0 5 0 e 0 8 8 0 0 + + q _ > > 0 r 8       r 0 0 0 0 5 S . a.H.:.1.K.i.  S D 8 8 N r r l l l l e 7 l l l r r L KXKXKX",
"KXKXU O = > + = = = + 8 8 8 8 8 > 8 8 5 < > & o g.p.|  .: q 9 z r q X     + 9 > > 8 > ! l 8 0 0 8 5 6 e e 6 8 8 8 8 5 5 e e 8 8 8 8 8 e 8 6 5 8 8 8 e 6 = 8 5 8 e 8 0 w 0 8 5 = 8 e 8 8 e e 8 5 e 5 5 8 e 8 8 8 w 8 e 8 5 5 8 8 0 8 9 0 0 8 > 8 0 0 0 0 t 0 0 0 0 0 0 0 0 0 0 < q 1 j 1 m l N $ v zXCX[.=XOX*X%X@X,X$X+X-X+X1XoX<X&X.X.X*X1X.X.X6XBXCXlX6.b * # 4 D t w m k < 1 0 0 e r t 0 9 q q 1 q N k q q q , q q q q r 9 > 0 > 0 9 q t 0 0 > 0 0 < > > 0 > 0 0 < > 0 0 q q q q 0 < 9 r q 9 0 q < 0 0 ; $ s.!.MX=XoX>X>X*X5X3X{.[.`.-XOX=X'._. X6X2X=X;X8XVXlX4.v y ; - z z 0 k k j q d d q q q q q k q q q 9 9 0 9 0 9 q q 0 0 > 8 9 0 0 0 < > < 0 0 9 9 0 0 8 7 0 0 0 0 = 0 7 = = 7 7 0 = 8 8 6 = + 8 8 8 8 6 8 8 5 6 5 5 8 5 = 6 e e 8 8 8 8 5 6 8 8 8 6 e e w 6 8 8 e 8 5 8 e 0 6 5 6 8 = 8 7 7 5 0 5 5 w 0 6 6 8 8 6 = > ; m _ 9 > 8 8 0       0 8 0 5 6 0 6 $ d.F.<.>.L.q.  H l 0 0 N e r e r r 0 r z l l l r q L KXKXKX",
"KXKXU o = > > + = + + 8 8 0 8 > 8 > 4 = 8 0 4 $ z.h.i.q.2 0 r l 0 9 X     X r 8 > > + Q l 9 0 0 e 6 8 8 8 6 8 8 6 8 5 = 8 e e 8 6 8 8 8 5 5 8 e 6 = 8 6 = 5 5 w 5 5 5 8 e 0 0 5 8 8 5 8 0 8 6 5 e 5 5 5 5 6 6 5 8 5 0 e 8 8 e w 8 0 0 t 0 0 8 8 = 0 0 0 9 0 0 r 0 q q 0 9 0 9 0 1 < q 1 q 9 N $ v zXmX[.[.;X*X7X*XoX+X+X&X'.XX<X].@XoX[.*X*X5X8XNXbX!.:.h . % 1 r e 0 - < j 1 q q r r w 0 9 q k < k q q 9 9 0 < 0 0 q q q 9 0 < q 9 0 < 0 0 0 9 8 < 0 < > 0 0 > q 0 8 8 < 0 < 0 0 q 9 < q q 0 0 0 0 < < k 1 % s.I.BX1X+X@X[..X X{.qX*X;X7X;X;X'.<X3X3X X4XVXnXG.} h $ : < > 0 0 = < 1 1 p l z < 0 q q k q q q q k 0 < > 0 < 0 0 < 0 0 < < 0 0 0 8 8 8 8 0 0 8 8 5 = 0 0 0 0 0 7 r 0 5 7 5 5 - - 6 8 8 8 6 8 6 8 5 8 6 6 = 5 5 = 6 5 8 e e 0 8 e 0 8 8 8 8 5 5 5 + 6 0 e 8 e 8 5 0 8 w 0 8 5 8 0 7 0 0 5 = 6 0 = 8 w 8 8 w 6 6 3 > + q _ 9 9 0 l 8       0 8 0 8 0 G t # i.<.3.S.R.a.. D r 0 = 0 S r 0 r 0 r 0 z r z l q q R KXKXKX",
"KXKXQ   8 8 + + + + + & 0 > > > 8 > > = > > & o g.f.h.i.; 8 l r r r o     O 9 8 0 < X Q q 9 r 0 0 5 8 8 e e 8 8 5 5 + 6 e e 8 8 5 8 e 8 5 6 8 8 0 5 8 w 8 8 8 e 5 8 e 0 6 5 6 8 e 8 6 e 8 5 5 8 r 8 6 5 = 5 e 8 6 5 8 e 8 0 e e & 8 0 8 8 9 0 0 = r r e 9 8 & 0 < 9 r k r e 0 < 0 < k q 0 > 0 . s SXCXXX X;X$X.X@XXXoX1X=X=XoXoX*X.X6X5X'.=XNXVX#XG.o.# $ , m 1 k 7 k j < k 1 1 k r r t r q k < < q q 0 < 0 < - q < 0 0 0 0 9 9 0 0 8 > > > > 0 0 0 > 8 > > 0 = 0 0 < 8 0 0 0 > < 0 0 0 q q q q < k 0 < q ; % f.~.NX1XoX>X+X=X=X[.&X*X-X-XOX;X;X*X3X6X9XVXbXG.} # # 2 m 1 0 r q f q k q 1 < q z k q k q q q l k 0 < 0 0 0 > < 9 0 0 0 8 > 9 r , 8 0 0 0 0 0 0 8 7 > 0 z 7 7 0 = 0 0 0 0 7 5 5 8 0 8 e e e 5 5 8 0 0 8 8 8 8 8 6 5 8 e r 8 6 8 e e w 6 e 8 8 8 8 5 8 e 8 6 5 5 6 e 5 5 6 8 5 6 0 < = 5 - 0 0 e - 5 8 e 8 5 6 8 8 9 > 9 ! 0 0 < 9 8       0 0 0 0 0 8 t # h.f.<.3.H.i.o S e 7 0 J S r e l l 0 0 0 r l J q 9 U KXKXKX",
"KXKX)   > + 8 + = > > = + = = + + 5 8 = < > o $ i.l.i..., 0 r r l k O       0 8 > 8 < L t > > 8 8 8 w 8 8 e 0 0 8 e 8 6 8 8 6 8 8 e e 8 8 e e 8 6 5 e e 8 e e 8 r 8 8 e e e 5 6 r e w 8 6 5 5 8 0 e r r e 6 8 3 e e e e 8 8 8 8 8 8 8 > & & 0 8 0 0 0 8 & 8 0 r 9 0 0 9 9 0 0 1 q < < q q 9 9 o s SXVXOX;X=XOX.XXX&X{.{.3X<X'.{.+X@X*X<X=XNXVX^.<.a . , 0 > q 1 1 j < 1 k 1 1 q q f r l 0 j k < 0 < 0 k k k 0 > < 0 9 9 0 > 0 9 8 0 8 8 8 0 0 0 0 8 8 8 0 r 0 & 0 0 7 > 7 < 8 < 0 r q 0 0 k 0 0 q l k < 8 2 % p.(.MX=X&X+XoX>XoX1X3X6X+X;X=X=X3X<X<X0XmX^.4.i $ $ 0 k 0 d d 9 t f f f , q < k 0 q k l q 0 < 0 < 9 q q q 0 0 q r > 0 9 q 0 - > 0 0 0 0 8 8 0 0 0 0 0 0 7 0 7 5 8 6 7 5 0 0 7 7 > e w 6 0 8 8 6 0 8 e 8 8 8 6 8 0 6 e 8 5 = = 8 8 8 e 8 6 5 5 8 e r r e 5 5 5 0 e 8 8 5 6 6 8 6 0 0 = = - 0 0 0 0 5 = O 6 5 6 5 8 < ; q ) 9 0 0 G 5     O 8 0 0 0 r 6 8 $ h.F.:.<.H.q.. H e 0 r r r r r r 0 0 z 0 0 l l z q U KXKXKX",
"KXKX) X > = + + + + = 8 8 > 8 > 8 5 8 = & 8 O $ g.J.d.o.* 9 0 q z 0 O     X 0 8 0 < & Q m 0 8 > r 8 e e 8 6 6 5 8 e 8 8 e 8 5 8 5 e r 8 5 5 8 8 8 8 e 0 6 8 8 5 w 6 e e 8 8 8 0 r e 8 8 8 5 8 8 5 5 8 e 8 8 8 5 8 8 8 e 8 8 6 8 = > 8 0 8 0 r 0 r 8 9 8 8 0 0 r 0 8 8 0 r 0 0 0 q q 1 < 1 r N $ s SXVX'.'.'.;X*X<XqX&X6X8X3X&X5XXX*XoX1XZX%XI.} # . 4 D 8 9 q ; 1 1 < k m q 9 9 t q 0 < - 7 j - < 0 q k 9 0 0 0 9 0 0 0 < 0 0 9 8 0 0 0 9 0 > 8 0 8 9 0 t 0 8 5 0 0 0 0 0 0 0 > 0 9 0 < q q q k < > q 0 < : % j.!.MX&X'.}.XX1X*X>X>X@X+X=X7X=X_.5XMXjXG.} * $ , 7 7 0 < 9 d f F t 9 t t k k j < < < < 0 < 0 < 0 z k q 0 < 0 0 r 9 > < 0 8 > < 0 8 0 0 9 r 9 0 8 0 0 0 0 = = 5 - 0 = 7 0 0 e 0 0 8 e 8 5 6 e e w 6 8 8 5 5 8 e 8 8 8 e 6 5 6 w 0 5 5 8 6 8 8 8 8 8 0 e 6 5 5 8 w e 0 8 8 8 5 5 e 5 - - 6 0 0 7 7 0 8 8 5 6 0 w 8 0 + 9 ! t > 8 f 8       8 0 8 8 7 r 0 . h.K.3.<.K.q.  H r 0 e r r r 0 r z r l e r z N q 9 L KXKXKX",
"KXKX) . + + > + + = 8 > 8 8 8 8 8 4 > + > > + > q.J.z...; 5 0 r z e O       w 8 9 > > ! q q 9 0 0 0 6 8 8 w w 8 8 8 8 e e 5 5 e 6 r S e 8 6 0 r 5 5 8 8 5 5 5 6 5 6 0 8 6 8 8 w w 6 5 5 8 6 w 0 5 5 6 8 6 8 e 8 6 5 8 8 8 6 5 5 > > 8 0 0 0 0 8 0 + 8 & > 0 8 0 0 0 0 0 0 0 0 > q k < < < k N $ s zXCXOX=X'.OX*X}.>X&X*X_.'.'.=X1X8XVXVX/.3.v . & t S t 0 q l q 9 q , t f r f q k m < < < < 0 < 0 q 0 0 8 < 0 q 9 0 0 0 0 0 8 8 > 0 0 9 8 8 & 8 0 0 0 0 0 0 > 0 < 0 0 0 0 0 < 7 0 q 0 < q r 9 0 q 0 q k 0 $ % j.~.BX;X X1X4X2X&X1XoX{.1X=X&X1XBXFX/.4.s # $ 0 > < 7 0 0 f 9 q d j 0 0 0 k l d q k r q q q k q r q 9 q 0 0 q 0 q 9 0 > > 8 8 0 8 9 r r 0 0 9 r e 7 0 0 0 0 = 0 0 - = - 0 0 0 0 7 5 5 8 + = 8 e 8 8 8 6 5 5 8 8 6 8 0 e 8 6 8 6 8 5 5 8 8 8 5 5 5 + 6 8 5 5 5 8 e w e e e 8 8 8 0 7 0 0 0 0 5 6 e 0 e 0 6 6 8 8 5 & > r L q < 8 f 8       0 r 0 0 8 5 8 : h.f.<.f.R.a.  H l 6 e t r w 0 r r e l z l r l r 0 L KXKXKX",
"KXKX/   = + 8 8 8 & 8 > 8 > & > 4 8 8 + > > 4 , i.l.i.X.1 r r e r 0 @     @ 8 8 > > > ! l 9 9 q 8 5 5 8 8 8 e e 5 6 8 e 8 5 6 e 8 5 5 6 8 8 6 5 5 6 8 e 5 5 8 8 5 8 8 5 5 5 8 8 5 7 5 8 8 8 6 8 8 5 5 8 5 8 0 6 e 5 5 8 e 5 5 8 0 8 8 0 8 9 0 8 r 0 r 0 0 t 9 0 9 q r 0 0 r 0 < 0 k q q 9 t r . s zXVXXX;X=X;XOXqXqX{. X}.=X;XOXMXNX$X!.>.: X 0 e t t t t 0 < 9 t f 8 t f t f t q B j 1 k 0 < 0 0 0 > > > < 0 0 0 8 0 0 0 8 0 0 > 0 0 8 & > 8 0 0 0 9 0 9 > 8 9 5 7 0 7 7 0 0 0 9 9 0 0 q 0 < < N l k q q ; % d.I.MX8X X}.)..X=X@X>X1XoXoX+XMXDXQ.*.h # , 0 q 0 < k q r f t , 1 1 j k 0 9 t d g q q 0 0 0 q 0 9 0 0 0 0 q 9 q 0 0 > 9 0 9 8 8 0 8 8 5 = = = 5 8 - = 7 0 = 7 7 0 = = 5 5 0 0 7 = 5 5 5 8 5 5 8 e 0 e e e 8 8 5 5 8 8 0 8 5 8 8 5 6 8 0 e 8 8 6 5 = 6 8 8 6 8 8 8 = 5 8 e e 8 5 8 r 0 0 6 5 = 8 r 8 8 8 5 5 5 5 - + N N N 0 9 0 0 +       0 0 0 r 8 8 8 # d.H.4.:.H.g.  G e 8 r r e r 0 r 0 0 l 0 r 0 l N 9 U N KXKX",
"KXKXQ X = = > = 8 > 8 + + > + + > 8 8 + > > > 2 a.U.-...: r r e e e O     @ 8 8 > = = W N d t 9 0 8 8 w 8 e 0 8 8 8 e e 6 8 0 8 = = + 5 e 0 6 = e 8 0 e 6 5 8 8 8 8 8 5 5 8 e 8 = 5 0 e 0 8 5 0 5 + 5 w 8 e e e e 6 5 8 e 5 5 8 0 8 0 0 8 0 0 0 0 0 r 0 8 t 9 0 < 0 0 0 r r r 0 < < q q 9 9 q $ s zXMX=X=X=X*X{.qX{.}.oX;XOX;XMXMX#XG.s . X 0 0 > q N k f l q q 9 r r r F r 9 0 9 k < 0 q 0 8 0 0 0 > 8 0 0 0 > 0 0 r 0 0 0 0 0 8 0 9 8 8 8 9 r 0 8 8 0 0 > 0 0 0 0 0 = 0 0 k 0 0 0 0 0 0 0 8 0 q q q 0 0 2 : j.!.mX*X}.@X4X1XoX.XoX1X@X4XFXSX5.s h # 4 r r 9 > 0 z q 1 m 1 1 k < 0 k j < 0 0 9 0 0 < 0 0 < 0 < q 0 q 9 0 < 0 0 0 0 e 9 0 0 0 0 0 8 9 9 t 0 8 8 5 8 0 0 7 = 0 0 7 5 < 8 7 0 7 8 e 0 8 8 8 6 5 8 8 e e 0 8 5 6 8 6 8 6 5 6 8 8 8 8 5 6 8 8 e e 0 8 8 6 5 6 e 8 8 + 5 5 8 w 8 8 5 e 0 8 6 5 5 8 8 6 5 5 0 0 = - = 9 B l 0 > 0 8 > 5       = > > 8 j 7 6 $ l.F.<.:.F.i.. D e 6 r r t r r r 0 0 l r 0 6 r q 9 L N KXKX",
"KXKXR X = + > + 8 + + = = > 8 > + 3 8 3 > > & : q.J.p...; 5 r G r e O       8 8 9 , - B Y B m 0 e w 8 e e 0 e e e e e 8 5 8 e 5 6 5 8 8 e 8 8 6 e 8 e e 8 8 8 8 8 6 8 5 8 e 8 6 5 6 e 8 8 6 6 8 5 5 8 e e e e 8 0 8 5 8 8 5 6 8 9 8 0 r 9 0 0 8 & 8 0 0 8 0 8 0 0 0 0 0 e 9 9 0 0 q 9 k q 0 9 o o.kXMX;X=X'..X+X<X3X1X+X7X;XVXDX/.<.y # t 4 > - , 1 q < 1 9 q q 9 l q r l l q 0 , < < q q < 0 0 8 9 k q > > 0 > 8 0 9 0 > 0 t r 8 0 0 0 8 8 0 0 8 > 8 9 0 0 8 8 z 0 0 7 7 0 0 0 - 0 < 0 0 < 0 r 0 < < < 9 ; % L.D.;X9X2X>X>XOX+X1X*X@XBXFX/.*.i * * t F 0 > q q q q 9 1 j k < k q k 9 9 q 9 0 6 q q k q 0 1 0 0 r 0 0 0 0 > 0 q q 8 > 8 8 9 0 8 8 8 > 8 8 8 3 5 - 6 6 0 0 0 7 0 0 0 5 7 = 0 7 0 6 e e 6 5 8 e 5 5 6 w 8 8 6 8 8 8 8 8 8 8 8 8 5 6 8 = 5 8 w 8 e 8 6 5 5 8 8 8 6 6 5 5 6 8 8 8 6 e 8 8 6 8 5 = 5 5 = - 0 5 = = 0 L m , + & < > 8 +   O X + = = 0 0 0 0 , J.F.<.F.H.i.  D r 6 0 e r G G r r r J z 0 0 r q 9 L N KXKX",
"KXKX) O = + 8 + + = + + 8 > = 8 + 3 8 3 > > & , ..F.d. ., r r 8 D D 3 @     8 8 8 < + 1 B f B f 0 e 8 8 8 0 e e r 6 6 0 5 8 0 8 = 6 8 8 6 5 8 w 8 5 6 e 0 e e 8 8 8 5 0 w 8 6 8 8 6 8 8 8 5 5 5 8 6 8 e e 8 8 5 5 6 8 8 6 5 5 5 8 8 9 9 0 8 > 5 0 0 0 0 0 r 0 0 0 0 > 0 0 0 8 < q q q k 9 9 9 o h lXmX=X=X=X=X&X>X>XoX*XMXbXjX!.} X & p # p d q q < < j j q d d 1 k j 1 1 q k k 0 > > q r 0 0 9 > q q 9 0 0 0 9 & 8 0 8 & 8 0 0 0 > 8 8 8 8 = > & 0 0 0 0 0 0 > 0 0 7 5 0 0 0 7 = 7 < > 9 < 0 9 0 q 0 < 1 ; * H.D.8X8X+XoX+XXX&X1X6XVXnXD.} u $ 1 > & < > 1 q g d f q 1 k k < < k f r 9 9 q 0 < k q 9 0 8 < 0 0 9 0 > > < 8 0 9 9 > + & > 8 8 > 0 0 0 0 0 8 0 w = = < 6 0 0 0 7 = 7 = = = 7 > 0 + 8 8 = + 0 e 8 5 5 5 5 8 w 8 5 e 8 8 8 6 8 5 = 8 8 5 5 5 5 6 6 8 e 8 5 5 8 8 8 8 e 8 8 5 5 8 6 w 8 e e 8 5 5 6 = = - 8 - = 0 H N 9 - + < 0 8 0 +       5 > 0 r 0 0 0 # U.U.3.1.K.-.. H e 0 5 r r t r N l r l 0 0 z r r z L f KXKX",
"KXKXR   = = 8 > > + > = > 8 + + = 4 8 + + > > 9 -.l.J.Z ; 9 t D D D O     @ 5 4 & < o o 9 d Y T 9 0 0 8 6 5 6 8 e 3 + 8 8 6 0 8 8 0 8 6 8 e r r 8 5 5 8 w 8 8 6 0 6 0 e 8 5 + 8 0 8 5 5 6 8 8 5 5 = 6 8 e e 0 5 5 8 8 w 0 8 8 6 8 > 8 0 8 + > & r 0 0 & > 0 8 0 > > 8 9 0 0 8 0 > < 9 q r N r . o.lXmX6X8X;X*XoX}.[.7XVXCX~.S.s   O 9 * g , d k m j j j 1 1 9 < < j j j < 1 q 9 0 8 0 l 9 < q 0 > 0 0 0 9 9 0 0 > 8 8 > 8 e 9 0 0 9 8 > > + > 8 + 8 0 8 8 9 0 6 = 7 8 0 0 0 7 0 0 0 > 0 0 0 > 9 > q 0 > t : * s.(.8X1X}.[.=X.XXXMXVXlX4.v o o , , < < < 1 l g q d d d 1 j k < < > 0 F f r q < j k r < > > 0 < > 9 < > 0 9 8 8 < > 8 > 8 9 8 8 0 4 8 8 r r w 0 0 0 7 0 = 5 8 0 0 0 0 0 8 7 0 0 0 6 8 8 8 6 5 6 8 8 8 5 5 8 e 8 = 5 8 6 8 e e 8 5 5 5 5 5 8 8 8 8 8 8 e 8 5 5 8 0 6 e e 8 8 5 5 5 6 0 e w 8 6 8 8 5 5 6 = - 6 l L < > < > = > 0 = O       8 = 0 r 8 8 + # W.K.:.2.F.X.o H 5 e 6 l e 0 0 r l 0 6 7 z z N q r Q r KXKX",
"KXKXL X > 8 8 + + > 8 = 8 0 0 = - - > , 4 9 o ; -.U.a. .2 0 t F S 6 + O     O 4 O 8 8 + + 9 B Y B q 9 9 0 5 6 w e 0 6 0 0 0 0 q 8 e e 8 6 8 0 8 e 8 8 0 e e 8 8 6 r r 6 5 = 8 w 8 6 8 w 0 8 5 8 5 8 e 5 = 8 e 8 5 5 8 e r 8 3 + 0 0 w 0 9 8 8 8 8 8 0 r t 8 & 8 > > < 7 z 0 > 0 k < < 0 > < 0 # s iXnXVXXX=X=X'.}.0XZXnXuX*.% . ; 0 9 , 1 q , d q 1 k 1 q q f q 9 q k k k l q q z q r q 9 9 9 q 0 0 0 0 9 8 0 t 8 9 t 9 0 0 0 8 7 8 0 0 7 0 0 > 7 0 0 7 > 0 0 0 0 7 - 5 0 5 = - 0 9 0 q 0 9 8 r q r r 8 t : y j.!.mX,X{.>X).-XVXDXwX*.2 . : 1 , > , < < q q d q 1 q q 1 0 k k q 0 9 q q r q 0 q z 0 9 0 < 0 0 0 0 0 0 0 < 8 > > 0 6 5 e e 5 5 r e w 6 8 8 8 8 8 0 5 6 8 = 5 e 8 8 e 8 5 8 0 0 6 8 5 6 0 e 8 8 5 = 8 e 8 6 8 5 6 5 5 6 8 w e 8 8 e 6 5 6 8 8 8 5 8 8 w 0 6 = 5 8 5 5 5 6 = 5 8 5 0 5 7 0 6 6 5 5 8 0 0 + < N N 0 & 8 4 8 < 0 - X X   O w w S 0 0 7 6 > # z.H.5.5.wXx.o q S D 5 6 r e r r G S 8 8 e F J r S R J KXKX",
"KXKXL X + + > + o > 0 8 + + > = 7 7 & & o 0 - 2 i.l.z. .$ r t F 0 6 +           3 8 8 3 & & p f T B k t 0 0 6 6 6 6 6 0 5 5 > 0 0 0 8 8 8 w 8 5 5 5 8 6 6 5 5 5 8 8 e 8 6 8 e e 0 8 e e e 6 8 0 8 5 6 5 6 r e 5 r e e 8 e 8 5 e 0 e t r w 8 8 w 8 8 8 t r e 8 8 r 0 0 0 < 7 0 q 0 0 l l > 0 9 : h wXnX4X8X[.'.).AXVXiX6.c   $ d > k 9 < q q 9 l q k q q q q q q q q 9 1 0 9 q q q 9 q t 0 < 0 9 0 q 9 0 8 0 0 0 8 0 0 8 > 0 0 > 0 0 0 0 5 0 z 0 > 5 0 = 7 = - 5 5 = 5 > 0 0 e 7 > r 9 0 q l 0 < < 0 r e 0 , h j.G.$X>X).@X+XVXDXk.b X - : > t N < > < 1 d q 9 l 9 q q q q q 9 0 9 N q 9 q 9 q q 9 0 < 0 > 0 9 0 0 < 0 0 0 < 0 9 e 8 = 8 r e 5 6 8 0 e 0 e 8 w 6 6 5 0 5 5 5 e 0 5 0 e 6 6 e 8 5 e 8 8 8 8 5 5 5 6 8 0 8 5 5 e e 6 8 8 8 8 5 6 w 8 w 0 e 0 8 8 6 8 6 8 8 8 6 8 e 5 5 8 8 5 5 5 5 7 < 6 6 6 5 6 6 8 8 > 0 r m q > & 4 0 0 7 O X     - r P S P l 0 z = o $ z.H.P.P.P.z.$ N D 3 6 5 e e r 0 S K r r r J J r J / t KXKX",
"KXKXU   + + = = o 3 8 = + > 8 8 6 8 , , + 6 - 2 u.Y.C.+.; 8 d 4 0 0 0 >         O 3 3 3 8 & > 9 M N N q 9 0 8 7 e 6 6 6 0 0 5 = 8 6 8 6 8 0 0 6 8 w e 8 8 5 6 8 6 8 8 8 8 e e 8 8 8 e 0 8 5 6 8 e 8 5 6 8 e e 6 e 8 5 6 8 6 5 e 8 w t 0 8 4 8 8 8 8 8 8 e e 8 & 0 0 0 < < > 0 q 0 q N k < < 9 1 h 3.CX,XXX).mXCXDXQ.*.: X o f t > < 9 0 q k < q q 9 9 q q q q r k z q 0 < 0 9 0 0 0 q q q 0 0 > r 9 r 8 8 0 0 0 8 0 0 > 8 0 0 8 z 0 0 6 = 7 0 = 0 = = 0 0 7 5 - 0 = 7 0 0 z 0 0 > 0 0 > 0 q 9 < 1 1 0 0 t f . -.S.nXmX>XBXFXlX| u $ $ : , > 9 q < > < 1 d 1 0 d < 0 q 0 q q 0 k k q 0 0 0 9 0 9 0 > 8 0 0 9 r 9 > 8 0 0 > > < 0 6 8 8 8 e w 5 e 6 0 e e 8 e 8 5 5 0 0 8 w 8 6 8 5 8 8 8 8 8 6 = 8 8 6 5 8 8 6 8 8 8 8 5 5 8 w 8 5 6 0 0 5 5 5 0 e e e 8 6 5 8 8 8 6 8 8 8 8 e e 6 8 8 6 8 5 5 8 6 0 e z 0 5 0 r 8 4 8 l N q ; > 6 3 4 0 =       5 l r z e G G P S 0 $ $ T.5.3.k.a.V.# r J D 7 0 5 e G z 0 z r l 0 r r r r U r KXKX",
"KXKXU X + = 8 = = 5 + + & 0 8 + 3 3 9 & + 6 - 2 a.l...b = 8 d , q 0 r q 9 .         O 6 8 4 8 > < q N N r < 8 0 6 e w 6 0 e 0 6 8 0 8 6 e r e e e e e e 0 8 8 0 8 8 6 e e e 0 8 5 8 8 6 8 5 6 0 e 5 0 e 8 5 5 8 8 e 8 0 e 8 8 e 0 w 8 8 8 8 8 8 8 8 w 0 0 8 8 8 0 0 0 0 0 0 0 q q 0 q q < 0 q 1 % b iXDXmX;XDXkXk.c   o < r N & < 9 < < < 9 < 9 q 0 0 9 q l k q q q q q q k q 0 q q 0 9 0 q 0 < 0 r 0 8 9 0 0 0 > 0 8 8 0 0 0 & z 0 0 r 0 0 0 7 0 7 7 0 0 0 6 0 0 0 0 5 8 7 0 7 8 = < > l 0 9 1 1 1 1 > e F . h z.DXFXCXDXG.o.* . : p p > 9 r 9 q k 1 1 1 q d r < < k 0 0 k k q k q 0 0 k 0 > 8 9 > 0 < > 0 9 0 > < 9 9 9 0 0 > 5 8 0 6 8 8 0 e 5 e e 5 8 6 5 + 5 0 6 5 8 0 5 8 5 6 w 8 5 8 8 5 5 5 5 8 w 8 8 8 6 5 8 8 8 8 5 5 = 8 8 e 8 5 8 8 8 e 8 8 5 8 8 e 8 8 5 8 8 8 6 8 8 8 8 8 8 6 5 8 6 5 5 5 5 5 0 r 8 8 r N f < = 0 = 3 = ; .     3 r l 0 l l S H P 9 $ 7.U.H.k.5.z.W.X.. 8 e G 0 K l z r 0 0 G r 9 r r r 0 0 L N KXKX",
"KXKXU   + > > + 0 8 + + 8 8 + O 3 4 & & 4 e - c z.>.a.q.< z k k l z B l N > X       O - 7 6 5 - o > N K N 9 0 q 8 0 0 8 e e e e 6 0 e e e e e 0 e 0 w 0 e 0 6 8 5 8 8 e e e 6 5 6 e e 8 8 6 8 0 w 5 8 e 8 5 6 8 5 8 8 e e 8 6 0 8 0 8 4 4 8 8 8 8 t w 0 0 8 8 8 7 0 7 0 0 z 0 0 0 0 < 0 < q q 1 q . b uXJXDXP.o.% # o 0 0 - < < < q q 1 9 q 1 < q < 9 < q k q 9 < 0 0 q 0 q 0 < l q 0 > 8 < 0 r r 0 0 8 > 0 0 8 8 0 8 8 8 0 8 & 0 = 0 0 0 0 0 0 0 = 7 0 0 = 5 0 0 e 0 7 5 0 0 0 8 8 0 0 r < 0 t < 1 r r t t 9 # v Y.SXkX2.$ # # y , , 9 0 t r q k m k 1 1 k q q 9 q q 0 0 0 < 0 r z 0 0 9 9 0 < 0 < > 0 > > 0 < 0 9 9 0 0 9 0 < 6 5 5 5 8 e e 8 8 8 8 8 6 8 6 + 6 8 5 = e e 5 5 8 6 8 5 6 8 6 w 5 5 5 5 6 8 5 + 5 5 5 8 8 8 8 5 w 0 e 0 e 6 5 8 6 5 8 e e 0 8 5 8 5 6 8 8 5 5 5 6 8 8 8 8 6 6 8 0 6 - 5 7 0 7 > 8 9 l q 8 & > 5 O 7 - X     & F r z k K r G P S #  .sXyXQ.:.| C.Z.# o t 8 8 0 9 G z 0 0 0 l q r r J l r 0 I f KXKX",
"KXKXU O 8 = + + > 8 8 > = > 8 8 4 6 > = 5 6 X 2 wXL.a...X r l 7 z z G 0 F F f +       X O 5 e = + = < N N N q 9 0 9 0 w 8 8 6 8 5 8 e 8 w 8 6 8 5 5 5 6 6 0 5 5 5 5 0 e e 8 8 w 5 8 e e 8 w 0 e 8 = 5 e e 8 8 5 6 8 8 5 8 6 5 8 t 0 8 5 8 w 0 8 t 8 0 0 0 e w 8 > = 0 < 0 0 q q < 9 q 0 0 0 9 t N 2 X u } o.% # $ 8 9 0 z j - < , < 9 1 q q 9 < 9 q q 0 9 q q 0 q 0 q 0 q 0 < 0 q 0 0 0 0 0 0 9 9 0 0 0 8 8 8 < 9 9 9 > > 0 0 0 6 = - 5 - 6 0 8 0 7 5 0 7 5 5 0 0 6 0 = 6 0 0 0 8 q 9 < 9 > 8 > r 0 r r 0 & f & . o & : o X , 9 d q > 0 r e r q k q < k 1 < , 0 q q q 0 < 0 q 9 q q 0 < 0 0 0 0 9 0 > 0 0 9 0 8 q 0 > & > 0 0 8 5 0 8 8 e 8 6 5 5 5 8 0 e 8 8 5 5 5 = 5 6 e 8 8 8 5 5 8 8 8 8 0 8 5 5 = 5 8 6 5 = 5 5 6 e e 0 e e 8 5 8 8 8 8 8 e e 8 8 e e w 8 5 5 8 8 8 6 5 5 5 0 8 5 0 8 5 0 e 6 6 0 0 0 - = t N q > & 8 > + 7 - X   . & f P J z z z 0 K f 4 +.pXJ.1.4.*.i.Z.g @ 4 w 0 8 0 X 5 0 l z z 0 0 J r r J J r E J KXKX",
"KXKXU o = = > + + + + > = = > 0 3 8 < ; 5 5 X 2 x.Q.3.-.; 0 G D 6 6 r 5 r f J w =         3 6 6 7 = = 0 N N m N 9 9 0 9 e e 6 6 6 8 e 8 8 8 5 5 5 8 5 8 8 w 5 6 e 8 8 8 8 5 8 e = 6 0 8 8 8 8 8 e 5 6 8 8 e e 8 0 e e 8 0 8 8 e w 0 0 8 8 8 t 8 w 0 8 8 t r w 4 = 0 0 5 = 0 0 < 0 0 9 0 < 0 0 t > f 1 o . . % , 4 w < < j < - j < 0 q q q q q 0 0 q 9 0 0 9 9 0 k 0 q q q 9 0 0 = > q q 9 0 8 8 e 0 0 e 8 > 8 9 0 e 0 8 8 t r 0 r e 8 e e e e e 0 0 w 0 0 8 e 8 0 6 5 5 0 8 0 8 0 9 0 8 8 8 & 8 r 9 8 k 0 ; q ; , * # . ; > q > & 0 0 0 8 0 0 z 0 - 1 < k 9 < 0 q 0 0 < q k k 9 0 0 0 < 0 < > 0 r 0 0 0 0 0 9 0 0 0 0 8 8 0 0 > 5 w r e 0 5 5 8 5 = 6 e r e 6 8 8 8 6 5 5 8 e 6 e 8 5 6 0 0 8 8 8 w 6 5 5 8 e e 5 5 5 5 6 8 6 e 6 5 5 6 8 6 e 8 e e 8 8 5 6 8 8 8 5 6 8 8 5 5 8 5 e 6 5 8 8 5 6 5 7 5 5 0 = > > N z > = + 8 4 8 7 O X   8 F Y t r r H G t N , V pXT.4.4.*.2.E.x @ t w @ & 0 > & = = 0 0 l K r r r q r r q Q Y KXKX",
"KXKX/ + & + 8 > 0 8 + + + + + + + 5 > o - 7 - m z.2.2.,.u f D D G 6 G e P w D S J X         6 6 8 8 - = 9 N N Y k < 9 r r w 8 6 8 e 8 e e e 8 5 e e e e 8 8 8 0 r e 6 5 6 5 8 8 = 8 8 6 w e 8 6 e w 0 e 8 8 e e 8 w 6 8 e e e 8 0 r w 8 8 0 r 8 8 0 t w 8 8 0 8 - 0 0 0 7 < 8 > > 0 > > < 0 < 9 t 8 0 q 9 0 & w D S r j - < 0 7 k q q q 9 q k 9 0 q 9 < < 0 q 0 0 q q k z 9 0 0 > 0 0 9 0 0 0 q 0 0 0 9 0 8 8 t + 0 0 0 9 0 0 8 5 = 6 0 6 8 8 5 0 e 6 5 8 0 0 6 5 5 = 0 e e 0 0 r 0 = 0 0 0 8 r 4 r t 1 1 k < < ; t 0 & r 0 8 9 9 t 0 t r r z k k k j < 0 N r < q 0 8 < 0 0 0 0 > 9 9 0 0 0 < 0 0 8 0 0 0 0 9 8 0 r r r r r 0 > 8 8 6 8 e 8 6 0 5 5 5 e e 8 5 8 e 8 8 8 = 5 8 5 e 5 5 8 e 8 5 5 = 6 8 5 5 5 0 e 8 5 5 6 5 = 5 5 5 8 8 w 0 5 5 5 + 5 8 e 8 8 6 5 8 8 0 8 8 5 6 8 8 e 8 5 e 8 + e 6 e 0 0 = 8 k K m 9 - > 8 3 8 w X X   = w F Y J z G H r , y Z E.L.2.4.*.;.rX9.# t 4 w D o 8 + + 8 < - O > l l N N N q r 9 U K KXKX",
"KXKX) X 8 + 8 > = 8 > 8 > + & + > - - - - 6 & o 0.U.F.U.x.u > S H G z H H H D H e J 9 .     3 O 0 = - = - > d B L d > < 0 w e e 8 e 8 5 5 8 8 8 8 0 e e e 8 w 8 0 5 5 5 8 8 e e e 0 8 6 8 0 8 8 r 0 6 5 5 8 8 e 8 e 8 8 w e 6 5 8 t w 0 t w 0 8 t 8 + 8 t r 8 8 0 0 0 - = 0 0 < 0 0 < 0 q < > 8 > 9 r 0 < < 8 8 D S F t < < < 0 q 9 q r q < 9 k 0 < 0 0 q r 9 8 < 0 0 0 8 0 k > 0 > 0 0 8 r 0 8 8 8 0 0 0 8 > 8 > = & = > > 8 0 8 6 8 8 8 6 5 5 0 8 8 8 r e 8 8 e 6 5 5 8 5 8 8 0 8 & + & 8 0 0 = < 0 0 < 0 0 < 0 9 t 9 0 t S r q r l r q k z k 0 j q < > 9 0 r < 0 0 < < 0 0 > 0 0 = = > > 0 0 0 0 8 8 = 8 9 9 0 0 > r 0 9 8 8 8 e w = 5 8 w 8 8 6 6 e 8 8 8 8 e e e 8 0 0 8 8 8 6 5 8 5 + 5 8 0 8 5 8 8 6 + 5 8 e 8 e r 5 O 5 5 5 6 8 e e 0 w 8 8 8 8 8 6 = 8 8 8 8 8 8 5 8 8 r e 6 = 8 e 0 8 6 e 8 > 8 9 K B + < < = 8 0 w O     8 F G G H G 6 H H r ; v T.L.3.4.2.;.U.C.# & 0 w 6 6 = + 8 8 0 < 0 = < 5 0 q l J l 0 9 L L KXKX",
"KXKX) X = + > 8 + + = = = 8 > > 8 = < - 7 8 8 X * V.Y.d.z.x.M > k K H G G D G D S J r 9 X     @ = 7 0 5 + = , q Y B N 9 8 8 8 8 8 8 8 5 8 e e e e e e 8 e 8 8 0 5 6 8 e r e e 8 e e e 8 6 8 w 8 e 8 5 5 6 5 5 5 6 e 8 5 8 8 = 5 8 0 0 t 0 0 8 8 8 8 0 e e r 0 8 0 e e e = 7 0 0 0 9 0 0 0 0 < 0 , 9 0 8 q q q 8 w D S 4 > , 0 8 0 < 9 q q 9 0 q 9 0 9 9 q q q q q 0 < > = < q r 0 > 9 0 0 0 0 > 8 9 0 0 8 8 8 0 8 8 8 8 8 8 0 0 e 8 8 8 0 8 0 e 8 8 6 5 8 5 6 e 0 8 8 6 6 = 5 5 0 8 8 8 > 0 0 8 0 7 < = 0 8 0 t 0 9 < > > 0 w w 0 q 0 1 < 0 < < < < < 0 0 8 0 r < 0 0 < 0 q q 0 < 0 < 0 0 > 0 0 e 9 0 0 0 8 8 8 0 8 & 0 8 8 8 > 8 e e 6 6 0 0 0 e 8 8 8 8 8 6 e e 8 0 w 6 8 8 6 8 w e 0 6 = 5 6 e 6 8 8 0 8 6 0 e 8 5 6 6 5 5 0 8 8 8 5 5 5 8 e 8 6 5 5 8 6 5 8 5 6 6 8 5 8 e e 5 5 6 5 5 5 e e e 8 e = + J k > > > + > 8 8 3     0 t J G r D G ( 6 r 1 Z E.eX1.:.3.3.J.0.# . f 8 5 5 - 8 8 4 4 8 = > - = - > 8 > 9 r r k L K KXKX",
"KXKX)   8 = 8 > + & 8 > 8 8 8 > - = 5 5 5 6 w 4 # h ..h.k.x.0.b m k K l D D { P F J Y Y f X       5 e 5 = > > , d L L N q 9 0 0 6 8 6 6 6 e e w e e w 8 6 8 w 8 6 0 e e e e e 5 8 e e 8 5 5 8 8 8 6 5 8 8 8 5 8 5 8 6 5 8 6 5 5 0 8 w 8 8 8 8 4 0 w 0 0 w 0 8 t 0 > 6 0 5 5 0 9 q q 0 9 9 0 0 9 r 9 t 8 9 k q 1 0 r t 9 1 1 9 9 9 0 0 q q q 9 < 0 > < 9 q q 9 r 0 0 0 0 0 = 0 z 0 0 r 0 0 0 7 7 0 0 0 0 9 0 0 8 0 > 8 9 0 8 8 0 8 8 8 e e 8 w 8 8 8 8 6 6 5 5 8 8 8 0 e 8 8 8 8 t e 0 0 0 0 9 0 e w 0 < 0 0 t D e r , 1 1 t D S l q q q 0 q < 1 < 0 0 q 9 0 t 9 0 0 0 0 0 0 0 0 < 7 0 z 0 0 0 0 0 0 9 9 0 8 > & 0 8 & 0 > 0 8 0 5 8 8 5 5 e e 8 e e e 8 6 5 8 8 6 e e e 8 5 8 e 8 w 0 e 5 = 5 6 e = 5 8 e 5 6 r r 5 = 5 = 5 w e e e 0 6 5 5 6 0 6 8 6 5 8 8 6 e 5 6 8 0 6 8 e r + = 8 8 5 5 6 0 r 0 8 - k K = = > + + 8 8 o     4 F J l J G H H H e + X.dXU.4.:.>.4.T.g.# . & & + - - 5 3 8 8 8 8 5 = 7 5 = = > = = 8 r G U J KXKX",
"KXKXR X + + 8 > 8 > 8 8 > 0 > 8 + - 5 5 5 0 w 4 t * h 0.x.2.,.g.Z < < k G D H P e F r r f 9 O     O 5 5 > > > > , m L L N f 9 > 0 0 0 8 8 8 e 8 8 5 6 8 0 8 8 6 8 0 8 + 5 6 e w e e e 8 8 6 w e w 8 8 8 0 e 0 6 5 0 e 8 0 8 8 e 8 8 8 8 t 8 0 8 w 0 8 8 8 8 8 r 7 7 7 0 0 0 0 8 0 0 0 > 0 0 < 0 0 0 t 0 , 1 1 1 0 0 0 1 1 1 9 9 N q 9 < 0 q q 0 < 0 9 r q 0 9 r < 0 r q 0 0 - 0 e 0 z r = 8 0 r t 0 0 0 0 9 r 0 0 0 0 0 0 9 8 8 6 8 e e 8 8 5 6 6 w 0 e e 8 5 0 6 8 e 0 0 6 w e 9 8 8 8 8 8 0 8 w 6 0 0 9 0 w D t 0 < < 1 9 D S r q < < < < 1 0 < 0 9 r r 9 0 0 0 < 0 0 k 0 0 < 0 0 0 0 0 5 0 0 8 0 8 0 > 8 8 8 0 0 0 0 8 > 8 0 5 8 8 6 8 8 8 6 8 8 8 8 5 8 6 8 8 e e 8 8 6 e e 8 8 5 5 5 3 8 e 6 3 5 e e 5 5 e e 3 5 8 5 5 e e e 8 0 8 5 5 = 8 0 8 8 8 8 8 8 e 8 8 e e e e e r 8 8 6 8 e 0 8 5 3 9 + 9 U 9 = > 8 > > 8 @     3 F F r k l z H l G X V aXrX;.4.:.1.rXC.y # f 0 0 - + = = 5 4 3 6 = = 7 = 0 = 8 8 0 3 o & 9 K KXKXKX",
"KXKX/ o > > + 8 8 > = = = 8 8 > 8 5 8 8 5 8 4 3 3 4 * $ q.x.s.a.u.n 2 m 0 S H G P K r r J N f +       + 0 > > > = < m N L N 9 o 0 e r e 8 e e e 6 5 8 e e e w 8 + 8 8 6 6 0 e 8 e e e 8 8 e e 0 8 e 8 8 8 8 0 5 8 e 8 8 8 8 e G 8 8 8 0 w w 0 8 0 8 w t r w 0 0 0 0 0 0 0 0 9 0 > 0 < > 0 0 0 1 - 1 0 9 1 1 1 k , < > < 1 , 8 8 9 9 0 < 0 9 9 q 0 q N r 9 9 0 < 0 z 0 7 0 0 < 0 0 0 z 0 - = 0 0 9 0 0 0 9 r r 0 r 0 9 r 0 0 8 8 6 8 8 8 8 e 8 e 8 0 8 e r e 8 8 6 w 8 8 6 5 8 8 0 8 8 0 8 9 0 8 6 8 < 1 k 1 9 w 0 < < ; 2 < > < t 9 1 < < q q t k q e r 0 0 0 0 0 5 0 0 0 0 < 0 0 0 0 z 0 0 0 0 0 9 0 8 8 > 8 > 0 0 0 8 & + > 8 e e e e 8 5 5 5 5 5 8 8 5 5 8 8 e 8 8 8 8 6 8 8 e 6 5 5 5 8 8 e 8 5 5 e e 8 8 8 6 = 8 e 6 8 e 8 8 6 6 8 8 6 5 5 e 0 e 6 0 8 8 e 8 8 8 0 8 8 8 8 e 6 5 8 e e 8 5 > - t L r + 9 8 3 8 8 @     3 r F F J J G z H > h g T.U.>.2.f.s.Z.C.: . 0 4 5 7 = - = 7 5 5 3 5 5 = 5 5 = 7 > 0 & 8 0 8 5 8 KXKXKX",
"KXKXU X + 8 + 8 > > + > + > 8 > > & 8 4 3 4 8 3 e 5 = X - X.x.;.z.q.Z x - l I e r l e N J l J r X     + > 8 > > = = < f B B g & 8 w e w 8 8 8 e 8 8 8 0 0 e e 8 6 8 8 8 8 8 0 8 e e 8 8 0 e e e e r e 6 8 e e 6 8 e 8 6 5 5 8 r 8 8 0 w r 0 8 8 r w 8 w 0 0 w r = 0 0 7 = 7 0 0 0 9 9 0 0 0 0 q < - < 9 r q 1 1 1 < < 1 < 0 0 0 0 q q q 9 < 0 9 t r q < < 0 9 8 0 q 0 < < 0 0 7 z 6 z 0 = = 5 0 0 0 0 8 0 9 0 8 0 8 0 0 0 9 8 > e 8 8 5 6 8 e e e 8 = 6 e e w 6 8 e 8 6 8 0 e e 0 8 0 0 0 0 0 0 8 8 < < 1 2 0 r 0 7 j 1 1 1 q 9 0 0 0 9 q q q r 0 0 0 0 0 8 < > 0 < 7 < 7 0 0 0 0 0 0 0 0 0 5 = 8 0 0 0 0 0 8 8 8 > 8 > 8 + 8 0 8 8 e 8 8 8 6 5 8 e 8 6 5 6 0 e w 8 5 5 5 8 5 5 e 0 6 e e e 8 5 0 5 6 0 0 8 8 8 8 5 8 8 8 8 8 8 0 8 8 8 8 8 6 8 0 w 8 0 e e 8 e 5 6 5 5 8 6 8 6 8 8 8 5 8 6 7 = < , L N > > 8 8 w 4 @     o r J F r G H H K k ; h sXU.:.2.<.,.z.C.: . 9 t e 8 = = = > - 5 3 5 3 7 5 = 5 = = 0 0 8 8 r 0 8 KXKXKXKX",
"KXKXU + + 8 & 8 > 8 + + > 8 > = + + 3 4 3 6 j - X - 7 e o o 7.Z.l.i.8.X.x 9 l G G G J K K l I { e o     + = 0 0 = > & , g B B B 0 0 8 8 8 8 8 e 8 8 e 8 6 8 8 e e w 8 6 6 8 8 0 8 e 8 6 8 e w 8 8 e e 5 8 e r 6 5 w e 8 6 3 8 r 8 4 8 0 0 0 8 8 0 0 8 8 5 8 8 e 5 6 0 0 = - 8 > 0 q q 0 0 0 0 9 < 0 0 0 0 k < < t 9 9 t 9 0 0 z 0 q q q 0 0 , 0 9 9 < > 8 9 0 < > = > 0 0 0 7 = 0 7 0 0 5 7 6 8 8 8 8 8 8 t 0 8 8 = > 8 9 8 > 4 e 8 6 5 5 8 8 8 0 8 + 5 0 e 5 6 w w 8 w 8 e e e 4 + 8 8 4 > 8 > 8 0 0 < > t t 0 5 8 0 7 0 0 9 0 0 8 8 8 0 0 0 0 8 w 8 0 8 8 > 7 7 < 0 7 7 < 7 < 0 0 = 0 0 7 8 8 8 w 8 0 t w 8 0 8 4 8 4 0 8 0 0 5 5 5 5 6 8 8 e e e 8 5 5 8 w e 0 8 5 5 8 8 6 5 8 e e e e e 8 5 6 8 8 5 6 8 e 8 6 8 8 5 8 8 8 8 e 8 8 w 8 8 6 0 8 e 6 8 e 8 8 e 8 8 8 6 8 8 8 5 6 8 0 6 = 5 5 5 , l N > 8 0 + 8 3 O     O 0 l J L N G G H D & a W.U.H.<.<.>.a.g.2 + 8 r w 3 5 = < > > > = 5 5 7 0 5 5 5 6 8 0 0 0 8 r r 0 KXKXKXKX",
"KXKXU o + > + 8 8 > + + + + + + $ + + 4 + = 7 - - - 5 3 4 > . n d.,.x.C.0.2 < B H K G K G r G P L e O     O - < = < > o > B T A N r 0 0 e 8 8 6 6 6 w e e 8 8 8 e 8 8 8 e e e 8 6 8 e e 8 8 0 6 = 6 5 + 6 e r 8 5 8 e e 8 5 w r w 8 3 8 8 5 3 4 5 8 t e 8 + 5 5 0 = - 0 0 7 > = = 0 0 > , > > < 9 r 0 0 7 - - 0 q , 0 , < = < j < < 0 > < 0 9 0 q 0 0 0 9 0 0 > 0 - 8 0 0 7 0 0 0 = 0 0 0 0 0 0 8 0 9 8 0 0 0 0 8 + 4 0 0 8 0 0 8 8 5 5 0 e 0 6 w 6 5 5 e 0 5 5 e w 8 6 8 8 6 5 0 4 8 8 > 0 0 0 > 0 0 > 8 w e 6 e r e 0 5 0 w 8 f t 0 0 r q t 8 9 w 0 w 0 < < 0 0 0 0 < > 0 0 7 0 0 7 7 5 0 0 w 8 9 8 8 8 8 8 8 0 0 w 8 0 8 8 4 e 8 8 5 8 5 8 e 8 w e 8 8 e e 6 6 8 6 8 8 0 8 5 8 8 8 e e 0 e 8 = 8 e w 8 r e 6 = 8 5 5 6 6 5 8 5 6 8 0 8 5 + 5 8 w 5 8 8 6 5 8 8 8 8 w 6 5 5 5 8 8 8 0 8 0 0 0 N q - & 8 8 t + O     O 8 r l l l S H H I 0 a W.R.3.#.3.:.a.x.2 . & D w 3 6 0 5 0 0 0 > 8 6 6 e 0 5 + 5 8 0 8 8 0 5 w 0 KXKXKXKXKX",
"KXKXP o 8 8 0 8 8 8 8 + 3 8 + + o 3 4 3 8 8 > + = = = O + + + o v x.z.,.a...V h l z z H G 7 r N N K l +     X ; < < , > 0 0 t ~ B m m 1 9 0 w w 6 w D w 6 0 e = 0 5 = 0 7 0 = - r 6 = 0 0 5 5 r 7 = 7 0 0 0 r z 5 7 0 e 0 7 = 7 0 e 5 = 0 7 5 0 8 - 0 5 = r 7 5 = > 8 8 5 < < > < - > 0 < - < q q k 0 = 7 - < 0 0 0 0 < < k 0 < < 0 q 0 0 < 0 k < 7 = < < 0 0 = 7 5 6 0 5 5 8 0 0 = 5 e e 8 0 0 8 8 w w e e w 5 5 6 6 6 8 w e e 8 8 8 e 6 8 r 5 0 e 0 8 6 8 5 5 0 5 5 8 8 5 8 8 5 6 8 8 e e 6 5 0 8 e 8 8 8 0 e w e w 0 w e e 8 9 0 0 0 k 0 0 z q > 0 0 5 8 q < 0 z 0 0 0 0 0 0 = 8 0 0 0 = 8 8 0 6 0 0 = 5 0 e e 5 5 r e 0 6 5 0 0 6 6 6 8 6 6 r e 6 6 6 8 e e 6 6 6 5 6 r e 6 r 6 5 0 6 7 5 e 5 0 e 0 0 5 0 e e e 7 6 5 = 5 8 e 8 e e 8 5 5 5 5 3 6 5 5 6 5 5 5 6 6 e 0 5 = 8 0 = > 0 = 0 0 0 N < = > 7 8 5 @     @ f t 8 I r P I F r 1 x E.wXs.<.#.<.i.Z.V   0 = 5 8 = 5 8 + > 8 8 0 > > 8 8 = 8 > + + 0 0 8 r t 0 KXKXKXKXKXKX",
"KXKXI 5 3 3 8 4 8 + = 3 + 5 3 + + 8 5 = + 8 0 3 + = + 5 3 8 4 > X b i.p.p.d.i.+.1 - z H e 6 9 < N B J G 3     X - > 0 4 8 8 < B @.B 1 q r 9 8 8 w D 6 6 6 0 0 7 r 7 6 5 = 6 e 6 8 6 7 0 0 6 5 0 6 0 5 7 6 w 6 0 5 0 e e 6 5 5 7 e w 6 7 0 5 8 e 5 5 6 5 6 e 0 0 0 0 8 8 0 0 = 8 0 < 0 8 < < - 0 0 0 0 9 0 0 0 q < 0 < 0 0 0 0 > = - 0 0 0 0 0 0 0 = 0 0 = < > = 0 0 0 0 0 6 e e e 6 0 e 0 8 6 8 8 8 w 8 8 6 6 3 6 8 e w 8 8 6 5 6 5 8 0 8 0 0 5 5 6 0 6 8 0 8 0 0 5 5 8 5 5 6 0 = = = 5 6 0 0 5 5 0 e 8 8 8 8 e 8 8 8 0 e e 8 0 8 8 < 5 7 = 5 0 q = < 0 - 8 0 = 7 8 8 8 0 0 0 7 r e 0 0 - 7 8 w e 8 w e 6 0 0 e 5 6 8 5 5 0 5 5 6 6 0 6 8 6 e 8 6 0 6 5 5 6 7 5 5 5 5 6 6 e 8 6 e 6 7 6 6 5 3 5 r 0 6 6 6 6 5 + e 0 0 r e 0 6 8 e 6 6 e 6 6 6 w 8 6 8 8 8 6 e w 3 6 e r e 6 - 8 = 7 0 - - < z l q < = r r 6 O   . @ , F F G G G F f t 1 2 Z.rX2.:.:.<.R.C.V   l 0 = 8 > > 8 0 > + > + + + > > 8 + = + 8 0 0 0 0 r r KXKXKXKXKXKXKX",
"KXKXKX0 8 + + 4 4 5 + + + 3 + + 5 > 5 + + 3 8 + = 3 5 5 5 8 5 & ; . a g.z.L.l.x.O.g t P G D I l k 0 N L P 3     X 3 0 > > > + 9 B W L m > < 0 6 e 8 6 6 w 6 0 e e e e 5 5 w e 6 8 e e e e e 6 6 e w e e w 8 8 8 0 8 w w 8 5 6 0 e 8 8 8 6 5 6 6 6 e e 6 5 e w w 0 6 6 6 e e w w e e w 8 6 5 8 e < 8 0 0 0 0 0 0 = 8 8 8 0 0 8 > 0 0 8 0 0 0 0 > 0 0 r 0 8 8 0 0 0 0 0 5 8 0 0 0 8 = 7 0 8 5 > 5 e 8 8 w e 0 8 5 8 8 w 0 0 e 5 5 6 0 0 0 0 0 5 7 - 0 8 8 0 0 0 0 0 7 8 7 = 7 0 0 7 = = > 8 0 0 0 8 8 8 5 > 8 8 > e 8 8 0 0 0 8 e 0 r t w 0 0 e t w 5 7 0 4 8 w 8 = 4 5 8 t D 0 8 w w w w 0 w 8 8 5 = 5 0 = 7 0 5 8 0 0 5 5 7 0 7 5 5 8 0 e 0 e e 5 0 0 8 8 8 8 8 5 0 6 0 e 8 8 8 6 e 0 5 6 0 0 8 5 5 - 5 = 0 0 0 5 8 0 0 0 5 = 8 w 6 8 w 8 8 0 0 8 6 8 5 6 8 8 0 5 8 0 r e 5 > 8 - 0 0 O = l N k < 8 0 0 w 3       0 Y r D H z D J 0 , c Z.U.>.<.<.#.1.W.V . < - = = > 8 + + + + + > > + + + 8 + + + & 8 > = 8 r r KXKXKXKXKXKXKXKX",
"KXKXKXKX0 6 o 8 5 = 8 + + + + + + 5 3 + 3 8 + + 8 5 8 5 8 + 5 4 4 9 . ; u.z.;.2.g.g.B 4 r e l L q q r K I D 4 @   O 8 < < < > > $ B ~ L k 0 0 8 6 5 8 8 8 8 8 0 6 e e 6 5 8 e 5 w e e e e e 5 6 6 w e e w 8 6 6 7 6 6 8 6 6 w e w 6 w 0 5 8 8 5 8 8 0 6 5 6 5 5 3 6 6 6 e e D e 6 6 6 8 6 6 8 r 8 0 0 0 0 0 0 t 0 0 e r 0 0 0 0 0 8 8 = = 8 > = 0 0 0 9 8 8 0 0 0 5 > 7 5 5 = = 8 - 5 0 0 0 0 8 5 5 8 0 0 0 8 8 = = 5 = 6 0 8 8 - 0 0 = 0 6 = = 5 = 0 5 7 0 = 7 6 5 0 0 5 5 0 0 5 0 8 > 0 5 0 7 > > 5 > 8 > 8 8 0 0 > = > = > 0 8 t w 8 8 w w 0 w 8 8 w 8 w r w 8 8 w w e e w 8 w w 8 8 w 8 4 w 0 7 0 r 0 0 0 8 = 0 7 0 0 0 0 = + + 5 > 5 8 5 7 5 5 5 5 5 8 8 = 5 = 5 0 8 5 5 > + 0 6 = = 5 5 0 5 7 0 0 = = 5 0 0 0 5 5 5 - > 0 8 = 8 e 8 8 0 > 8 8 6 8 8 8 0 0 8 5 5 0 5 = = 0 5 < = - z K q > 8 e 0 5 O     O 9 f f 9 D H G 6 l ; ; C.eX;.-.3.<.i.h. .. & < + 0 0 r 0 8 + > > 8 8 8 = 8 + > + > = > 8 + + > r KXKXKXKXKXKXKXKXKX",
"KXKXKXKXKX0 + 8 = 3 5 + 3 + = 5 + 5 5 + 5 5 3 3 O + 8 3 8 + 4 8 4 3 0   -  .a.s.J.h.9.M q r I r K G l z l J D 3 @ @ O + > < < = $ > q L Q L q 0 + 0 q r 0 8 > & 0 > 0 9 8 0 0 > 0 > 9 0 0 > + 0 > 8 > 0 > > > > > > 8 & > > 9 0 > > 0 0 8 9 9 8 8 8 8 9 0 0 0 > + 8 0 0 > = 5 0 5 > 8 8 0 > 0 0 8 0 0 > 8 0 0 0 0 0 0 0 8 & 8 0 q 9 < < < 0 9 9 < < 9 9 , 9 9 0 < 0 q 0 9 < 8 > 8 = > 0 0 > 0 > = > 8 0 0 0 8 8 0 0 0 > > > 0 > 0 9 0 > 0 < > > = 0 0 > < 8 = > > < 0 9 0 0 0 < 0 0 0 0 8 < > 8 0 > 0 0 0 q 9 0 0 0 9 > > 8 , 8 0 w 0 0 r r e 8 8 & & 8 + 8 8 & 0 0 8 0 t w 0 4 0 9 w 8 8 8 w r 0 > > 0 < 8 > > > = + 0 0 < > = = > < 0 0 < 0 8 0 0 0 0 0 > < 0 0 > > 0 0 > 8 > = < 0 8 > > 0 9 r 9 0 > 0 0 < = 0 > > - + > > 0 0 < 9 0 0 0 0 > 8 8 > > > > 0 8 8 > > 8 > > > 0 0 + + z J 0 + + 8 r e 3 @     = z z z K G G P J > c x.R.<.S.<.| J.E.M . q o 0 8 r 0 r 0 = + 5 > 8 8 > > + > 8 = 8 0 8 8 = 8 0 KXKXKXKXKXKXKXKXKXKX",
"KXKXKXKXKXKX8 8 8 5 = 3 + 3 = 3 8 5 4 = + + + + = 4 + 3 + 8 8 8 4 3 t > - ; =.rXJ.-.W.g.M > r I { I K l z q z H 3       - 9 0 > > & & m E Q B 0 + < 9 0 q 0 0 8 q 0 > 0 0 0 9 0 8 8 > 9 9 < > 0 q 0 0 > > > 0 9 9 0 0 8 0 0 0 > & 8 0 > > 0 0 & > 0 > 0 0 < 9 > 0 0 r w 0 > 8 0 0 9 9 0 0 9 0 0 > 0 9 9 < 0 0 < 9 q 9 9 < 0 9 9 < > > < < > , > < & > < > < < > = > < 0 > > > > 8 = > 0 < 0 0 > < 8 0 0 9 < < 9 < 9 0 9 0 0 0 > 9 q 0 < 0 0 0 0 < 0 0 < 9 8 = = 0 > 0 0 < 0 0 > > < 9 0 8 > > < < > > > < 0 < > > 0 9 0 0 0 t > , 0 8 9 r r 9 > r 9 0 0 0 9 0 < r 9 0 q r 9 0 0 0 0 r 9 9 > 0 1 0 8 < 0 0 9 9 < > $ + < 0 > > + 0 9 0 0 0 0 > 8 0 0 > 8 > 0 0 9 0 > > > 0 8 < 8 8 0 0 > 0 > > 0 0 < 0 0 0 q 9 0 0 0 0 9 0 < 0 > 0 > 0 0 > > 0 > 0 < < 0 0 9 0 < = > < 0 0 < > > = < r q 0 & > > 0 0 3 @     5 l z z A K G r F & p Z.eX;.f.3.:.<.E.V . O 0 > 0 t 8 > 8 > + o + + 8 & + + > 8 + > 8 8 = & 0 9 8 KXKXKXKXKXKXKXKXKXKX",
"KXKXKXKXKXKXKX5 + + 3 & 5 + + 5 5 + + + + + + o 5 5 + 5 8 + 8 = 4 4 0 8 +   j t.a.-.-.| i.+.$ z S P P K N k k K D @ @     8 8 8 8 9 > > q A E B q < > > 0 < 0 8 9 e w t 4 8 r e w t 8 t t r 0 w r w 8 t 0 w w t 0 t 0 8 w t 0 8 w t 0 4 8 8 8 8 0 t 8 8 8 4 8 4 0 = + & > > > - + > = = = = = o - ; ; o o $ $ o - ; > ; - ; ; + > > & 8 > & & + > > > > > > < > > > + > > > - = X . X o o + ; o X . . o o X X X . X X X o X X X + X X o . X o X X o X o X + . . . X X X X X X . . X X o . X X X . . X . . . . X X X o $ + + X o X X X X . X . . . X X . . X     .   X X X X .   . o + ; o X X X o X . X . X X X X X X o X + X X X X X X . . . . X X X . . X X X X X X X . . X X o + X . o . . X     .             . X o X X .   o o X X . o + o X X . . X X . . X o + + + + X X 0 N N 9 o & 8 8 t +       & r K H z z z N J t y a.T.H.| <.:.s.z.+.. + G = = 5 0 9 8 0 > + = 8 > > > + + + 8 > + > = + > 0 8 KXKXKXKXKXKXKXKXKXKXKX",
"KXKXKXKXKXKXKXKX+ 5 8 8 + 3 + + 5 3 + 3 + 3 = 4 + + + + 3 8 + 3 O w X = w 5 X - X.h...,.-.0.Z j D F F P A B k z I 6 O @   @ 4 t 8 < > + > m A W V k - ; > > $ + & 0 t 0 + 4 8 8 8 t 8 8 e r 0 8 8 8 8 t 9 8 4 8 8 8 4 8 4 8 9 8 8 8 3 8 t 0 0 N r t w r t 0 t r N q , > 9 N q 9 d q m k k N N m k m k 1 1 j k k 1 k 1 k j q 1 1 r l q t q N r r q t q r r r f q d r q q N N N N l N N B N N J N N l l N K N N N N K Y N N N B L N N L L N L B B L R U L T U K B K B B Y L L L N L L L L L L L B L L L U U R R R L L L L L B L L E A B E B B A W E E W E W W E W L E W W W Q W W W W E W A T W W Q R R R L R Q Q U Q Q L L T Q ! Q Q Q Q Q R W ! _ _ ~ ! Q Q Q Q ! _ ) Q R ! ~ _ ! ) Q Q _ ` _ ~ ` ` ` ` w.w.$.` %.` ` ` ` ` ` w.~ ~ ` ` ~ ` ~ ! ` ` ] ` %.` ) ! _ Q Q W T R ! Q L f < 0 8 8 > 8 8     . + t P r H H I l N : p g.U.p.<.#.:.<.z. .# 4 w 3 5 5 + > 8 8 8 8 = + 5 > 8 0 8 + = + > + > + 8 0 > KXKXKXKXKXKXKXKXKXKXKXKX",
"KXKXKXKXKXKXKXKXKX3 + 3 8 8 3 + 3 8 + O + 8 8 O + 8 3 8 8 5 + = = - 3 8 8 8 + o 9 C 9.x.i.*. .=.g Y N f N q k k H I e O     @ 4 e 0 & = > < m L w.` ~ L U Q Q L L E W L B B E E E E B B L B E L E W W L L E A L N B B L L W W E L E W L B E W W W W Q W W Q Q E ~ ~ ~ ^ ! ~ &.&.&.~ ~ &.~ ~ ~ e.~ %.%.` &.&.~ ~ ` ~ ~ ~ ~ ` ` ~ e.~ ! ~ ~ ~ ~ ! ~ ~ ~ ~ &.%.%.w.%.] ] @.` ` w.w.w.w.%.] w.w.w.` w.w.` w.w.w.w.w.w.w.w.w.w.M.w.w.w.@.w.w.w.` @.w.w.w.%.w.w.w.w.w.w.m.w.] ` @.@.w.w.%.` ] @.%.w.w.w.` ` _ ` ` ` @.w.` w.` w.w.w.w.e.~ %.e.w.~ @.&.w.e.e.w.w.e.w.e.e.w.e.&.~ O.%.w.e.&.&.&.%.e.%.~ e.` ` @.w.` ` w._ ~ _ ` @._ _ ` ` ` _ _ ` ` _ ` ` ` ] ` ` ` ` ` ` @.@.` ` %.] ` @.] ` ~ _ _ _ ` %.` ` ` ` w.` ` @.w.` w.w.w.w.w.@.` ` w.w.w.$.w.` ` ~ ! _ W E Q ! T B N L N N q t < > 8 8 9 8 4       X d J r S z H e G m : g.E.#.<.#.p.U.h.V $ - - 7 7 6 8 > + & > 8 8 > = 8 8 0 + > 8 & 8 8 + + 8 r 0 KXKXKXKXKXKXKXKXKXKXKXKXKX",
"KXKXKXKXKXKXKXKXKXKX+ 8 + + + 8 + 3 + + + 4 8 5 8 8 + + 8 + O + O - = & > > = =   9 V 7.=.a.j.x.7.2 p 9 N k 9 < k z G D 3 @   @ 8 e 9 0 = ; < q A B B N N K B l N B B m m N N m B m N m B m m m m m m m m m N m B B B B m m N m B B N m m j q m N N B B m m m B j m m m j j m m 1 1 1 1 2 < 1 1 < 1 9 1 9 q q 1 9 < < < < , < , 1 > ; ; < 1 > , > ; > ; > ; ; > $ > - & > + + o = $ + ; + + + > ; o + > > - o + > = + + o ; > = > o + > + + + + > o + o + = $ + o o o o o X o o + X X + + X + o $ o o X o X X X $ + o X o + o ; o X o - $ o o - - o - o o o - + o o X X X X X o X o o o X + + X o + + o + o X X o o o - ; + + + = $ + - o o o X + + $ + + o + + X X X X + o + o o o + X o o X + + + + X & > $ > o + + o o o + . o X X $ $ o o - o o o o + o . + + X X X + + + + & 8 > + & 8 8       + N B q J G H H e 0 2 g.E.*.<.S.#.J.W.a o + 7 7 7 5 3 8 ; ; & = 8 > 8 = > 8 & 8 0 = X + 0 8 8 r 0 KXKXKXKXKXKXKXKXKXKXKXKXKXKX",
"KXKXKXKXKXKXKXKXKXKXKX8 6 o O 8 8 8 = + + = + + 8 8 8 + + + O + = = = 5 = o = = 5 + > M 9.T.tXd.a.9.y T Y f J r z k N K w @       8 r 0 > = - $ + o o $ > + o + o o o o + & = X o X - o X .   . + + X X > + + o + + X X X X o o X o o X X X X X o - X X o o o o X o + o X . o + + + + + = + + @ X & + + + & + + 4 & + & + + + & - + + + - + - + $ + + + - o + + = + + = > + o ; + + & + > $ = > + X X + $ + o + > + + + o = ; o + o + + o X > + > + + + = + + X + + > > > > & > > > ; > > > & > > = + > > $ o + = + & = + + o + + + + = = = > > = > & & = - & = + + = - + > + = > + = > & > 8 + > > > 8 > > + > & + = & > + $ > > + > + & & + + > > > & > $ > > ; & > & + > > > 8 > > > > > & > > > > & > > 0 8 & > > & < > > + < > > > > = > , > > > > > + + < > & & = > 0 , 0 & 8 9 8 8 4 @     O l L B N L K H P r p y.pX1.>.3.<.H.z.g . 8 6 7 7 3 5 = > = > = > + > 5 > > + & + + 0 > 8 8 + 9 r KXKXKXKXKXKXKXKXKXKXKXKXKXKXKX",
"KXKXKXKXKXKXKXKXKXKXKXKX+ 3 + + 0 8 5 4 5 3 3 = 8 4 3 + 8 3 + 8 + = = = = ; + > = - - - p 9.a.>.k.eXg.y d Y r Y B z l K G w 3     X 8 0 9 0 < > 0 < > > 0 < 0 0 0 8 = = & < 0 > > > 8 0 0 > 8 0 0 < > & 8 < > > > > > > > > 0 0 & > 8 < 9 0 9 0 = > > > > 8 8 0 < 8 4 8 8 0 0 0 4 4 8 8 0 0 w 4 0 8 8 4 4 8 8 > 8 8 8 8 8 8 8 4 & > > > > > > , > > > < 0 > > , = = ; > > = > > + + > > > > > > > + + ; = > & > , > > ; = > > = > > < & ; > > > > > > > > , > & + > > < > < > > > > + > > > = + > > > > > > > > > < > > > > > = 8 + 4 4 5 = 4 = > 8 8 8 8 > 4 8 8 & 8 > 4 8 8 3 3 4 8 > 5 & 4 3 + > > > < , 8 > = > > > + > > > > > & > > > > > > > > > + > + > 8 < 8 > > > & > & > > 0 > > & > > < < > > > 0 < > 0 > > < 0 9 0 0 > > > 8 > & 0 > > 8 > 9 & & > > > > > & & 8 & + 8 4 0 8 @ .   + k K k l N N N H 0 1 t.rXa.} :.| d.h.Z # & w 6 6 O = > > ; = = + + > + = & 8 8 5 X X 8 0 0 > 0 r KXKXKXKXKXKXKXKXKXKXKXKXKXKXKXKX",
"KXKXKXKXKXKXKXKXKXKXKXKXKX+ 5 + 8 + + 8 8 8 3 8 + 3 + + + 8 + + + + = = 7 6 4 3 o < - O X 2 X.a.k.j.a.u.2 T N Y J r G K J J 0 .       5 t 0 8 0 & > > & = 5 5 = > = = = = ; = + > + + > > = & > & > o o & > = + = > & + + $ = = = = > = > > 8 = + + + ; & > > > > > + + + & 4 + + & 4 4 3 4 8 8 4 3 6 5 3 3 8 3 3 3 3 3 3 3 3 + = & + > & + + - + + + + + = = & & & & 8 > & 8 8 & + > 8 & > + + > > & > + + & & 8 + > + + > > & 8 & 8 8 + & 0 & > & > 8 8 & 8 & & + & 4 & 8 & + & + + & + & + & 8 = 8 8 8 8 8 > = & = + = + = = = 5 8 3 8 3 3 + 4 8 8 8 8 8 6 4 4 3 3 3 3 3 3 3 8 3 6 4 3 3 3 3 + & & 8 & 8 & & + & 8 & > & > 8 + 8 4 = 8 8 8 5 8 > 5 + + 3 8 & 3 8 8 + + + + > 3 + 5 3 8 8 5 8 & 8 8 > & & 8 8 8 9 8 8 4 9 8 8 9 8 8 8 8 8 8 & 3 8 4 > 9 8 4 8 8 0 8 8 8 0 8 8 3 r 0 +       @ r G G 0 z k l K g * 0.E.h.| -.*.x.z.M . = 5 6 6 6 O O = 5 = = 3 + 8 > + + > > 8 + > + + + = 0 r KXKXKXKXKXKXKXKXKXKXKXKXKXKXKXKXKX",
"KXKXKXKXKXKXKXKXKXKXKXKXKXKX+ 8 5 4 5 + + + 3 5 + 8 + + 3 + 3 8 = = - = 6 4 3 3 - - - + o > 2 8.a.;.*.x.9.A g > S S K S t N r 8 X       & 8 & 4 + 8 8 5 - 5 6 = = > > 8 8 8 & 8 > + + + - = + + = > = = > 4 > > = + = & - + + = > > + > + > + & + - = > 8 8 > > > > > > + + + & + + + + + + 4 = 3 3 3 5 4 5 4 3 5 5 5 3 4 3 6 = 0 > 0 8 > > & < 0 8 < > > > 8 8 8 & 8 8 > > & 8 8 4 8 & 8 8 4 + > > 8 8 8 4 8 8 & & 8 8 > > 8 8 > + & + & 8 0 4 > > > 8 0 8 8 8 0 0 8 8 8 8 8 4 0 8 4 8 8 8 8 8 > > > 0 0 8 8 8 8 8 8 > > > > > 8 5 8 8 8 0 8 5 8 0 w w 0 0 8 8 8 8 8 8 8 8 8 8 4 8 w 8 8 8 w 8 0 8 8 8 8 0 8 8 8 > 8 8 & > > + 6 6 8 8 8 8 8 6 8 0 8 8 6 w 8 8 8 8 8 5 > 8 8 8 8 6 8 8 8 8 8 w 8 9 8 8 8 > 9 8 8 0 8 & > 8 9 0 8 9 4 w 0 t 9 8 8 4 > 4 w w 8 w 4 4 4 8 4 + + 4 8 8 3 @     o r K l G l e G K 2 . ..E.l.| ,.2.l.rXC o & + + w t 6 3 = - O 3 3 6 3 > 8 = + + + 8 o 8 5 o 5 9 e KXKXKXKXKXKXKXKXKXKXKXKXKXKXKXKXKXKX",
"KXKXKXKXKXKXKXKXKXKXKXKXKXKXKX3 8 8 8 3 O + + + 3 8 5 + 5 8 5 5 - 5 5 5 4 4 3 3 6 6 6 < o o   , 0.Y.z.,.a.Z.x m r F H D r r N J 0 =     @ 3 4 8 3 6 8 5 = 5 5 = = 6 4 w 0 w 8 4 0 8 4 8 8 8 4 w 4 w 8 8 w w w 4 8 8 4 w w w 8 0 w 4 4 4 8 8 4 8 8 4 8 0 w 8 8 8 & > > + + = 8 8 + 8 8 8 8 8 3 + = = 5 = 5 8 5 = 5 = = = = = = = 8 6 w 3 8 6 5 6 w w w 8 8 8 w w 8 8 8 w w 8 8 8 0 8 0 w 8 8 8 8 & 8 > 8 8 0 0 e 8 > 8 8 8 8 8 > 6 3 4 0 6 8 0 8 8 8 8 8 8 8 8 8 8 5 8 8 8 8 4 8 8 4 + 8 > 8 4 5 + 3 + 5 6 + 3 + 8 5 5 6 5 6 = = - + - + + = - + + - = = - = = + 5 = = = 3 = 5 = + - = - O = 5 - 5 8 & 3 5 5 5 = 4 5 6 = + 5 + + 4 3 3 3 3 3 4 4 3 3 + 3 3 3 3 3 3 4 3 3 3 3 4 3 4 5 4 3 + 3 3 + + 4 3 + O + + + O + + O o 3 3 5 O O @ O O O O O 3 3 O O + @ O O o O O O O   @ o +         @ 0 S K S G e 7 e 1 o ..T.T.1.f.p.d.W.^ o + 0 0 8 X & > $ > + 3 3 6 6 5 > 8 > + + = > + > + 5 r r KXKXKXKXKXKXKXKXKXKXKXKXKXKXKXKXKXKXKX",
"KXKXKXKXKXKXKXKXKXKXKXKXKXKXKXKXKX0 8 + + 8 8 + + 5 3 + + 8 3 + = 3 5 5 4 + + 3 5 O = > - 9 5 . y -.wXz.2.Y.x.x 9 r S G I K l N G e +       @ @ O @   O O X O O + + @ @ O O 3 3 @ @ O 3 + 3 3 O O 3 3 3 3 3 O O 3 O 3 3 @ O O O O 3 O O + O 3 O O O O 3 4 O @ @ + + + o + + & X & + + + 4 + + X + + o + + O o - + + - O + + + + 3 o O O O @ o @ 3 O O 3 O O O O O o O + O o o @ @ + O O o   O o @ o + o o X   o     o   . X   . o X   O     @         .   @     .         X @                   @                                                                           X                                             @                     @       @ @                     @                                                                 @                                       r K r r r e H I k 1 V pXp.<.<.<.#.h.X.. - O + 8 4 8 & + > < > 3 6 3 3 6 > + + + > > 8 5 8 8 9 l KXKXKXKXKXKXKXKXKXKXKXKXKXKXKXKXKXKXKXKX",
"KXKXKXKXKXKXKXKXKXKXKXKXKXKXKXKXKXKX0 3 + 8 8 @ + + o + 5 8 + + 5 5 5 + 3 & 8 3 8 6 3 = 5 & 8 + + . ..d.*.k.s.x.Z q z H G H P t G e G 8     X                                                   @           @ @       @ @   @                                   .                           .                                                                                                                                                                                           @   @                                                                 @                                                                   @     @ @ @           @       @                                                                   .                                                 X 6 r l r P > K k 0 < u E.U.o.#.<.#.C.+.. > = = > 5 8 8 + > > > = 5 5 6 + 6 - 5 = = = 3 + 5 3 0 r KXKXKXKXKXKXKXKXKXKXKXKXKXKXKXKXKXKXKXKXKX",
"KXKXKXKXKXKXKXKXKXKXKXKXKXKXKXKXKXKXKX8 0 8 + 8 8 3 3 + + 3 3 > + 3 8 + 5 3 + 8 + + + = 8 8 8 + + < $ 8.T.d.3.R.z.b j E S S J S r e J J +                                                               @   @                                                                                     X                                                                                                                                                                 @                                               X                                           .     .                       .                                                 @   @                                                       .       @                                     O O   @ O O @ O O O @ O O O + 0 G K P Y J t 0 1 ; C.eX| | f.f.C.+.. > > 8 > + = > 8 & = 8 & = = + > + = = = = 8 8 + + + 0 t KXKXKXKXKXKXKXKXKXKXKXKXKXKXKXKXKXKXKXKXKXKX",
"KXKXKXKXKXKXKXKXKXKXKXKXKXKXKXKXKXKXKXKX8 = 3 8 8 + = + O + 5 8 o 3 8 8 = + = 8 + 3 4 5 5 8 4 8 0 8   $ g.z.j.wXwXz.=.1 r S 8 J l l l 0 + - 5 8 0 0 8 0 0 9 e 9 0 e r 0 w e e 0 w 8 8 0 D e e r e r r e e e w w w e w e D 8 w w w e e 6 D e w r 6 6 w w e e e 6 0 0 8 0 0 r e 8 8 0 0 e 0 0 0 0 0 0 = 0 8 7 < 7 - 0 > 0 7 0 0 r e e 8 r D e e e e e 6 6 6 e 8 8 t t e t 8 t e e w r r w w 8 w 0 6 8 6 8 6 8 6 8 w e e w 6 6 8 e 8 w t 0 w t r w F t S t r w r r e r z k e e z q e r z 0 0 0 q z 7 k e r z k 0 0 e 0 0 0 0 0 w 5 j 7 7 0 < 0 0 0 k z e q k 0 0 r e 0 w e r 0 0 r r r r r r G G r J t 0 F F f 9 t F F J J G F S S S l K J r r S r l q r k D e r l f G J r l G l G e r S r r D e S D S G G S S S S t e S r D t e r e e w r e e 8 e l G G S S G G S S H P G G P H G z G r 6 e e r G G P r , ; x.eX2.| *.d.U.t.$ $ 0 = = = + + + + = + > = & > = > > = = > + + 8 > o 0 r KXKXKXKXKXKXKXKXKXKXKXKXKXKXKXKXKXKXKXKXKXKXKX",
"KXKXKXKXKXKXKXKXKXKXKXKXKXKXKXKXKXKXKXKXKX> 8 4 + 3 8 4 8 + 3 3 O 8 4 8 5 8 3 5 + 8 8 + 3 + 8 8   w w # $ b z.3.*.k.Z.u.M f l 0 l N z < 5 r G l J N l r J J J N K K I J G l l l l J J l J K K I P I I J I K S G K K G K P G L I H { I I H I H U { H H H I I I I H H G K I U I J G K G K H I H K l K l J N l K K z l K l K B H I I H H H I H K P I G G I I I I I I I I I P I I Y P U { I P J J I J G G G G G K I G H I I K G G P S L P F F U I J U U I P K P P Y N G K G l K E K G K K K l l l H z l K I K K l k K H l N l K l l E l l G z z z k H K l G H l l N K J K I P J K I P K P P I L I I Y Y T T J F U U F U { P P P F J K K L K L G K K K N K I L J N I P K U I J K J K L U { U U P L / U U / { J K P K J P L I Y I U I I H P I P G G K K I I I H K I G P G G P H H P I H R { G G G e H H G 0 : g.tXY.s.k.;.z.x.. # > 8 = = > = = = > 8 = > 8 8 8 + 8 8 5 = > + = > > 0 r KXKXKXKXKXKXKXKXKXKXKXKXKXKXKXKXKXKXKXKXKXKXKXKX",
"KXKXKXKXKXKXKXKXKXKXKXKXKXKXKXKXKXKXKXKXKXKX8 8 + 3 8 8 8 3 5 + 8 4 5 5 4 = + + 3 8 8 + + + 3 8 8 3 3 6 X $ ..p.2.4.z.L.O.p m N N l 0 0 q q r K N l l k N N r r r z l l q q z q l l l z q l l k z z z q l z z l l l z B K z l l S J K N P G S J J G t r S N S e D S D S S F G D P S S S H P F D S G F G J J P J l K J G J S r J J S D S F S r r S S S K I P J S G G P P G S G r F J H K P J J S J f J l G G J F r J J F r r r G r F r r t J r t G J F e t S F r z q r 0 e l G r r z l z e e r r l k z q z l z N z q z k z l l k G G l S l r r e q l e r G G G G G G J G l J G l l G G J J J J B J N J J r J L I J J K K G K K G l K N K N l K z J l J K K l G K l K L I B H N K K K I I U K B K K E U E G K J G I U U I K I E I K G K I P G G I K K I I P K P L K I Y I I Y U { U ) { G J r r r G 9 * g.eX1.:.3.3.z.Z.j - = 6 6 = > 8 8 8 8 > 8 + 8 8 > > = > 8 0 + o 5 0 + > r KXKXKXKXKXKXKXKXKXKXKXKXKXKXKXKXKXKXKXKXKXKXKXKXKX",
"KXKXKXKXKXKXKXKXKXKXKXKXKXKXKXKXKXKXKXKXKXKXKX8 8 8 + 8 + 8 + + 8 + 5 + 8 + 3 + + = 8 8 8 4 5 3 w O 6 7 & > % 0.L.F.:.3.K.u.x 1 J l 0 > 0 q l l J N r N N N J f q r q r r r N N l K K N r N N I L K l G K N l N r N l K B l l l J K J J P G S J J G J J K P J l P P J G S P P K { { P K P { P S S H P { { P P P P I P I I P P P I P J K P J P P P J P P P I P P H I L I K P K H G P H H P P I H J P P P Y K J G L P J J J J P I K r l J P r r P I E L K K L K S P K I K I U I G G K K P J K K l K K K J J J K I N J G G K K K H S G H H H G G K G K K K I U U L K K K J J J I K K K I I I L I I E I G G K I U K z z G J P K G l z K l P I K E l K K G K H l K I K l L L K K l K K H k J U I H l J P I { K E I P R I I K K I I P U P I { { U { / I G I U I K I { P / ) I I U U I ) / L J P r r l = * O.E.H.<.#.#.k.C.x X = 5 5 6 8 8 > 8 > + + + 8 + > + + + + + = 5 = = + 0 r KXKXKXKXKXKXKXKXKXKXKXKXKXKXKXKXKXKXKXKXKXKXKXKXKXKX",
"KXKXKXKXKXKXKXKXKXKXKXKXKXKXKXKXKXKXKXKXKXKXKXKX8 + 3 + + 3 + 3 8 & + 8 3 8 + + + 3 8 8 8 8 8 3 3 e O - 7 = + . +.d.3.5.Q.wXy.2 , D S r G P J t e t F S J J F J J Y J Y F Y J Y J U L L L Y J U ) L K Y P P I P P I L { U H P P I L I K I I K L K K K I I U U K I K K I I K I I P K K K I I I G I U I U { I U H I I U / { { / / I U I I P I I P P P I K K I I I I I / / H H { I G I { I H H I H K K L I L P J S L I L K P I I U I G l I K l l I H K K I I K J J P I I P P I P J J J K J P L { F G K I P K K G G K K K P K I E I K P P I { I I I K K G G K K J N K P J N N J J J J N N N N J N Y l I E K l z K R B K H B K H P N I { P I I P { I P I I P K I I / K G I P K L P K R E K R ) ) E R I I P / U ' ) / ) U P U U R U I I H P I I I I H I I E I K H I U K { { K P P I L U I G K I K G K ; C W.,.<.F.4.3.T.Z X = - 6 3 3 + 8 > + + + + X > > > = + + > + o 0 8 + 8 r r KXKXKXKXKXKXKXKXKXKXKXKXKXKXKXKXKXKXKXKXKXKXKXKXKXKX",
"KXKXKXKXKXKXKXKXKXKXKXKXKXKXKXKXKXKXKXKXKXKXKXKXKX8 8 8 8 + + 3 3 3 8 + + + 8 3 + + 3 + + + O + 3 5 7 - - 6 3 3 * r.z.3.;.P.eXy.B q r 9 r f J K Y J Y L Y U Y Y Y N Y N Y N f f Y Y Y U Y q t K L r f f N N L Y Y Y J L Y r N N N N k k m m N N m N m m q k l r < < < k q q < 1 0 q k j k B N q k l r r r l J r l r l l r N N l t m N q q k q 1 ; > < 1 q q 9 9 - < z k 0 0 0 q 0 0 j < 0 k 0 - < < < < , < , < , > < 1 q 1 < j < 1 < ; < < 1 < ; ; < 1 1 > > 0 , > < ; $ , , > & > , > 9 f d * 1 , < , ; , , , > < , 1 , 1 1 q q q q d q 0 9 p 9 q 1 p q d 1 , m 2 1 p 1 1 : 2 p 1 1 2 1 1 p d 1 2 ; 2 B A k m j 1 < ; < 1 , d ; q , q , o , > $ & , > ; > , , , ; < > < q 1 d 1 1 1 p m 1 > < g , > 9 < 9 d q J q 9 d q q q , e r 9 r l N l q q 0 q < > < < 0 1 0 < , & > q m q < 1 k 1 , ; $ 0.tXU.3.#.#.3.U. .. - e - 7 8 6 8 = = + = > > + 8 8 + + + = + + 0 = + 8 r 0 KXKXKXKXKXKXKXKXKXKXKXKXKXKXKXKXKXKXKXKXKXKXKXKXKXKXKX",
"KXKXKXKXKXKXKXKXKXKXKXKXKXKXKXKXKXKXKXKXKXKXKXKXKXKX8 5 + 5 8 + + 8 8 5 + + 3 8 + 3 8 + + + 5 8 + > - 7 5 7 6 D * # ..d.| >.H.rXy.j ; < .   .       . . o X . o . .   X o $ o o o ; X o X o . o . + $ o . o o o $ ; ; ; ; $ ; 1 $ y : p $ : : % : q p : & y : : u 2 : u 2 u u u 2 2 : u u ; c c 2 : $ ; o . p : $ 1 ; u m + : : u c u : 2 u u c 2 c c 2 c c c c x i i u b M x i i x b V c M b c M c c n c b C x n Z c A M b Z b Z X.Z n V  .+. .i +.X. . .x  .X. .b V  . . . . . . .V  .X.X.X.O...X...9...O...n .. .X.=.8.....=.Z X.o. .X. .X.q.q.......=.o...q.0.8.0.u.O.i.q.O.q.9.g.0.9.g.i...8.=...8.0.......i.O...O.u.0.9.q.=.=.Z =.X.=.n Z 8.X.X.Z Z =.X.n Z C 8.8.Z b Z ..b n n b n =.n C X.Z V X.Z =. .n V Z b Z Z c u b  .b V b X.b b  .X.X.Z  .X...-.y.9.0.9.0.0.g.0.....q...X.0.0...a.wXQ.1.3.:.,.U.y.# o > > w 6 3 4 + > 8 > = + + 5 + 5 + > + > = 8 0 + + r r KXKXKXKXKXKXKXKXKXKXKXKXKXKXKXKXKXKXKXKXKXKXKXKXKXKXKXKX",
"KXKXKXKXKXKXKXKXKXKXKXKXKXKXKXKXKXKXKXKXKXKXKXKXKXKXKX8 8 & O 8 + + + O 3 5 + + + + + 8 3 3 + > + = - - - + 6 e 4 . % ..h.d.*.1.x.y.x.Z.Z.rXrXZ.aXaXrXpXrXrXrXE.aXaXrXaXrXaXrXZ.E.E.E.aXpXrXaXaXaXaXaXaXpXpXpXaXaXaXaXE.Z.E.rXaXrXrXE.pXpXeXpXpXsXsXpXrXsXpXW.aXpXpXeXpXaXeXpXpXsXeXpXpXpXpXaXpXpXE.E.sXaXeXaXsXsXsXaXaXpXE.sXaXrXpXeXeXrXeXeXeXrXT.Y.rXeXeXrXsXpXtXeXT.eXwXT.T.T.E.eXT.eXT.eXeXeXT.rXrXE.eXsXeXeXaXeXeXW.U.eXaXwXeXT.tXdXtXT.tXeXsXT.T.tXtXtXT.T.T.T.T.U.T.eXtXeXwXT.tXtXT.T.tXT.K.U.sXtXwXY.eXtXT.T.T.T.eXwXT.U.U.U.z.T.T.Y.eXyXR.R.wXtXwXwXeXwXT.T.eXT.T.tXtXT.R.tXtXU.Y.T.Y.T.T.U.Y.T.Y.U.U.tXtXtXT.T.R.tXdXeXtXtXwXeXsXeXwXsXyXdXhXsXgXsXsXtXsXeXpXeXeXT.T.E.sXT.T.rXY.wXrXU.T.U.rXtXeXE.T.Y.W.eXeXY.U.Y.T.T.W.tXsXeXz.l.T.eXT.L.U.tXsXwXU.T.tXU.Y.T.T.eXK.H.T.T.U.T.l.l.uXuX4.4.:.>.W.t.% & & > 8 w 4 8 8 8 + + + = > > o 0 + + + = = > + + 8 r r KXKXKXKXKXKXKXKXKXKXKXKXKXKXKXKXKXKXKXKXKXKXKXKXKXKXKXKXKX",
"KXKXKXKXKXKXKXKXKXKXKXKXKXKXKXKXKXKXKXKXKXKXKXKXKXKXKXKX8 4 + + 5 + + + + 8 8 + + 5 3 8 8 + 8 3 $ = = > - - - = 8 0 X $ +.a.>.3.<.L.wXwXyXyXyXtXsXyXtXtXtXtXtXR.wXwXR.K.K.K.wXL.K.F.H.L.H.k.j.j.H.L.K.L.H.L.K.L.k.j.L.H.F.H.F.H.R.K.H.j.H.F.K.wXH.H.d.3.H.F.f.d.k.f.d.H.H.j.H.R.l.j.U.L.s.j.H.k.s.j.L.R.L.K.F.d.d.d.f.j.F.f.j.F.k.H.H.d.H.H.H.f.j.H.d.f.d.L.l.l.F.J.H.d.L.F.s.f.f.H.f.F.H.F.f.H.H.K.H.k.l.F.F.f.<.j.j.k.p.f.J.K.F.F.p.f.K.3.>.f.<.F.F.p.3.f.F.j.d.f.H.f.f.f.J.J.j.j.j.j.H.3.<.F.p.3.1.s.<.1.s.j.H.f.1.p.j.H.F.,.k.3.l.3.d.F.2.3.f.k.3.1.3.F.f.3.1.1.f.f.3.1.3.:.>.:.s.f.<.<.:.1.f.1.3.1.1.<.>.:.:.*.:.#.<.:.1.s.:.2.d.2.1.<.>.>.1.*.*.*.:.,.*.<.s.p.>.| d.f.1.p.2.H.f.H.s.*.k.j.j.K.j.J.Y.K.k.H.R.H.F.H.j.l.K.K.l.,.3.j.p.s.s.2.2.j.L.k.j.3.s.p.f.H.s.f.f.3.f.1.1.H.L.3.d.2.1.F.4.S.4.p.Z.x.$ . 4 4 > & 3 + + + 8 > + + > 8 8 + 8 + o + 8 = + > + r f KXKXKXKXKXKXKXKXKXKXKXKXKXKXKXKXKXKXKXKXKXKXKXKXKXKXKXKXKXKX",
"KXKXKXKXKXKXKXKXKXKXKXKXKXKXKXKXKXKXKXKXKXKXKXKXKXKXKXKXKX8 8 + + 3 3 + + + 3 8 + 3 + 8 + 5 3 > 8 + > > = - - - 0 5 0 & % 9.U.l.1.K.L.F.l.l.L.H.j.f.f.f.f.F.f.1.J.j.F.s.k.3.s.k.>.| >.1.1.2.3.s.<.1.s.s.3.f.f.f.s.f.j.f.f.d.1.1.p.p.s.1.p.>.p.j.,.,.1.>.| d.H.*.,.,.>.1.,.,.p.d.p.,.s.,.| -.1.p.<.s.j.1.>.d.<.*.1.<.>.<.| >.>.<.>.p.i.,.s.d.p.-.i.p.<.i.1.1.p.d.>.i.1.1.d.d.,.,.>.,.,.>.,.s.2.-.<.p.,.>.,.i.#.>.,.>.,.s.f.<.1.s.p.<.<.i.p.p.H.U.<.p.p.p.i.<.p.a.i.i.a.,...i.i.i.i.p.i.;.....-.,.i.a.x.-.p.i.d.i.-.i.i.a.i.i.i.i.-.,.x.i.,.i.| -.*.>.-.p.d.>.*.>.*.>.>.| | ,.p.#.,.,.,.2.f.p.| -.1.,.,.>.*.-.,.| ,.,.<.>.p.1.p.,.| | ;.2.:.| } -.>.*.} *.*.,.| | -.>.| } <.*.} o.| } o.*.| | *.*.o.| o.} *.| o.} *.| o.o.| *.| } | >.} o.| -.| } | *.>.} 4.*.>.| o.b } | | | } } } | *.} >.:.:.2.:.:.*.z.Z.2 X + 8 w w w 9 < > > + 8 8 + + > = + + + + 8 > = + 5 r r KXKXKXKXKXKXKXKXKXKXKXKXKXKXKXKXKXKXKXKXKXKXKXKXKXKXKXKXKXKXKX",
"KXKXKXKXKXKXKXKXKXKXKXKXKXKXKXKXKXKXKXKXKXKXKXKXKXKXKXKXKXKX8 4 + 3 = + O + + + + 3 + + + 8 5 3 3 3 3 & = = - < - e 0 X . $  .C.9.y.9.9.7.7.7.X.9.7.9.7.9.r.9.+.9.7.+.X.X.C X.+.+.Z X.X.X.X.+.X...+.X.C X.+.9.7.0.y.0.7.+...9.r.O.O.O.X.+. .+.r.O.r.9.O.r.y.g.r.9.9.O.8...+.O.9.+.0.9.y.y.y.9.O.8...+.8. .8.X.=.+...q.y.q.g.q.9.X.O.8.+.+.....+.X.C X.X.X.X.+.O.X.X.7.=.7.X.8.8.9.8.7.9.9.0.9.X.O.9.8.9.9.0.9.9.0.t.0.9.O.q.+.Z +.+...X.V Z 0.7.O.+.X.+.8.C Z X.C A Z V V Z V A c x x 2 2 c x c M C ^ V +.A C A x A C M p u M Z C +.7.C C C C +.r.+.C +.7.X.C t.X.=.9.0.t.y.y.9.0.y.0.u.Z.g.7.0.y.y.g.y.y.g.g.g.C.C.C.V.W.C.Z.W.Z.W.W.T.W.U.U.eXeXeXrXeXE.tXW.W.U.T.T.W.tXeXT.tXT.U.T.wXU.K.L.eXY.wXU.L.T.L.z.l.p.x.s.p.d.k.a.p.s.K.l.d.L.K.p.z.U.l.d.d.T.R.U.x.U.J.h.1.,.l.l.d.F.d.l.d.l.1.p.z.:.<.x.E.x X - 7 5 5 6 8 0 0 8 8 + > > + o + = + > 8 > 8 + + = 8 r KXKXKXKXKXKXKXKXKXKXKXKXKXKXKXKXKXKXKXKXKXKXKXKXKXKXKXKXKXKXKXKX",
"KXKXKXKXKXKXKXKXKXKXKXKXKXKXKXKXKXKXKXKXKXKXKXKXKXKXKXKXKXKXKX8 8 5 + + + 3 3 O > 3 5 + + + 5 8 3 3 + 3 3 5 > - 7 - O 0 0 . * & .     X . . . . . . .   . . . . .   . . . . o $ . . .     . o . # . . . . . . . . . . X . . $ . . # $ o & # . . # $ $ X * * . o . $ $ . o . % . . # . . * . # $ o . $ : $ ; X $ : $ $ $ o $ o $ # $ $ $ $ X . $ . $ $ . # o $ . o . X o X . o X . . X ; X . o   $ # . o . # o . $ . o $ # . . $ . # o X o o $ o # # o o X .   . o   X X . .     o X X X X X X o o X   X .     - o X O     - - X X X     X . + +   + o X o > - . - X X o o . o ; o $ - < < < < 1 : , , : ; * p , * * : $ % * 2 2 y y i u x y i x x M v M V  .Z X.b b i u Z b b ..+... ...X.X. . .X.8.8.9.q.q.0.0.0.0.0.q.=.9.g.0.q.8.0.g.g.g.i.9.8.q.8.q.8.....8. ... ...q.g.g.y.0.0.i.0.0.=.8.a.C.E.g.a o - 7 - = + 5 = - + + 5 + > 5 + + 8 > + + = > = + > 0 l KXKXKXKXKXKXKXKXKXKXKXKXKXKXKXKXKXKXKXKXKXKXKXKXKXKXKXKXKXKXKXKXKX",
"KXKXKXKXKXKXKXKXKXKXKXKXKXKXKXKXKXKXKXKXKXKXKXKXKXKXKXKXKXKXKXKXKX5 3 3 3 3 8 + 3 + 5 + 4 5 5 + - + 3 4 4 4 + & - 0 > + 6 5 8 = < - < < = = & 9 0 1 0 9 9 , 9 0 0 < > 9 0 < < 0 > > 0 > + 0 8 & > 8 < 0 8 8 > + 8 8 + > 8 8 8 = 9 7 > - & 0 > - > > > - - - > - o = < + 8 = < = o 8 = - 8 > > < + = + + + = = = O 3 + + 5 + 5 = - = + o + = - = 0 + + 8 0 = & 8 0 - = = < = 0 = = + - < = = > 8 + + X + + = + = X = > + X > 8 8 & 8 + > < 8 > > 9 0 > & > 0 0 > > > 0 > > > > > < + = 0 - = = > 8 0 = > + 0 > = - > 0 8 = 0 0 = 8 + o > 8 + 8 X 8 + - > > & & 8 - + o > > + o > + + > & .   & + & & = o o + X X + + X X . X . . X .   X > .     X . X . .   o     . . . . .   . . . . o     . . . . . . . . o $ .   . X . . . . . X $ . X . . . . .   . . . . . . X . X . . . . . . o   .   . . # g @ . , 0 - 0 7 7 - - > 5 5 5 > 8 5 & 5 5 = + + + + + 8 9 9 KXKXKXKXKXKXKXKXKXKXKXKXKXKXKXKXKXKXKXKXKXKXKXKXKXKXKXKXKXKXKXKXKXKX",
"KXKXKXKXKXKXKXKXKXKXKXKXKXKXKXKXKXKXKXKXKXKXKXKXKXKXKXKXKXKXKXKXKXKX8 5 + o + 8 + 8 + + 8 5 5 = + + 3 w t 4 8 - = 0 = O 6 O 7 5 = = = O = > X 0 + = 8 0 8 > & + 8 > + 8 & 0 + + + 0 > 8 & 8 + > + + 3 5 O 8 0 8 3 + 8 5 + 5 o 8 0 - < z 5 5 - = 0 > - < 5 = 0 0 = 0 > 0 - 5 5 5 8 + 0 = = 0 8 + 5 e 5 6 8 5 3 3 5 r e + 5 + 6 6 5 e e 0 7 3 5 0 5 8 7 0 + 8 6 + 8 5 = = 6 = 5 0 = e 8 O = 8 5 5 8 r 0 8 e 8 + 5 e 5 5 8 e r 8 5 8 w 5 w 3 8 0 3 5 + 8 6 + 5 8 5 > - 0 = + 8 8 - > = = > = = > 8 5 = 5 = 0 3 8 5 0 + o 3 + + 5 5 5 3 3 4 5 = 4 + & + 8 0 8 & 4 8 8 r t 4 4 8 8 8 3 0 4 8 8 5 4 8 6 8 8 6 w 8 = 8 8 8 = 8 + 8 = 0 8 e 6 8 8 w 5 6 0 5 w 5 3 O D w 3 w w w w w 8 3 8 6 0 3 8 l + 8 8 e 3 5 e 0 3 8 0 r 8 > t 0 6 w t o 8 8 4 + w w w O w @ w 3 w 3 3 3 6 5 3 w O e 6 3 3 w w w w 8 * & 4 r < > > = - 5 = 7 5 5 5 5 o + 8 > + o + 8 8 = + + 0 l KXKXKXKXKXKXKXKXKXKXKXKXKXKXKXKXKXKXKXKXKXKXKXKXKXKXKXKXKXKXKXKXKXKXKX",
"KXKXKXKXKXKXKXKXKXKXKXKXKXKXKXKXKXKXKXKXKXKXKXKXKXKXKXKXKXKXKXKXKXKXKX5 + 3 5 + + 3 8 3 + + + 8 + = + 3 3 3 8 + + 5 3 8 = 5 = + 8 + + + 8 > 8 > 8 + + 8 8 8 8 0 8 8 5 8 & + 5 8 5 8 8 8 4 8 8 3 > > + = 5 > > 8 + > 0 8 + 8 8 5 0 = = > 0 > 5 = = = 0 < 8 = 8 8 5 - > 0 8 8 8 = 8 > > 5 > 5 > 8 8 5 5 3 5 3 8 5 8 8 8 3 + 5 3 = + 5 5 = 5 = 5 8 5 = 5 = 3 > 5 = = 8 8 > 8 8 8 + 0 8 & 8 8 > > > 8 = > = 8 8 8 = 0 > 8 = 5 = > 8 8 0 8 = 5 8 8 = & 8 0 > + > 8 8 0 > > > & > 8 + > 8 + + > 0 8 + + + + > + + 0 0 > & + + & > 5 > > + + + 8 + + 8 8 8 > 8 > + > 8 0 8 + 3 & = 8 3 0 8 4 + 3 8 & O 8 = 8 8 8 > = > > 0 0 8 + 8 8 > + 8 8 5 8 5 8 8 3 + 3 5 8 5 8 3 w 8 8 + 3 8 8 8 8 8 8 > 3 > + o 8 8 8 + + + 8 0 3 0 0 0 8 0 8 & 8 0 8 > 8 8 8 8 t e 0 5 8 8 8 8 8 5 8 0 8 8 4 + 8 0 8 8 8 0 8 & 0 & & 8 > > > 8 8 8 = = 5 + + o + + + 8 + > 8 + + = + 0 P KXKXKXKXKXKXKXKXKXKXKXKXKXKXKXKXKXKXKXKXKXKXKXKXKXKXKXKXKXKXKXKXKXKXKXKX",
"KXKXKXKXKXKXKXKXKXKXKXKXKXKXKXKXKXKXKXKXKXKXKXKXKXKXKXKXKXKXKXKXKXKXKXKX8 o + 3 + + 8 5 5 + 5 8 4 + + 8 8 8 8 & + 8 8 3 3 8 5 3 3 + 3 8 8 + 3 + 8 + + 3 > 8 4 8 3 + 8 5 3 + + 8 + 5 + 3 = = 8 5 8 8 8 8 > = + + & 8 8 + + > = = = = = = = > 8 > = = = = = = = 5 5 5 > 8 + > > > 8 > + + + > 8 > = > > + + + + = + > 8 > > = 8 + 8 8 + = = + + > > = = = > > 8 > 8 8 > + & 8 0 > 8 + + = 8 > 8 > > 8 8 8 > > 8 8 8 8 + 8 8 > = > + = + + + > + + = > 8 8 8 & 8 0 > 8 8 0 8 8 0 8 + = + + + 8 > + > + = 8 8 + 8 8 = > 8 > > = + + 8 + + 8 8 > + > + > 5 & + + + & 8 4 8 + 5 3 3 > 4 8 8 + + 3 8 8 = + + + & 8 + > 8 8 > + = & + 8 + 3 8 8 3 3 3 8 8 8 5 8 3 3 8 8 8 8 8 > > + & > + = + + > 8 8 = + 8 > 8 > = 8 > + & > 8 + 8 5 8 + > 8 8 8 & > + = > 8 + + 8 & + 0 + > 0 8 8 0 8 > 8 8 + 4 8 8 8 8 > > 8 8 8 > 8 = > > > > 8 8 = + > 8 + X + 8 = > + e J KXKXKXKXKXKXKXKXKXKXKXKXKXKXKXKXKXKXKXKXKXKXKXKXKXKXKXKXKXKXKXKXKXKXKXKXKX",
"KXKXKXKXKXKXKXKXKXKXKXKXKXKXKXKXKXKXKXKXKXKXKXKXKXKXKXKXKXKXKXKXKXKXKXKXKX3 + + 4 5 8 8 + + 3 + + + + 5 8 4 8 3 + + + + + 3 = + 8 8 8 8 4 + 5 8 8 + + + + 3 3 5 + + 8 5 3 o + 8 + 4 8 + + 3 = + > + 5 > 8 + = > 8 = = > > > + & = = = + = = > 8 = = + + = > & = 8 = 8 8 > + 5 > 8 + + + = = > 8 8 > + + = > > + 8 8 + > + = = + 8 > > + + + = > 8 > 8 8 8 8 8 + > 8 = + & 8 > 8 > + + + + > 8 8 + > 8 8 = + = + 8 + + > 8 > + + + + & 8 8 > = = + 8 8 + + 8 8 > + = 0 0 8 8 > + + > + & + + > 8 = + > 0 = = 5 8 + > 0 8 8 = + = > = + 8 > + = > + + > 8 > + = 8 = + 8 5 8 3 = + 8 8 8 8 + 8 8 0 = + = 8 5 = 8 8 8 > > + > 8 > + + 3 8 8 8 + + + 8 8 4 = & 5 = + 8 8 > 8 > 8 5 8 = + + + & 8 > = + & 0 8 8 5 > + 5 > + + + > 8 8 + > = 8 8 = = + + 5 > > + = = & 8 + 8 8 > 8 > > 8 8 8 + > 8 8 > & 5 > 8 0 + 8 8 + = 8 8 8 + 8 > + 0 8 o + 8 8 8 o e P KXKXKXKXKXKXKXKXKXKXKXKXKXKXKXKXKXKXKXKXKXKXKXKXKXKXKXKXKXKXKXKXKXKXKXKXKXKX",
"KXKXKXKXKXKXKXKXKXKXKXKXKXKXKXKXKXKXKXKXKXKXKXKXKXKXKXKXKXKXKXKXKXKXKXKXKXKX5 + + + + 3 8 + + 3 8 5 + 3 8 + + + 3 5 8 + 5 8 8 + 8 8 8 0 8 + 3 8 8 8 3 8 + 8 8 + + 8 8 4 5 3 + 3 8 8 8 8 5 + + 8 + = & > 8 8 > 8 = + + > + 8 > > = = > + + = 8 > 8 = + = 8 > 8 > > = > 8 + + 8 = > 8 > + = + + = = = + + + > 8 8 > = + + > 8 > + 8 > > + = > 8 8 > 8 = > 8 > 8 8 > + > 8 8 8 > + 8 = > = > + + > + > + 8 > + + + > + > 8 8 + + + 0 > + 8 8 > & 8 > + + + + > 8 > + = 8 0 = & 8 + 8 > 8 > 8 > > 8 8 & > 8 > > 8 & 8 8 8 8 + + > 8 = + 8 & = + = 8 + + > 8 8 8 8 8 5 8 8 4 & 8 + 5 + 5 4 + + 5 3 8 = > > + 8 + + 8 & 8 > 8 0 8 8 + 4 8 4 8 8 8 8 + 8 3 8 + 5 5 3 + & 8 8 > 8 > 8 + 8 > 5 = = = + + 8 > 8 > & > 8 8 8 8 > > = & 0 0 0 8 > > & = 8 8 = & 8 > + > 8 8 & + = 8 + + 8 > & 8 > + > 8 > > + 8 8 0 8 > > 8 > 8 0 8 > + + = + > > + 8 > o + 8 J KXKXKXKXKXKXKXKXKXKXKXKXKXKXKXKXKXKXKXKXKXKXKXKXKXKXKXKXKXKXKXKXKXKXKXKXKXKXKX",
"KXKXKXKXKXKXKXKXKXKXKXKXKXKXKXKXKXKXKXKXKXKXKXKXKXKXKXKXKXKXKXKXKXKXKXKXKXKXKX5 O + 3 + + 3 5 5 + 5 3 + 8 + O + 8 + = 4 8 8 8 4 5 + 8 4 5 + = 4 + 8 8 + 5 8 4 + 3 8 & 8 5 3 + 5 8 8 8 8 8 + + 8 > > 8 8 8 > + + + + + = + + > 8 = 8 8 = + 8 > = = + = > > 8 = 8 > + = = = > > + > 8 + > > + > + > = + + 8 > > + > 8 > = = > > + 8 + 8 8 8 > > 8 8 > > + 8 + 8 > = + & 8 8 8 + + 8 > = + 8 + + > 8 8 + > > 8 + > + + 8 8 > + = > 8 & = 8 > + + 5 8 > > + > 8 8 8 5 & 8 0 > > 8 = 8 8 8 8 8 5 + 8 8 = 8 8 & 8 8 > 8 > > + > > 8 & = > > 8 5 = + > > 8 8 > > = = + + 8 3 8 5 4 + + + 8 8 + 8 3 3 8 > + > + + + > + + 8 8 8 8 0 > + 8 8 + 8 8 8 4 5 8 + + 4 = 8 8 8 + + + + + + > + o 5 8 & + 8 + > 8 > > + > + > 8 8 8 8 > 8 3 8 0 0 8 + = > 8 8 0 8 8 = 8 > > > 8 8 8 8 8 8 8 8 8 8 > 8 > 8 8 > 8 + > 8 8 8 > 8 > 8 > 8 = > = > + + > > + = + X > f KXKXKXKXKXKXKXKXKXKXKXKXKXKXKXKXKXKXKXKXKXKXKXKXKXKXKXKXKXKXKXKXKXKXKXKXKXKXKXKX",
"KXKXKXKXKXKXKXKXKXKXKXKXKXKXKXKXKXKXKXKXKXKXKXKXKXKXKXKXKXKXKXKXKXKXKXKXKXKXKXKX8 8 8 + = 3 + + 8 3 + 8 8 8 8 + + 5 5 8 8 8 8 + = + O + + 5 + + 4 8 8 5 + 8 8 O 8 8 5 8 8 8 8 + 8 3 + 4 + + 3 8 8 > 8 > = & = + = 8 > > > + 8 8 = > > = > > 8 + 8 = = 8 8 + = > > + 8 & = 8 8 > 8 > 8 8 0 8 8 + 8 > > + = > 8 + > 8 = + + 8 8 = + > = > + > + 8 8 = = + + = + > 8 = + = > = > + = > + 8 + > + + > + + + > 8 8 > > = > > = + = > 8 > > + 8 + > > + 8 8 8 > 8 + + > + > 8 8 > 8 8 > > > 8 > & 8 > 8 > > 8 = > 0 > 8 8 = 8 8 > = + = = 5 > 8 & 8 > + > 8 > > 5 & + 8 + 8 8 5 5 5 = 8 8 8 8 8 0 0 8 8 > 8 8 = + > > + > 8 & = & 8 > 8 8 3 + 3 8 = 8 8 8 3 = 3 8 4 = = > + + + > + 8 + + 8 > 8 > 8 8 > 8 8 > 8 0 > 8 > > > > > > > > 8 + & 8 8 8 8 0 8 > & 8 8 8 8 > > & > 8 > > > 8 + 8 > 8 8 & 8 > > 8 8 > > > > 8 8 > > = + = + > + 8 8 = + + 0 J KXKXKXKXKXKXKXKXKXKXKXKXKXKXKXKXKXKXKXKXKXKXKXKXKXKXKXKXKXKXKXKXKXKXKXKXKXKXKXKXKX",
"KXKXKXKXKXKXKXKXKXKXKXKXKXKXKXKXKXKXKXKXKXKXKXKXKXKXKXKXKXKXKXKXKXKXKXKXKXKXKXKXKX8 8 + 5 + + o + 4 = 5 3 8 5 5 + 8 8 + + 5 8 8 = 3 3 + 8 3 + 8 5 + 5 4 4 5 + + + 8 + 3 + 8 8 + 8 + 3 5 3 + + 8 + = + & + 8 > + 8 8 8 > + > 8 > 8 = + > 8 = = & 8 > > 8 8 & > + + 8 8 8 + > 8 + > 8 > 8 > 8 8 > + > 8 > 8 + + + + 8 > + + > > > > + = = + + + = > 8 + + > + > = 8 + + > > = = = + + + + > + > 8 > = + = > + + > > + + > = + + > = 8 8 + = > > = + + & = > + + + = + + 8 = = & + = 8 8 + + > 8 > > 8 > 8 + > 8 > & = > = 8 > = + = = & 8 > 8 > 8 = > & = 8 8 > 8 8 4 8 = 8 5 + 5 3 3 + + + 3 + + > 8 8 & > 8 > 8 > > = + + 8 8 > + 8 8 + 8 + 4 8 8 8 > 5 4 8 8 3 8 > = 8 > 8 8 + + 0 8 8 > > > = 8 8 8 0 8 8 8 > 8 & 8 8 8 8 + 8 > + + > 0 & + 8 > > 8 0 0 8 8 8 + + > 8 > + > 8 > > > 8 + > 8 > & 8 0 + = 8 8 > 8 8 0 > = + + + + = > + + r r KXKXKXKXKXKXKXKXKXKXKXKXKXKXKXKXKXKXKXKXKXKXKXKXKXKXKXKXKXKXKXKXKXKXKXKXKXKXKXKXKXKX",
"KXKXKXKXKXKXKXKXKXKXKXKXKXKXKXKXKXKXKXKXKXKXKXKXKXKXKXKXKXKXKXKXKXKXKXKXKXKXKXKXKXKX+ 8 5 3 4 + 8 + 5 + & 5 + 3 8 8 0 8 3 = 4 8 = 4 8 8 8 8 8 5 8 + + + 5 = 8 8 + 8 8 8 3 4 8 8 0 8 5 & 8 3 + 5 = + 8 = + 8 > + + 8 8 o + 8 + + 0 8 + = = + + + 8 > + = 8 8 + 8 + + 0 0 + + + > 8 > = 5 & + + > + = + 8 + > > + + + + + + + 8 8 > = + + + + + > + + + > > 8 8 > 8 > + + 8 > = > + + > = > 8 + 8 + + 8 > + + 8 + 8 8 = + + + + + o + > + > 8 8 > + = 8 8 > > + + > + + = > 5 = o = 8 + o + 8 0 8 + + > + = 8 8 + = + + + + 8 = = + = + + + > 8 + 8 8 8 + + 8 > > 5 8 5 4 + + = 3 8 8 5 & 3 + 3 + + = = + + + 8 > 8 8 8 > > > 8 > 8 3 8 8 + 8 5 0 + 8 + 3 8 0 0 0 > > > + 8 > > + = > > 8 & 8 8 8 > + + + + & = > 5 = = 8 & > + > 0 = + 8 8 & o + + 8 > 8 & = > 0 > 8 8 0 > + 8 & 8 8 + > = + + > > 0 8 > & 8 8 + & 8 0 8 + + + 8 8 > + + 8 N KXKXKXKXKXKXKXKXKXKXKXKXKXKXKXKXKXKXKXKXKXKXKXKXKXKXKXKXKXKXKXKXKXKXKXKXKXKXKXKXKXKXKX",
"KXKXKXKXKXKXKXKXKXKXKXKXKXKXKXKXKXKXKXKXKXKXKXKXKXKXKXKXKXKXKXKXKXKXKXKXKXKXKXKXKXKXKX5 + 3 8 O 5 8 4 + + 8 5 = 8 4 8 4 + 5 8 + 0 8 4 5 5 8 8 5 8 + + > 4 8 8 3 + + 8 + 5 > + + 0 8 8 + 3 + + 3 > = = + > + 8 > + + > > + = 8 + + > 8 8 > > + > 8 + > = 8 + > + = = 8 > + + + + = > > + > > + 8 8 > = > 8 > + + & = > + + + + = + + = + + + + + = = & 8 > > + 8 > 8 > + + 8 > > + > = 8 > > + = = + = + > + > 8 + + = > 8 8 8 + 8 = = > 8 8 8 > + > + > 8 + + 0 = = > 8 > 8 > 8 & = + + = = = > > + + 8 > + + 8 8 = > 8 8 > 8 & > > + > > 8 8 > + + + 8 8 = + > 8 3 + 8 8 8 8 + 8 8 8 + 8 = 8 8 8 = = 8 > = + > 8 > 8 > > > + + 4 = + + 3 4 8 8 + = 5 + 8 + 5 8 8 + 8 > 8 + + + 8 8 > > & 5 8 > + 8 + 8 8 > + 8 8 + + > 8 8 > & > 8 8 8 0 & + 0 > 8 > 8 8 > 8 8 0 8 = 8 8 > + > 8 > = 8 > = + + = = 8 > 8 8 > 8 > + > 8 8 > + > + > X = J KXKXKXKXKXKXKXKXKXKXKXKXKXKXKXKXKXKXKXKXKXKXKXKXKXKXKXKXKXKXKXKXKXKXKXKXKXKXKXKXKXKXKXKX",
"KXKXKXKXKXKXKXKXKXKXKXKXKXKXKXKXKXKXKXKXKXKXKXKXKXKXKXKXKXKXKXKXKXKXKXKXKXKXKXKXKXKXKXKX8 8 + 8 O = = 5 8 + 8 w 8 3 8 > + 5 8 3 5 > + + 3 + 3 + 8 8 3 3 = 8 + + 3 8 + 3 3 + 3 + 3 8 3 + + + + 5 + > + > + > > + + + = = + + O o + + + = + + + 8 + 8 8 > 8 > 5 > > 8 > + 8 + = + > 8 8 = 8 = + + > = + > + + > > = = + + + > 8 0 = + + > = = + > + + = + + + + > = 8 > + + > + + = = > + > + + = + + + > = 8 > 8 8 + 8 > + > 8 + + > 8 = + o + o > 8 = = 8 + + 8 + = + + = 8 + + = = + + + = = + + + + = + + > > 8 > > + + 8 8 8 > 8 8 8 8 + 8 0 + + X + + + + > 8 + 3 + 8 8 4 = 3 5 8 3 3 + + + 8 > + + 8 = + > > 8 + 8 8 8 8 8 8 8 8 8 8 8 0 8 3 8 3 = 4 8 + = 8 > + > = > = > > 8 8 8 8 > + + > > 8 > 8 > > 8 > 8 > 8 8 8 8 > + > > 8 0 + + 8 + + + + + + + > 8 & + > + + + + > + & 8 8 > 8 0 8 = + + + = > > r = > 8 > + 8 5 8 o 8 J KXKXKXKXKXKXKXKXKXKXKXKXKXKXKXKXKXKXKXKXKXKXKXKXKXKXKXKXKXKXKXKXKXKXKXKXKXKXKXKXKXKXKXKXKX",
"KXKXKXKXKXKXKXKXKXKXKXKXKXKXKXKXKXKXKXKXKXKXKXKXKXKXKXKXKXKXKXKXKXKXKXKXKXKXKXKXKXKXKXKXKX= 3 + + 8 > 5 3 O + t = 3 8 8 + 8 8 & + 3 + > 8 8 + + 8 3 8 + 5 8 + 8 + 8 8 4 5 5 8 + 3 + 3 + + + + 8 8 + + = + = + + + 8 > = > + + > + + > + + 8 > 8 > > = > + + + + 8 + + + > > 8 = + > > + > = + + 8 + + + + = 8 8 8 8 = 8 = = + 8 > = = > > = > 8 = + = > 8 + > 8 + 8 > + + + 8 + = = = 8 8 > = + > + 8 3 > 8 > 8 8 > 0 8 + + > = 8 8 & = + + + + + > = + > + o + = & > = > + 8 + > = + + + = > > = = + > > + + 8 + + + + + + + = + > > + + + + = = + + 8 = + + > 3 8 > + + 4 8 3 + 3 & 5 5 = + 3 0 8 + = > 0 8 8 & = > + + > 8 + + 3 + + = 4 3 + 8 4 5 5 8 8 + 4 8 8 + 8 + + + > = 8 > 8 8 > 8 = 8 8 = = > + + = + + 8 8 > + + = + 8 8 = > > + 8 > 8 + > > + + + 8 > 8 8 8 > = = 8 > 8 = + 8 = 8 8 8 > & + 8 8 0 8 = 0 0 o + 0 & O 8 l KXKXKXKXKXKXKXKXKXKXKXKXKXKXKXKXKXKXKXKXKXKXKXKXKXKXKXKXKXKXKXKXKXKXKXKXKXKXKXKXKXKXKXKXKXKX",
"KXKXKXKXKXKXKXKXKXKXKXKXKXKXKXKXKXKXKXKXKXKXKXKXKXKXKXKXKXKXKXKXKXKXKXKXKXKXKXKXKXKXKXKXKXKX5 + + 4 5 + 4 + + 8 8 + 8 3 + 3 5 5 3 8 5 5 8 + 4 = 4 8 3 + 8 + 5 3 8 8 8 5 + = 3 3 + + 8 8 3 8 3 5 8 + = + 8 > = = + = = > > 8 0 8 > = > = > + > + + + + + > 8 > > + > = + + 8 > 8 + > 8 + 8 = = > > + + + + + + > > = > + + + = & + + = > 0 > + + = + + = > + + 8 > > = + + = = + 8 & + 8 8 + > 8 > = > > + + + + = = & + + + > + 8 > 5 > = 8 + 5 > 8 8 8 0 8 + 8 8 + 8 = + + + + = = + = + & 8 8 + > 8 = + > 8 = 0 > 8 > > > = + + = 8 8 > + > + > > + = > > = 8 8 8 8 + + 8 8 8 8 8 5 8 = 4 8 + > 8 > & 8 8 > 8 0 8 8 8 8 > > 8 8 8 8 8 5 3 8 + 8 8 + + 5 8 5 8 > > + + > + + > + + & + 8 + > > & > 8 + = > + + > = 8 > > = > + > 0 0 = + 8 > + 8 > 8 > > 8 > 8 + > > 8 8 > 8 8 0 0 8 + + > > = + > 0 8 8 5 & > + & 0 8 5 8 + X o S 9 KXKXKXKXKXKXKXKXKXKXKXKXKXKXKXKXKXKXKXKXKXKXKXKXKXKXKXKXKXKXKXKXKXKXKXKXKXKXKXKXKXKXKXKXKXKX",
"KXKXKXKXKXKXKXKXKXKXKXKXKXKXKXKXKXKXKXKXKXKXKXKXKXKXKXKXKXKXKXKXKXKXKXKXKXKXKXKXKXKXKXKXKXKXKX8 + 8 = o 3 0 0 8 8 + = 3 + + 8 3 + 3 + + + = 4 + = + + 3 + 3 > + 3 8 5 + + + + + + 3 8 3 > 3 + + > 8 = = + + 8 + 8 + > + + + + + + > 5 > + + > + + > 8 8 > > > 8 = > & = = = > > + 8 + = > = + = = + = 8 > = + + > + > + = = > 8 + + = = > 8 > + + + + = + + = + = = + + + > > > 8 + + > = + > 8 > + > = + + o + > + = 8 + + 8 + > = > + > > 8 8 + > > > 8 8 + + = = + = + = + + + = + > + 8 > 8 + 8 = + + + > = 0 > = + > > = + + > + 8 8 > > + = + = = = + + + + 8 > + 5 8 8 + + 3 + 3 5 & 3 8 + > + + > + & 8 > = 8 > > 8 8 > 8 8 8 8 8 5 + 8 3 4 + + 3 + + 8 > + = 8 = + + 8 = = + + & 5 > + 8 0 8 + = > + + > + + > 8 > + + 8 0 8 & + > > + & 5 > = > = 8 + + > > 8 & > + & > > > + 8 0 8 = + + 8 8 + + + > 8 0 + 8 0 > X + r r KXKXKXKXKXKXKXKXKXKXKXKXKXKXKXKXKXKXKXKXKXKXKXKXKXKXKXKXKXKXKXKXKXKXKXKXKXKXKXKXKXKXKXKXKXKXKX",
"KXKXKXKXKXKXKXKXKXKXKXKXKXKXKXKXKXKXKXKXKXKXKXKXKXKXKXKXKXKXKXKXKXKXKXKXKXKXKXKXKXKXKXKXKXKXKXKX5 e 8 3 + r 0 3 + + + 5 3 = 8 8 8 8 8 4 8 5 5 3 = 5 + 8 3 + 8 8 + + 5 + + 3 5 & 8 8 + 3 + 8 8 5 8 > = + + > = > = = + + + + + + = + = > > + + + + 8 + > 3 8 = > + 8 0 8 = > + > + > > = 8 + + + + = + 8 8 > > = + + = + = = = & + + + + + + 8 = = + + > > + > = 8 8 8 = > = = 8 0 0 8 5 = = + 8 > = 8 > > > = 5 8 > > + > 8 > O 8 > 8 8 + 8 > 8 + = = + + > 8 > + 8 > = = > 8 8 > 8 8 8 8 > + 8 > = > > = + > 8 0 8 + + + 8 8 + 5 + + > > 8 = + > + + > 8 = > = 8 3 3 4 3 8 8 3 8 8 8 8 8 8 0 w + 0 0 8 8 > + 8 + = > 8 8 = > = 8 8 + 3 + 8 + 3 8 8 8 + 8 8 + 8 > 8 = > > 8 + 8 8 0 8 > > 8 8 8 = 0 0 & 8 8 > = = 8 + > + 8 > > + 8 > + 8 8 = = 8 = + 8 = 8 + > > 8 8 8 > 5 8 > 0 > = > 8 0 > 4 > 8 > 8 > = 8 0 0 8 + 8 0 + + J l KXKXKXKXKXKXKXKXKXKXKXKXKXKXKXKXKXKXKXKXKXKXKXKXKXKXKXKXKXKXKXKXKXKXKXKXKXKXKXKXKXKXKXKXKXKXKXKX",
"KXKXKXKXKXKXKXKXKXKXKXKXKXKXKXKXKXKXKXKXKXKXKXKXKXKXKXKXKXKXKXKXKXKXKXKXKXKXKXKXKXKXKXKXKXKXKXKXKX0 e 8 8 3 5 + 3 + + 8 3 3 + 8 4 6 8 8 5 8 5 8 8 8 8 + 5 8 8 8 3 > 8 4 8 8 8 8 + 3 + + + 8 4 8 + + & 5 > + + > + + = + = = = 8 > = = + + + = = + > = + = + + + + > 8 > 8 = + + + > + = + + + + = = & > 8 = + > 8 > 8 > = + + + + + = + + + > > = = + 8 8 > + 8 > 8 3 = + > + = + 8 > & + > > 3 = = + = 3 5 8 > > + = 8 + + 8 o > 8 > > = = & 5 > 8 8 & 8 0 8 0 + 5 > 8 = 5 8 8 + 8 8 5 + 5 + + + + + 8 5 + & > 8 + = > = 6 > > 8 5 = 4 8 8 8 8 8 5 = + > 8 5 = 8 8 8 w 8 8 8 0 8 8 4 8 8 8 w 0 8 0 0 > 8 8 > 8 8 8 8 8 > & 5 8 8 4 5 8 8 8 8 8 8 8 8 3 8 8 3 5 & 5 = = + = + > > 0 8 8 8 8 = + + 8 8 + = > & 8 8 8 8 8 8 8 8 8 > 8 8 + 8 > 3 8 > 8 > + 8 > = + 8 0 8 > + 8 8 8 8 & 5 8 > + + + > 8 8 5 8 3 > 8 + + 3 5 o + q J KXKXKXKXKXKXKXKXKXKXKXKXKXKXKXKXKXKXKXKXKXKXKXKXKXKXKXKXKXKXKXKXKXKXKXKXKXKXKXKXKXKXKXKXKXKXKXKXKX",
"KXKXKXKXKXKXKXKXKXKXKXKXKXKXKXKXKXKXKXKXKXKXKXKXKXKXKXKXKXKXKXKXKXKXKXKXKXKXKXKXKXKXKXKXKXKXKXKXKXKX8 8 3 O o + 3 O + 3 + o + O o + O + O o 3 o + = + + + + 3 8 8 8 8 8 8 4 5 5 + + + 5 8 5 + + + + > 8 5 = + + = > > > = > = & 8 8 > + + + + 8 = + > > 8 > = + + + + + + + + + + 8 + + > + + > = = + + + + + + + + + = = = = = + > 8 > = + + + + X + + > + + O o o + + + + + + X + + X X + + o o + + + + o + + + + + + X + + + O o + = + + + +   + X X + + X X o + + + + o o o X o o + o o O + O   o + 5 o + 8   X + + + o o   O o o o X X + O o o O o X + + + o O O + o   @ 8 X o O 3 + O + + + + + + + + o X O O o + o + + 3 + o + 3 & 3 + + + + O o 3 + + + + + + + + + + > X o + + o + o O . = = + + + + > + + = 3 o o O o > + + + 8 o o + > = + + + + + o X + + X o + + 8 + + + = + X o 8 X X + + o o o X o X + o X r P KXKXKXKXKXKXKXKXKXKXKXKXKXKXKXKXKXKXKXKXKXKXKXKXKXKXKXKXKXKXKXKXKXKXKXKXKXKXKXKXKXKXKXKXKXKXKXKXKXKX",
"KXKXKXKXKXKXKXKXKXKXKXKXKXKXKXKXKXKXKXKXKXKXKXKXKXKXKXKXKXKXKXKXKXKXKXKXKXKXKXKXKXKXKXKXKXKXKXKXKXKXKXKXe J Y L J P P Y L L P Y P N K L Y J N r N l N J J N N f 9 r r r r r r r G N J l N r r r r r r e r e r r 0 0 e w r e r e r w t r t r r r t 0 0 8 0 t t r r r t e e r r e r r 9 e 0 0 e 0 0 e r w r 0 w 0 r e r e r S l J r r e r t r r t r t r r S f J J r F r J S f S r r F r J J S J r r t r r r Y r f J r f G J N F N J N N N N N N J N N N r N N N Y N l l N r r l N N N N N N N N J J J L L L Y L L J J L N J N Y N J N J N J N N N Y N r J J Y N f J N J J J J P K J J K J J l N r f N N J J N J K N J N N N J J Y r J F r S J J r F r r r r S f S G r N r r l r N G N l l r r r r r r r f r f l F P J J Y N J J Y N N N J N N J N l N N N l r N N r r l N l N l r N N N Y J N J L Y N N r r N N J N N N J Y KXKXKXKXKXKXKXKXKXKXKXKXKXKXKXKXKXKXKXKXKXKXKXKXKXKXKXKXKXKXKXKXKXKXKXKXKXKXKXKXKXKXKXKXKXKXKXKXKXKXKXKX",
"KXKXKXKXKXKXKXKXKXKXKXKXKXKXKXKXKXKXKXKXKXKXKXKXKXKXKXKXKXKXKXKXKXKXKXKXKXKXKXKXKXKXKXKXKXKXKXKXKXKXKXKXKXKXKXKXKXKXKXKXKXKXKXKXKXKXKXKXKXKXKXKXKXKXKXKXKXKXKXKXKXKXKXKXKXKXKXKXKXKXKXKXKXKXKXKXKXKXKXKXKXKXKXKXKXKXKXKXKXKXKXKXKXKXKXKXKXKXKXKXKXKXKXKXKXKXKXKXKXKXKXKXKXKXKXKXKXKXKXKXKXKXKXKXKXKXKXKXKXKXKXKXKXKXKXKXKXKXKXKXKXKXKXKXKXKXKXKXKXKXKXKXKXKXKXKXKXKXKXKXKXKXKXKXKXKXKXKXKXKXKXKXKXKXKXKXKXKXKXKXKXKXKXKXKXKXKXKXKXKXKXKXKXKXKXKXKXKXKXKXKXKXKXKXKXKXKXKXKXKXKXKXKXKXKXKXKXKXKXKXKXKXKXKXKXKXKXKXKXKXKXKXKXKXKXKXKXKXKXKXKXKXKXKXKXKXKXKXKXKXKXKXKXKXKXKXKXKXKXKXKXKXKXKXKXKXKXKXKXKXKXKXKXKXKXKXKXKXKXKXKXKXKXKXKXKXKXKXKXKXKXKXKXKXKXKXKXKXKXKXKXKXKXKXKXKXKXKXKXKXKXKXKXKXKXKXKXKXKXKXKXKXKXKXKXKXKXKXKXKXKXKXKXKXKXKXKXKXKXKXKXKXKXKXKXKXKXKXKXKXKXKXKXKXKXKXKXKXKXKXKXKXKXKXKXKXKXKXKXKXKXKXKXKXKXKXKXKXKXKXKXKXKXKXKXKXKXKXKXKXKXKXKXKXKXKXKXKXKXKXKXKXKXKXKXKXKXKXKXKXKXKXKXKXKXKXKXKXKXKXKXKXKXKXKXKXKXKXKX",
"KXKXKXKXKXKXKXKXKXKXKXKXKXKXKXKXKXKXKXKXKXKXKXKXKXKXKXKXKXKXKXKXKXKXKXKXKXKXKXKXKXKXKXKXKXKXKXKXKXKXKXKXKXKXKXKXKXKXKXKXKXKXKXKXKXKXKXKXKXKXKXKXKXKXKXKXKXKXKXKXKXKXKXKXKXKXKXKXKXKXKXKXKXKXKXKXKXKXKXKXKXKXKXKXKXKXKXKXKXKXKXKXKXKXKXKXKXKXKXKXKXKXKXKXKXKXKXKXKXKXKXKXKXKXKXKXKXKXKXKXKXKXKXKXKXKXKXKXKXKXKXKXKXKXKXKXKXKXKXKXKXKXKXKXKXKXKXKXKXKXKXKXKXKXKXKXKXKXKXKXKXKXKXKXKXKXKXKXKXKXKXKXKXKXKXKXKXKXKXKXKXKXKXKXKXKXKXKXKXKXKXKXKXKXKXKXKXKXKXKXKXKXKXKXKXKXKXKXKXKXKXKXKXKXKXKXKXKXKXKXKXKXKXKXKXKXKXKXKXKXKXKXKXKXKXKXKXKXKXKXKXKXKXKXKXKXKXKXKXKXKXKXKXKXKXKXKXKXKXKXKXKXKXKXKXKXKXKXKXKXKXKXKXKXKXKXKXKXKXKXKXKXKXKXKXKXKXKXKXKXKXKXKXKXKXKXKXKXKXKXKXKXKXKXKXKXKXKXKXKXKXKXKXKXKXKXKXKXKXKXKXKXKXKXKXKXKXKXKXKXKXKXKXKXKXKXKXKXKXKXKXKXKXKXKXKXKXKXKXKXKXKXKXKXKXKXKXKXKXKXKXKXKXKXKXKXKXKXKXKXKXKXKXKXKXKXKXKXKXKXKXKXKXKXKXKXKXKXKXKXKXKXKXKXKXKXKXKXKXKXKXKXKXKXKXKXKXKXKXKXKXKXKXKXKXKXKXKXKXKXKXKXKXKXKXKXKXKXKX",
"KXKXKXKXKXKXKXKXKXKXKXKXKXKXKXKXKXKXKXKXKXKXKXKXKXKXKXKXKXKXKXKXKXKXKXKXKXKXKXKXKXKXKXKXKXKXKXKXKXKXKXKXKXKXKXKXKXKXKXKXKXKXKXKXKXKXKXKXKXKXKXKXKXKXKXKXKXKXKXKXKXKXKXKXKXKXKXKXKXKXKXKXKXKXKXKXKXKXKXKXKXKXKXKXKXKXKXKXKXKXKXKXKXKXKXKXKXKXKXKXKXKXKXKXKXKXKXKXKXKXKXKXKXKXKXKXKXKXKXKXKXKXKXKXKXKXKXKXKXKXKXKXKXKXKXKXKXKXKXKXKXKXKXKXKXKXKXKXKXKXKXKXKXKXKXKXKXKXKXKXKXKXKXKXKXKXKXKXKXKXKXKXKXKXKXKXKXKXKXKXKXKXKXKXKXKXKXKXKXKXKXKXKXKXKXKXKXKXKXKXKXKXKXKXKXKXKXKXKXKXKXKXKXKXKXKXKXKXKXKXKXKXKXKXKXKXKXKXKXKXKXKXKXKXKXKXKXKXKXKXKXKXKXKXKXKXKXKXKXKXKXKXKXKXKXKXKXKXKXKXKXKXKXKXKXKXKXKXKXKXKXKXKXKXKXKXKXKXKXKXKXKXKXKXKXKXKXKXKXKXKXKXKXKXKXKXKXKXKXKXKXKXKXKXKXKXKXKXKXKXKXKXKXKXKXKXKXKXKXKXKXKXKXKXKXKXKXKXKXKXKXKXKXKXKXKXKXKXKXKXKXKXKXKXKXKXKXKXKXKXKXKXKXKXKXKXKXKXKXKXKXKXKXKXKXKXKXKXKXKXKXKXKXKXKXKXKXKXKXKXKXKXKXKXKXKXKXKXKXKXKXKXKXKXKXKXKXKXKXKXKXKXKXKXKXKXKXKXKXKXKXKXKXKXKXKXKXKXKXKXKXKXKXKXKXKXKXKXKX",
"KXKXKXKXKXKXKXKXKXKXKXKXKXKXKXKXKXKXKXKXKXKXKXKXKXKXKXKXKXKXKXKXKXKXKXKXKXKXKXKXKXKXKXKXKXKXKXKXKXKXKXKXKXKXKXKXKXKXKXKXKXKXKXKXKXKXKXKXKXKXKXKXKXKXKXKXKXKXKXKXKXKXKXKXKXKXKXKXKXKXKXKXKXKXKXKXKXKXKXKXKXKXKXKXKXKXKXKXKXKXKXKXKXKXKXKXKXKXKXKXKXKXKXKXKXKXKXKXKXKXKXKXKXKXKXKXKXKXKXKXKXKXKXKXKXKXKXKXKXKXKXKXKXKXKXKXKXKXKXKXKXKXKXKXKXKXKXKXKXKXKXKXKXKXKXKXKXKXKXKXKXKXKXKXKXKXKXKXKXKXKXKXKXKXKXKXKXKXKXKXKXKXKXKXKXKXKXKXKXKXKXKXKXKXKXKXKXKXKXKXKXKXKXKXKXKXKXKXKXKXKXKXKXKXKXKXKXKXKXKXKXKXKXKXKXKXKXKXKXKXKXKXKXKXKXKXKXKXKXKXKXKXKXKXKXKXKXKXKXKXKXKXKXKXKXKXKXKXKXKXKXKXKXKXKXKXKXKXKXKXKXKXKXKXKXKXKXKXKXKXKXKXKXKXKXKXKXKXKXKXKXKXKXKXKXKXKXKXKXKXKXKXKXKXKXKXKXKXKXKXKXKXKXKXKXKXKXKXKXKXKXKXKXKXKXKXKXKXKXKXKXKXKXKXKXKXKXKXKXKXKXKXKXKXKXKXKXKXKXKXKXKXKXKXKXKXKXKXKXKXKXKXKXKXKXKXKXKXKXKXKXKXKXKXKXKXKXKXKXKXKXKXKXKXKXKXKXKXKXKXKXKXKXKXKXKXKXKXKXKXKXKXKXKXKXKXKXKXKXKXKXKXKXKXKXKXKXKXKXKXKXKXKXKXKXKXKXKXKX",
"KXKXKXKXKXKXKXKXKXKXKXKXKXKXKXKXKXKXKXKXKXKXKXKXKXKXKXKXKXKXKXKXKXKXKXKXKXKXKXKXKXKXKXKXKXKXKXKXKXKXKXKXKXKXKXKXKXKXKXKXKXKXKXKXKXKXKXKXKXKXKXKXKXKXKXKXKXKXKXKXKXKXKXKXKXKXKXKXKXKXKXKXKXKXKXKXKXKXKXKXKXKXKXKXKXKXKXKXKXKXKXKXKXKXKXKXKXKXKXKXKXKXKXKXKXKXKXKXKXKXKXKXKXKXKXKXKXKXKXKXKXKXKXKXKXKXKXKXKXKXKXKXKXKXKXKXKXKXKXKXKXKXKXKXKXKXKXKXKXKXKXKXKXKXKXKXKXKXKXKXKXKXKXKXKXKXKXKXKXKXKXKXKXKXKXKXKXKXKXKXKXKXKXKXKXKXKXKXKXKXKXKXKXKXKXKXKXKXKXKXKXKXKXKXKXKXKXKXKXKXKXKXKXKXKXKXKXKXKXKXKXKXKXKXKXKXKXKXKXKXKXKXKXKXKXKXKXKXKXKXKXKXKXKXKXKXKXKXKXKXKXKXKXKXKXKXKXKXKXKXKXKXKXKXKXKXKXKXKXKXKXKXKXKXKXKXKXKXKXKXKXKXKXKXKXKXKXKXKXKXKXKXKXKXKXKXKXKXKXKXKXKXKXKXKXKXKXKXKXKXKXKXKXKXKXKXKXKXKXKXKXKXKXKXKXKXKXKXKXKXKXKXKXKXKXKXKXKXKXKXKXKXKXKXKXKXKXKXKXKXKXKXKXKXKXKXKXKXKXKXKXKXKXKXKXKXKXKXKXKXKXKXKXKXKXKXKXKXKXKXKXKXKXKXKXKXKXKXKXKXKXKXKXKXKXKXKXKXKXKXKXKXKXKXKXKXKXKXKXKXKXKXKXKXKXKXKXKXKXKXKXKXKXKXKXKXKXKXKX",
"KXKXKXKXKXKXKXKXKXKXKXKXKXKXKXKXKXKXKXKXKXKXKXKXKXKXKXKXKXKXKXKXKXKXKXKXKXKXKXKXKXKXKXKXKXKXKXKXKXKXKXKXKXKXKXKXKXKXKXKXKXKXKXKXKXKXKXKXKXKXKXKXKXKXKXKXKXKXKXKXKXKXKXKXKXKXKXKXKXKXKXKXKXKXKXKXKXKXKXKXKXKXKXKXKXKXKXKXKXKXKXKXKXKXKXKXKXKXKXKXKXKXKXKXKXKXKXKXKXKXKXKXKXKXKXKXKXKXKXKXKXKXKXKXKXKXKXKXKXKXKXKXKXKXKXKXKXKXKXKXKXKXKXKXKXKXKXKXKXKXKXKXKXKXKXKXKXKXKXKXKXKXKXKXKXKXKXKXKXKXKXKXKXKXKXKXKXKXKXKXKXKXKXKXKXKXKXKXKXKXKXKXKXKXKXKXKXKXKXKXKXKXKXKXKXKXKXKXKXKXKXKXKXKXKXKXKXKXKXKXKXKXKXKXKXKXKXKXKXKXKXKXKXKXKXKXKXKXKXKXKXKXKXKXKXKXKXKXKXKXKXKXKXKXKXKXKXKXKXKXKXKXKXKXKXKXKXKXKXKXKXKXKXKXKXKXKXKXKXKXKXKXKXKXKXKXKXKXKXKXKXKXKXKXKXKXKXKXKXKXKXKXKXKXKXKXKXKXKXKXKXKXKXKXKXKXKXKXKXKXKXKXKXKXKXKXKXKXKXKXKXKXKXKXKXKXKXKXKXKXKXKXKXKXKXKXKXKXKXKXKXKXKXKXKXKXKXKXKXKXKXKXKXKXKXKXKXKXKXKXKXKXKXKXKXKXKXKXKXKXKXKXKXKXKXKXKXKXKXKXKXKXKXKXKXKXKXKXKXKXKXKXKXKXKXKXKXKXKXKXKXKXKXKXKXKXKXKXKXKXKXKXKXKXKXKXKXKXKX"
};
