/* XPM */
static char *h2_death3[] = {
/* columns rows colors chars-per-pixel */
"65 25 8 1 ",
"  c black",
". c gray16",
"X c gray32",
"o c gray42",
"O c gray61",
"+ c #C6C6C6",
"@ c #E7E7DE",
"# c #000000",
/* pixels */
"#################################################################",
"#################################################################",
"#################################################################",
"#################################################################",
"#########oo######...#############################################",
"########o@oo###..@@@.###################.   .####.    .##########",
"######oo.o@  #.+++++@...########.  .###. XXXX     XXXX .#########",
"####oX @@@o   OO ..o+.OO.#  .#.  .      .............XX ####  .##",
"###o@X @+@@   O.+@+ ...O       . oooo................X  ##. o+ ##",
"###@@X.+X@@+  O.@@@ @@@  ooo.     @@@@                 o  o++o ##",
"###@O@.+..@+ @O.ooo @@@@    ooooo @@@o .......  oo++oooo o+@o ###",
"###@+@.....o @+..oo o@@@ @@ @@@@@ @@o          @ ++@++@@X@@+o ###",
"###@Oo..O@@@X +.... oooo @@ @@+++ @o   +@@+ . @ ++++@+++X@@o o###",
"###@o+@.+++@X   OOO..... oo ++        X+XX  X .XXXXXX+++X@o o ###",
"###o#oo.oooo##.    OOO  .     oXX+   XXXXXXXXXXX#####XXXX  Oo ###",
"############## @@++   X    XXX..  XXXXXXXXXXXXXXXX#######     ###",
"###############     XXXXXXXXXXXXXXXXXXXXXXXXXXXXXX###############",
"####################XXXXXXXXXXXXXXXXXXXXXXXXXXXX#################",
"#######################XXXXXXXXXXXXXXXXXXXXXX####################",
"#############################XXXXXXXXXX##########################",
"#################################################################",
"#################################################################",
"#################################################################",
"#################################################################",
"#################################################################"
};
