/* XPM */
static char *h2_death1[] = {
/* columns rows colors chars-per-pixel */
"44 66 8 1 ",
"  c black",
". c gray16",
"X c gray32",
"o c gray42",
"O c gray61",
"+ c #C6C6C6",
"@ c #E7E7DE",
"# c None",
/* pixels */
"############################################",
"############################################",
"######oo####################################",
"####oo@@o###################################",
"##oo@@+ o.##################################",
"#@@@@@@  @..################################",
"#oo@@XX   .@.###############################",
"##o@.  @ +@o ###############################",
"##oo.+@@@ +o ###############################",
"###....X@ +  ##########################   .#",
"###...@@+     #######################. XXX #",
"####.o@+.  .   ..############.  .#.   X..XX#",
"####.o..     @@.@.########## XXXX ........X#",
"#####...ooo+@@@@.@.########. ...........   #",
"######...OO+@@@@.@. ####.    .....      ####",
"#####.++..O+@@OO.. o ## ooo..        X  ####",
"#####o@@++   OO ++@.o  o@@o  ......    #####",
"#####o@@@ @++  +.    o @@@  ..      XX #####",
"#####oo@@ @@+    oooo@ @@o.       .   ######",
"######ooo @@@ @@ @@@@o @@o.   ###   ########",
"#######o  o@@ @@ @@++o oo    ####  #########",
"######### ooo oo ++        ######  #########",
"########## ..+     O.      #################",
"########### o.@+.O.O.          #   #########",
"########### o.@+.O.   ooooooooo ++O.########",
"############  @+   ooo.OOOOOOOO ++Oo.#######",
"############        .O.++++++OO OOOo #######",
"############## ooooo ..+++++++O  ooo #######",
"############## X+++++o.OOOOOOO OO   ########",
"###############X+@@@++o.XXXXXXXO+Ooo.#######",
"###############X+@@@@++o.#####XO++Oo #######",
"################X+@@@@++o ####oO++Oo #######",
"#################X++@@@++o.###XO+++o #######",
"##################XX+@@@++o.###X+++o #######",
"####################X+@@@+o ###XO+++o ######",
"#####################X+@   . ###XO++o ######",
"######################  @@+o ####XOOo ######",
"###################### +@@+o ####X    ######",
"######################  +@+o #### oooo #####",
"###################### +    ##### O++Oo .###",
"###################### ++ooo.#### OO+OOOo.##",
"###################### ++@+o #####  O++OO ##",
"####################### +@+o #######      ##",
"####################### +@+o ###############",
"####################### +@+o ###############",
"####################### ++@+o ##############",
"######################## +@+o ##############",
"######################## +@+o ##############",
"######################### @+  ##############",
"##########################     #############",
"#########################.X@@@+ ############",
"######################### X++@+X.###########",
"#########################  Xoo++X.##########",
"###########################   Xoo ##########",
"##############################    ##########",
"##################XXXXXXXXXX################",
"############XXXXXXXXXXXXXXXXXXXXXX##########",
"#########XXXXXXXXXXXXXXXXXXXXXXXXXXXX#######",
"#######XXXXXXXXXXXXXXXXXXXXXXXXXXXXXXXX#####",
"#######XXXXXXXXXXXXXXXXXXXXXXXXXXXXXXXX#####",
"#########XXXXXXXXXXXXXXXXXXXXXXXXXXXX#######",
"############XXXXXXXXXXXXXXXXXXXXXX##########",
"##################XXXXXXXXXX################",
"############################################",
"############################################",
"############################################"
};
