/* XPM */
static char *h2_jump2[] = {
/* columns rows colors chars-per-pixel */
"53 66 8 1 ",
"  c black",
". c gray16",
"X c gray32",
"o c gray42",
"O c gray61",
"+ c #C6C6C6",
"@ c #E7E7DE",
"# c #000000",
/* pixels */
"#####################################################",
"#####################################################",
"##################@@@oooo.###########################",
"###################Ooo@@o@.##########################",
"###################o@o@@@o@.#########################",
"###################.....XXXo#########################",
"###################o+.++  X##########################",
"###################o+..X@@@.#########################",
"##################o+..@XX@ .#########################",
"##################o+o@@@@ @@.########################",
"###################XX+++ @o@ ########################",
"#####################       #########################",
"################...ooo  .  ##########################",
"###############o@++.OOo    ##########################",
"##############o@@+++.OO+   .#########################",
"##############o@@+++.O+@@.@ .########################",
"##############o@@+   O+@@@.@.########################",
"##############o@  o+ OOO@@.@..#######################",
"############### oo@+ oOOO..@.o ######################",
"###############o+@@+     +...oo ###    .####     .###",
"###############o+@@++.++@@++.OOo #. XXXX     XXXX  ##",
"################o@@   .  @@ .      .............XX ##",
"#################  ++ ooo   oooo................X  ##",
"################ o@@  @@ooo @@ooo                 ###",
"################ oo@  @@@@@ @@o   .......  X ########",
"################  o   +++++ @oo              ########",
"##################@+.       oo    oo    . XX ########",
"#################..     .o #        ###     #########",
"#################X+++oo O  .#   ######.   ###########",
"#################X+@@+o O.oo #########... ###########",
"#################X+@@+o  +OOo #######################",
"################o+@@@+o  ++OOo.######################",
"################X+@@@oo ++++OOo #####################",
"################X+@@+o XO++++OOo ####################",
"###############X+@@@+o #XO++++OO ####################",
"###############o+@@+o ###XO++++Oo.###################",
"###############X+@@+o ####XO+++  O ##################",
"###############X+@+o ######XOO ++Oo #################",
"##############  +@+o #######XX+OOOo #################",
"#########oXoXX@  +o #########X  Ooo #################",
"########X++++ @@o   ##########XO   ##################",
"######oX+@@++ @++o ##########oO+Ooo #################",
"###XoX@@++++oo +++ ##########XO++Oo #################",
"##o++ ++oooooo o#############XOO+Oo #################",
"##X@+ oooo      #############XOO++o #################",
"##X@+o    ####################XOO+o #################",
"##X@+o #######################XOO++o ################",
"##X@+o ########################XOO+o ################",
"##X+o ##########################XOOo     ############",
"### o ##########################X   +OOOo############",
"###  ############################X++OOoo ############",
"#################################XOOoo  #############",
"#################################Xoo  ###############",
"##################################  #################",
"#####################################################",
"#####################################################",
"###############XXXXXXXXXX############################",
"#########XXXXXXXXXXXXXXXXXXXXXX######################",
"######XXXXXXXXXXXXXXXXXXXXXXXXXXXX###################",
"####XXXXXXXXXXXXXXXXXXXXXXXXXXXXXXXX#################",
"####XXXXXXXXXXXXXXXXXXXXXXXXXXXXXXXX#################",
"######XXXXXXXXXXXXXXXXXXXXXXXXXXXX###################",
"#########XXXXXXXXXXXXXXXXXXXXXX######################",
"###############XXXXXXXXXX############################",
"#####################################################",
"#####################################################"
};
