/* XPM */
static char *h2_jump1[] = {
/* columns rows colors chars-per-pixel */
"59 66 8 1 ",
"  c black",
". c gray16",
"X c gray32",
"o c gray42",
"O c gray61",
"+ c #C6C6C6",
"@ c #E7E7DE",
"# c #000000",
/* pixels */
"###########################################################",
"###########################################################",
"###########################################################",
"######################@@@ooo.##############################",
"######################Oo+o+@o.#############################",
"######################o@@o@@@o.############################",
"######################......XXo############################",
"######################o+@.++  X############################",
"######################o+@..Xoo.############################",
"#####################o+@..@XX@.############################",
"#####################o@@o@@@@ o.###########################",
"######################XX++++ @o ###########################",
"########################       ############################",
"####################...oo  .  #############################",
"###################o@++.Oo    #############################",
"##################o@@+++.O+   .############################",
"##################o@@+++.+@@.@ .###########################",
"##################o@@+   +@@@.@.###########################",
"##################o@  o+ OO@@.@. ##########################",
"################### oo@+ OOO..@.o #####    .####     .#####",
"###################o+@@+    +...Oo ###. XXXX     XXXX  ####",
"###################o+@@++.+@@++..      .............XX ####",
"####################o@@   .     oooo................X  ####",
"####################.  ++ ooooo @@ooo                 #####",
"################### oo@@  @@@@@ @@o   .......  X ##########",
"################### o@o@  @@+++ @oo              ##########",
"###################  @o   ++    oo    oo    . XX ##########",
"#####################@+.    o ##        ###     ###########",
"#####################      .o ###   ######.   #############",
"####################.   .ooo  ############... #############",
"####################o++++ @O. #############################",
"###################X++@@+o O.o ############################",
"###################X++@@+o  +Oo.###########################",
"###################X++@@+o  ++Oo ##########################",
"###################X++@@+o ++++o ##########################",
"###################X++@@+o ++++Oo #########################",
"####################X+@@+o O++++Oo.########################",
"####################X+@@+o XOO+++ + #######################",
"####################X+@@+o #XOO+ ++O#######################",
"#####################X+@+o ##   OO+o#######################",
"#####################X+@+o # +O  OOo#######################",
"#####################X++o # +++Oo o #######################",
"#####################X+   # ++O+Oo ########################",
"#####################X @+o ++OOOo #########################",
"####################X@@@+o +OOoo ##########################",
"###################oX  ooo OOo  ###########################",
"##################o++++   OOo #############################",
"##################X+@@+o  o ###############################",
"#################X++@+o OO ################################",
"#################X+@@+o OO ################################",
"#################X+@+o  OO ################################",
"#################X++o # oOO ###############################",
"#################X++o ## oO ###############################",
"#################X   .###  ################################",
"################o++@@@XoXXXX###############################",
"############XXXXX+@@@@@@.XXXXXXXXX#########################",
"#########XXXXXXXXoooooooo.XXXXXXXXXXX######################",
"#######XXXXXXXXXX         XXXXXXXXXXXXX####################",
"#######XXXXXXXXXXXXXXXXXXXXXXXXXXXXXXXX####################",
"#########XXXXXXXXXXXXXXXXXXXXXXXXXXXX######################",
"############XXXXXXXXXXXXXXXXXXXXXX#########################",
"##################XXXXXXXXXX###############################",
"###########################################################",
"###########################################################",
"###########################################################",
"###########################################################"
};
