/* XPM */
static char *h2_pose1[] = {
/* columns rows colors chars-per-pixel */
"43 60 8 1 ",
"  c black",
". c gray16",
"X c gray32",
"o c gray42",
"O c gray61",
"+ c #C6C6C6",
"@ c #E7E7DE",
"# c None",
/* pixels */
"###########################################",
"###########################################",
"##########@@@ooo.##########################",
"###########oo@@o@.#########################",
"##########oo@@@@o@.########################",
"##########...XXXXX.########################",
"##########..++    .########################",
"##########o..X@@@ .########################",
"#########o@.@XX@  .########################",
"#########oo@@@@  @@.#######################",
"##########X+++ @@ @.#######################",
"###########.       ########################",
"#########..oooo    .#######################",
"#######oo++.O++@@.@@.######################",
"######oo@@+.O+@@@@.@@.#####################",
"######o@@@+.O+@@@@.+@.#####################",
"######o@@@+.oOOOO...+. ####################",
"######o@@    oO  +++. o ##    .####     .##",
"#######  @@+   +++@@@ Oo.. XXXX     XXXX  #",
"#######o@@@+ ++++@@.      .............XX #",
"#######o+@@+ .     oooo................X  #",
"#######o+@@  ooooo @@ooo                 ##",
"########   @ @@@@@ @@o   .......  X #######",
"########o@@@ @@+++ @oo              #######",
"#########o@  ++    oo    oo    . XX #######",
"#########o     .           ###     ########",
"############..  oooo   ######.   ##########",
"############Xooo @@O.########... ##########",
"###########X++++o@@O.######################",
"###########X+@@+o+@ .######################",
"###########X+@@+o+@ o #####################",
"###########X+@@+o  OOo ####################",
"###########X+@@+oO+++Oo ###################",
"###########X+@@+oO++++Oo.##################",
"###########X+@@+o++++++Oo #################",
"###########X+@@+o ++++++Oo ################",
"###########X+@@+o# ++++++O ################",
"###########X+@@+o## ++++++O.###############",
"###########X.    ### +++++.  ##############",
"###########  @@+o ### +++ +Oo##############",
"########### @@@+o ####   ++Oo##############",
"##########   +++o #####  OOOo##############",
"#########.+++    ###### O    ##############",
"######## +@@+ooo ##### O+ooo ##############",
"######## +@@@+o ###### O++Oo ##############",
"####### +@@@+o ####### O++Oo ##############",
"####### +@@+o ######### O+Oo ##############",
"####### +@+o ########## O+Oo ##############",
"###### +@+o ########### O+Oo ##############",
"######. +o ############# OOo ##############",
"###### @   ##############     #############",
"##### +@+o XXXXXXXXXX### +++OO .###########",
"##### +     XXXXXXXXXXXX OOOOOOo ##########",
"##XXX  @@+o XXXXXXXXXXXX oooooooo #########",
"XXXXX       XXXXXXXXXXXX          #########",
"XXXXXXXXXXXXXXXXXXXXXXXXXXXXXXXX###########",
"##XXXXXXXXXXXXXXXXXXXXXXXXXXXX#############",
"#####XXXXXXXXXXXXXXXXXXXXXX################",
"###########XXXXXXXXXX######################",
"###########################################"
};
