/* XPM */
static char *h2_run5[] = {
/* columns rows colors chars-per-pixel */
"51 66 8 1 ",
"  c black",
". c gray16",
"X c gray32",
"o c gray42",
"O c gray61",
"+ c #C6C6C6",
"@ c #E7E7DE",
"# c None",
/* pixels */
"###################################################",
"###################################################",
"###################################################",
"################@@@ooo.############################",
"################Oo+o+@o.###########################",
"################o@@o@@@o.##########################",
"################......XXo##########################",
"################o+@.++  X##########################",
"################o+@..Xoo.##########################",
"###############o+@..@XX@.##########################",
"###############o@@o@@@@ o.#########################",
"################XX++++ @o #########################",
"##################       ##########################",
"##############...oo  .  ###########################",
"#############o@++.Oo    ###########################",
"############o@@+++.O+   .##########################",
"############o@@+++.+@@.@ .#########################",
"############o@@+   +@@@.@.#########################",
"############o@  o+ OO@@.@. ######    .####     .###",
"############# oo@+ OOO..@.o ####. XXXX     XXXX  ##",
"#############o+@@+    +....      .............XX ##",
"#############o+@@++..     oooo................X  ##",
"##############o@@   ooooo @@ooo                 ###",
"##############.  ++ @@@@@ @@o   .......  X ########",
"############# oo@@  @@+++ @oo              ########",
"############# o@o@  ++    oo    oo    . XX ########",
"#############  @o o     ##        ###     #########",
"###############@+. OO.o ###   ######.   ###########",
"##############.  oo  .o ############... ###########",
"##############.    .@O  ###########################",
"##############o+++oo O. ###########################",
"##############X+@@+oo o ###########################",
"##############X+@@++o o ###########################",
"##############X+@@@+oo. ###########################",
"###############X+@@@+o o ##########################",
"###############X+@@@+oo  ##########################",
"################X+@@++o  ##########################",
"################X+@@@+oo.##########################",
"#################X+@@++o ##########################",
"################XoX+@@+oo #########################",
"#############XoXOOX+@@++o #########################",
"############oOOO+++X@@@   .########################",
"###########XOO+++OO X@ @+oo #######################",
"##########oOO++OOOo   oo+oo #######################",
"#######XXo+++OOoo  ##   ooo #######################",
"######o++ OOOo   ###XXoo   ########################",
"######X++O o  ######X+++oo ########################",
"######XOOOo #######o+++oo #########################",
"######XOOo ########X+@+oo #########################",
"######Xoo #########X+@+o ##########################",
"######Xoo #########X++oo ##########################",
"######Xo ##########X++oo ##########################",
"######X  ##########X++o ###########################",
"###################X++o ###########################",
"####################X   .##########################",
"############XXXXXXXo++@@@Xo########################",
"######XXXXXXXXXXXXXX+@@@@@@.#######################",
"###XXXXXXXXXXXXXXXXXoooooooo.XX####################",
"#XXXXXXXXXXXXXXXXXXX         XXXX##################",
"#XXXXXXXXXXXXXXXXXXXXXXXXXXXXXXXX##################",
"###XXXXXXXXXXXXXXXXXXXXXXXXXXXX####################",
"######XXXXXXXXXXXXXXXXXXXXXX#######################",
"############XXXXXXXXXX#############################",
"###################################################",
"###################################################",
"###################################################"
};
