/* XPM */
static char *h2_run4[] = {
/* columns rows colors chars-per-pixel */
"54 68 8 1 ",
"  c black",
". c gray16",
"X c gray32",
"o c gray42",
"O c gray61",
"+ c #C6C6C6",
"@ c #E7E7DE",
"# c None",
/* pixels */
"######################################################",
"######################################################",
"######################################################",
"##################@@@ooo.#############################",
"##################Oo+o+@o.############################",
"##################o@@o@@@o.###########################",
"##################......XXo###########################",
"##################o+@.++  X###########################",
"##################o+@..Xoo.###########################",
"#################o+@..@XX@.###########################",
"#################o@@o@@@@ o.##########################",
"##################XX++++ @o ##########################",
"####################       ###########################",
"################...oo  .  ############################",
"###############o@++.Oo    ############################",
"##############o@@+++.O+   .###########################",
"##############o@@+++.+@@.@ .##########################",
"##############o@@+   +@@@.@.##########################",
"##############o@  o+ OO@@.@. #########################",
"############### oo@+ OOO..@.o ########################",
"###############o+@@+    +...Oo ####    .####     .####",
"###############o+@@++.+@@++.OOo.##. XXXX     XXXX  ###",
"################o@@   .  @  .      .............XX ###",
"################.  ++ ooo   oooo................X  ###",
"############### oo@@  @@ooo @@ooo                 ####",
"############### o@o@  @@@@@ @@o   .......  X #########",
"###############  @o   +++++ @oo              #########",
"#################@+.        oo    oo    . XX #########",
"################.  .   .o ##        ###     ##########",
"################.  oooo   ###   ######.   ############",
"################  +++++o.#############... ############",
"################  +@@@++o ############################",
"#################X+@@@@++o ###########################",
"#################XX+@@@@++o ##########################",
"################XOOX+@@@@++o.#########################",
"################XO++X+@@@@+o #########################",
"###############oO+++OX++@@@+o ########################",
"###############XO++OooXX++++ +.#######################",
"##############XOO+OOo #XX   @+o.######################",
"##############XO++Ooo ###X++@+o ######################",
"#############oXO++Oo ####X  ++o ######################",
"#########oXoX +  Oo ######X+   #######################",
"########X++++ ++O   ######X+++o.######################",
"######oX++++O +OOO #######X+@+o ######################",
"##oXoX++OOOOoo ooo #######X+@+o ######################",
"#X++O OOoooooo  oo ########X@+o ######################",
"#X++O oo      #   #########X+@o ######################",
"#X+OOo  ###################X+@+o #####################",
"#X+OOo #####################X@+o #####################",
"##XOoo #####################X@+o     #################",
"##XOo ######################X   ooo+o#################",
"##XOo #######################X@@@@+o #################",
"##Xoo #######################X@@+o  ##################",
"###XX########################X+o  ####################",
"##############################  ######################",
"######################################################",
"######################################################",
"##############XXXXXXXXXX##############################",
"########XXXXXXXXXXXXXXXXXXXXXX########################",
"#####XXXXXXXXXXXXXXXXXXXXXXXXXXXX#####################",
"###XXXXXXXXXXXXXXXXXXXXXXXXXXXXXXXX###################",
"###XXXXXXXXXXXXXXXXXXXXXXXXXXXXXXXX###################",
"#####XXXXXXXXXXXXXXXXXXXXXXXXXXXX#####################",
"########XXXXXXXXXXXXXXXXXXXXXX########################",
"##############XXXXXXXXXX##############################",
"######################################################",
"######################################################",
"######################################################"
};
