/* XPM */
static char *h3_attack4[] = {
/* columns rows colors chars-per-pixel */
"106 65 14 1 ",
"  c black",
". c #282828",
"X c #780010",
"o c #484830",
"O c #585840",
"+ c #505050",
"@ c #707058",
"# c #686868",
"$ c #E00808",
"% c #888868",
"& c #989898",
"* c #C0C0C0",
"= c #E0E0D8",
"- c None",
/* pixels */
"----------------------------------------------------------------------------------------------------------",
"----------------------------------------------------------------------------------------------------------",
"----------------------------------------------------------------------------------------------------------",
"----------------------------------------------------------------------------------------------------------",
"----------------------------------------------------------------------------------------------------------",
"----------------$$$XXX.-----------------------------------------------------------------------------------",
"-----------------##$$X$.----------------------------------------------------------------------------------",
"----------------##===$X$.---------------------------------------------------------------------------------",
"----------------...+++++.---------------------------------------------------------------------------------",
"----------------..**    .---------------------------------------------------------------------------------",
"----------------#..+=$$ .---------------------------------------------------------------------------------",
"---------------#=.=++=  .---------------------------------------------------------------------------------",
"---------------##====  $$.---------------------------------------------------------------ooo--------------",
"----------------+*** =$ $.---------------------------------------------------------oo---@@@@oo------------",
"-----------------.       ----------------------------------------------------------oo---@@@@ooo-----------",
"---------------..####    .------------------------------------------------------------oo@oo%%@oo----------",
"-------------##**.&**==.==.-----------------------------------------------------------ooooo%@@Oo----------",
"------------##$=*.&*====.==.----------------------------------------------------------ooooo@@OO@----------",
"------------#$$=*.&*====.*=.---------------------------------------------------------o-OOOOOO@OOo---------",
"------------#$$=*.#&&&&...*. --------------------------------------------------------oO@@OOOOOoOo---------",
"------------#$$    #&  ***. # --    .----     .--------------------------------------O@@@@@@@Ooo----------",
"-------------  $$*   ***=== &#.. ++++     ++++  -----------------------------------o-OO@@@@OOOoo----------",
"-------------#$$$* ****==.      .............++ --------------------------------o-o-oooOOOO@@Ooo----------",
"-------------#*$$* .     ####................+  ---------------------------o-----o-o-ooooOO@%@oo----------",
"-------------#*$$  ##### $$XXX                 ------------------------------o--ooo-ooooooO@@OOo----------",
"--------------   = $$$$$ $$X   .......  + --------------------------------oo--oo---ooooOOooO@OO@----------",
"--------------X$$$ $$*** $XX              ----------------------------------------o-ooOOOooo%@@O----------",
"---------------X$  **    XX    ##    . ++ -------------------------------------------ooooooo%@@O----------",
"---------------X     .           ---     --------------------------------------------o-ooooo@@OO----------",
"------------------..  ####   ------.   ---------------------------------------------ooooooOoooO-----------",
"------------------+### ==&.--------... ----------------------------------------------OOOOOoooo------------",
"-----------------+****#==&.-----------------------------------------------------------O@Oooo--------------",
"-----------------+*==*#*= .------------------------------------------------------------Oooo-o-------------",
"-----------------+*==*#*= # -------------------------------------------------------------o-o--------------",
"-----------------+*==*#  &&# -----------------------------------------------------------------------------",
"-----------------+*==*#&***&# ----------------------------------------------------------------------------",
"-----------------+*==*#&****&#.---------------------------------------------------------------------------",
"-----------------+*==*#******&# --------------------------------------------------------------------------",
"-----------------+*==*# ******&# -------------------------------------------------------------------------",
"-----------------+*==*#- ******& -------------------------------------------------------------------------",
"-----------------+*==*#-- ******&.------------------------------------------------------------------------",
"-----------------+.    --- *****.  -----------------------------------------------------------------------",
"-----------------  ==*# --- *** *&#-----------------------------------------------------------------------",
"----------------- ===*# ----   **&#-----------------------------------------------------------------------",
"---------------    ***# -----  &&&#-----------------------------------------------------------------------",
"-------------- .***    ------ &    -----------------------------------------------------------------------",
"-------------- *==*### ----- &*### -----------------------------------------------------------------------",
"-------------- *===*# ------ &**&# -----------------------------------------------------------------------",
"------------- *===*# ------- &**&# -----------------------------------------------------------------------",
"------------- *==*# --------- &*&# -----------------------------------------------------------------------",
"------------- *=*# ---------- &*&# -----------------------------------------------------------------------",
"------------ *=*# ----------- &*&# -----------------------------------------------------------------------",
"------------. *# ------------- &&# -----------------------------------------------------------------------",
"------------ =   --------------     ----------------------------------------------------------------------",
"----------- *=*# ++++++++----- ***&& .--------------------------------------------------------------------",
"---------++ *     ++++++++++++ &&&&&&# -------------------------------------------------------------------",
"------+++++  ==*# ++++++++++++ ######## ------------------------------------------------------------------",
"----+++++++       ++++++++++++          ------------------------------------------------------------------",
"----++++++++++++++++++++++++++++++++----------------------------------------------------------------------",
"------++++++++++++++++++++++++++++------------------------------------------------------------------------",
"---------++++++++++++++++++++++---------------------------------------------------------------------------",
"---------------++++++++++---------------------------------------------------------------------------------",
"----------------------------------------------------------------------------------------------------------",
"----------------------------------------------------------------------------------------------------------",
"----------------------------------------------------------------------------------------------------------"
};
