/* XPM */
static char *h3_attack3[] = {
/* columns rows colors chars-per-pixel */
"100 67 19 1 ",
"  c black",
". c #282828",
"X c #780010",
"o c #484830",
"O c #585840",
"+ c #505050",
"@ c #707058",
"# c #686868",
"$ c #E00808",
"% c #F07828",
"& c #F8C010",
"* c #888868",
"= c #989898",
"- c #A0A080",
"; c #F8F080",
": c #C0C0A0",
"> c #C0C0C0",
", c #E0E0D8",
"< c None",
/* pixels */
"<<<<<<<<<<<<<<<<<<<<<<<<<<<<<<<<<<<<<<<<<<<<<<<<<<<<<<<<<<<<<<<<<<<<<<<<<<<<<<<<<<<<<<<<<<<<<<<<<<<<",
"<<<<<<<<<<<<<<<<<<<<<<<<<<<<<<<<<<<<<<<<<<<<<<<<<<<<<<<<<<<<<<<<<<<<<<<<<<<<<<<<<<<<<<<<<<<<<<<<<<<<",
"<<<<<<<<<<<<<<<<<<<<<<<<<<<<<<<<<<<<<<<<<<<<<<<<<<<<<<<<<<<<<<<<<<<<<<<<<<<<<<<<<<<<<<<<<<<<<<<<<<<<",
"<<<<<<<<<<<<<<<<<<<<<<<<<<<<<<<<<<<<<<<<<<<<<<<<<<<<<<<<<<<<<<<<<<<<<<<<<<<<<<<<<<<<<<<<<<<<<<<<<<<<",
"<<<<<<<<<<<<<<<<<<<<<<<<<<<<<<<<<<<<<<<<<<<<<<<<<<<<<<<<<<<<<<<<<<<<<<<<<<<<<<<<<<<<<<<<<<<<<<<<<<<<",
"<<<<<<<<<<<<<<<<<<<$$$XXX.<<<<<<<<<<<<<<<<<<<<<<<<<<<<<<<<<<<<<<<<<<<<<<<<<<<<<<<<<<<<<<<<<<<<<<<<<<",
"<<<<<<<<<<<<<<<<<<<<##$$X$.<<<<<<<<<<<<<<<<<<<<<<<<<<<<<<<<<<<<<<<<<<<<<<<<<<<<<<<<<<<<<<<<<<<<<<<<<",
"<<<<<<<<<<<<<<<<<<<##,,,$X$.<<<<<<<<<<<<<<<<<<<<<<<<<<<<<<<<<<<<<<<<<<<<<<<<<<<<<<<<<<<<<<<<<<<<<<<<",
"<<<<<<<<<<<<<<<<<<<...+++++.<<<<<<<<<<<<<<<<<<<<<<<<<<<<<<<<<<<<<<<<<<<<<<<<<<<<<<<<<<<<<<<<<<<<<<<<",
"<<<<<<<<<<<<<<<<<<<..>>    .<<<<<<<<<<<<<<<<<<<<<<<<<<<<<<<<<<<<<<<<<<<<<<<<<<<<<<<<<<<<<<<<<<<<<<<<",
"<<<<<<<<<<<<<<<<<<<#..+,$$ .<<<<<<<<<<<<<<<<<<<<<<<<<<<<<<<<<<<<<<<<<<<<<<<<<<<<<<<<<<<<<<<<<<<<<<<<",
"<<<<<<<<<<<<<<<<<<#,.,++,  .<<<<<<<<<<<<<<<<<<<<<<<<<<<<<<<<<<<<<<<<<<<<<<<<<<<<ooo<<ooo<<<<<<<<<<<<",
"<<<<<<<<<<<<<<<<<<##,,,,  $$.<<<<<<<<<<<<<<<<<<<<<<<<<<<<<<<<<<<<<<<<<<<<<<<<<<ooOOooooooo<<<<<<<<<<",
"<<<<<<<<<<<<<<<<<<<+>>> ,$ $.<<<<<<<<<<<<<<<<<<<<<<<<<<<<<<<<<<<<<<<<<<<<<<o<<<oO@OOooo@@@o<<<<<<<<<",
"<<<<<<<<<<<<<<<<<<<<.       <<<<<<<<<<<<<<<<<<<<<<<<<<<<<<<<<<<<<<<<<<<<<<<<<ooo%O%ooo**-:-@<<<<<<<<",
"<<<<<<<<<<<<<<<<<<..####    .<<<<<<<<<<<<<<<<<<<<<<<<<<<<<<<<<<<<<<<<<<<<<<ooOOOOooooooo@-:-o<<<<<<<",
"<<<<<<<<<<<<<<<<##>>.=>>,,.,,.<<<<<<<<<<<<<<<<<<<<<<<<<<<<<<<<<<<<<<oooo<<<<oO@@@O%o&o@@o@**@oo<<<<<",
"<<<<<<<<<<<<<<<##$,>.=>,,,,.,,.<<<<<<<<<<<<<<<<<<<<<<<<<<<<<<<<<<<<<oooo<<<O<o@@@oooo@**@@o@o@oo<<<<",
"<<<<<<<<<<<<<<<#$$,>.=>,,,,.>,.<<<<<<<<<<<<<<<<<<<<<<<<<<<<<<<<<<<ooOOOoo<o<o<OOOooo&@&**@@**-:@o<<<",
"<<<<<<<<<<<<<<<#$$,>.#====...>. <<<<<<<<<<<<<<<<<<<<<<<<<<<<<<<<<<oOOOOooooo<ooOooo&@@***@@*-::-@<<<",
"<<<<<<<<<<<<<<<#$$    #=  >>>. # <    .<<<<     .<<<<<<<<<<<<<<<<<<oOOooo<oo<ooooo%o&%%@@@------@<<<",
"<<<<<<<<<<<<<<<<  $$>   >>>,,, =#. ++++     ++++  <<<<<<<<<<<<<<<<ooooooOOO@OOooo&%&&&&%&&@@***oo<<<",
"<<<<<<<<<<<<<<<<#$$$> >>>>,.      .............++ <<<<<<<<<<<<<oooooooOO@@@@O&o%%%%&&;;&%%%&&@oo<<<<",
"<<<<<<<<<<<<<<<<#>$$>      ####................+  <<<<<<oOOo<<oooo%oooOOO@@@%%%%%&;;;;;;;%%****@<<<<",
"<<<<<<<<<<<<<<<<#>$$  #### $$XXX                 <<<<oo<oOO%<<oo&ooo&o&o%%%%%;;;;;;;;;;&%&-**-*@<<<<",
"<<<<<<<<<<<<<<<<<   , $$$$ $$X   .......  + <<<<<<<<<<<<<oo<<<oooooooooooo%&%%&&&&&;;&%&%-**-:*o<<<<",
"<<<<<<<<<<<<<<<<<X$$$ $>>> $XX              <<<<<<<<<<<<<<<<<<<<ooooooooOooooo%%%&%%%-&--**---@<<<<<",
"<<<<<<<<<<<<<<<<<<X$  >    XX    ##    . ++ <<<<<<<<<<<<<<<<<<<<<ooooo%oOOooooo%%o%%o---***:-*@<<<<<",
"<<<<<<<<<<<<<<<<<<X    >.          <<<     <<<<<<<<<<<<<<<<<<<<<<<<<<<oO@@OOOooooooo&o&O*@-::@<<<<<<",
"<<<<<<<<<<<<<<<<<<<<<..  ###   <<<<<<.   <<<<<<<<<<<<<<<<<<<<<<<<<<<<<oO@@@OOoooooooOOO@@@--@o<<<<<<",
"<<<<<<<<<<<<<<<<<<<<<+### ,,=.<<<<<<<... <<<<<<<<<<<<<<<<<<<<<<<<<<<<<<oOO<O<OOOOo&o&O@**@@@o<<<<<<<",
"<<<<<<<<<<<<<<<<<<<<+>>>>#,,=.<<<<<<<<<<<<<<<<<<<<<<<<<<<<<<<<<<<<<<<<<<ooO<O<O@@OOoOO@**@@<<<<<<<<<",
"<<<<<<<<<<<<<<<<<<<<+>,,>#>, .<<<<<<<<<<<<<<<<<<<<<<<<<<<<<<<<<<<<<<<<<<<<<O<<oO@OOoooO@Ooo<<<<<<<<<",
"<<<<<<<<<<<<<<<<<<<<+>,,>#>, # <<<<<<<<<<<<<<<<<<<<<<<<<<<<<<<<<<<<<<<<<<<<<<<ooOOOo<o<oo<<<<<<<<<<<",
"<<<<<<<<<<<<<<<<<<<<+>,,>#  ==# <<<<<<<<<<<<<<<<<<<<<<<<<<<<<<<<<<<<<<<<<<<<<<<<oooo<<o<<<<<<<<<<<<<",
"<<<<<<<<<<<<<<<<<<<<+>,,>#=>>>=# <<<<<<<<<<<<<<<<<<<<<<<<<<<<<<<<<<<<<<<<<<<<<<<<<<<<<<<<<<<<<<<<<<<",
"<<<<<<<<<<<<<<<<<<<<+>,,>#=>>>>=#.<<<<<<<<<<<<<<<<<<<<<<<<<<<<<<<<<<<<<<<<<<<<<<<<<<<<<<<<<<<<<<<<<<",
"<<<<<<<<<<<<<<<<<<<<+>,,>#>>>>>>=# <<<<<<<<<<<<<<<<<<<<<<<<<<<<<<<<<<<<<<<<<<<<<<<<<<<<<<<<<<<<<<<<<",
"<<<<<<<<<<<<<<<<<<<<+>,,># >>>>>>=# <<<<<<<<<<<<<<<<<<<<<<<<<<<<<<<<<<<<<<<<<<<<<<<<<<<<<<<<<<<<<<<<",
"<<<<<<<<<<<<<<<<<<<<+>,,>#< >>>>>>= <<<<<<<<<<<<<<<<<<<<<<<<<<<<<<<<<<<<<<<<<<<<<<<<<<<<<<<<<<<<<<<<",
"<<<<<<<<<<<<<<<<<<<<+>,,>#<< >>>>>>=.<<<<<<<<<<<<<<<<<<<<<<<<<<<<<<<<<<<<<<<<<<<<<<<<<<<<<<<<<<<<<<<",
"<<<<<<<<<<<<<<<<<<<<+.    <<< >>>>>.  <<<<<<<<<<<<<<<<<<<<<<<<<<<<<<<<<<<<<<<<<<<<<<<<<<<<<<<<<<<<<<",
"<<<<<<<<<<<<<<<<<<<<  ,,># <<< >>> >=#<<<<<<<<<<<<<<<<<<<<<<<<<<<<<<<<<<<<<<<<<<<<<<<<<<<<<<<<<<<<<<",
"<<<<<<<<<<<<<<<<<<<< ,,,># <<<<   >>=#<<<<<<<<<<<<<<<<<<<<<<<<<<<<<<<<<<<<<<<<<<<<<<<<<<<<<<<<<<<<<<",
"<<<<<<<<<<<<<<<<<<<   >>># <<<<<  ===#<<<<<<<<<<<<<<<<<<<<<<<<<<<<<<<<<<<<<<<<<<<<<<<<<<<<<<<<<<<<<<",
"<<<<<<<<<<<<<<<<<<.>>>    <<<<<< =    <<<<<<<<<<<<<<<<<<<<<<<<<<<<<<<<<<<<<<<<<<<<<<<<<<<<<<<<<<<<<<",
"<<<<<<<<<<<<<<<<< >,,>### <<<<< =>### <<<<<<<<<<<<<<<<<<<<<<<<<<<<<<<<<<<<<<<<<<<<<<<<<<<<<<<<<<<<<<",
"<<<<<<<<<<<<<<<<< >,,,># <<<<<< =>>=# <<<<<<<<<<<<<<<<<<<<<<<<<<<<<<<<<<<<<<<<<<<<<<<<<<<<<<<<<<<<<<",
"<<<<<<<<<<<<<<<< >,,,># <<<<<<< =>>=# <<<<<<<<<<<<<<<<<<<<<<<<<<<<<<<<<<<<<<<<<<<<<<<<<<<<<<<<<<<<<<",
"<<<<<<<<<<<<<<<< >,,># <<<<<<<<< =>=# <<<<<<<<<<<<<<<<<<<<<<<<<<<<<<<<<<<<<<<<<<<<<<<<<<<<<<<<<<<<<<",
"<<<<<<<<<<<<<<<< >,># <<<<<<<<<< =>=# <<<<<<<<<<<<<<<<<<<<<<<<<<<<<<<<<<<<<<<<<<<<<<<<<<<<<<<<<<<<<<",
"<<<<<<<<<<<<<<< >,># <<<<<<<<<<< =>=# <<<<<<<<<<<<<<<<<<<<<<<<<<<<<<<<<<<<<<<<<<<<<<<<<<<<<<<<<<<<<<",
"<<<<<<<<<<<<<<<. ># <<<<<<<<<<<<< ==# <<<<<<<<<<<<<<<<<<<<<<<<<<<<<<<<<<<<<<<<<<<<<<<<<<<<<<<<<<<<<<",
"<<<<<<<<<<<<<<< ,   <<<<<<<<<<<<<<     <<<<<<<<<<<<<<<<<<<<<<<<<<<<<<<<<<<<<<<<<<<<<<<<<<<<<<<<<<<<<",
"<<<<<<<<<<<<<< >,># ++++++++<<<<< >>>== .<<<<<<<<<<<<<<<<<<<<<<<<<<<<<<<<<<<<<<<<<<<<<<<<<<<<<<<<<<<",
"<<<<<<<<<<<<++ >     ++++++++++++ ======# <<<<<<<<<<<<<<<<<<<<<<<<<<<<<<<<<<<<<<<<<<<<<<<<<<<<<<<<<<",
"<<<<<<<<<+++++  ,,># ++++++++++++ ######## <<<<<<<<<<<<<<<<<<<<<<<<<<<<<<<<<<<<<<<<<<<<<<<<<<<<<<<<<",
"<<<<<<<+++++++       ++++++++++++          <<<<<<<<<<<<<<<<<<<<<<<<<<<<<<<<<<<<<<<<<<<<<<<<<<<<<<<<<",
"<<<<<<<++++++++++++++++++++++++++++++++<<<<<<<<<<<<<<<<<<<<<<<<<<<<<<<<<<<<<<<<<<<<<<<<<<<<<<<<<<<<<",
"<<<<<<<<<++++++++++++++++++++++++++++<<<<<<<<<<<<<<<<<<<<<<<<<<<<<<<<<<<<<<<<<<<<<<<<<<<<<<<<<<<<<<<",
"<<<<<<<<<<<<++++++++++++++++++++++<<<<<<<<<<<<<<<<<<<<<<<<<<<<<<<<<<<<<<<<<<<<<<<<<<<<<<<<<<<<<<<<<<",
"<<<<<<<<<<<<<<<<<<++++++++++<<<<<<<<<<<<<<<<<<<<<<<<<<<<<<<<<<<<<<<<<<<<<<<<<<<<<<<<<<<<<<<<<<<<<<<<",
"<<<<<<<<<<<<<<<<<<<<<<<<<<<<<<<<<<<<<<<<<<<<<<<<<<<<<<<<<<<<<<<<<<<<<<<<<<<<<<<<<<<<<<<<<<<<<<<<<<<<",
"<<<<<<<<<<<<<<<<<<<<<<<<<<<<<<<<<<<<<<<<<<<<<<<<<<<<<<<<<<<<<<<<<<<<<<<<<<<<<<<<<<<<<<<<<<<<<<<<<<<<",
"<<<<<<<<<<<<<<<<<<<<<<<<<<<<<<<<<<<<<<<<<<<<<<<<<<<<<<<<<<<<<<<<<<<<<<<<<<<<<<<<<<<<<<<<<<<<<<<<<<<<",
"<<<<<<<<<<<<<<<<<<<<<<<<<<<<<<<<<<<<<<<<<<<<<<<<<<<<<<<<<<<<<<<<<<<<<<<<<<<<<<<<<<<<<<<<<<<<<<<<<<<<",
"<<<<<<<<<<<<<<<<<<<<<<<<<<<<<<<<<<<<<<<<<<<<<<<<<<<<<<<<<<<<<<<<<<<<<<<<<<<<<<<<<<<<<<<<<<<<<<<<<<<<"
};
