/* XPM */
static char *h3_pose1[] = {
/* columns rows colors chars-per-pixel */
"48 64 10 1 ",
"  c black",
". c #282828",
"X c #780010",
"o c #505050",
"O c #686868",
"+ c #E00808",
"@ c #989898",
"# c #C0C0C0",
"$ c #E0E0D8",
"% c #000000",
/* pixels */
"%%%%%%%%%%%%%%%%%%%%%%%%%%%%%%%%%%%%%%%%%%%%%%%%",
"%%%%%%%%%%%%%%%%%%%%%%%%%%%%%%%%%%%%%%%%%%%%%%%%",
"%%%%%%%%%%%%%%%%%%%%%%%%%%%%%%%%%%%%%%%%%%%%%%%%",
"%%%%%%%%%%%%%%%%%%%%%%%%%%%%%%%%%%%%%%%%%%%%%%%%",
"%%%%%%%%%%%%%+++XXX.%%%%%%%%%%%%%%%%%%%%%%%%%%%%",
"%%%%%%%%%%%%%%OO++X+.%%%%%%%%%%%%%%%%%%%%%%%%%%%",
"%%%%%%%%%%%%%OO$$$+X+.%%%%%%%%%%%%%%%%%%%%%%%%%%",
"%%%%%%%%%%%%%...ooooo.%%%%%%%%%%%%%%%%%%%%%%%%%%",
"%%%%%%%%%%%%%..##    .%%%%%%%%%%%%%%%%%%%%%%%%%%",
"%%%%%%%%%%%%%O..o$++ .%%%%%%%%%%%%%%%%%%%%%%%%%%",
"%%%%%%%%%%%%O$.$oo$  .%%%%%%%%%%%%%%%%%%%%%%%%%%",
"%%%%%%%%%%%%OO$$$$  ++.%%%%%%%%%%%%%%%%%%%%%%%%%",
"%%%%%%%%%%%%%o### $+ +.%%%%%%%%%%%%%%%%%%%%%%%%%",
"%%%%%%%%%%%%%%.       %%%%%%%%%%%%%%%%%%%%%%%%%%",
"%%%%%%%%%%%%..OOOO    .%%%%%%%%%%%%%%%%%%%%%%%%%",
"%%%%%%%%%%OO##.@##$$.$$.%%%%%%%%%%%%%%%%%%%%%%%%",
"%%%%%%%%%OO+$#.@#$$$$.$$.%%%%%%%%%%%%%%%%%%%%%%%",
"%%%%%%%%%O++$#.@#$$$$.#$.%%%%%%%%%%%%%%%%%%%%%%%",
"%%%%%%%%%O++$#.O@@@@...#. %%%%%%%%%%%%%%%%%%%%%%",
"%%%%%%%%%O++    O@  ###. O %%    .%%%%     .%%%%",
"%%%%%%%%%%  ++#   ###$$$ @O.. oooo     oooo  %%%",
"%%%%%%%%%%O+++# ####$$.      .............oo %%%",
"%%%%%%%%%%O#++# .     OOOO................o  %%%",
"%%%%%%%%%%O#++  OOOOO ++XXX                 %%%%",
"%%%%%%%%%%%   $ +++++ ++X   .......  o %%%%%%%%%",
"%%%%%%%%%%%X+++ ++### +XX              %%%%%%%%%",
"%%%%%%%%%%%%X+  ##    XX    OO    . oo %%%%%%%%%",
"%%%%%%%%%%%%X     .           %%%     %%%%%%%%%%",
"%%%%%%%%%%%%%%%..  OOOO   %%%%%%.   %%%%%%%%%%%%",
"%%%%%%%%%%%%%%%oOOO $$@.%%%%%%%%... %%%%%%%%%%%%",
"%%%%%%%%%%%%%%o####O$$@.%%%%%%%%%%%%%%%%%%%%%%%%",
"%%%%%%%%%%%%%%o#$$#O#$ .%%%%%%%%%%%%%%%%%%%%%%%%",
"%%%%%%%%%%%%%%o#$$#O#$ O %%%%%%%%%%%%%%%%%%%%%%%",
"%%%%%%%%%%%%%%o#$$#O  @@O %%%%%%%%%%%%%%%%%%%%%%",
"%%%%%%%%%%%%%%o#$$#O@###@O %%%%%%%%%%%%%%%%%%%%%",
"%%%%%%%%%%%%%%o#$$#O@####@O.%%%%%%%%%%%%%%%%%%%%",
"%%%%%%%%%%%%%%o#$$#O######@O %%%%%%%%%%%%%%%%%%%",
"%%%%%%%%%%%%%%o#$$#O ######@O %%%%%%%%%%%%%%%%%%",
"%%%%%%%%%%%%%%o#$$#O% ######@ %%%%%%%%%%%%%%%%%%",
"%%%%%%%%%%%%%%o#$$#O%% ######@.%%%%%%%%%%%%%%%%%",
"%%%%%%%%%%%%%%o.    %%% #####.  %%%%%%%%%%%%%%%%",
"%%%%%%%%%%%%%%  $$#O %%% ### #@O%%%%%%%%%%%%%%%%",
"%%%%%%%%%%%%%% $$$#O %%%%   ##@O%%%%%%%%%%%%%%%%",
"%%%%%%%%%%%%%   ###O %%%%%  @@@O%%%%%%%%%%%%%%%%",
"%%%%%%%%%%%%.###    %%%%%% @    %%%%%%%%%%%%%%%%",
"%%%%%%%%%%% #$$#OOO %%%%% @#OOO %%%%%%%%%%%%%%%%",
"%%%%%%%%%%% #$$$#O %%%%%% @##@O %%%%%%%%%%%%%%%%",
"%%%%%%%%%% #$$$#O %%%%%%% @##@O %%%%%%%%%%%%%%%%",
"%%%%%%%%%% #$$#O %%%%%%%%% @#@O %%%%%%%%%%%%%%%%",
"%%%%%%%%%% #$#O %%%%%%%%%% @#@O %%%%%%%%%%%%%%%%",
"%%%%%%%%% #$#O %%%%%%%%%%% @#@O %%%%%%%%%%%%%%%%",
"%%%%%%%%%. #O %%%%%%%%%%%%% @@O %%%%%%%%%%%%%%%%",
"%%%%%%%%% $   %%%%%%%%%%%%%%     %%%%%%%%%%%%%%%",
"%%%%%%%% #$#O oooooooo%%%%% ###@@ .%%%%%%%%%%%%%",
"%%%%%%oo #     oooooooooooo @@@@@@O %%%%%%%%%%%%",
"%%%ooooo  $$#O oooooooooooo OOOOOOOO %%%%%%%%%%%",
"%ooooooo       oooooooooooo          %%%%%%%%%%%",
"%oooooooooooooooooooooooooooooooo%%%%%%%%%%%%%%%",
"%%%oooooooooooooooooooooooooooo%%%%%%%%%%%%%%%%%",
"%%%%%%oooooooooooooooooooooo%%%%%%%%%%%%%%%%%%%%",
"%%%%%%%%%%%%oooooooooo%%%%%%%%%%%%%%%%%%%%%%%%%%",
"%%%%%%%%%%%%%%%%%%%%%%%%%%%%%%%%%%%%%%%%%%%%%%%%",
"%%%%%%%%%%%%%%%%%%%%%%%%%%%%%%%%%%%%%%%%%%%%%%%%",
"%%%%%%%%%%%%%%%%%%%%%%%%%%%%%%%%%%%%%%%%%%%%%%%%"
};
