/* XPM */
static char *h3_run2[] = {
/* columns rows colors chars-per-pixel */
"52 68 11 1 ",
"  c black",
". c #282828",
"X c #780010",
"o c #505050",
"O c gray32",
"+ c #686868",
"@ c #E00808",
"# c #989898",
"$ c #C0C0C0",
"% c #E0E0D8",
"& c None",
/* pixels */
"&&&&&&&&&&&&&&&&&&&&&&&&&&&&&&&&&&&&&&&&&&&&&&&&&&&&",
"&&&&&&&&&&&&&&&&&&@@@XXXX.&&&&&&&&&&&&&&&&&&&&&&&&&&",
"&&&&&&&&&&&&&&&&&&&#++@@X@.&&&&&&&&&&&&&&&&&&&&&&&&&",
"&&&&&&&&&&&&&&&&&&&+%+%%%X@.&&&&&&&&&&&&&&&&&&&&&&&&",
"&&&&&&&&&&&&&&&&&&&.....ooo+&&&&&&&&&&&&&&&&&&&&&&&&",
"&&&&&&&&&&&&&&&&&&&+$.$$  o&&&&&&&&&&&&&&&&&&&&&&&&&",
"&&&&&&&&&&&&&&&&&&&+$..o%@@.&&&&&&&&&&&&&&&&&&&&&&&&",
"&&&&&&&&&&&&&&&&&&+$..%oo% .&&&&&&&&&&&&&&&&&&&&&&&&",
"&&&&&&&&&&&&&&&&&&+$+%%%% @@.&&&&&&&&&&&&&&&&&&&&&&&",
"&&&&&&&&&&&&&&&&&&&oo$$$ %X@ &&&&&&&&&&&&&&&&&&&&&&&",
"&&&&&&&&&&&&&&&&&&&&&       &&&&&&&&&&&&&&&&&&&&&&&&",
"&&&&&&&&&&&&&&&&...+++  .  &&&&&&&&&&&&&&&&&&&&&&&&&",
"&&&&&&&&&&&&&&&+@$$.##+    &&&&&&&&&&&&&&&&&&&&&&&&&",
"&&&&&&&&&&&&&&+@@$$$.##$   .&&&&&&&&&&&&&&&&&&&&&&&&",
"&&&&&&&&&&&&&&+@@$$$.#$%%.% .&&&&&&&&&&&&&&&&&&&&&&&",
"&&&&&&&&&&&&&&+@@$   #$%%%.%.&&&&&&&&&&&&&&&&&&&&&&&",
"&&&&&&&&&&&&&&+@  X$ ###%%.%..&&&&&&&&&&&&&&&&&&&&&&",
"&&&&&&&&&&&&&&& XX@$ +###..%.+ &&&&&&&&&&&&&&&&&&&&&",
"&&&&&&&&&&&&&&&+$@@$     $...++ &&&    .&&&&     .&&",
"&&&&&&&&&&&&&&&+$@@$$.$$%%$$.##+ &. oooo     oooo  &",
"&&&&&&&&&&&&&&&&+@@   .  %% .      .............oo &",
"&&&&&&&&&&&&&&&&&  $$ +++   ++++................o  &",
"&&&&&&&&&&&&&&&& X@@  @@+++ @@XXX                 &&",
"&&&&&&&&&&&&&&&& +X@  @@@@@ @@X   .......  o &&&&&&&",
"&&&&&&&&&&&&&&&&  X   $$$$$ @XX              &&&&&&&",
"&&&&&&&&&&&&&&&&&&%$.       XX    ++    . oo &&&&&&&",
"&&&&&&&&&&&&&&&&&..     .+ &        &&&     &&&&&&&&",
"&&&&&&&&&&&&&&&&&o$$$++ #  .&   &&&&&&.   &&&&&&&&&&",
"&&&&&&&&&&&&&&&&&o$%%$+ #.++ &&&&&&&&&... &&&&&&&&&&",
"&&&&&&&&&&&&&&&&&o$%%$+  $##+ &&&&&&&&&&&&&&&&&&&&&&",
"&&&&&&&&&&&&&&&&+$%%%$+  $$##+.&&&&&&&&&&&&&&&&&&&&&",
"&&&&&&&&&&&&&&&&o$%%%++ $$$$##+ &&&&&&&&&&&&&&&&&&&&",
"&&&&&&&&&&&&&&&&o$%%$+ o#$$$$##+ &&&&&&&&&&&&&&&&&&&",
"&&&&&&&&&&&&&&&o$%%%$+ &o#$$$$## &&&&&&&&&&&&&&&&&&&",
"&&&&&&&&&&&&&&&+$%%$+ &&&o#$$$$#+.&&&&&&&&&&&&&&&&&&",
"&&&&&&&&&&&&&&&o$%%$+ &&&&o#$$$  # &&&&&&&&&&&&&&&&&",
"&&&&&&&&&&&&&&&o$%$+ &&&&&&o## $$#+ &&&&&&&&&&&&&&&&",
"&&&&&&&&&&&&&&  $%$+ &&&&&&&oo$###+ &&&&&&&&&&&&&&&&",
"&&&&&&&&&+o+oo%  $+ &&&&&&&&&o  #++ &&&&&&&&&&&&&&&&",
"&&&&&&&&o$$$$ %%+   &&&&&&&&&&o#   &&&&&&&&&&&&&&&&&",
"&&&&&&+o$%%$$ %$$+ &&&&&&&&&&+#$#++ &&&&&&&&&&&&&&&&",
"&&&o+o%%$$$$++ $$$ &&&&&&&&&&o#$$#+ &&&&&&&&&&&&&&&&",
"&&+$$ $$++++++ +&&&&&&&&&&&&&o##$#+ &&&&&&&&&&&&&&&&",
"&&o%$ ++++      &&&&&&&&&&&&&o##$$+ &&&&&&&&&&&&&&&&",
"&&o%$+    &&&&&&&&&&&&&&&&&&&&o##$+ &&&&&&&&&&&&&&&&",
"&&o%$+ &&&&&&&&&&&&&&&&&&&&&&&o##$$+ &&&&&&&&&&&&&&&",
"&&o%$+ &&&&&&&&&&&&&&&&&&&&&&&&o##$+ &&&&&&&&&&&&&&&",
"&&o$+ &&&&&&&&&&&&&&&&&&&&&&&&&&o##+     &&&&&&&&&&&",
"&&& + &&&&&&&&&&&&&&&&&&&&&&&&&&o   $###+&&&&&&&&&&&",
"&&&  &&&&&&&&&&&&&&&&&&&&&&&&&&&&o$$##++ &&&&&&&&&&&",
"&&&&&&&&&&&&&&&&&&&&&&&&&&&&&&&&&o##++  &&&&&&&&&&&&",
"&&&&&&&&&&&&&&&&&&&&&&&&&&&&&&&&&o++  &&&&&&&&&&&&&&",
"&&&&&&&&&&&&&&&&&&&&&&&&&&&&&&&&&&  &&&&&&&&&&&&&&&&",
"&&&&&&&&&&&&&&&&&&&&&&&&&&&&&&&&&&&&&&&&&&&&&&&&&&&&",
"&&&&&&&&&&&&&&&&&&&&&&&&&&&&&&&&&&&&&&&&&&&&&&&&&&&&",
"&&&&&&&&&&&&&&&OOoooooooooo&&&&&&&&&&&&&&&&&&&&&&&&&",
"&&&&&&&&&OOoooooooooooooooooooooo&&&&&&&&&&&&&&&&&&&",
"&&&&&&OOoooooooooooooooooooooooooooo&&&&&&&&&&&&&&&&",
"&&&&OOoooooooooooooooooooooooooooooooo&&&&&&&&&&&&&&",
"&&&&OOoooooooooooooooooooooooooooooooo&&&&&&&&&&&&&&",
"&&&&&&OOoooooooooooooooooooooooooooo&&&&&&&&&&&&&&&&",
"&&&&&&&&&OOoooooooooooooooooooooo&&&&&&&&&&&&&&&&&&&",
"&&&&&&&&&&&&&&&OOoooooooooo&&&&&&&&&&&&&&&&&&&&&&&&&",
"&&&&&&&&&&&&&&&&&&&&&&&&&&&&&&&&&&&&&&&&&&&&&&&&&&&&",
"&&&&&&&&&&&&&&&&&&&&&&&&&&&&&&&&&&&&&&&&&&&&&&&&&&&&",
"&&&&&&&&&&&&&&&&&&&&&&&&&&&&&&&&&&&&&&&&&&&&&&&&&&&&",
"&&&&&&&&&&&&&&&&&&&&&&&&&&&&&&&&&&&&&&&&&&&&&&&&&&&&",
"&&&&&&&&&&&&&&&&&&&&&&&&&&&&&&&&&&&&&&&&&&&&&&&&&&&&"
};
