/* XPM */
static char *h3_run4[] = {
/* columns rows colors chars-per-pixel */
"53 69 10 1 ",
"  c black",
". c gray16",
"X c #780010",
"o c gray32",
"O c gray42",
"+ c #E00808",
"@ c gray61",
"# c #C6C6C6",
"$ c #E7E7DE",
"% c None",
/* pixels */
"%%%%%%%%%%%%%%%%%%%%%%%%%%%%%%%%%%%%%%%%%%%%%%%%%%%%%",
"%%%%%%%%%%%%%%%%%%%%%%%%%%%%%%%%%%%%%%%%%%%%%%%%%%%%%",
"%%%%%%%%%%%%%%%%%%+++XXX.%%%%%%%%%%%%%%%%%%%%%%%%%%%%",
"%%%%%%%%%%%%%%%%%%@O#O#+X.%%%%%%%%%%%%%%%%%%%%%%%%%%%",
"%%%%%%%%%%%%%%%%%%O$$O$$+X.%%%%%%%%%%%%%%%%%%%%%%%%%%",
"%%%%%%%%%%%%%%%%%%......ooO%%%%%%%%%%%%%%%%%%%%%%%%%%",
"%%%%%%%%%%%%%%%%%%O#$.##  o%%%%%%%%%%%%%%%%%%%%%%%%%%",
"%%%%%%%%%%%%%%%%%%O#$..oXX.%%%%%%%%%%%%%%%%%%%%%%%%%%",
"%%%%%%%%%%%%%%%%%O#$..$oo$.%%%%%%%%%%%%%%%%%%%%%%%%%%",
"%%%%%%%%%%%%%%%%%O$$O$$$$ X.%%%%%%%%%%%%%%%%%%%%%%%%%",
"%%%%%%%%%%%%%%%%%%oo#### +X %%%%%%%%%%%%%%%%%%%%%%%%%",
"%%%%%%%%%%%%%%%%%%%%       %%%%%%%%%%%%%%%%%%%%%%%%%%",
"%%%%%%%%%%%%%%%%...OO  .  %%%%%%%%%%%%%%%%%%%%%%%%%%%",
"%%%%%%%%%%%%%%%O+##.@O    %%%%%%%%%%%%%%%%%%%%%%%%%%%",
"%%%%%%%%%%%%%%O++###.@#   .%%%%%%%%%%%%%%%%%%%%%%%%%%",
"%%%%%%%%%%%%%%O++###.#$$.$ .%%%%%%%%%%%%%%%%%%%%%%%%%",
"%%%%%%%%%%%%%%O++#   #$$$.$.%%%%%%%%%%%%%%%%%%%%%%%%%",
"%%%%%%%%%%%%%%O+  X# @@$$.$. %%%%%%%%%%%%%%%%%%%%%%%%",
"%%%%%%%%%%%%%%% XX+# @@@..$.O %%%%%%%%%%%%%%%%%%%%%%%",
"%%%%%%%%%%%%%%%O#++#    #...@O %%%%    .%%%%     .%%%",
"%%%%%%%%%%%%%%%O#++##.#$$##.@@O.%%. oooo     oooo  %%",
"%%%%%%%%%%%%%%%%O++   .  $  .      .............oo %%",
"%%%%%%%%%%%%%%%%.  ## OOO   OOOO................o  %%",
"%%%%%%%%%%%%%%% OX++  ++OOO ++XXX                 %%%",
"%%%%%%%%%%%%%%% O$X+  +++++ ++X   .......  o %%%%%%%%",
"%%%%%%%%%%%%%%%  $X   ##### +XX              %%%%%%%%",
"%%%%%%%%%%%%%%%%%$#.        XX    OO    . oo %%%%%%%%",
"%%%%%%%%%%%%%%%%.  .   .O %%        %%%     %%%%%%%%%",
"%%%%%%%%%%%%%%%%.  OOOO   %%%   %%%%%%.   %%%%%%%%%%%",
"%%%%%%%%%%%%%%%%  #####O.%%%%%%%%%%%%%... %%%%%%%%%%%",
"%%%%%%%%%%%%%%%%  #$$$##O %%%%%%%%%%%%%%%%%%%%%%%%%%%",
"%%%%%%%%%%%%%%%%%o#$$$$##O %%%%%%%%%%%%%%%%%%%%%%%%%%",
"%%%%%%%%%%%%%%%%%oo#$$$$##O %%%%%%%%%%%%%%%%%%%%%%%%%",
"%%%%%%%%%%%%%%%%o@@o#$$$$##O.%%%%%%%%%%%%%%%%%%%%%%%%",
"%%%%%%%%%%%%%%%%o@##o#$$$$#O %%%%%%%%%%%%%%%%%%%%%%%%",
"%%%%%%%%%%%%%%%O@###@o##$$$#O %%%%%%%%%%%%%%%%%%%%%%%",
"%%%%%%%%%%%%%%%o@##@OOoo#### #.%%%%%%%%%%%%%%%%%%%%%%",
"%%%%%%%%%%%%%%o@@#@@O %oo   $#O.%%%%%%%%%%%%%%%%%%%%%",
"%%%%%%%%%%%%%%o@##@OO %%%o##$#O %%%%%%%%%%%%%%%%%%%%%",
"%%%%%%%%%%%%%Oo@##@O %%%%o  ##O %%%%%%%%%%%%%%%%%%%%%",
"%%%%%%%%%OoOo #  @O %%%%%%o#   %%%%%%%%%%%%%%%%%%%%%%",
"%%%%%%%%o#### ##@   %%%%%%o###O.%%%%%%%%%%%%%%%%%%%%%",
"%%%%%%Oo####@ #@@@ %%%%%%%o#$#O %%%%%%%%%%%%%%%%%%%%%",
"%%OoOo##@@@@OO OOO %%%%%%%o#$#O %%%%%%%%%%%%%%%%%%%%%",
"%o##@ @@OOOOOO  OO %%%%%%%%o$#O %%%%%%%%%%%%%%%%%%%%%",
"%o##@ OO      %   %%%%%%%%%o#$O %%%%%%%%%%%%%%%%%%%%%",
"%o#@@O  %%%%%%%%%%%%%%%%%%%o#$#O %%%%%%%%%%%%%%%%%%%%",
"%o#@@O %%%%%%%%%%%%%%%%%%%%%o$#O %%%%%%%%%%%%%%%%%%%%",
"%%o@OO %%%%%%%%%%%%%%%%%%%%%o$#O     %%%%%%%%%%%%%%%%",
"%%o@O %%%%%%%%%%%%%%%%%%%%%%o   OOO#O%%%%%%%%%%%%%%%%",
"%%o@O %%%%%%%%%%%%%%%%%%%%%%%o$$$$#O %%%%%%%%%%%%%%%%",
"%%oOO %%%%%%%%%%%%%%%%%%%%%%%o$$#O  %%%%%%%%%%%%%%%%%",
"%%%oo%%%%%%%%%%%%%%%%%%%%%%%%o#O  %%%%%%%%%%%%%%%%%%%",
"%%%%%%%%%%%%%%%%%%%%%%%%%%%%%%  %%%%%%%%%%%%%%%%%%%%%",
"%%%%%%%%%%%%%%%%%%%%%%%%%%%%%%%%%%%%%%%%%%%%%%%%%%%%%",
"%%%%%%%%%%%%%%%%%%%%%%%%%%%%%%%%%%%%%%%%%%%%%%%%%%%%%",
"%%%%%%%%%%%%%%oooooooooo%%%%%%%%%%%%%%%%%%%%%%%%%%%%%",
"%%%%%%%%oooooooooooooooooooooo%%%%%%%%%%%%%%%%%%%%%%%",
"%%%%%oooooooooooooooooooooooooooo%%%%%%%%%%%%%%%%%%%%",
"%%%oooooooooooooooooooooooooooooooo%%%%%%%%%%%%%%%%%%",
"%%%oooooooooooooooooooooooooooooooo%%%%%%%%%%%%%%%%%%",
"%%%%%oooooooooooooooooooooooooooo%%%%%%%%%%%%%%%%%%%%",
"%%%%%%%%oooooooooooooooooooooo%%%%%%%%%%%%%%%%%%%%%%%",
"%%%%%%%%%%%%%%oooooooooo%%%%%%%%%%%%%%%%%%%%%%%%%%%%%",
"%%%%%%%%%%%%%%%%%%%%%%%%%%%%%%%%%%%%%%%%%%%%%%%%%%%%%",
"%%%%%%%%%%%%%%%%%%%%%%%%%%%%%%%%%%%%%%%%%%%%%%%%%%%%%",
"%%%%%%%%%%%%%%%%%%%%%%%%%%%%%%%%%%%%%%%%%%%%%%%%%%%%%",
"%%%%%%%%%%%%%%%%%%%%%%%%%%%%%%%%%%%%%%%%%%%%%%%%%%%%%",
"%%%%%%%%%%%%%%%%%%%%%%%%%%%%%%%%%%%%%%%%%%%%%%%%%%%%%"
};
