/* XPM */
static char *h3_run5[] = {
/* columns rows colors chars-per-pixel */
"53 71 10 1 ",
"  c black",
". c gray16",
"X c #780010",
"o c gray32",
"O c gray42",
"+ c #E00808",
"@ c gray61",
"# c #C6C6C6",
"$ c #E7E7DE",
"% c None",
/* pixels */
"%%%%%%%%%%%%%%%%%%%%%%%%%%%%%%%%%%%%%%%%%%%%%%%%%%%%%",
"%%%%%%%%%%%%%%%%%%%%%%%%%%%%%%%%%%%%%%%%%%%%%%%%%%%%%",
"%%%%%%%%%%%%%%%%%%%%%%%%%%%%%%%%%%%%%%%%%%%%%%%%%%%%%",
"%%%%%%%%%%%%%%%%%%%%%%%%%%%%%%%%%%%%%%%%%%%%%%%%%%%%%",
"%%%%%%%%%%%%%%%%%%%%%%%%%%%%%%%%%%%%%%%%%%%%%%%%%%%%%",
"%%%%%%%%%%%%%%%%%%%%%%%%%%%%%%%%%%%%%%%%%%%%%%%%%%%%%",
"%%%%%%%%%%%%%%%%+++XXX.%%%%%%%%%%%%%%%%%%%%%%%%%%%%%%",
"%%%%%%%%%%%%%%%%@O#O#+X.%%%%%%%%%%%%%%%%%%%%%%%%%%%%%",
"%%%%%%%%%%%%%%%%O$$O$$+X.%%%%%%%%%%%%%%%%%%%%%%%%%%%%",
"%%%%%%%%%%%%%%%%......ooO%%%%%%%%%%%%%%%%%%%%%%%%%%%%",
"%%%%%%%%%%%%%%%%O#$.##  o%%%%%%%%%%%%%%%%%%%%%%%%%%%%",
"%%%%%%%%%%%%%%%%O#$..oXX.%%%%%%%%%%%%%%%%%%%%%%%%%%%%",
"%%%%%%%%%%%%%%%O#$..$oo$.%%%%%%%%%%%%%%%%%%%%%%%%%%%%",
"%%%%%%%%%%%%%%%O$$O$$$$ X.%%%%%%%%%%%%%%%%%%%%%%%%%%%",
"%%%%%%%%%%%%%%%%oo#### +X %%%%%%%%%%%%%%%%%%%%%%%%%%%",
"%%%%%%%%%%%%%%%%%%       %%%%%%%%%%%%%%%%%%%%%%%%%%%%",
"%%%%%%%%%%%%%%...OO  .  %%%%%%%%%%%%%%%%%%%%%%%%%%%%%",
"%%%%%%%%%%%%%O+##.@O    %%%%%%%%%%%%%%%%%%%%%%%%%%%%%",
"%%%%%%%%%%%%O++###.@#   .%%%%%%%%%%%%%%%%%%%%%%%%%%%%",
"%%%%%%%%%%%%O++###.#$$.$ .%%%%%%%%%%%%%%%%%%%%%%%%%%%",
"%%%%%%%%%%%%O++#   #$$$.$.%%%%%%%%%%%%%%%%%%%%%%%%%%%",
"%%%%%%%%%%%%O+  X# @@$$.$. %%%%%%    .%%%%     .%%%%%",
"%%%%%%%%%%%%% XX+# @@@..$.O %%%%. oooo     oooo  %%%%",
"%%%%%%%%%%%%%O#++#    #....      .............oo %%%%",
"%%%%%%%%%%%%%O#++##..     OOOO................o  %%%%",
"%%%%%%%%%%%%%%O++   OOOOO ++XXX                 %%%%%",
"%%%%%%%%%%%%%%.  ## +++++ ++X   .......  o %%%%%%%%%%",
"%%%%%%%%%%%%% OX++  ++### +XX              %%%%%%%%%%",
"%%%%%%%%%%%%% O$X+  ##    XX    OO    . oo %%%%%%%%%%",
"%%%%%%%%%%%%%  $X O     %%        %%%     %%%%%%%%%%%",
"%%%%%%%%%%%%%%%$#. @@.O %%%   %%%%%%.   %%%%%%%%%%%%%",
"%%%%%%%%%%%%%%.  OO  .O %%%%%%%%%%%%... %%%%%%%%%%%%%",
"%%%%%%%%%%%%%%.    .$@  %%%%%%%%%%%%%%%%%%%%%%%%%%%%%",
"%%%%%%%%%%%%%%O###OO @. %%%%%%%%%%%%%%%%%%%%%%%%%%%%%",
"%%%%%%%%%%%%%%o#$$#OO O %%%%%%%%%%%%%%%%%%%%%%%%%%%%%",
"%%%%%%%%%%%%%%o#$$##O O %%%%%%%%%%%%%%%%%%%%%%%%%%%%%",
"%%%%%%%%%%%%%%o#$$$#OO. %%%%%%%%%%%%%%%%%%%%%%%%%%%%%",
"%%%%%%%%%%%%%%%o#$$$#O O %%%%%%%%%%%%%%%%%%%%%%%%%%%%",
"%%%%%%%%%%%%%%%o#$$$#OO  %%%%%%%%%%%%%%%%%%%%%%%%%%%%",
"%%%%%%%%%%%%%%%%o#$$##O  %%%%%%%%%%%%%%%%%%%%%%%%%%%%",
"%%%%%%%%%%%%%%%%o#$$$#OO.%%%%%%%%%%%%%%%%%%%%%%%%%%%%",
"%%%%%%%%%%%%%%%%%o#$$##O %%%%%%%%%%%%%%%%%%%%%%%%%%%%",
"%%%%%%%%%%%%%%%%oOo#$$#OO %%%%%%%%%%%%%%%%%%%%%%%%%%%",
"%%%%%%%%%%%%%oOo@@o#$$##O %%%%%%%%%%%%%%%%%%%%%%%%%%%",
"%%%%%%%%%%%%O@@@###o$$$   .%%%%%%%%%%%%%%%%%%%%%%%%%%",
"%%%%%%%%%%%o@@###@@ o$ $#OO %%%%%%%%%%%%%%%%%%%%%%%%%",
"%%%%%%%%%%O@@##@@@O   OO#OO %%%%%%%%%%%%%%%%%%%%%%%%%",
"%%%%%%%ooO###@@OO  %%   OOO %%%%%%%%%%%%%%%%%%%%%%%%%",
"%%%%%%O## @@@O   %%%ooOO   %%%%%%%%%%%%%%%%%%%%%%%%%%",
"%%%%%%o##@ O  %%%%%%o###OO %%%%%%%%%%%%%%%%%%%%%%%%%%",
"%%%%%%o@@@O %%%%%%%O###OO %%%%%%%%%%%%%%%%%%%%%%%%%%%",
"%%%%%%o@@O %%%%%%%%o#$#OO %%%%%%%%%%%%%%%%%%%%%%%%%%%",
"%%%%%%oOO %%%%%%%%%o#$#O %%%%%%%%%%%%%%%%%%%%%%%%%%%%",
"%%%%%%oOO %%%%%%%%%o##OO %%%%%%%%%%%%%%%%%%%%%%%%%%%%",
"%%%%%%oO %%%%%%%%%%o##OO %%%%%%%%%%%%%%%%%%%%%%%%%%%%",
"%%%%%%o  %%%%%%%%%%o##O %%%%%%%%%%%%%%%%%%%%%%%%%%%%%",
"%%%%%%%%%%%%%%%%%%%o##O %%%%%%%%%%%%%%%%%%%%%%%%%%%%%",
"%%%%%%%%%%%%%%%%%%%%o   .%%%%%%%%%%%%%%%%%%%%%%%%%%%%",
"%%%%%%%%%%%%oooooooO##$$$oO%%%%%%%%%%%%%%%%%%%%%%%%%%",
"%%%%%%oooooooooooooo#$$$$$$.%%%%%%%%%%%%%%%%%%%%%%%%%",
"%%%oooooooooooooooooOOOOOOOO.oo%%%%%%%%%%%%%%%%%%%%%%",
"%ooooooooooooooooooo         oooo%%%%%%%%%%%%%%%%%%%%",
"%oooooooooooooooooooooooooooooooo%%%%%%%%%%%%%%%%%%%%",
"%%%oooooooooooooooooooooooooooo%%%%%%%%%%%%%%%%%%%%%%",
"%%%%%%oooooooooooooooooooooo%%%%%%%%%%%%%%%%%%%%%%%%%",
"%%%%%%%%%%%%oooooooooo%%%%%%%%%%%%%%%%%%%%%%%%%%%%%%%",
"%%%%%%%%%%%%%%%%%%%%%%%%%%%%%%%%%%%%%%%%%%%%%%%%%%%%%",
"%%%%%%%%%%%%%%%%%%%%%%%%%%%%%%%%%%%%%%%%%%%%%%%%%%%%%",
"%%%%%%%%%%%%%%%%%%%%%%%%%%%%%%%%%%%%%%%%%%%%%%%%%%%%%",
"%%%%%%%%%%%%%%%%%%%%%%%%%%%%%%%%%%%%%%%%%%%%%%%%%%%%%",
"%%%%%%%%%%%%%%%%%%%%%%%%%%%%%%%%%%%%%%%%%%%%%%%%%%%%%"
};
