/* XPM */
static char *h3_run1[] = {
/* columns rows colors chars-per-pixel */
"52 66 12 1 ",
"  c black",
". c #282828",
"X c #780010",
"o c #483820",
"O c #505050",
"+ c gray32",
"@ c #686868",
"# c #E00808",
"$ c #989898",
"% c #C0C0C0",
"& c #E0E0D8",
"* c None",
/* pixels */
"****************************************************",
"****************************************************",
"*****************o###XXX.***************************",
"******************$@%@%#X.**************************",
"******************@&&@&&#X.*************************",
"******************......OO@*************************",
"******************@%&.%%  O*************************",
"******************@%&..OXX.*************************",
"*****************@%&..&OO&.*************************",
"*****************@&&@&&&& X.************************",
"******************OO%%%% #X ************************",
"*****************OOO       *************************",
"****************...@@  .  **************************",
"***************@#%%.$@    **************************",
"**************@##%%%.$%   .*************************",
"**************@##%%%.%&&.& .************************",
"**************@##%   %&&&.&.************************",
"**************@#  X% $$&&.&. ***********************",
"*************** XX#% $$$..&.@ *****    .****     .**",
"***************@%##%    %...$@ ***. OOOO     OOOO  *",
"***************@%##%%.%&&%%..      .............OO *",
"****************@##   .     @@@@................O  *",
"****************.  %% @@@@@ ##XXX                 **",
"*************** @X##  ##### ##X   .......  O *******",
"*************** @&X#  ##%%% #XX              *******",
"***************  &X   %%    XX    @@    . OO *******",
"*****************&%.    @ **        ***     ********",
"*****************      .@ ***   ******.   **********",
"****************.   .@@@  ************... **********",
"****************@%%%% &$. **************************",
"***************O%%&&%@ $.@ *************************",
"***************O%%&&%@  %$@.************************",
"***************O%%&&%@  %%$@ ***********************",
"***************O%%&&%@ %%%%@ ***********************",
"***************O%%&&%@ %%%%$@ **********************",
"****************O%&&%@ $%%%%$@.*********************",
"****************O%&&%@ O$$%%% % ********************",
"****************O%&&%@ *O$$% %%$********************",
"*****************O%&%@ **   $$%@********************",
"*****************O%&%@ * %$  $$@********************",
"*****************O%%@ * %%%$@ @ ********************",
"*****************O%   * %%$%$@ *********************",
"*****************O &%@ %%$$$@ **********************",
"****************O&&&%@ %$$@@ ***********************",
"***************@O  @@@ $$@  ************************",
"**************@%%%%   $$@ **************************",
"**************O%&&%@  @ ****************************",
"*************O%%&%@ $$ *****************************",
"*************O%&&%@ $$ *****************************",
"*************O%&%@  $$ *****************************",
"*************O%%@ * @$$ ****************************",
"*************O%%@ ** @$ ****************************",
"*************O   .***  *****************************",
"************@%%&&&O@OOOOOO**************************",
"********++OOO%&&&&&&.OOOOOOOOOOO********************",
"*****++OOOOOO@@@@@@@@.OOOOOOOOOOOOO*****************",
"***++OOOOOOOO         OOOOOOOOOOOOOOO***************",
"***++OOOOOOOOOOOOOOOOOOOOOOOOOOOOOOOO***************",
"*****++OOOOOOOOOOOOOOOOOOOOOOOOOOOO*****************",
"********++OOOOOOOOOOOOOOOOOOOOOO********************",
"**************++OOOOOOOOOO**************************",
"****************************************************",
"****************************************************",
"****************************************************",
"****************************************************",
"****************************************************"
};
