/* XPM */
static char *result[] = {
/* columns rows colors chars-per-pixel */
"24 70 24 1 ",
"  c #000001",
". c #0B0500",
"X c #05050B",
"o c #190B05",
"O c #361205",
"+ c #202036",
"@ c #45200B",
"# c #6D2E19",
"$ c #3D365D",
"% c #205565",
"& c #C23D19",
"* c #B14D2E",
"= c #F76D27",
"- c #EE7E36",
"; c #F79F45",
": c #207597",
"> c #4565C2",
", c #4D7ECB",
"< c #5D97D4",
"1 c #3DC2E5",
"2 c #86E5F7",
"3 c #B1F7F7",
"4 c #FFFFFF",
"5 c #000000",
/* pixels */
"555555555555222555555555",
"555555555555343255555555",
"555555555555344255555555",
"555555555555343555555555",
"555555555555343555555555",
"555555555555343555555555",
"555555555555343555555555",
"555555555555343555555555",
"555555555555343555555555",
"555555555555443555555555",
"555555555555343555555555",
"555555555555443555555555",
"555555555555:1:555555555",
"55555555555,11%555555555",
"55555555555,11%555555555",
"55555555555>11%555555555",
"55555555555<:1%555555555",
"55555555555%%%%555555555",
"55555555555 +$ 555555555",
"5555555555 +++ 555555555",
"55555555X X+XXO@55 oo 55",
"5555555ooXXX++&=# ##o.55",
"555555  X X XX&=*.*-oo 5",
"55555  XX o@$$OOO@##o  5",
"55555 XXXXo 5$**o@o. 555",
"5555 o XX@@ $$--X  o.555",
"555.oo XXOoO*$@#Xooo 555",
"5  oooo *#o@+@*5ooo 5555",
"  oooo.+@*@@#-;Xoo 55555",
" oooo +$X@#o@*##o 555555",
"oooo.o+$$XX@oooO.5555555",
" oooo#@+$+o*++ 555555555",
"   o@##X$+@o$X5555555555",
"5 ooo@#o$+#X$X5555555555",
"5 .ooXoo++o+$ 5555555555",
"5 oooooX++o++55555555555",
"5 .ooooo+@++ 55555555555",
"55 ooo@o+X+ 555555555555",
"55 o.oo  ++ 555555555555",
"55      XXXX555555555555",
"55    o@+$$$+  oo#555555",
"55   o#*@$$++#****###555",
"555 .o#**@$$o********#55",
"555 oo##**#@@*#*##****#5",
"5555 o@#****@#####@@@*##",
"5555 oo#*****ooooo++++X ",
"55555 oo##***# . +$$$$+5",
"55555 ..o#****ooX+++++X5",
"5555555 oo##**@X+++++X55",
"55555555 oo#***X++++X555",
"555555555 oo#**+++++5555",
"5555555555 .#**@+++ 5555",
"5555555555  oooX++ 55555",
"555555555X++XXX+$+555555",
"55555555  X+++++$+555555",
"55555555 X++++X$$+555555",
"55555555 XX++X+$$+555555",
"55555555XX+++X+$$$+55555",
"5555555 XX++XX++$$+55555",
"5555555 XX++X5 +$+X55555",
"555555XXX+++ 55XXX555555",
"55555 +++++X555555555555",
"5555 ++++$$+555555555555",
"5555 +++$$$+555555555555",
"55555+++$$$$+55555555555",
"55555 +++$$$+55555555555",
"555555 ++$$$+55555555555",
"5555555X++$$+55555555555",
"5555555 ++XX+55555555555",
"55555555 XX 555555555555"
};
