/* XPM */
static char *result[] = {
/* columns rows colors chars-per-pixel */
"32 31 15 1 ",
"  c #000001",
". c #0B0500",
"X c #05050B",
"o c #190B05",
"O c #361205",
"+ c #202036",
"@ c #45200B",
"# c #6D2E19",
"$ c #3D365D",
"% c #C23D19",
"& c #B14D2E",
"* c #F76D27",
"= c #EE7E36",
"- c #F79F45",
"; c #000000",
/* pixels */
";;;;;;;;;;;;;;XXXXX o#@@o ;;;;;;",
";;;;;;;;;;;;;X++XX  &&&&#. ;;;;;",
";;;;;;;;;;;;Xo@#@@oo&&&&&o ;;;;;",
";;;;;;;;;;  o#####@#&&&&o  ;;;;;",
";;;;;;;;;   .####@#&&&#o   ;;;;;",
";;;;;;;;     .@oo@#&&#@oX  ;;;;;",
";;;;;;;;       o @#&&ooXXX  X;;;",
";;;;;;;; X##@o   @#&# Xo#XOOO;;;",
";;;;;;;;  &&&&@  o##o o@=@O@O;;;",
";;;;;;; XX#&&&#  XooX X ## OO@@@",
";;;;;;; X o#&&&# XX+oo#&=XOOO#%O",
";;;;;;; X +&#&&oXX+oX&=--&OOO%*O",
";;;;;;;; X.$;##X X@# @##==#@%%*@",
";;;;;;;; ooo$$+++X@# o@o#=O#%%%@",
";;;;;;;; ooo@@+++++# @oXo#O%%%%O",
";;;;;+++;; oooX+++#@ ;;@o@O%%%@;",
";;;;+$$$+;; oo X++#& ;;;OOOO#O;;",
";;;;+$$$$+++Xoo@$&@&o;;;OOOOO;;;",
";;;+$$$$$$$$+ o#&$#&@;;;;OOO;;;;",
";++$$+++++++++X@&&#&o;;;;;O;;;;;",
"+X+++++XX++$$$$X#&@# ;;;;;;;;;;;",
" XX+    X$$$$$$$o#o ;;;;;;;;;;;;",
"; +$+++$$$++++++XX;;;;;;;;;;;;;;",
";;+$$$$$$++++++XX;;;;;;;;;;;;;;;",
";+$$$$$+++++X  ;;;;;;;;;;;;;;;;;",
";+$$$$+++X  ;;;;;;;;;;;;;;;;;;;;",
";+$++++X ;;;;;;;;;;;;;;;;;;;;;;;",
";X+++X ;;;;;;;;;;;;;;;;;;;;;;;;;",
"X+++X;;;;;;;;;;;;;;;;;;;;;;;;;;;",
"X++X;;;;;;;;;;;;;;;;;;;;;;;;;;;;",
"  X;;;;;;;;;;;;;;;;;;;;;;;;;;;;;"
};
