/* XPM */
static char *result[] = {
/* columns rows colors chars-per-pixel */
"27 32 14 1 ",
"  c #000001",
". c #0B0500",
"X c #05050B",
"o c #190B05",
"O c #361205",
"+ c #202036",
"@ c #45200B",
"# c #6D2E19",
"$ c #3D365D",
"% c #C23D19",
"& c #B14D2E",
"* c #F76D27",
"= c #F79F45",
"- c #000000",
/* pixels */
"--------------XX-----------",
"------------- X+X----------",
"-------------XX++ ---------",
"------------- X+++---------",
"------------- X+++X--------",
"------------- XX+++X-------",
"------------- X+++++ ------",
"------------- X+++++ ------",
"------------ +++++X ----+X-",
"----------- X++++X----++$+ ",
"---------- X+++++---++$$$X ",
"---------X++++++ -++$$$$+ -",
"-----   ++o++$+X+$$$$$$$X--",
"---- ++++o+++$+$$$$$$$$$ --",
"---- $$+ +++$+X++++@X+$X --",
"--- X+$X ++++X#&&&&&@XXX---",
"--- XX++  XX@#&&&&&&@$X ---",
"-----XX$+o###&##&#&&@+$X---",
"--@@- X+++o@@#######&@+$ --",
"-@@#O  X++o.ooooooo@###+X--",
"-O@@*&+ o&&@.o ooooo###oX--",
"-O%%+=& o#&##&@   oo@o. X--",
"@O%*#+=# o&&##ooo        --",
"O@%%%&@&+.@&#o#&&##o.    --",
"OO@##@@$o o#&@&&&&&&&#o  --",
"OOOOO.@o@@o@&&@&&&&&&&@  --",
"-OOOO@O@%o.o#&&#&&&&&#+X---",
"--OO@@Oo@@ o@#&@@@@@#+X----",
"---O@OOo#@ oo##.   XX+X----",
"---OO--Xo  Xo@@ X++++X-----",
"-------    XoXX++XX  ------",
"---------X   XX   ---------"
};
