/* XPM */
static char *result[] = {
/* columns rows colors chars-per-pixel */
"23 57 16 1 ",
"  c #000001",
". c #0B0500",
"X c #05050B",
"o c #190B05",
"O c #361205",
"+ c #202036",
"@ c #45200B",
"# c #6D2E19",
"$ c #3D365D",
"% c #C23D19",
"& c #B14D2E",
"* c #F76D27",
"= c #EE7E36",
"- c #F79F45",
"; c #616161",
": c #000000",
/* pixels */
"::::::::::::::@@@@:::::",
"::::::::::::@@****#@:::",
"::::::::::@O#******#@@:",
"::::::::::OO@#%%*%@O%%@",
":::::::::::OOOOOOO&-@O:",
"::::::::::::O%@O@&-&O::",
":::::::::OOO%@##=-$+:::",
":::::::::Oo%*@O&=; @:::",
"::::::::::Oo@=#@=---@::",
":::::  X++X o#=@#=-#:::",
"::::: ooX+$$+@$&@#&o:::",
"::::: @&#oo+$+##+  ::::",
":::::o#&&##o+$@&o+ ::::",
":::::o#&&###o+$##$+::::",
":::::o#&&@o##X$$##+ :::",
":::::o&&&ooo##X$+#$X:::",
":::: o#&@ ooo#o++#$+:::",
":::: @&&o.ooo#@+$#$X:::",
":::: @&&  ooo#@+$++ :::",
"::::.#&#: ooo#@+$+X::::",
":::: #&#:   .ooX++X::::",
"::: oo##:        + ::::",
"::: X++o:        $ ::::",
"::: X+$X: @@##@++X ::::",
"::: X+$ :.##&&#+$+:::::",
"::: X$+: o###&#+$+:::::",
"::: X+X: o###&@+$+ ::::",
"::: +$X: o##&&@++X ::::",
"X$o X$$+ o@#&&&@oo:::::",
"X$$oX+++ .##&&&@&&@::::",
":  XX+$$  @#&&&##&#::::",
":::: X  : @#&&&@#&#::::",
"::::::::: o##&&@#&&@:::",
"::::::::: o##&&@##&@:::",
"::::::::: o##&&@##&#:::",
"::::::::::.##&#oo#&#:::",
"::::::::::o#&&@o@&&@:::",
"::::::::::o#&&ooo##@:::",
"::::::::: XoXXXX++X :::",
":::::::: X+$$+X++$+::::",
":::::::: X$$$+X++$+::::",
"::::::::XX+$$+ ++$+::::",
":::::::: X+$$XX++$+::::",
":::::::: X++$X++$+:::::",
":::::::: X++$XX+$+:::::",
":::::::: X++$X++$+:::::",
":::::::::X++$X+$$+:::::",
":::::::: +++$X$$+::::::",
":::::::X+$$$$X$$+::::::",
"::::::X$$$$$$X$$+::::::",
"::::::X+$$$$$X$+:::::::",
":::::::+++$$$X$+:::::::",
"::::::: ++$$+X$+:::::::",
"::::::::X+$$$X$+:::::::",
":::::::: +$$$X+::::::::",
"::::::::: ++X :::::::::",
"::::::::::  :::::::::::"
};
