/* XPM */
static char *mouse_cursor_xpm[] = {
/* columns rows colors chars-per-pixel */
"37 29 15 1 ",
"  c #000001",
". c #100800",
"X c #080810",
"o c #201008",
"O c #401808",
"+ c #502810",
"@ c #783820",
"# c #282840",
"$ c #484068",
"% c #B85838",
"& c #C84820",
"* c #F87830",
"= c #F08840",
"- c #F8A850",
"; c #000000",
/* pixels */
";;;;;;;;;;;;;;;;;;;;;;;;;;;;;;++;;;;;",
";;;;;;;;;;;;;;;;;;;;;;;;;;++;;OOO;;;;",
";;;;;;;;;;;;;;;;;;;;;; oo;O+;;+&&@+;;",
";;;;;;;;;;;;;;;;;;;; o+#o## OOO@***+;",
";;;;;;;;;;;;;;;;;;;Xo#$$$$#o OOO***&+",
";;;;;;;;;;;;;;;;;  #$$$$#o%@X+@O@***O",
";;;;;;;;;;;;;;; X#$$$$##o%%% +@OO&**+",
";;;;;;;;;;;;;; $$$###X  +%%%X@-%+O+&@",
";;;;;;;;;;;;   $##XX   X+@%@ ==-%=@OO",
";;;;;;;;;;;     o++oX X +@%oO== +%@OO",
";;;;;;;;;;;     +@@+ooo o@@o+==@+++OO",
";;;;;;;;;;;     .++@@@@oo@@ ++%+;;;;;",
";;;;;;;;;;;     o+@%@%%%+@@;;;;;;;;;;",
";;;;;;;;;;  o+o+@@@+++@%o+@;;;;;;;;;;",
";;;;;;;;;;  +@@@@+ooooo  +% ;;;;;;;;;",
";;;;;;;;;;  o@@ooooXXXXX#+% ;;;;;;;;;",
";;;;;;;;;;  .+o.ooo X####+o ;;;;;;;;;",
";;;;;;;;;;    .ooooXXX##XXXX;;;;;;;;;",
";;;;###;;;     .o   XX##XX+o;;;;;;;;;",
";X##$$$##X  oooo@+;XXX##X#XX;;;;;;;;;",
" $$$$#$$$$##ooo@@+; XXX#X##+ ;;;;;;;;",
" $$$$##$$$$$Xoo+@+;XXXX#X$$oX;;;;;;;;",
";X####X#$$$$# o@@o; X XX#$$#;;;;;;;;;",
";X###$XXX##$$Xo+@o X###$#XXo;;;;;;;;;",
"; ###X ; XX#$#o+@  ###$$$#X;;;;;;;;;;",
";;X##X ;;  X#X@@o; X##$$$$##;;;;;;;;;",
";;     ;;;;   +X;; X###$$$##;;;;;;;;;",
";;;;;;;;;;;;;;;;;;    X####X;;;;;;;;;",
";;;;;;;;;;;;;;;;;;;;;;     ;;;;;;;;;;"
};
