/* XPM */
static char *result[] = {
/* columns rows colors chars-per-pixel */
"34 25 14 1 ",
"  c #000001",
". c #0B0500",
"X c #05050B",
"o c #190B05",
"O c #361205",
"+ c #202036",
"@ c #45200B",
"# c #6D2E19",
"$ c #3D365D",
"% c #C23D19",
"& c #B14D2E",
"* c #EE7E36",
"= c #F79F45",
"- c #000000",
/* pixels */
"--------------------    ----------",
"-    XX++X--------XX    XX -------",
" XX++++$$+------X+X@   @##++X-----",
" XX++++$$+ ----X$+#&o  @&&&o+ ----",
"- XXX+++$$++++ XX#&&#  @#&&@++----",
"--  XX++$$+$$Xo@#&&&&@ o##&# +X---",
"----  X++$+$$oo@&&&&#@ .##&&. XX--",
"-----  X+$$+$Xo#&&&&@. o@##@###X--",
"------ X++$$+Xo#&&&&o   @#o#&&&# -",
"------- X+$$+oo@&&&@.  .o#&&&&&&@ ",
"------- X++$$XX#&&&## @&&&&&&&##@ ",
"-------- X+$$+o&#&##@X##&###@oo@X ",
"-------- XX+$+o#&&@#  ####o X    -",
"---------XX+$+@&$@X XXo@ooXoX XXX-",
"--------- X++o#X+$XXX  o@ o&X  X -",
"---------- X ##X+XXX o&==#@#o  ---",
"----------  o## XX  XO&*=&+oooo --",
"----------- o@o XXX -@$**##O##OO--",
"----------- @o  @$X-- #*##@O#O----",
"---------------X X--@O#O@#OO@O----",
"--------------------OOOOOOOO@O@---",
"-------------------O#@OOOO@%#OO---",
"-------------------OOOOOOO@#O-----",
"----------------------OOOOOO------",
"------------------------OO--------"
};
