/* XPM */
static char *result[] = {
/* columns rows colors chars-per-pixel */
"23 78 18 1 ",
"  c #000001",
". c #100800",
"X c #080810",
"o c #201008",
"O c #401808",
"+ c #502810",
"@ c #783820",
"# c #282840",
"$ c #484068",
"% c #B85838",
"& c #C84820",
"* c #F87830",
"= c #F08840",
"- c #F8A850",
"; c #2880A0",
": c #48C8E8",
"> c #78F8F8",
", c #000000",
/* pixels */
",,,>,,,,,,,,,,,,,,,,,,,",
",,,>:,,,,,,,,,,,,,,,,,,",
",,,:>:,,,,,,,,,,,,,,,,,",
",,,,>>,,,,,,,,,,,,,,,,,",
",,,,,>:,,,,,,,,,,,,,,,,",
",,,,,:>;,,,,,,,,,,,,,,,",
",,,,,;>>,,,,,,,,,,,,,,,",
",,,,,,;>:,,,,,,,,,,,,,,",
",,,,,,,>>;,,,,,,,,,,,,,",
",,,,,,,;>:,,,,,,,,,,,,,",
",,,,,,,,:>;,,,,,,,,,,,,",
",,,,,,,,,>>,,,,,,,,,,,,",
",,,,,,,,,;>:,,,,,,,,,,,",
",,,,,,,,,,>>;,,,,,,,,,,",
",,,,,,,,,,;>:,,,,,,,,,,",
",,,,,,,,,,,:>;,,,,,,,,,",
",,,,,,,,,,,,>>,,,,,,,,,",
",,,,,,,,,,,,;>:,,,,,,,,",
",,,,,,,,,,,,,>>;,,,,,,,",
",,,,,,,,,,,,,;>:,,,,,,,",
",,,,,,,,,,,,,,:>;,,,,,,",
",,,,,,,,,,,,,,,>>,,,,,,",
",,,,,,,,,,,,,,,;:o,,,,,",
",,,,,,,,,,,,,,, ;## ,,,",
",,,,,,,,,,,,,O, $$$#,,,",
",,,,,,,,+O+@@&+X#$$$ ,,",
",,,,,,,,O&*@+X#$#$#X  ,",
",,,,,,,,,@@@%+#$#oX +@,",
",,,,,,,O O@@%@#XO@oX#%.",
",,,,, .+@@@@@@Xooo+O#$o",
",,  o+@@@@@++O@==oOoo+o",
",, o@@@@@+o.o%%%=XO o+ ",
",, .o+@@+.oO+%,@+OXXoo ",
",, o .+o++oO+%-@ ooXX  ",
",, oo  +%%XoO@=@XX   ,,",
",,  .o+%%%Xoooo,,,,,,,,",
",,   +@@%%###X,,,,,,,,,",
",,   o@@@@#X##,,,,,,,,,",
",,,  o@@@@##+# ,,,,,,,,",
",,,  o@@@@#$@$ ,,,,,,,,",
",,, .o+@@+#$@# ,,,,,,,,",
",,,  oo@@+##$X,,,,,,,,,",
",,,, oo@@+$$# ,,,,,,,,,",
",,,,     oXoX,,,,,,,,,,",
",,,,       XX,,,,,,,,,,",
",,,,       X#,,,,,,,,,,",
",,,, @@%%@#  ,,,,,,,,,,",
",,,, @@%%+#Xoo+@,,,,,,,",
",,,,.@@@%##@%%%@,,,,,,,",
",,,, +@%%@#@%%%%%%+,,,,",
",,,,.+@%%%@o@@@@%%%@,,,",
",,,, o@%%%@+@@@@@@%%@,,",
",,,, o@@%%%ooooooo++X,,",
",,,,,.+@%%%o   X$$$#X,,",
",,,,, o@%%%+,,X###$#X,,",
",,,,, o+@%%+,,X####X,,,",
",,,,,, +@%%+, ##### ,,,",
",,,,,, o@%%+,X#### ,,,,",
",,,,,,,o@%%  ####X,,,,,",
",,,,,, o@@% X####X,,,,,",
",,,,,XXXooX#$$##X,,,,,,",
",,,,,X##XXX$$$#X,,,,,,,",
",,,, X#####$$$#X,,,,,,,",
",,,, X###X#$$$$,,,,,,,,",
",,,,XX### #$$$#,,,,,,,,",
",,, XX##X, $$$#,,,,,,,,",
",,, XX##X,,X$$#,,,,,,,,",
",,, X### ,, #$#,,,,,,,,",
",,XX ##X,,,,X #,,,,,,,,",
", ######,,,,,,,,,,,,,,,",
"X####$$#,,,,,,,,,,,,,,,",
" ####$$#,,,,,,,,,,,,,,,",
",X###$$##,,,,,,,,,,,,,,",
", X##$$$#,,,,,,,,,,,,,,",
",, X#$$$#,,,,,,,,,,,,,,",
",, X##$$#,,,,,,,,,,,,,,",
",,, ####,,,,,,,,,,,,,,,",
",,,    ,,,,,,,,,,,,,,,,"
};
