/* XPM */
static char *result[] = {
/* columns rows colors chars-per-pixel */
"468 264 255 2 ",
"   c #020301",
".  c #0A0501",
"X  c #050903",
"o  c #0B0B04",
"O  c #040509",
"+  c #060A09",
"@  c #0C0E0B",
"#  c #0A060A",
"$  c #120500",
"%  c #130D01",
"&  c #1B0D00",
"*  c #110E0C",
"=  c #1A0D0A",
"-  c #0E1105",
";  c #0E110D",
":  c #09150A",
">  c #131204",
",  c #1B1402",
"<  c #1C1904",
"1  c #11130E",
"2  c #1A150A",
"3  c #151A0D",
"4  c #1B1B0D",
"5  c #151905",
"6  c #0D0E11",
"7  c #080B11",
"8  c #120E12",
"9  c #160F18",
"0  c #0E1211",
"q  c #0E1716",
"w  c #121514",
"e  c #191614",
"r  c #151915",
"t  c #1A1B15",
"y  c #141619",
"u  c #19161A",
"i  c #161A19",
"p  c #1B1C1A",
"a  c #221401",
"s  c #231B02",
"d  c #231D0C",
"f  c #2A1B02",
"g  c #221D13",
"h  c #211E1B",
"j  c #241914",
"k  c #2B1700",
"l  c #1B210D",
"z  c #1C2115",
"x  c #1D211C",
"c  c #162119",
"v  c #29230B",
"b  c #362806",
"n  c #232214",
"m  c #2B2513",
"M  c #22231D",
"N  c #2B2A1C",
"B  c #2A2819",
"V  c #342C17",
"C  c #393319",
"Z  c #343211",
"A  c #1C1E21",
"S  c #171B22",
"D  c #211E23",
"F  c #1D2322",
"G  c #1E2825",
"H  c #232523",
"J  c #252925",
"K  c #2A2B25",
"L  c #242529",
"P  c #252B2A",
"I  c #2B2D2B",
"U  c #2A2624",
"Y  c #312D27",
"T  c #2E312D",
"R  c #2D3226",
"E  c #323225",
"W  c #32332D",
"Q  c #36392C",
"!  c #3A3B2D",
"~  c #3B3726",
"^  c #2B2D31",
"/  c #2E3231",
"(  c #2E3A33",
")  c #333532",
"_  c #363935",
"`  c #3A3B35",
"'  c #363A39",
"]  c #3B3D3A",
"[  c #373539",
"{  c #322F34",
"}  c #493602",
"|  c #573B04",
" . c #473918",
".. c #4A340C",
"X. c #423D36",
"o. c #453A25",
"O. c #603A00",
"+. c #3D413C",
"@. c #3C4134",
"#. c #3E412C",
"$. c #5C430B",
"%. c #5A4405",
"&. c #59461A",
"*. c #4F441B",
"=. c #63450B",
"-. c #66490A",
";. c #644B14",
":. c #6A4D13",
">. c #654C19",
",. c #6A5319",
"<. c #745719",
"1. c #6E550A",
"2. c #756317",
"3. c #49452A",
"4. c #5C4B23",
"5. c #564927",
"6. c #434334",
"7. c #42433C",
"8. c #4B4C3B",
"9. c #484837",
"0. c #544D35",
"q. c #4E513C",
"w. c #59543A",
"e. c #5D522A",
"r. c #634E24",
"t. c #64532B",
"y. c #6B552B",
"u. c #6C5A2C",
"i. c #685524",
"p. c #755C27",
"a. c #6C5B33",
"s. c #65593A",
"d. c #725E34",
"f. c #624E35",
"g. c #7C632B",
"h. c #786529",
"j. c #796637",
"k. c #6F6536",
"l. c #3C3D42",
"z. c #413E44",
"x. c #3E4241",
"c. c #3E4647",
"v. c #434542",
"b. c #464944",
"n. c #4A4B44",
"m. c #4B4C4A",
"M. c #474847",
"N. c #524D46",
"B. c #4E5149",
"V. c #53524B",
"C. c #585646",
"Z. c #595852",
"A. c #4F4E51",
"S. c #645C43",
"D. c #685E45",
"F. c #665D50",
"G. c #6C644A",
"H. c #6A6346",
"J. c #776946",
"K. c #7C7457",
"L. c #756C50",
"P. c #63645A",
"I. c #987915",
"U. c #8C6F12",
"Y. c #846A2A",
"T. c #836C33",
"R. c #856C38",
"E. c #8B7434",
"W. c #8C733B",
"Q. c #887539",
"!. c #937B3C",
"~. c #93783A",
"^. c #8D752C",
"/. c #86621D",
"(. c #897647",
"). c #957C45",
"_. c #877A57",
"`. c #89744A",
"'. c #867D62",
"]. c #998219",
"[. c #AD8D18",
"{. c #988533",
"}. c #A78D2C",
"|. c #BCA430",
" X c #C19D12",
".X c #CCA918",
"XX c #D2AE1B",
"oX c #D2AC17",
"OX c #D6B21C",
"+X c #D9B51E",
"@X c #DBBA1D",
"#X c #D5B518",
"$X c #C9AA12",
"%X c #D4AD23",
"&X c #D5B323",
"*X c #DAB622",
"=X c #DDBA24",
"-X c #DBB52A",
";X c #DDBA2A",
":X c #D6B827",
">X c #D1B12B",
",X c #E1BD26",
"<X c #E2BE29",
"1X c #E2B82A",
"2X c #E4BD32",
"3X c #E5BC33",
"4X c #E1BC1D",
"5X c #DEC027",
"6X c #DCC033",
"7X c #E3C225",
"8X c #E5C12B",
"9X c #E9C42E",
"0X c #E8C82A",
"qX c #E5C233",
"wX c #EAC532",
"eX c #EDC933",
"rX c #E9C73A",
"tX c #F1CC38",
"yX c #F3D33B",
"uX c #DCC01F",
"iX c #9A8448",
"pX c #9A8757",
"aX c #918752",
"sX c #A28B4B",
"dX c #A38C55",
"fX c #A99559",
"gX c #AC9752",
"hX c #B8A550",
"jX c #908666",
"kX c #AA9865",
"lX c #B29D65",
"zX c #A69267",
"xX c #B8A469",
"cX c #B9A874",
"vX c #B9AD67",
"bX c #CDB54C",
"nX c #C3AB6C",
"mX c #C9B477",
"MX c #C8B171",
"NX c #E3BB42",
"BX c #E9C847",
"VX c #F7D849",
"CX c #F8D756",
"ZX c #ECCF50",
"AX c #FEE45A",
"SX c #FDE44D",
"DX c #EFD76A",
"FX c #FDE766",
"GX c #FDE878",
"HX c #FEF275",
"JX c #D9C664",
"KX c #CBB687",
"LX c #FEEE84",
"PX c #EEDD83",
"IX c None",
/* pixels */
"IXIXIXIXIXIXIXIXIXIXIXIXIXIXIXIXIXIXIXIXIXIXIXIXIXIXIXIXIXIXIXIXIXIXIXIXIXIXIXIXIXIXIXIXIXIXIXIXIXIXIXIXIXIXIXIXIXIXIXIXIXIXIXIXIXIXIXIXIXIXIXIXIXIXIXIXIXIXIXIXIXIXIXIXIXIXIXIXIXIXIXIXIXIXIXIXIXIXIXIXIXIXIXIXIXIXIXIXIXIXIXIXIXIXIXIXIXIXIXIXIXIXIXIXIXIXIXIXIXIXIXIXIXIXIXIXIXIXIXIXIXIXIXIXIXIXIXIXIXIXIXIXIXIXIXIXIXIXIXIXIXIXIXIXIXIXIXIXIXIXIXIXIXIXIXIXIXIXIXIXIXIXIXIXIXIXIXIXIXIXIXIXIXIXIXIXIXIXIXIXIXIXIXIXIXIXIXIXIXIXIXIXIXIXIXIXIXIXIXIXIXIXIXIXIXIXIXIXIXIXIXIXIXIXIXIXIXIXIXIXIXIXIXIXIXIXIXIXIXIXIXIXIXIXIXIXIXIXIXIXIXIXIXIXIXIXIXIXIXIXIXIXIXIXIXIXIXIXIXIXIXIXIXIXIXIXIXIXIXIXIXIXIXIXIXIXIXIXIXIXIXIXIXIXIXIXIXIXIXIXIXIXIXIXIXIXIXIXIXIXIXIXIXIXIXIXIXIXIXIXIXIXIXIXIXIXIXIXIXIXIXIXIXIXIXIXIXIXIXIXIXIXIXIXIXIXIXIXIXIXIXIXIXIXIXIXIXIXIXIXIXIXIXIXIXIXIXIXIXIXIXIXIXIXIXIXIXIXIXIXIXIXIXIXIXIXIXIXIXIXIXIXIXIXIXIXIXIXIXIXIXIXIXIXIXIXIXIXIXIXIXIXIXIXIXIXIXIXIXIXIXIXIXIXIXIXIXIXIXIXIXIXIXIXIXIXIXIXIXIXIXIXIXIXIXIXIXIXIXIXIXIXIXIXIXIXIXIX",
"IXIXIXIXIXIXIXIXIXIXIXIXIXIXIXIXIXIXIXIXIXIXIXIXIXIXIXIXIXIXIXIXIXIXIXIXIXIXIXIXIXIXIXIXIXIXIXIXIXIXIXIXIXIXIXIXIXIXIXIXIXIXIXIXIXIXIXIXIXIXIXIXIXIXIXIXIXIXIXIXIXIXIXIXIXIXIXIXIXIXIXIXIXIXIXIXIXIXIXIXIXIXIXIXIXIXIXIXIXIXIXIXIXIXIXIXIXIXIXIXIXIXIXIXIXIXIXIXIXIXIXIXIXIXIXIXIXIXIXIXIXIXIXIXIXIXIXIXIXIXIXIXIXIXIXIXIXIXIXIXIXIXIXIXIXIXIXIXIXIXIXIXIXIXIXIXIXIXIXIXIXIXIXIXIXIXIXIXIXIXIXIXIXIXIXIXIXIXIXIXIXIXIXIXIXIXIXIXIXIXIXIXIXIXIXIXIXIXIXIXIXIXIXIXIXIXIXIXIXIXIXIXIXIXIXIXIXIXIXIXIXIXIXIXIXIXIXIXIXIXIXIXIXIXIXIXIXIXIXIXIXIXIXIXIXIXIXIXIXIXIXIXIXIXIXIXIXIXIXIXIXIXIXIXIXIXIXIXIXIXIXIXIXIXIXIXIXIXIXIXIXIXIXIXIXIXIXIXIXIXIXIXIXIXIXIXIXIXIXIXIXIXIXIXIXIXIXIXIXIXIXIXIXIXIXIXIXIXIXIXIXIXIXIXIXIXIXIXIXIXIXIXIXIXIXIXIXIXIXIXIXIXIXIXIXIXIXIXIXIXIXIXIXIXIXIXIXIXIXIXIXIXIXIXIXIXIXIXIXIXIXIXIXIXIXIXIXIXIXIXIXIXIXIXIXIXIXIXIXIXIXIXIXIXIXIXIXIXIXIXIXIXIXIXIXIXIXIXIXIXIXIXIXIXIXIXIXIXIXIXIXIXIXIXIXIXIXIXIXIXIXIXIXIXIXIXIXIXIXIXIXIXIXIXIXIXIXIX",
"IXIXIXIXIXIXIXIXIXIXIXIXIXIXIXIXIXIXIXIXIXIXIXIXIXIXIXIXIXIXIXIXIXIXIXIXIXIXIXIXIXIXIXIXIXIXIXIXIXIXIXIXIXIXIXIXIXIXIXIXIXIXIXIXIXIXIXIXIXIXIXIXIXIXIXIXIXIXIXIXIXIXIXIXIXIXIXIXIXIXIXIXIXIXIXIXIXIXIXIXIXIXIXIXIXIXIXIXIXIXIXIXIXIXIXIXIXIXIXIXIXIXIXIXIXIXIXIXIXIXIXIXIXIXIXIXIXIXIXIXIXIXIXIXIXIXIXIXIXIXIXIXIXIXIXIXIXIXIXIXIXIXIXIXIXIXIXIXIXIXIXIXIXIXIXIXIXIXIXIXIXIXIXIXIXIXIXIXIXIXIXIXIXIXIXIXIXIXIXIXIXIXIXIXIXIXIXIXIXIXIXIXIXIXIXIXIXIXIXIXIXIXIXIXIXIXIXIXIXIXIXIXIXIXIXIXIXIXIXIXIXIXIXIXIXIXIXIXIXIXIXIXIXIXIXIXIXIXIXIXIXIXIXIXIXIXIXIXIXIXIXIXIXIXIXIXIXIXIXIXIXIXIXIXIXIXIXIXIXIXIXIXIXIXIXIXIXIXIXIXIXIXIXIXIXIXIXIXIXIXIXIXIXIXIXIXIXIXIXIXIXIXIXIXIXIXIXIXIXIXIXIXIXIXIXIXIXIXIXIXIXIXIXIXIXIXIXIXIXIXIXIXIXIXIXIXIXIXIXIXIXIXIXIXIXIXIXIXIXIXIXIXIXIXIXIXIXIXIXIXIXIXIXIXIXIXIXIXIXIXIXIXIXIXIXIXIXIXIXIXIXIXIXIXIXIXIXIXIXIXIXIXIXIXIXIXIXIXIXIXIXIXIXIXIXIXIXIXIXIXIXIXIXIXIXIXIXIXIXIXIXIXIXIXIXIXIXIXIXIXIXIXIXIXIXIXIXIXIXIXIXIXIXIXIXIXIXIX",
"IXIXIXIXIXIXIXIXIXIXIXIXIXIXIXIXIXIXIXIXIXIXIXIXIXIXIXIXIXIXIXIXIXIXIXIXIXIXIXIXIXIXIXIXIXIXIXIXIXIXIXIXIXIXIXIXIXIXIXIXIXIXIXIXIXIXIXIXIXIXIXIXIXIXIXIXIXIXIXIXIXIXIXIXIXIXIXIXIXIXIXIXIXIXIXIXIXIXIXIXIXIXIXIXIXIXIXIXIXIXIXIXIXIXIXIXIXIXIXIXIXIXIXIXIXIXIXIXIXIXIXIXIXIXIXIXIXIXIXIXIXIXIXIXIXIXIXIXIXIXIXIXIXIXIXIXIXIXIXIXIXIXIXIXIXIXIXIXIXIXIXIXIXIXIXIXIXIXIXIXIXIXIXIXIXIXIXIXIXIXIXIXIXIXIXIXIXIXIXIXIXIXIXIXIXIXIXIXIXIXIXIXIXIXIXIXIXIXIXIXIXIXIXIXIXIXIXIXIXIXIXIXIXIXIXIXIXIXIXIXIXIXIXIXIXIXIXIXIXIXIXIXIXIXIXIXIXIXIXIXIXIXIXIXIXIXIXIXIXIXIXIXIXIXIXIXIXIXIXIXIXIXIXIXIXIXIXIXIXIXIXIXIXIXIXIXIXIXIXIXIXIXIXIXIXIXIXIXIXIXIXIXIXIXIXIXIXIXIXIXIXIXIXIXIXIXIXIXIXIXIXIXIXIXIXIXIXIXIXIXIXIXIXIXIXIXIXIXIXIXIXIXIXIXIXIXIXIXIXIXIXIXIXIXIXIXIXIXIXIXIXIXIXIXIXIXIXIXIXIXIXIXIXIXIXIXIXIXIXIXIXIXIXIXIXIXIXIXIXIXIXIXIXIXIXIXIXIXIXIXIXIXIXIXIXIXIXIXIXIXIXIXIXIXIXIXIXIXIXIXIXIXIXIXIXIXIXIXIXIXIXIXIXIXIXIXIXIXIXIXIXIXIXIXIXIXIXIXIXIXIXIXIXIXIXIXIXIX",
"IXIXIXIXIXIXIXIXIXIXIXIXIXIXIXIXIXIXIXIXIXIXIXIXIXIXIXIXIXIXIXIXIXIXIXIXIXIXIXIXIXIXIXIXIXIXIXIXIXIXIXIXIXIXIXIXIXIXIXIXIXIXIXIXIXIXIXIXIXIXIXIXIXIXIXIXIXIXIXIXIXIXIXIXIXIXIXIXIXIXIXIXIXIXIXIXIXIXIXIXIXIXIXIXIXIXIXIXIXIXIXIXIXIXIXIXIXIXIXIXIXIXIXIXIXIXIXIXIXIXIXIXIXIXIXIXIXIXIXIXIXIXIXIXIXIXIXIXIXIXIXIXIXIXIXIXIXIXIXIXIXIXIXIXIXIXIXIXIXIXIXIXIXIXIXIXIXIXIXIXIXIXIXIXIXIXIXIXIXIXIXIXIXIXIXIXIXIXIXIXIXIXIXIXIXIXIXIXIXIXIXIXIXIXIXIXIXIXIXIXIXIXIXIXIXIXIXIXIXIXIXIXIXIXIXIXIXIXIXIXIXIXIXIXIXIXIXIXIXIXIXIXIXIXIXIXIXIXIXIXIXIXIXIXIXIXIXIXIXIXIXIXIXIXIXIXIXIXIXIXIXIXIXIXIXIXIXIXIXIXIXIXIXIXIXIXIXIXIXIXIXIXIXIXIXIXIXIXIXIXIXIXIXIXIXIXIXIXIXIXIXIXIXIXIXIXIXIXIXIXIXIXIXIXIXIXIXIXIXIXIXIXIXIXIXIXIXIXIXIXIXIXIXIXIXIXIXIXIXIXIXIXIXIXIXIXIXIXIXIXIXIXIXIXIXIXIXIXIXIXIXIXIXIXIXIXIXIXIXIXIXIXIXIXIXIXIXIXIXIXIXIXIXIXIXIXIXIXIXIXIXIXIXIXIXIXIXIXIXIXIXIXIXIXIXIXIXIXIXIXIXIXIXIXIXIXIXIXIXIXIXIXIXIXIXIXIXIXIXIXIXIXIXIXIXIXIXIXIXIXIXIXIXIXIXIXIXIX",
"IXIXIXIXIXIXIXIXIXIXIXIXIXIXIXIXIXIXIXIXIXIXIXIXIXIXIXIXIXIXIXIXIXIXIXIXIXIXIXIXIXIXIXIXIXIXIXIXIXIXIXIXIXIXIXIXIXIXIXIXIXIXIXIXIXIXIXIXIXIXIXIXIXIXIXIXIXIXIXIXIXIXIXIXIXIXIXIXIXIXIXIXIXIXIXIXIXIXIXIXIXIXIXIXIXIXIXIXIXIXIXIXIXIXIXIXIXIXIXIXIXIXIXIXIXIXIXIXIXIXIXIXIXIXIXIXIXIXIXIXIXIXIXIXIXIXIXIXIXIXIXIXIXIXIXIXIXIXIXIXIXIXIXIXIXIXIXIXIXIXIXIXIXIXIXIXIXIXIXIXIXIXIXIXIXIXIXIXIXIXIXIXIXIXIXIXIXIXIXIXIXIXIXIXIXIXIXIXIXIXIXIXIXIXIXIXIXIXIXIXIXIXIXIXIXIXIXIXIXIXIXIXIXIXIXIXIXIXIXIXIXIXIXIXIXIXIXIXIXIXIXIXIXIXIXIXIXIXIXIXIXIXIXIXIXIXIXIXIXIXIXIXIXIXIXIXIXIXIXIXIXIXIXIXIXIXIXIXIXIXIXIXIXIXIXIXIXIXIXIXIXIXIXIXIXIXIXIXIXIXIXIXIXIXIXIXIXIXIXIXIXIXIXIXIXIXIXIXIXIXIXIXIXIXIXIXIXIXIXIXIXIXIXIXIXIXIXIXIXIXIXIXIXIXIXIXIXIXIXIXIXIXIXIXIXIXIXIXIXIXIXIXIXIXIXIXIXIXIXIXIXIXIXIXIXIXIXIXIXIXIXIXIXIXIXIXIXIXIXIXIXIXIXIXIXIXIXIXIXIXIXIXIXIXIXIXIXIXIXIXIXIXIXIXIXIXIXIXIXIXIXIXIXIXIXIXIXIXIXIXIXIXIXIXIXIXIXIXIXIXIXIXIXIXIXIXIXIXIXIXIXIXIXIXIXIXIXIX",
"IXIXIXIXIXIXIXIXIXIXIXIXIXIXIXIXIXIXIXIXIXIXIXIXIXIXIXIXIXIXIXIXIXIXIXIXIXIXIXIXIXIXIXIXIXIXIXIXK I 7.m.n.n.V.V.m.m.B.B.V.V.V.m.V.A.V.B.V.V.B.n.V.m.m.V.V.B.m.n.n.m.m.b.n.v.n.n.n.7.7.] 7.b.7.] n.7.b.7.] ) T W ] ) ) Q ` ) ) ) X.[ _ [ _ { { ) ) { T ) ) { Y ) I I I T T { T I I I T ) ) ) ) ) ` ) W W W W I I T I I K K K K I W I T W W W W R W W I I W T I T T T Y Y T E W W W { W T I K K Y _ W E ) Q T W ` ] ` ` ` ` ` ` ] ] ` ] 7.7.` _ ` 7.v.7.] ` X.] _ +.) ` ) ` ) ` ` ` ` ` ] +.+.+.] 7.] ] 7.7.] 7.] X.` ) ) _ _ Q ) W W W W ) ) W Y W W Y Y ) W Y W T W ) W T T T W ) W W T W W T W W Q ) W W ` ` _ ` _ ) ) ) W ) ` _ _ ` ` ` ` ` _ ` ` _ ) ` X.] ` ) Q ` ` ] X.] 7.` ) ` ` ` ] ` 7.` ` Q ] ] ` ` ` +.] ] ] x.X.7.7.` ] ] ` ` ` ] ` ` ] ] 7.] ] X.7.] ] ` ] ] ] ] ] ] ` ] 7.v.7.] ] ` ` ] ] M.v.7.] +.] ] v.v.7.v.+.n.n.m.B.m.m.m.V.V.V.A.Z.Z.Z.Z.Z.Z.A.Z.P.n.IXIXIXIXIXIXIXIXIXIXIXIXIXIXIXIXIXIXIXIXIXIXIXIXIXIXIXIXIXIXIXIXIXIXIXIXIXIXIXIXIXIXIXIXIXIXIX",
"IXIXIXIXIXIXIXIXIXIXIXIXIXIXIXIXIXIXIXIXIXIXIXIXIXIXIXIXIXIXIXIXIXIXIXIXIXIXIXIXIXIXIXIXIXIXI H w t ` v.) W ) I W ) W W ` 7.] ) X.` _ ) _ ) W W _ ) W W ) ) ) Q ] ` ` ` ) ) _ _ ] ) T T ` ] ` I ) W ) ) ) Q W ) +.) W T Q ` ) ) [ ) _ X.` _ ) ` X._ _ ) _ _ ] X.] ] ] ] +.v.7.' ] _ ] +.M.+.] v.7.+.] ] +.7.7.+.` ` ` ` _ ) W T ) ) Q ) _ _ ` ) +.` ) Q ) ) Q ) _ _ _ _ ` ` ] ] _ ` _ _ Q ) _ ] Q { W ) W I T ` ) Q ) ) W Y W ` W W _ ` ` ) Q ) W _ _ Y ) ` ` W +.` ) ) ` ) ` ] ` ` +.] ` ` ` ) 7.` ) ` ` ) ` ` X.] ` _ ` ` ) ) _ ) W Q ) ` ) I ) W T T _ ) Y I I T W W K K K I W W T I ) W T T ) ` W I K ) ] ` 7.X.` _ ) W ) Q ` ` ] ] 7.X.] ] 7.] _ Q ` 7.v.7.] ] 7.] +.7.7.v.+.X.] ] 7.` ` ` 7.] ` X.v.7.7.] 7.` ] ] X.7.7.v.7.n.n.v.7.v.v.X.] 7.7.v.7.7.v.n.v.7.7.7.7.7.7.7.7.] 7.v.n.n.X.` ] ] ] ] v.v.] ] +.] ] ] x.v.] ] ` ` +.7.+.+.] +.+.+.+.7.7.+.' ] +._ n.m.I x IXIXIXIXIXIXIXIXIXIXIXIXIXIXIXIXIXIXIXIXIXIXIXIXIXIXIXIXIXIXIXIXIXIXIXIXIXIXIXIXIXIXIXIXIXIX",
"IXIXIXIXIXIXIXIXIXIXIXIXIXIXIXIXIXIXIXIXIXIXIXIXIXIXIXIXIXIXIXIXIXIXIXIXIXIXIXIXIXIXIXIXIX) J p t p U ) W M U Y I I T I U W W K I W K I W K U I K K W I W W W ) ` T M K H Y ) W ` ) T K W ) I ` W W T ) ) I ) I Q ) W T W ) ) W W _ ) Y I Y U _ ) Y ) T U U ) T W ` ) ) ) ) K ` ` ` J ) ` I ) ` ` ) ] ) W ` ) T K J T W I I I T U I T I T K K I U J K J I J K H K 7._ Y M M T K M M H K K J I Q J T U T K K W W H Y K K U U N I M M U M M U J M p N J x x U U K W M J R x M x U H x J M J M M x M M p M x x M t U H p x K p M p H M p M U M H M M H M t K W M M U x J M p M p x U x t x M x x x p p J x t M x p I K M K K K U J U K Y U M H B I I I I U U I W K W Y K ) K U W W T K K ` K U T W Y Q ) ` _ T W I K K Y T Y H W W I W W T W _ ` W ) ` Q M h K K M W U R W Y U ) ` I K W I K K K K I ) I H K I ' K ) I T ) ' ) ) ) W W _ W 7.) ) ` _ Q ) ) T ` ) ] v.R I J I M I K IXIXIXIXIXIXIXIXIXIXIXIXIXIXIXIXIXIXIXIXIXIXIXIXIXIXIXIXIXIXIXIXIXIXIXIXIXIXIXIXIXIXIXIX",
"IXIXIXIXIXIXIXIXIXIXIXIXIXIXIXIXIXIXIXIXIXIXIXIXIXIXIXIXIXIXIXIXIXIXIXIXIXIXIXIXIXIXIXU ) K M H J t 1 I W I I K K Y Y ) Y ) I K T W ) Q ) W T ) T W ` ) Q ) K W ` ) K T T _ _ ) W ` ` _ _ I K I _ ` Q ) ` W ) W ) ) ) ) ) ` @.` W ` ` ` ] X.W ] ` Y [ _ ` _ ` T I +.` W K W I ) W W K W ] W Q ` ` ` ] _ I ) W W W I W W I W W ) I Q T J I Q ) W I W W K K K T H W ` T I K U T K W I U M K Y I I J K M K U K I M I I J I T W J K W I T W ) ) W T K W U U W I I K J U I J I T I K J M I M M p H K W K W J M K K I K U R U I K K W K K I K K I K I W K M H I W K I W T J p W ) U R J J J U U I I U U K K K J K T K Y K U I Q I Y _ ) T W K K I W _ _ Y W I K W W W T U I W ) ] ) W ` I I ) I I I I W _ { ) ) Y T Y K W T ) ] T ) X.Y W W T W ) ) ) W _ _ I Y _ ` W I K W W T K I W W Y W W I W W _ ] ] ) ) I / ) I I I W { ) _ ) I W _ ] ` ) ` +.` _ W ) 7.` W ` +.b.@.W K ] W H p K IXIXIXIXIXIXIXIXIXIXIXIXIXIXIXIXIXIXIXIXIXIXIXIXIXIXIXIXIXIXIXIXIXIXIXIXIXIXIXIXIXIXIX",
"IXIXIXIXIXIXIXIXIXIXIXIXIXIXIXIXIXIXIXIXIXIXIXIXIXIXIXIXIXIXIXIXIXIXIXIXIXIXIXIXIXIXH I x i M i t 1 * Y W W ) Y T Q K _ W ) ) I I I T I K K I L ` _ ] ] ] ] W _ ) ] +.' _ ) ' ] ) ] _ ] ) J ) _ ) [ W ) _ ) _ ] ` ] ` ) _ ` ) T _ [ ] ] ] l.) ) ] ) ` X.] _ _ _ _ v.+.] ) ) ) l.] ] _ ] M.] ] v.) _ ] ] _ ] _ ] W T ) ) ) ) I W W ) W I I T T K H T T T ) T ) K Y ) I K T K W W K W I K W ) W J U p t K H H K I I U J W K K K I W K I ) Q U M M x I U T T M K L x K K M K x U J J K T U K U J T I U T M K W U J K x T x K W U I I T / I K H H F T U h P K J P W ) ) Q K ) ) H I J J T ) / ) ) J T R I K K W ) W I I K T T J K ) W T { K U I I { ) U I I I T L [ ` L _ W ) x./ I ] I W ) I _ I I ) T I Y Y I I L K _ { _ ) I U ] Y T W W W Y T Y Y I Y I K ) ` ) T Y W Q ` W T W _ K K I ) ` ) I I T K [ ) ) ) T _ ] ] ] _ _ W K ) I _ ] T T ] _ v.] ) M.] +.b.+.) ) ) R ` _ J H i H IXIXIXIXIXIXIXIXIXIXIXIXIXIXIXIXIXIXIXIXIXIXIXIXIXIXIXIXIXIXIXIXIXIXIXIXIXIXIXIXIXIX",
"IXIXIXIXIXIXIXIXIXIXIXIXIXIXIXIXIXIXIXIXIXIXIXIXIXIXIXIXIXIXIXIXIXIXIXIXIXIXIXIXIXh ) M o y H i 1 1 1 K ` I ) ) ) ) K _ W Y _ Q ) T / T I _ _ I { I ) ) _ ] T ' T _ ) I _ W ) ) J _ _ ] ] I _ ] ] ] ) T ) ) W _ ) _ ) ) ) _ _ I ) ) ] ] _ X.] _ _ _ ) _ ` { ) ` ) ] _ ) _ ) ) _ ] ` _ ] v.] ] v.) W ` ] _ ) ) I ) _ ) T ) ] I K ) I T ) K U J T K K W W ) K I K U ) Y K U J K J U T T K K K I W R M M W U x U I U M M Y J K K T J U U Y I U M K K T J Y K M Y ] U K J K R x H K K J K J I I K I M H J U T _ J J T H T N W ` J J J I I I I K K I L J J / K A I / I I ] / x J I _ ) I W _ ) W ) T K J T K U I T W ) T I W K M x I L K I ) T I T _ ) U I I Y I K ] ` K _ / I ) K I K J W ) T T I I ) { T { I I T I { _ K ) ) K L ) I I W ) ) Y K I W I I W I W ) I W _ ) ) ` ) T Y ` I K I W ] W U _ I J _ _ ) T T ) ) W _ ) / I ) ) { ] v.] ) ] _ _ _ I ) ) ] ] ) ` K ) ) I ] I K w p H IXIXIXIXIXIXIXIXIXIXIXIXIXIXIXIXIXIXIXIXIXIXIXIXIXIXIXIXIXIXIXIXIXIXIXIXIXIXIXIXIX",
"IXIXIXIXIXIXIXIXIXIXIXIXIXIXIXIXIXIXIXIXIXIXIXIXIXIXIXIXIXIXIXIXIXIXIXIXIXIXIXIXI K M M t p G M M p y e X.) { ) ) ) T z._ T ) { ) ) ' ' / +.x.x._ ) _ ' ' v._ c.] ] _ K [ _ ] ) ] ) ) I I _ _ +._ _ ) I ] ] ` ] ' _ ) ) _ [ _ _ ) _ ] ] _ _ ] _ ` [ ) ` +.] T ) ) ` ] I ) ] _ I ) / { I _ ) I _ ] ) { / ) { I P / { F H H I H H _ L I I K J I T H I K H L K ) K H I K H H H H H M J I J J J J I K I T ) J P P P H x c x M L P H K L I I I I Y ) W K I ) ) I U ) T P J ) T I [ / T I I I I ) K ) R _ _ / ( ) ) ' T / ( T _ T T P ) ' ( ^ P P L L P I L / P J I / K L / ) J L I P ) I ) ' ' [ ) { I H _ ( P T J ) / ( T T I P P T I I { ) ) ) ) [ K ' I J P I _ ) { L / ' / I / P P I / ' / I / P I T ) ) { P / _ [ I F / ) [ _ _ K K I ) ) I K I ) I ) ) ) W I p ) ) T I { ) Y { ] ) ) { K Y I I ] I H I W I ) ) I ) W ) K I K / / ' v.' l.' ' ' _ v.v.] ] v.] x.+.I I ` ) +.) T _ 1 i M IXIXIXIXIXIXIXIXIXIXIXIXIXIXIXIXIXIXIXIXIXIXIXIXIXIXIXIXIXIXIXIXIXIXIXIXIXIXIXIX",
"IXIXIXIXIXIXIXIXIXIXIXIXIXIXIXIXIXIXIXIXIXIXIXIXIXIXIXIXIXIXIXIXIXIXIXIXIXIXIXK ) M t M F t r x e t y 1 _ ] ) _ X.] ) v.[ ) ) Y I ) +._ T / @.' ' _ / +.' ] / @.b.b.] ) [ ] v.M._ I ] _ ] ] ) ) W ) ) ) l.v.] ] ] ' ) ) ) _ ` [ ) ] +.] _ I T / ) [ ) ` ' ] _ +./ ) _ I I L ) I ) ) T I ) T I ) ] ) / ) ' ] ' ) _ I J ) T ) L / I J U K K I I H H T / x H I ) H T K J P I K J T K F H W ) I J H I I J J J T J K T I T J K I T K { T I U I I K U J U T ) _ T U I ) I J ) ) v.X.I T T ] ] ) _ ) ) ) +.' _ ' ) ' _ _ ( T / _ J / T P / I P P P T I I I P I { / / P ) ] ] ] ] ] / { P { ) / _ ' _ / T P +._ T / J ( T _ / P T / ) _ ' ) P I ) T I I ) X.I { ) I _ ) ( T L ' ) P ) / P { P I I L ^ H L I I I I ) / T [ I K / I { [ _ I P P I I K I ) ) I T I I I I J { T I Y Y { T W { T W { I I U J ) U H J ) I ) ) ) ] ] _ { ) / K K ) { _ / ) I ) l.] x.l.] v.[ v.` ) W ) _ ] P ) ` ) r M p IXIXIXIXIXIXIXIXIXIXIXIXIXIXIXIXIXIXIXIXIXIXIXIXIXIXIXIXIXIXIXIXIXIXIXIXIXIXIX",
"IXIXIXIXIXIXIXIXIXIXIXIXIXIXIXIXIXIXIXIXIXIXIXIXIXIXIXIXIXIXIXIXIXIXIXIXIXIXJ ` U p n M w 1 r t * 8 t e K ] T [ z.[ _ X.[ [ ) T ( ' l.' ( ( ' ' +.c./ x.' ( / _ M.v._ _ _ v.v.' [ ) ] ] _ [ ] ] ] ' ] ) _ ' ) ) ) / / ) [ ' ] ] T _ ] ' +./ ' +.) ' _ _ / _ ' x.] _ ] ` ) J ) ] _ ] I ) _ I ) ) { / { _ _ ] l.) { P { ] / [ K ) I K I / I ) ) H / ] ] I K I ) x ) I T _ ' ) / ' _ J I / T T ' _ +./ P I / T x I I T T I T P I I { Y T W { _ ) { ` ] ) { ) ` ] v._ ] ] ] ` v.] _ T I ] 7.) _ _ ) _ ( ( _ ( ) ( P ' _ T ( +./ @.' ' +.' / I / ( ^ ) ' ) / ) ( / _ ) [ I L L { _ ] ) _ I H I ) ) [ _ / ' +.( / T / / ) / T R ( ( ) ' ) P ( ' ) ' ) +.x.' ] x./ / ) [ ) ^ ( ^ P ' / / ' ' / / T ( / / I ^ L ^ ' ( I / ( / I P H I ) I L L K I I I T ) W T I P I ) _ T K U ) T ) T { Y U T { I { K U ) / T ) ) I / I K ) ) T ) _ _ I / / / v.) ) { ] M._ _ v.] z.X.[ _ +.+.] _ K H { J _ W e p M IXIXIXIXIXIXIXIXIXIXIXIXIXIXIXIXIXIXIXIXIXIXIXIXIXIXIXIXIXIXIXIXIXIXIXIXIXIX",
"IXIXIXIXIXIXIXIXIXIXIXIXIXIXIXIXIXIXIXIXIXIXIXIXIXIXIXIXIXIXIXIXIXIXIXIXIXT ` M x w p p o y J i H p M t e ` U T X._ ) ] ] X.{ T ] c.' l.v.v.+.' c.M._ v.' _ ' +.' ] ] ] ) ] ' ) ) _ [ x.[ W l.] ' [ ' ) ) [ _ ' [ ] ] ] ] ) ) [ I ( ) ) ] I ) +._ ] _ ) / +._ ) ` _ [ T I K ) ) ] v._ _ ] ) ] _ ) ' ) ) / { ] ) I ) [ ' K ' [ ' _ / ] ] ) ) ] ] ` ` _ ) _ T ] ] / _ ] ] ] ) T ) / I ] v.I I ] ] T ] ' _ @.+.P / x.' _ _ v.' ) ) T ) ] z.X.[ ] [ X.z.T ) l.l.v._ ` ] b.] x.] _ v.7.) ' ] T v.v.] +._ x.' ( @.) _ ' _ _ +.x.( x.M.+.c.+.) / / ' ' / _ ' / / P H ' v.' ' ] I ` v.) I / { ) v._ L I ' _ T _ +.) ' ) T ( ) ( _ / T _ / ' / x.x./ / ( / l.' / ' ' P H P / / _ / I ' / J P ' P L L P ' P / [ K F I ^ ^ / ) P L ' I / ^ K J J K I { I I I ) ) I I I ) _ ) { T [ { Y L I ) T ) T I { _ X.) _ I T H I W ) ) { ) { ] _ _ I T ) +.v.' ' l.' v._ ] m._ ' m.I ] ] +.7.) ) _ K J H K I t t M IXIXIXIXIXIXIXIXIXIXIXIXIXIXIXIXIXIXIXIXIXIXIXIXIXIXIXIXIXIXIXIXIXIXIXIXIX",
"IXIXIXIXIXIXIXIXIXIXIXIXIXIXIXIXIXIXIXIXIXIXIXIXIXIXIXIXIXIXIXIXIXIXIXIXI Q x x K e w e u h t p A p t 5 > B @.K ) +.R _ v.[ [ z.x.[ l.v.] l.I c.m.v._ ) _ ` ' ` I W 7.+._ v._ +.] ` x.v.v.v.+._ ] ] ` _ ] T ) z.T ] [ ] ] [ / ) ] ' ) l.m.v.] ] / ( { [ ' v.x.+.] / ^ / P { I ) ' v./ ) / ] ] ' v._ v._ ] ] ) T I _ ) ) ) ] ) _ ) _ _ M.v.W _ m.b.+.v.] ] +.m.] ) v.] +.M._ T ] ) ) _ 7.T ] b.+.' _ / _ ] ] ] l.v.v.x.] M.' ' ] [ ) / _ ] ' ' v.m.x.( [ ' l.] ] ] x.] / _ ] ' _ ' c.' ) +.' _ x.c.+.] ] +.x.] ' ] v.) ] ' ' v.v.] ] _ T +.+.' _ @._ ( ) / ) ' _ / ) v.v.) ) ) P K W ) x.` ) { P / _ ' ' / / ( P L I ( I I / ' ' ( I / ' c.' I ] ' ) ^ / ' ' / ) ' / I { P / ( ' / ^ / ^ L ^ / / { ' / / ) / ) ) ) _ _ _ ) [ ) / I / / I / ] x.] _ _ ' ] / I ' ' ' x./ / / ) I ) H ) I I / / I ] ) K / _ _ ' ) [ / I ' _ ' M.' I ) ) ' c.@.@.( ( / l.) ] 7.@._ ] [ _ ] I K ) I I I { J ] _ p H i IXIXIXIXIXIXIXIXIXIXIXIXIXIXIXIXIXIXIXIXIXIXIXIXIXIXIXIXIXIXIXIXIXIXIXIX",
"IXIXIXIXIXIXIXIXIXIXIXIXIXIXIXIXIXIXIXIXIXIXIXIXIXIXIXIXIXIXIXIXIXIXIXK I M p U M t p i p h i p w w t z > 4 n.R _ ) x.+.] _ X.{ x.+.] ' / ] _ +.+.W W ) @.+.+.) ] ' ) [ _ v.] +.] _ +.v.7.+.x.' M.] / _ v._ ] X.( _ ] ] v.] ) ( v.l.' ( ' ] M.l.' @.) ' ' v.v.m._ ) / _ ) ) ' _ ) ' T / { ' ] ' ) ) X._ ] _ ) K { ` / W W W ) _ ` +.+.+.] ` +.7.m._ ] ` ' _ _ ) ] +.` ) _ +.] ) ] _ +.] _ ] M._ ] v.m.c.' / ' v.c./ / ' v.' / / x._ ( +.] _ ' x.+.' ' v.M.] ] ' ' _ +.] ) ' ' _ ] ] ' ' x.' ' ) ) ] x.] ' ' ] x.v.x._ +.' ] _ ' T I ' ' T ( ' ' ' ) _ ( { ) _ _ ] ) ) ( ) ` _ ) ) _ / ' T ) ] +.x.' [ ' [ ' [ { { ( ) ^ ) ' ] _ I / [ I ) _ ' x.] +.' _ _ / I ) l.' ) ) L ) [ P ) ^ I ) ) P I I I ) _ ) _ ) / I I K / ' ] / P J K ( _ ) W ) / / ) / ) _ / T ) _ ) ] ) P I ) / ) ' x.' ) I T T _ ) L T ) ) ) / ) ( I ` _ T ' +.x._ ) ( ( ( P ( c.[ M.] ` 7.) U _ ` ] _ _ [ ) I J T ) I H I I t U H IXIXIXIXIXIXIXIXIXIXIXIXIXIXIXIXIXIXIXIXIXIXIXIXIXIXIXIXIXIXIXIXIXIXIX",
"IXIXIXIXIXIXIXIXIXIXIXIXIXIXIXIXIXIXIXIXIXIXIXIXIXIXIXIXIXIXIXIXIXIXIX) M p M t w t p t t p h M t r p H u e ` X.W / ] +._ @.` ` ' +.+.] _ _ +.+.v._ +.+._ +.+.` x.x.' ' _ ) ) ) ] ' ] x.] ' x.' I +.7.( T T ] ] +.' @._ ' _ _ _ _ _ +.+.@.x.+._ P T @.b.+.+.@._ ] +._ +./ T _ _ I T K I J T ' _ ) _ _ ] @./ ) T ) _ ) @.) T _ _ ` ` _ ) W _ +._ R J T +._ @.+.+.+.W _ +.` ] v.+.v.] b._ ` 7.+.T ( ' v.b.c.@.+.c._ @.x.M.] _ _ ( _ _ @.+.+._ ) ) _ P I ] x._ T T ) P ` ] I T ` ) ) ) ) ` ] ) ) W T R / / T I T T ] T ( _ ) ) P T / L / ) I ) [ { ^ { / / ^ / { ) ( / ^ G / ( / P ' l.( l.' ' x.' ' ' ) ) ] ] x._ W T T K ' ` ` W W _ ] W ) _ _ _ ) ) ^ R _ _ W I ' { _ v._ ' ] U I ) _ ] / J I ` I P / W T ( T K I T T I R T ) T I _ _ R J K R T ( P P ) Q R R T I / T T ) ) ( W ) _ ( T I / W ) ) K / _ @._ / T _ @.+.+.) +.v._ z.l.[ l.x.] ( ( ] l.[ 7.` W _ ] ] v.I I ) P K I ] I ' J H T p r J t IXIXIXIXIXIXIXIXIXIXIXIXIXIXIXIXIXIXIXIXIXIXIXIXIXIXIXIXIXIXIXIXIXIX",
"IXIXIXIXIXIXIXIXIXIXIXIXIXIXIXIXIXIXIXIXIXIXIXIXIXIXIXIXIXIXIXIXIXI ) h t M p 1 t w r w r p p p M i D S D D t n.+.Q T _ @.@.R 6.' @.+.b.+.+.+.+.+._ +.R T v.+.] x.] ' v.c.l.c.x.M.] c.l.' ] +.' ) b.b.@.@.x.v.@.x.@.+.+.' ' +.+.+.7.b.@.+.n.v.+.@._ x.B.v.+.x.+.x.+.+.+.T R / +.x.@._ ( T T @._ @._ ) / Q ( T T K T ) +.) R ` ` +.( _ ] _ +.+.T P _ _ +.T _ +.+.v._ v.b.' ) ' +.b.+.x._ ) x.T / ] _ ' +.x.+.+./ / ] ' ' _ ' P T ) _ _ T R ( Q ) ' R I _ +.) T ( R U ) ) J I ) W T W W _ W T ` ` / T W ) _ / R T / T K ) R T J T l.{ ^ I ) [ / [ / / { { / ) ' / ^ ( / / / ^ { I l.( ( ^ L ( ' [ ' _ ) _ _ ` ] ] I T I R _ _ ) W K I W W ) ` ) W R ) _ _ / T I T ] I T ` ) _ ` T T ) W I W ) W ) ) R T ) T ( / ) / _ _ T T ) ) T ) _ / R I T ) @.Q T K W _ T ) W I K R T +.) T R _ T R _ T ) ) T ) T ( ) ' +.) R +.n.+.` W _ @.) [ [ { { l.z.v.c.v.] ] 7.T T [ / ) _ K I ] I P K _ J K I H K T p t H i IXIXIXIXIXIXIXIXIXIXIXIXIXIXIXIXIXIXIXIXIXIXIXIXIXIXIXIXIXIXIXIXIX",
"IXIXIXIXIXIXIXIXIXIXIXIXIXIXIXIXIXIXIXIXIXIXIXIXIXIXIXIXIXIXIXIXI ` M 1 t p 1 r M t y w y t r i H p H u ^ D @ E 8.Q ` _ +.@.R @.7.+.` v.7._ v.b.+.+.] ) v.B.] ] x./ ) ] v.v.x.v.M.( x.' [ x.) T +.) R +.+.+.+.@.) ) ` +.` _ ] +.b.B.m.W _ b.+.@.7.` 7.b.+.@.b.7.b.] v.x._ [ ) v.] ) ) T ) ' M.v.+.' x.' ' l.{ ' x.x.x.v.x.] m.A.m.' ] c.x.M.x./ +.m.M.v.) / ' ' _ +.M.+.' ] l.x.M.+.l.] ' M.{ ] ] _ [ _ _ _ [ / ] ] ) ' ] [ P _ ) 7.X.{ R ) ) ) W I I ) ) I T ] P P / T H I P P J J J T P K / P R / ) _ ) ) ) [ / ) H { I J / ) _ ) ( / / / / x.' / ( ) / ( / P { ) ) [ I L ) { L ) v.) I [ ) { ' _ _ ] ) / _ T H R ( T _ R R ( @._ ) W ) @._ ( T ) @.' ( ( R T T ( T K I W W I / _ ) ( ` ] W T ` R T ` ) ) Q ` Q W W ` _ Q / ) K W I K W W T T +.` W ) ` ] +.` ( ) ` W W W @.+._ W W +.` ] ` ) v.] ' ) _ v.+._ ) 7.) ` ` K R +.[ z.X.X.X.[ X.{ @.B.@.' l.[ K I ) ) I K ' ) H T ) _ H H K H I I p i p p IXIXIXIXIXIXIXIXIXIXIXIXIXIXIXIXIXIXIXIXIXIXIXIXIXIXIXIXIXIXIXIX",
"IXIXIXIXIXIXIXIXIXIXIXIXIXIXIXIXIXIXIXIXIXIXIXIXIXIXIXIXIXIXIXT ) J r t M p 3 t p t t t r t t F F H i H D D p t 6.8.v.X.c.+.( ( ] ` ] _ / I ] _ ' +.] [ v.x.I M.] ) ] +.M.] ' ] M._ v.] ] m.] ) W Q _ 7.@.) @.n.X.7.v.7.+.7.7.m.m.B.n.n.B.b.+.+.v.z.m.B.B.7.7.v.m._ x.x.' v.) ] A.c.x._ ] +.v.v.x.x.v.v.x.b.( x.l.] v.x.x.+.v.M.M.' l.] x.m.M._ c.b.] v.l.[ ] l.' ' x.] z.M.v.m.v.' v.x.M.v.' l.[ [ ] X.) ' v.] { z.[ ) [ ) I +.K ` ] _ T _ _ R I ) ) ) ) I { ) I ( ( T ( T P P K L P / / I T G / T I I I I I K I ) J { I P ' ] ] T ' l.T T _ ] ( T I T / ' _ T I ) { { K U ) T ) I { h p T I I T T { [ ' / / T x T ' T ' P P T _ +.+.) / ` @.T T I / @._ _ _ ) K T Q T ` ) I T R ) T Q ) W W ` T K _ @.+.@.) +.] W T I R T Q +.) ` ) ) ] ` T T ) ] ] ] +.+.+.) R @.9.W T _ b.m.+.) ` n.v.M.+.l.m.M.x.[ ' M.b.+.I ] ] 7.B.+.( +.` ] n.n.N.M.z.[ @.+.( ) { l.) W I I I J K / U I ) _ W H F K K L J M H J y IXIXIXIXIXIXIXIXIXIXIXIXIXIXIXIXIXIXIXIXIXIXIXIXIXIXIXIXIXIXIX",
"IXIXIXIXIXIXIXIXIXIXIXIXIXIXIXIXIXIXIXIXIXIXIXIXIXIXIXIXIXIXK ` M t r t p x p e e t i i t p p H H L p M A p U t K N.z.X.l.z.^ l.[ ] n.] _ [ +./ / ' _ [ l.[ { v._ ) +.M.M.` 7.v.] [ ] ] ] 7.] ) ` +.] z.' M.m.v.M.M.v.z.M.v.M.m.Z.x.v.A.m.v.m.B.A.M.m.M.m.v.m.m.A.v.b.v.7.N.] v.n.v.v.] +.v.x.b.v.v.c.+.v.v.] M.x.+.m.b.m.m.c.v.m.7.m.M.v.A.A.b.m.m.x.n.m.v.m.m.Z.M.M.m.A.A.z.A.' [ l.' z.) [ _ [ [ z.v.[ [ ] [ [ X.) L ) [ @./ ) ` _ _ { _ ] X.) { T I T { I K I I ^ I ) { L L { I / ) ) { { P / I L H H J H p J K H I L K ) ) ] I T ) P J I K U H H U K I { K J T U J H x J J W P K L R P T H H F U I P U P I U { _ I _ I K T F J I I U U / P Y I _ ] ) J I ) ) Y I I ! Y { _ U D U J U Y Y K x H T K K T J T _ ) ) I I R I P / _ W K ) / P ) I ) _ ' ] _ { I K W Q T K ` 7.7.` +.+.v.] ] ' ' ' ) ) ^ { ' ' ) _ _ ] _ +.v.@.@.+.@.#.@.! ` { ) c.@.I [ ^ { _ { K ) _ { I I P H J U I K A I I J H K L x M y IXIXIXIXIXIXIXIXIXIXIXIXIXIXIXIXIXIXIXIXIXIXIXIXIXIXIXIXIXIX",
"IXIXIXIXIXIXIXIXIXIXIXIXIXIXIXIXIXIXIXIXIXIXIXIXIXIXIXIXIX) R 1 w x t 1 1 r t i p p p w y F p p p p F F A M w U h B V C d a Y H g v C m g v V v B V m m B m g % m B v m V < V n v m v m d < m < n v d m d m m z d g g m N B n B N m N V g N ! 4 V N N m N B R V E V V B g N V V B m V n m V B V C ~ d d 4 d d V v d N v B N v B N m V V m N V m v V N B V N ~ C E m N g m V m m V V N V m d m m m v m V m m V g m s m d d d m v s a < s s , , < a s , & , , < < , % & , a , & , , , , , % $ < < , , , $ $ > < , % , , < , < , , s , % % , % o , , % & % & , , % > v > % < % > v > < > v v > m v d m m m d < d m m b d , m d v m m v d m s , d d m a d m v a d v V v V m m f m k m V o.C m m C m V C o.m v C m C V v v Z ~ V m C v V V m V B m C C ~ V C C m m V Z v < v v V Z m s m V N g V V C ~ m m d < m V o.n v C C V C v b l Z ~ C b v v V Q I J _ { { ) / { ] ' T I I ) K K I H A K J H { H H I K H H p IXIXIXIXIXIXIXIXIXIXIXIXIXIXIXIXIXIXIXIXIXIXIXIXIXIXIXIXIX",
"IXIXIXIXIXIXIXIXIXIXIXIXIXIXIXIXIXIXIXIXIXIXIXIXIXIXIXIXW T 1 r t t t r t p i t p p r t i i p t 3 x S S c c t x $ v vXvXiXkXvXfXsXnXgXgXiXiXpXsXsXkXlXiX).dX).g.).(.).iXaXQ.Q.iX(.h.j.Q.j.h.R.h.R.j.(.j.k.j.(.iXj.j.j.k.d.u.u.u.j.u.i.u.k.h.u.i.k.k.i.i.u.u.i.e.>.i.t.u.d.d.u.,.k.a.t.u.k.u.t.u.k.k.j.e.h.k.k.j.u.u.t.u.u.j.k.j.k.i.u.u.i.u.k.u.j.j.d.a.j.j.j.(.).!.!.!.{.!.Q.iX!.iX!.iX{.Q.pXgXsXsXsXgXgXiXiXgXsXgXgXfXgXxXlXlXfXlXgXfXfXfXfXgXfXfXfXfXfXfXfXdXfXfXkXlXfXfXfXfXfXfXfXfXfXfXkXfXlXgXlXxXfXfXxXsXdXsXpXgXlXsX).iXxXfXdXfXxXfXiXfXcXfXfXkXlXxXxXfXlXxXlXdXxXxXxXfXkXkXsXlXxXfXlXdXfXlXxXfXsXsXvXvXxXlXvXnXvXlXlXfXxXvXvXnXcXmXcXxXcXvXmXxXvXnXmXvXmXnXvXvXnXMXnXMXMXMXvXmXnXxXvXMXmXMXvXvXMXmXmXnXMXnXnXmXmXnXMXmXnXnXmXMXnXnXmXnXmXmXmXmXmXmXmXmXMXmXmXMXMXMXmXmXnXhXxXlXlXxXmXnXmXnXlXlXlXxXxXxXnXlXxXnXnXMXMXnXMXmXKXmXMXMXMXW.k j o.j ( ( P [ ) _ ) I I K I I / I K H J I J J K H H K ) K r p IXIXIXIXIXIXIXIXIXIXIXIXIXIXIXIXIXIXIXIXIXIXIXIXIXIXIXIX",
"IXIXIXIXIXIXIXIXIXIXIXIXIXIXIXIXIXIXIXIXIXIXIXIXIXIXIX) U t t t t t t r r i t i w t t p p p x H n i P G i c x 5 , aXvX].{.].{.{.gXiX!.sXgXdXsXdXsXsXiX~.W.iXfXfXpXsXfXlXkXfXfXfXdXpXgXfXfXlXxXkXlXlXcXvXcXlXkXkXxXlXlXkXcXlXcXcXcXlXxXcXmXcXxXcXmXcXmXmXmXcXcXmXkXcXcXcXcXKXcXcXcXkXxXcXkXpXzXcXkXlXxXfXcXcXcXKXkXkXkXcXcXcXcXcXcXkXlXcXcXcXKXmXKXcXcXcXcXcXxXcXvXnXxXlXxXvXhXlXgXxXgXlXfXgXhXlXlXsX{.iXsXsXgXsXiXsXsXgXsXiXsX{.gXsXsXsXsXdXsXsXsXsXfXsXiXsXiXsXsXiX{.E.T.g.j.{.Q.T.Q.!.{.Q.{.E.h.^.E.E.T.E.!.E.g.W.!.Q.!.iX~.E.Q.T.j.Q.).Q.T.(.iXT.Q.T.g.Q.R.T.T.W.T.h.T.T.R.h.R.W.g.T.Q.j.E.h.T.!.Q.h.j.g.h.Q.!.Q.T.{.E.!.{.!.E.Q.E.E.{.{.{.Q.iX{.iXQ.^.h.Q.E.E.~.Q.^.E.!.iX!.Y.E.T.{.E.h.E.E.E.E.E.^.Y.^.E.!.!.Y.^.Q.E.^.Y.E.E.^.E.Q.Q.!.Q.{.T.^.E.Q.iXE.!.!.{.{.iX{.!.{.!.{.iXiXsX!.Y.Y.E.h.T.T.E.W.W.{.W.~.W.{.iX!.h.h.{.!.h.E.iXsX~.~.}.MXKXb a D R +.P ( I ) I I ) ) _ ) K J P J I ) K I J P I K K T J p i IXIXIXIXIXIXIXIXIXIXIXIXIXIXIXIXIXIXIXIXIXIXIXIXIXIXIX",
"IXIXIXIXIXIXIXIXIXIXIXIXIXIXIXIXIXIXIXIXIXIXIXIXIXIXT W M w t p x c c i w i r p y w w i F p F x x t S L L S M , aXmX}.1././.2.~.k.V Z v m v v Z C ~ ~ ~ o.o.6.0.3.o.9.0.0.9.8.q.C.f.C.w.q.w.D.S.K.L.G.G.G.G.G.G.H.G.G.G.G.G.G.L.G.G.G.L.K.K.L.G.G.L.L.L.G.G.L.L.G.L.L.G.G.L.K.K.K.jXjXjXjXK.jXjXjXjXjXK.K.K.K._.K.L.K.jXK.'._.jXjXjX'.K.K.K.K.K.jXK._.jXjXjXjXjX'.'.'._._.jX'.K._.'._._._._.'.K.K.jX'.K.L.L._.jXK.K.K.K.K.J.H.H.H.H.H.H.G.J.H.s.s.H.H.w.w.0.0.w.w.w.S.C.S.0.w.w.w.w.w.S.Z.w.H.w.3.w.C.w.w.w.w.C.0.S.S.w.C.H.C.H.C.S.w.0.w.w.0.0.S.C.H.C.C.H.C.w.C.H.C.w.H.w.C.C.S.G.D.S.S.S.S.C.G.G.G.H.G.G.S.S.H.H.H.G.w.w.L.L.s.w.H.H.H.G.G.G.w.H.H.w.H.w.w.G.s.H.w.w.w.w.w.w.w.D.s.S.H.s.H.w.w.w.w.0.3.0.w.w.w.0.3.3.3.3.0.0.3.0.S.G.G.S.w.0.w.w.H.H.H.H.H.H.C.H.S.w.w.w.w.w.w.w.w.0.5.3.3.9.3.3.w.w.w.w.0.0.w.w.0.0.3.S.s.0.*.*.o.o.X.d.W.~.lXcX .$ ' ' c ( _ _ T / ) { I J H J H U I ) T ) I K W K J I K D p w IXIXIXIXIXIXIXIXIXIXIXIXIXIXIXIXIXIXIXIXIXIXIXIXIXIX",
"IXIXIXIXIXIXIXIXIXIXIXIXIXIXIXIXIXIXIXIXIXIXIXIXIXW W w t M w p p p x p t p i p J c i A L J H F H J y L L L > _.mX{.^.^.^.<.Y._.n   o   .   X     X       O     o .         . . . .     X   X           . X         X         X   X X   X o .   X     O               . o X O : .     .   . O X   X X X X o o - X X - X X X X X . X . X - o . . X   . X     .     $ . .   $ o o             .     .   X .   X . X X X : . .   . X X X X o .   . X X X X .   . .     . X o X X + X o   . X         ; X   @ o   . .   X X X           .       .     X X   .     . . . +   X   . o   O X   X X     X   X o     .   X   X X                                 X .   . .   X . .     o                 X X   X   X   . X   X X X X X X             X X   X X X         . X X X X     X X + .   X X     O O .     X         X   X + o     X X O # $ 4.(.<.sXKX0.z K P x T T K / ) ) I J p H I ) ) I U J T K I I W I J I K p w IXIXIXIXIXIXIXIXIXIXIXIXIXIXIXIXIXIXIXIXIXIXIXIXIX",
"IXIXIXIXIXIXIXIXIXIXIXIXIXIXIXIXIXIXIXIXIXIXIXIX) W M 1 w p M p x i c p c c i x H F F J L G H F I L L J L $ j.vXI.1.Y.Y.2.h.J.~ $ o w e h M H i e e e 7 * w 9 * w ; w t w w 1 1 ; 1 o w t w w t ; - > - - > > o - 1 1 3 > 1 1 3 3 3 > > : - o - t 3 > : 5 3 > 5 1 > 1 3 r 1 - - 1 1 3 1 : - > o : 5 : 5 - > 5 - 5 1 5 > : 5 : 5 > 5 1 5 3 2 - 2 5 : > 3 2 5 3 > 1 4 1 1 w 1 3 e t t 1 t 3 1 4 p r r 1 t p t t 1 5 ; * 1 e e e t 3 w r r 3 w t r q 3 w 1 w e w w w e 1 y w t e p w e ; * w 1 e w w e w * e e w * * w e 1 1 1 * 1 w * 2 w w 2 t e 1 t 1 > 2 * * t 1 1 w 1 w > w t e 1 t t t p 1 e r @ y e w 1 t e w w w t t e t w p t e t e y e e t t e t y t i 1 w e t w t e p e u t y e t e i t t e e w u u u e e e p p p u p e e e u t e e e y w e u e e e e e e e e w r u e t u p e 8 e u 8 w e w 8 * w e w 8 w w e w @ * e u w q + + 6 7 . 5.T.^.sXfXZ B Y K J I K I T I W K H I T I I K L K I I K I ` W J _ ] J w IXIXIXIXIXIXIXIXIXIXIXIXIXIXIXIXIXIXIXIXIXIXIXIXIX",
"IXIXIXIXIXIXIXIXIXIXIXIXIXIXIXIXIXIXIXIXIXIXIXT Q p t z p p p i r r p p x x p c i i i F H H L G F / J Y , a.mX~./.1.Y.:.>.j.< . * y @ @ * e 8 o @ 8 9 e w 6 8 8 1 ; @ 1 * ; w ; 1 w @ w w ; 1 @ i l 3 ; : ; 1 1 3 t 1 w 1 3 1 w ; 5 > 1 : 5 1 > 1 5 1 - - - 1 1 3 r 1 o : 3 3 ; o 1 r 3 1 w w e 1 1 ; 3 1 1 r w : ; r 1 l w : 1 1 ; ; - ; : 1 1 i 3 1 : 1 1 ; + ; w 1 w w ; ; r r 1 1 w r w 1 e 1 r e t w @ 1 y p w w 1 w 1 1 1 w 1 1 1 1 1 w r w w t w w ; w 1 * w 1 t 1 w * 1 r t 1 1 e w e r w 1 e e * w e e e 1 e w e w * e t w e t 1 1 1 w 1 1 1 e t 1 1 w t 1 1 2 1 w e w 1 - o o 1 @ o 1 1 w 6 o e w * w 1 1 w 1 * @ 1 1 ; w w w w w y w @ @ @ 0 . w r @ e w w ; 1 w w w w w w * w * 8 w w 8 8 9 w w 8 * 8 8 e y w @ 9 8 w 1 e e 8 * w 1 1 1 e 1 w r e * w 8 * 1 1 w e w 1 y 8 * * 8 8 i w 8 w w e 8 8 w e 1 * 0 8 8 w p @ ; @ @ S S O   ..~.h.E.).v $ I I T { W I J J J I ) T I I K I I K W T J ) ) K ) ] I x t IXIXIXIXIXIXIXIXIXIXIXIXIXIXIXIXIXIXIXIXIXIXIXIX",
"IXIXIXIXIXIXIXIXIXIXIXIXIXIXIXIXIXIXIXIXIXIX` ) t t t p H p t i i i p c c x p c F F p G P / ^ H L / K s &.hX)./././.<.R.k.5 - l : 3 @ ; * w r 1 r w w w ; @ w p w y w 6 @ 8 1 w 1 w 8 w w w e w ; w w 1 w w 8 8 0 i 6 w 0 w 6 w @ w w w w t u w r w e 1 w w e e @ y u y w t y @ w w 8 * 1 w @ @ w w o w 6 0 8 q * 0 e 8 u w * w p w 8 w ; ; w 8 @ w 1 w w w w w w 1 o 1 1 1 ; 1 1 1 1 1 r r 1 w 1 1 1 1 1 1 1 % 1 1 1 1 2 e 1 w 1 1 t 1 1 1 1 1 ; 1 w 1 1 1 e t e w 1 o - 1 1 w w t ; ; w 2 w ; ; 3 1 ; ; ; : ; 1 o ; ; ; ; o 1 1 1 1 8 1 1 w 1 o 1 @ y p w w 1 w * w w 1 w 1 1 w w 1 w 1 1 1 w ; y 0 ; e r o : i r @ - e w 1 ; w r 1 3 1 1 ; ; ; 1 1 3 @ 1 w w y o ; 1 w ; * e ; o w @ w @ ; ; 1 w w w 0 0 0 ; w w r w w ; w w ; ; ; 1 * ; 1 : w ; 1 w i t w 0 w w w w w w 1 w w r w 0 * @ : 0 1 ; 0 0 * 0 @ ; 8 w r w 1 ; @ * @ # 8 8 q + c +    .W.Y.gXfXC d U I I ) ) K I I J { T ) [ T I J K W W J J I K K I I I { h w IXIXIXIXIXIXIXIXIXIXIXIXIXIXIXIXIXIXIXIXIXIX",
"IXIXIXIXIXIXIXIXIXIXIXIXIXIXIXIXIXIXIXIXIX] ` 1 p p p p x r w p p c G M M x x H c L L H L L P L I g a k.nX~./.:.p./.d.d.m X : : q : ; + X @ i r : ; 1 1 1 w w y w e e w y 8 @ w 8 y w * # @ w w w w w 8 w w w w w w @ 8 w u 9 y w w 8 i u w w w i y w w w w w u @ w w w 8 8 w w u w w e w w w u 9 u 8 S u u u u 8 8 u 7 y 8 9 i u 6 8 w @ w u w 7 w 8 w u i 8 w r 3 * 1 w w 1 - 1 w t 1 * 1 1 1 * e 1 1 * e u * w 1 e 1 w 1 e e 1 1 1 1 1 1 1 1 r 3 w 1 y 1 w 1 w 1 : ; w ; ; ; ; w - ; 1 w 3 ; + ; @ o 3 1 ; ; ; @ ; ; - 1 ; @ 1 y w @ @ w @ w y w + @ w + @ @ 1 @ w y 6 i 0 o @ y 8 @ 0 @ w * 1 @ w w @ ; w + ; 1 ; ; 1 ; ; ; 1 1 ; ; 1 1 1 ; ; w @ ; 0 ; o w ; w w 1 w 0 0 0 ; ; 1 + ; w 0 ; ; 0 w 1 w w w @ @ @ 0 w 0 ; w w 0 : ; : ; ; w : ; ; ; 1 0 ; + @ w w 0 0 0 ; 0 1 : 0 + 0 ; 0 7 : 1 ; 3 0 1 ; @ 0 ; 0 ; + 1 w 0 @ . % e * + q + q o $ f R.^.lXcX .m U I ) ' I { ) K T J I ) / W P K J W K x K W I I I _ ` ) J t IXIXIXIXIXIXIXIXIXIXIXIXIXIXIXIXIXIXIXIXIX",
"IXIXIXIXIXIXIXIXIXIXIXIXIXIXIXIXIXIXIXIX` ) 1 i p p i t y i p p S F H w z n z x c P F L L L G J l < (.mX}./././.=.`.s., . t ; : o ; ; ; @ + ; i w 1 1 : e r 1 # 0 w w * w 1 w @ w 1 1 1 w 1 w w w w 8 w 8 w 0 0 w ; @ 0 0 1 w w w @ 6 @ 6 @ 8 w w w 0 0 6 6 0 * w @ @ @ 1 1 w 1 i w w w w w w w y w w w 8 w w w 8 6 6 8 w 6 y y 1 w w * 8 w w w 8 1 w w w w 8 w w * 8 1 e w 1 @ y w e 1 w w e e e e 8 1 e t w 1 w * * ; * w w 1 1 ; o 1 1 @ @ 1 @ 1 w 1 w o w w t 1 o w w * ; w w w 1 w w w 3 : w w 1 * 1 ; @ @ 0 ; @ ; 1 w * ; @ 8 @ w w 8 w o w 8 w 8 8 8 1 w * @ o * w @ w w 1 * * * 8 @ @ # 1 @ ; 1 1 1 ; w w w w w ; w w w 1 ; ; ; @ 1 ; 1 1 1 ; @ ; 1 w @ 1 @ w w @ @ @ @ @ @ 1 w 1 ; w 1 w ; 6 w w 6 6 0 w 0 0 @ @ 0 0 @ 0 0 q : 0 0 q 7 : q q 0 0 7 : + i 7 : q i q 0 q : : 7 : 7 : 0 + - ; 1 1 1 ; w 0 y 6 7 0 w y 8 @ * * 2 1 6 6 7 q i * $ f k.^.dXfXZ < V K ] ^ ) I ) M J ) K J T K P P I K { T J K ) { ) _ ) ) K IXIXIXIXIXIXIXIXIXIXIXIXIXIXIXIXIXIXIXIXIX",
"IXIXIXIXIXIXIXIXIXIXIXIXIXIXIXIXIXIXIX` I o U i p p h p p i p A F F p w M B z l H F L ^ L L P l 5 k.mXiX1././.,.`.f.o . M w 1 t 1 : 0 0 q + @ w r w 1 1 1 w 1 @ 1 w w w w w w w r w w w w w 1 1 1 w 1 8 ; @ w 0 w r y r y w w w w w y y w y y r @ 6 ; ; w w w w w o @ w w 1 w w e w * w * w 1 * w w w 8 6 w 1 w w w w w r r w y w 1 w w w * 0 w 0 ; w 1 w * w 1 e w w 1 w e w 1 1 e e w 1 w e w w w w w w w e w w w w 1 8 * w w 1 w y w y 1 w w w 1 w w w 1 1 w y * 1 r w 1 w w 1 r 1 1 0 3 q ; r w w 1 w ; 8 o 6 * 0 ; 6 @ 6 * w 0 w 8 w 1 w ; w 8 w 1 w w w 8 e w 8 w w * 8 w w w w w y w w w w w w w w w y w @ ; @ o @ @ * ; 6 1 @ @ w @ 0 ; 0 w w 8 w 1 w ; 0 1 w w w @ w w @ @ 0 @ @ @ @ 6 ; ; 0 w w w w w y r y w w w w @ 0 0 y q w w q 0 w w w w q 0 0 0 0 @ + 0 q 0 ; 0 7 0 0 0 0 0 0 0 ; - 1 1 1 w 8 6 w w 6 w q 6 # + * * 2 1 6 7 q 6 y 0 $ . b j.h.xXpXb < N x.I ) I W I U / T P ) / ) K J J I K J I P J I I I ) ) K IXIXIXIXIXIXIXIXIXIXIXIXIXIXIXIXIXIXIXIX",
"IXIXIXIXIXIXIXIXIXIXIXIXIXIXIXIXIXIX` W t h t H t i p p p t i p i c L p M M M x F G / G p K U > j.cXsX2.%./.h.R.s..   e w r y 1 w ; ; w w + O 6 x t t t i i r y w w w w 8 w w w y w w y w w w y y y i i y w y y w w w r w w 6 0 @ w 1 ; 1 w w y w w w r y w w w 0 8 w w y w w w w w w y i i y y w w 1 w 1 r r r 1 3 w r 1 1 1 0 w w w w w w w w 8 w w y w w 8 y q : 3 q 1 : r w : ; 1 w : w 1 w ; ; : : ; 1 : w ; 1 : ; 1 ; : 1 @ o ; 1 1 1 1 1 1 w w w 1 1 : 1 1 1 1 1 3 r 1 1 r 1 w 1 1 w : ; r w w 1 w 1 w @ w 1 w 3 ; ; 1 1 ; : ; ; ; ; : 3 0 : 0 ; : : ; ; w 6 6 0 6 @ @ @ 6 @ 6 @ @ 8 6 6 @ 6 8 6 6 @ @ @ w 8 6 6 w @ 6 w w 6 0 6 6 8 6 w 8 w w 0 8 w w 6 6 ; 8 1 8 6 7 w w w 8 w 6 6 w w ; ; ; @ o ; o ; ; ; 1 1 0 w @ @ 8 8 6 0 9 7 9 7 w w 8 8 9 7 q w w * 1 w w r y w ; w q w ; 1 w 1 1 1 w w w w q w u i i r w # @ @ > e 1 1 @ ; 0 0 7 i e , $ f R.W.fXpXC M N +.[ I K E I { [ / T T ) I T / ) W L J I T W ) ) I / _ ) IXIXIXIXIXIXIXIXIXIXIXIXIXIXIXIXIXIXIX",
"IXIXIXIXIXIXIXIXIXIXIXIXIXIXIXIXIX` U t t w p i r t i x M p p H F i p A M K I x G G F P H n % `.vX{.<.:.<.p.Q.4.$ j * 6 p w # e w ; 0 w q +   + ; ; @ o o + X O + + . + + @ + o O O   O X . O O O .   X X X     X . + # @ . + # X . X X . X o X .     X . .     X X X O + O + # X     X + o + . o o o X o o o @ o + o . X   X .   X O   O X O X + X O + + O o + X X X   .   X X X X X X X X X X X X X X X X O X X X X X X X O X   . X X X . X X . . o X X . O . . . + X X + . . X       X   X     .       .       .             X X X O   O + + + X O X X X O O X   X # O X #   X   O   X   X X   X O   X X O                                                   X     O X   X X       O         O . X   O                   . X   O . O   # . .   O # O   O . O   .         .       .       . . . X   X X X #     X + X O . X ; 8 w 1 ; o ; ; ; # y 1 > , o a (.Q.kXjXs n J L [ [ [ T ^ / I ) ` I I I J U ) T I I I I I K L K _ ] K IXIXIXIXIXIXIXIXIXIXIXIXIXIXIXIXIXIX",
"IXIXIXIXIXIXIXIXIXIXIXIXIXIXIXIX) H t r p 4 o x t t i p p p h H x p p H L I Y D L G G G U $ `.MX^./.1.O.p.(.*.  X y 6 q y y y 8 o w y w 6 O     .                                           O                 O                                                                 O O                                                       .                                           X                                         O                                                         O               O   X                                                                                                                 .                                                                                                                     .     .                                                                 X w q 0 @ - > : : 0 ; + t o = . V u.R.gX(.v n R I { { ^ T P J P L I W _ I K _ ) Y ) T I I / I _ ] _ ) I p IXIXIXIXIXIXIXIXIXIXIXIXIXIXIXIX",
"IXIXIXIXIXIXIXIXIXIXIXIXIXIXIX_ W t 1 t M p y M i i e t p i p F p U H J D D U L L L G r & d.nX/.I.1.Y.p.aX*.X : i 7 q 6 y S 6 w 1 e w ; O                               #                                                                                                                                                                       X                                                                         . O                     O                                                                                                                                                                                                                                                                   O                                                                                                         # 0 0 ; 1 : 1 5 : 0 i 0 6 y w . b (.2.lXzX< l T { { [ ' ) T { ^ I T v.] _ ) T L I P K { ) I I ) I { ) I t IXIXIXIXIXIXIXIXIXIXIXIXIXIXIX",
"IXIXIXIXIXIXIXIXIXIXIXIXIXIXR ` w M 1 1 p M H p x M p p p J H H L L t x M J L D P h K < a.cX^./././.Y.`.C . o : 7 q 6 S S 6 y 1 1 w 6 # X     + @ ; ; 1 ; 1 0 0 6 6 w w w w 6 6 * w w w q 8 0 ; @ @ 7 6 8 @ 7 * @ 6 6 6 @ # @ @ 7 * 6 @ 6 @ 6 6 6 8 @ 7 6 7 @ @ 6 # + @ 7 + + # # 7 @ @ @ 6 6 6 @ 7 @ 6 # @ # # # 7 @ # + @ @ @ 6 w @ 1 ; ; 6 @ + o # @ + + + * e 1 * w w * 8 * 1 1 * 8 8 * * w # * * @ * . # * @ @ # o # o @ o # @ o @ * 8 w * @ * @ o @ @ @ @ + @ @ * @ @ + o ; @ @ ; ; @ @ @ @ @ @ @ X + o + X + @ @ @ @ @ o @ @ $ @ * @ * @ . @ # + # o * @ o + @ # @ o + + @ + @ @ @ @ @ @ # @ # o @ @ @ @ + @ @ @ @ + @ o o + @ + o @ @ @ + o o + @ @ @ + + @ . + X . + o o # o @ @ o o O . + # + O   O + + O # # @ # @ # # X + @ . X X + o + O O X X X   + + O O + + + + + + # + O O O + O + O O O X O O   X O   X X     O + 0 ; : 2 1 5 w : 7 q y 7 p t . Z R.Y.gXiXs U ) ' / T W W ( l.K J ) T L ) _ ) _ I ) ` _ ) ) K I I ) _ J w IXIXIXIXIXIXIXIXIXIXIXIXIXIX",
"IXIXIXIXIXIXIXIXIXIXIXIXIXW W 1 p t g p e t p p i i t y i H H A L { x J J J L L J E $ k.KX~././.:.R.R...o 5 r F q i S 6 y i w i w 1 +       + t p x x M H H F A A p i p p p i p w t i p A H M p u p h p h p h i h p D H H h h H U L L L D D D H A p D D D H D D H A p M D D h p p H M H p h u p D A D A H A H h J H D A u A A H A p p A A F H A A p p u A A H H H D h M D h p h h p h p p p h H M H M D h p h U u h h p t p D U M H J H h H h H p H H A p D h h h h H U L H h H H H M H x p p M x p x p p p p p i p x x p p p p M h u u p h p p i p j p h p h h p p A p A A D p p S p u F A A p F D F H H D D H D D H D D u D D D D H M D h D h H D D J L H h h h p A p p D p D p p u p D u p i H u H L L D D L H H H D A p F H x F F c F F G H G F F c F F F p G F p A F F S F F H G G F A F G G H H x J M G J J P J x i ; +     O ; 1 1 2 1 : ; : r 7 q y 6 0 - . b j.<.gX`., x ( ( T +.` ( ^ { / _ I J _ _ I _ I I ) I T ] [ I I T _ _ K w IXIXIXIXIXIXIXIXIXIXIXIXIX",
"IXIXIXIXIXIXIXIXIXIXIXIX) K o w t h p p g p M t r i p U J x p A D A K x c x R J x o 4.xX~./.1.-.R.`.Z . 5 q q + q q e * 1 w r r 1 o       7 y i J M x U H J H p p t t H x w p J p t t z M x p M U p p M p g p M p x p t n p t p u H F p u p p D h p p u i h H p p t t p x t x M h x p t t p M p M p p p A h p p p H h p p A p x A S A i S F p p i S u p A D p A F c x c F F F c F G c w i p F p H u p F F p p S i p p p i i i i u p u p p u h D i u p p u i i p u h u u p p u h A u M H x w r F F u i u i A i p u i i i p y i u p p q y u A A w p 0 i H i S F F A L p u i S S A A S u i u S p u S u A A D A A A p D L A A D A A D H H A p u u H p A A D i p L u p u L i u L p p A A u D p u A p H H h p p p p p D M e p h i p i i A A A S F F A A A A A A F F F P x p i G p H H J H G x x F G x x M M J M x J R P M p p p A i   O     @ e 1 * e @ w q 6 q q 0 @ t >    .`.Y.nXT.& z ( T ^ l./ P ' / I { ) ) ) T ] ] v._ I T _ ) ) W K I ) ) H ; IXIXIXIXIXIXIXIXIXIXIXIX",
"IXIXIXIXIXIXIXIXIXIXIX) K t t p t p y t p p x p H p p M J J H L L / J x G c G J < s.xX~.-.-./.Y.J.v $ - c c + i 6 8 8 e e 3 ; @ X       + u A h T K M I U K M x M H M K N p M M z p r t x t t x p t t t t p t p x x p t p M g p h p x p p t p M p M p p p h x p p n p M M M M N M p p t t h x g t p p g i t t t p p x x M n p r H D H i A A u p S p i y p S p L G x F p F G F c i F H H G H G c p p c x A c A c p c F S c F x G u p x u p i p i H M u p h H M p L J J p H M i H e i p F x x F J D p A F H H L H H L p i y y A I p H G G F G H G F F A G F p 0 p S A u A F p u p p A A A p x A S D D p D A p u D A H H D L A p H L p p p D L H J p U H D H L J H D h H H H L J J M D p H H H L H M M H M M H M M M M p p H M h p H G L G H A H x A F H L H L L F G x c M c x p M H x x M J H U J M M M N M x x x M x H H A L A w         * e 1 w w w q @ 6 6 w ; : 1 ; % b `.~.MXu.< M R / L l.l.) T W ) K T _ [ ) ) +.] ] _ [ _ T W T ) T ) W I p IXIXIXIXIXIXIXIXIXIXIX",
"IXIXIXIXIXIXIXIXIXIXT K p i c t t t 2 t p p M p M H G U J J H P J G J R I K I . C mXgX/.<.1.T._.m . t q + i w i 7 8 2 e 4 1 :         @ u u L J K K K Q K R K J T Q R W E W E K Q E R K R K K W N U M p M g < r M N M M M B z M M M M n p z h n p z z z h z n M n p p n M M M M M M M g n M x p n z x N K M n 3 t n z n z g 4 3 p M M x p n z z t p M z p M w t t i r r p c p p r p c c p x x t x x x H H x x x t x M c p x M M p p h h t u e t x t t w h U M h h h M h M M p J h J K J z M J x p p M M K J U M t M U K U M H J t x M x x x x x i G p t J c p N M t t M M 4 p p 1 4 t e 4 r t t 1 4 r 4 2 1 e p t 3 1 3 e e 1 t t 1 4 4 4 t w 2 1 z 2 1 t 4 1 t 1 1 > 1 2 w i t 1 3 1 t 1 1 e 1 r 3 5 > > 1 2 < 1 > 1 5 2 2 : > M M j 2 1 w 4 t M h h t e e t t g g t n t t t n z t t g z 3 > t z x z z M c z x M M J I H A H u X X     . 8 w e w w 0 : ; ; 1 1 @ 6 6 q % 0.(.sXgX&.m R G / L ] l.) _ ) K / _ K W T _ T ) ) ) ) ) ` ] ) T T W ) H 1 IXIXIXIXIXIXIXIXIXIX",
"IXIXIXIXIXIXIXIXIXW I 1 t x 2 r w t t t h M H x p x H J U H H H R c x K B K o 0.kXY./.1.<.T.`.< . 1 i q q q i w * * 8 2 1 : X       X i H i p K J K R ! @.7.n.7.n.n.7.7.b.n.n.b.V.V.n.n.n.8.7.B.7.7.9.@.7.n.@.7.8.7.7.7.7.7.7.7.` 6.6.6.#.` ! ! 6.6.@.#.` ! ` 6.` ` ` Q ! ` ` ) ! ` Q Q Q ` E E Q Q Q #.6.#.Q K ! ! ! ! Q Q ! Q E ~ ! E ! ! E Q ~ E Q E ~ E E ! Q ~ Q Q ! Q E ! ! Q Q E E W Q Q Q Q Q ! ! Q E R Q ! ! W W Q Q E ! ! ! ~ ~ E Q ! ! ! Q Q E Q ` X.! X.` Q Q ~ R Q Y E Q E R R R N E K W E E K E E Y N N K R E E K R R E R T E E R W E R N ! W K Q ! E K ! ! E ~ E ! ! ! Q Q ! #.` ! ! ! @.! ! ! ! 6.6.! ! 6.@.! 6.! X.6.7.6.@.` ! @.6.! @.6.X.6.6.6.7.@.9.7.6.8.6.6.7.9.8.9.6.6.6.9.6.@.6.7.6.@.@.6.! 6.@.@.@.#.6.8.9.6.` o.X.X.X.9.9.6.X.X.X.8.8.8.9.X.6.6.9.9.9.9.9.8.n.8.9.9.n.6.8.@.@.8.8.@.n.@.T I T L J L J r 1 .   . # 7 u i w 0 3 0 : 1 1 w 6 u q O .  .).sXgXe.5 T ' _ [ _ W I ) ) ' 7.] M.v.M._ _ ) W T K W W T I T T I K J w IXIXIXIXIXIXIXIXIX",
"IXIXIXIXIXIXIXIX_ U t x t w 1 w 3 p p p M n M x p p p x K J G x J G M E N % o.cXiX,.1.<.u.s.> o ; F + 0 p 0 i r e 2 y 8 @ +       X 0 G H p H I R M B Q 8.V.Z.P.Z.V.n.m.B.B.n.B.n.m.b.b.n.7.b.n.b.n.n.n.Z.Z.B.A.Z.Z.Z.Z.Z.Z.Z.Z.C.Z.Z.Z.Z.C.V.B.Z.B.B.B.B.n.8.n.n.B.n.n.n.m.n.b.v.n.n.n.m.m.m.n.b.8.7.7.7.8.8.n.8.9.7.9.7.8.n.n.8.8.9.9.9.9.9.9.9.9.8.9.8.B.q.w.w.N.q.q.q.0.9.0.w.w.C.w.w.N.q.0.C.w.q.w.C.C.w.w.w.C.w.w.w.0.q.0.C.w.C.w.C.C.C.C.C.S.C.w.q.q.q.w.S.C.C.w.C.w.q.q.q.q.q.w.C.q.q.C.w.q.9.w.q.9.9.q.w.9.3.6.6.9.0.q.q.0.9.0.q.w.C.w.w.w.C.q.w.q.q.q.q.9.8.C.C.C.V.q.q.C.8.8.q.C.C.q.C.q.q.C.q.9.9.q.8.8.9.9.9.q.8.8.9.9.8.8.q.8.8.8.8.8.q.q.q.8.q.8.9.q.8.8.9.9.q.9.8.8.8.C.q.q.C.q.N.C.n.B.B.B.B.8.B.8.n.q.n.n.9.7.7.8.8.0.q.q.8.9.X.6.6.6.3.6.6.9.6.X.! ! X.6.6.@.` 6.X.6.X.! 6.6.7.9.6.7.8.8.7.8.@.W K N p M J H M t *       O w i w w w w 1 1 w q # w y p ;    .E.).kX4.l R { ! ` ] ) I ) ) ) M.] ] v.] v.] ) ) ` _ ` _ ] +.] _ ] K H i IXIXIXIXIXIXIXIX",
"IXIXIXIXIXIXIX_ K t r M w 1 r w w p g x p p H p p H H U P J H J G J J U d 3.nX{.1.<.2.j.s., . i y y r w 1 1 0 i t w w 6 #       ; i G F A H K T M B ! 8.6.4 % . X     .   .   . . X X . X . . . X + o . X o X .     X X o X   . + X . . X . X X o . o o - . X . . o + o . . o o o o o o o 1 1 o o o - o o o o o 1 1 1 1 o 1 1 > > - X X o o - - X - > > > 3 : > 2 < < , < , > > > > > > , > > > > , > > < < < 5 > > > 5 > > > > 5 - - % > < 5 5 > > 5 5 - > - o 5 5 5 > 5 5 > 3 5 > > 5 5 5 > > < 5 - 5 > > - 5 5 > - > 5 5 > 5 - > > > , > > > < > < > > > < , - > 5 1 2 3 < > > > > 5 1 > > $ : - o % - - - - > 5 - o > : > > > - o o 2 5 5 : 2 o : 4 : o 2 > > 5 > - - % 1 > - - - > - o 5 > o - : > > - - . 1 - 1 - o > > - % % o % > > = $ < < 2 5 , = o . > : 2 > 1 o > 1 > 1 1 > - ; > o o 1 ; > 1 : - ; z Q 7.` J M U J M U p @         w ; : ; ; w * * q y y w 0 0 o    .(.lXcX3.5 o.{ I ) K K ] ) I M.) ] ] ] M.v.] v.7.+.] ` ` ) ) ) ] I J J i IXIXIXIXIXIXIX",
"IXIXIXIXIXIXW ) 1 p H t r M U p e p p n M p x p p P I K J H H T T / H 2  .zX).-.1.2.(.s.  X H + i @ w c t 3 o w w 0 7 7     O + p x H F A F J K W E 6.E n o o - 1 1 t e w t r t w t 1 t t t 1 w 1 1 1 1 1 1 1 1 ; 2 1 2 w 1 > y ; ; @ @ * 8 1 1 * w w w w w y 1 1 1 1 1 1 1 1 w 1 1 1 1 * 1 o o * * * w i t * @ @ 1 1 1 * * * @ 1 w ; 1 e 1 r e 3 w 1 o * w 1 1 @ o * o 1 * * * @ ; 1 2 * * 1 1 1 - ; @ @ ; ; o @ @ ; ; 1 ; ; w o o o @ * * - 1 * * * * 1 1 1 @ ; % w * o o ; o 1 1 1 1 : o o @ 8 o - o @ o o @ - o o * * o o ; ; @ ; ; ; o o @ ; ; o ; @ @ @ @ 1 2 * o 1 * 1 * @ * 1 * * * * @ - 1 1 1 1 1 1 1 1 1 1 1 1 ; 1 1 r 1 @ * 8 w 1 * w * * w 1 o w w w 1 w ; @ * * 1 1 1 w w @ @ w w o * * 1 1 1 o 1 1 e 1 1 1 t y w w w 0 @ w w w w e w * 6 1 w r r w w r r 3 w w w : ; 1 1 q 3 w w 1 1 2 1 1 2 > > . B ! 7.! M t N x M H w +       O : ; @ @ w 8 7 0 ; w @ p u 8 = $ C d.).pX..f Y W ) K I ] _ P ) ] ] ] ) ] _ W ` +.` ` +.] ` ` ] ] ] I K I i IXIXIXIXIXIX",
"IXIXIXIXIXR K 1 t 1 w p t i p p 4 p p p p p F A A I I K U p G G R M 4 o.cX).-.1.Y.iXt.% o p 0 0 @ i t 1 1 1 > w w 7 O       w p F i i x H p p B K Q Q < . 2 n t 3 t p w 1 t w t w w e 1 r w 1 1 1 1 e t w w 1 r y t r 1 r r w t y w w y i i i w y u u w 6 w u t t w t t 1 * w t 1 w y 4 w t w y u u w y w u i y w w u y y y w w 8 t y i p y y i u t u w i p i t u S i u p u w y i u i p p p i t r i c y i p F S p i i p i w u F i p u i e i i p u p p u u p h i w y u i w F D p i i y u i i u p i p A w u u u y p i u p u i y w p i y 0 y i S i w i i w y i 0 p w i i u p i i u y i i u r i i p w u p i u r y w i y e i i 1 y u w w y y u w y w u u 6 w A w y i u y u i u i 7 u w i u D S y u w y y i t w y e y y i w r y w e 6 w i S p i i y w A i y q q w w w c r q w 0 i w i i w w r r q 0 0 y 3 w 1 1 1 1 3 t o % E 8.E n N t x p x r O       @ : w w w 8 7 + r w w 8 * e e >    .j.lXkX .m W ) I L ) ] ] M.+.+.7.` v.] ] ] ) W Q ] ] ` ` ] / [ l.) K I p IXIXIXIXIX",
"IXIXIXIX` U p J t c w i w w p p x n x H p G G G L ^ A H N R F G M o V cXxX<.-.E.iX3.o O i i * w 0 i 0 0 w 1 > t X #       y F S c p c M U M B Y X.B * $ 1 p i 0 i i i w w q w 0 w w i i r q w w t w 0 0 i w w 0 i w w 0 w w r 0 i i i w u w w i 0 0 w 0 0 q i i w o @ w y r r w 0 i w 0 w r w 0 i i y w i 0 w i i w 0 0 y 0 0 i w w w y y w t y w t y 1 y w y t y i i y w 1 t e w t i i i 0 w w 1 3 w w i i i q F q c t : 3 r r t t w w * w e t i w * w w i u y 1 w e w 1 y t w p w r t y w u y w y t w w e e y e w 1 w w e u y 0 q q 6 q 0 0 y 0 q q 0 0 0 q y w w w y w q w 0 w w w w w w w w 6 i p y 0 i w 0 w w r w r : r w 0 w q 0 w w w i i w 6 w y 0 y i w w i i i w i w w y q i A i i i y i p p i q i w 0 0 w y w i w 0 w w 0 0 i w q 0 y 0 0 0 0 0 i 0 i 0 0 0 i w w 0 0 w i i 0 0 i 0 w r w 1 0 i w q i t o 2 Q X.Y V B J K M t y +       . r w * 8 6 8 w 1 w w w 0 0 1 o .  .).lXaX..l _ J ` / ' l.l.' ( ` ` ] v.v.v.@.@.P @.+.x.' x.l.c.l.l.) J J IXIXIXIXIX",
"IXIXIX) K 1 1 x x x t G G p F c x x J T G G F c L ^ K K B x c P < b zXfX<./.Y.p.*.o X F y * u 1 i + q p y y e o .     X y S F S G i J I M B ) ~ ~ j o t i 0 ; w i i i 0 w i p i i i i w 0 0 w p r w w y i i w i c i w 0 0 0 0 0 0 0 w q i w y 0 0 0 0 0 q 0 y y w q q y y w r w 0 0 0 0 w i 0 w i i 0 0 0 w w 0 i i 0 0 w 0 0 i t y y e t y r y w e t r p t r i q y i r w t t 1 w i i 0 i r r t 4 3 3 t r i i i r q 3 i i 1 y e w y t t w 1 1 r w w w w t i p e w t p p t w w w w w y y w y r i 1 y t y 1 w y 1 w w w w w 1 1 w i i w w w 0 w 0 i 0 w w i 0 y w y i w w w w i i i i i i y i i i w i w 0 0 0 i w i w r i i t i i i i i y p i i i w q q i i 0 0 w 0 w i i y w i i i i 6 w p i i 0 i y 0 i 0 i i y i 0 0 w w 0 0 q 0 w y 0 y q q 0 i w i i i i 0 0 q 0 0 y q i i w y i w w w 0 0 0 y w 0 ; q q i 0 i w 1 ; 3 E 6.E K J K U M p y *       . w i 6 8 8 8 1 w 1 0 0 0 w * , $ o.pXdXfXC l 7.I @.@.c.l.l.l.] ' ] m.c.+.n.@.R +.+.x./ [ M.M.l.) R K ) ) IXIXIXIX",
"IXIXV.` z 1 1 z z z 3 t H J J u G S F J G x H R h H J L J ( J 5  .kXfXp.=.Y.(.*.. X i A y 6 i y y q 6 0 w * X         w A F F G J x K I B Y ) K 2 % % w w q q p i w w w i i 0 0 w i i w 0 0 0 i i i w i p q 0 i i i w 0 0 0 w w w i q 0 w i w w w 0 0 0 q i i i w 0 q w 0 0 w w 0 0 0 i i i q w i i w 0 0 i i 0 p i 0 q w 0 0 0 y w @ w t y w w 1 w w t p r 1 w q w w r y e e 1 t t r e i i p u t r r r t i r p 3 r t i i y w i t t t t e 3 w w t p p p t t r t t 1 w t w o 1 r 1 t r 1 1 y y t 1 e w w w w w w 1 w w y w 1 w w 0 0 0 0 0 6 0 0 y w w q i 0 0 i i i w w i i i 0 w w i w 0 w w i i i i w w i i i w : w : w r w ; 0 i 0 w i i 0 0 y w w i i i 0 0 0 y i i y w y i i w @ w p p i 0 0 0 i 0 0 0 p p i i i 0 w 0 w 0 6 w w 0 w w w w w 0 0 i i y w w y w w 0 w 0 0 0 i q w 0 i 0 i i t w w 0 q i i 0 w : r 4 . d X.6.V B M K U u D A o       @ w r 1 w * w 1 1 1 0 0 # w t $ & &.).kX(.b U ] @.@.( c.l.l.l./ ( c.c.@.] x.+.v.( ] l.' l.X.) I Q 9.8.X.N.IXIXIX",
"IXIXV.e ` 7.R t 1 1 t K K r t H S F S H J J J K B Y U L ) n l v vXiX<.;.y.d.Z o % M S q S y @ p y i q 0 w +       + w i p F F x N K J U W Q B 2 o w t ; 0 i i 0 0 w q w i w 0 ; 0 w i i 0 0 0 0 i i r i i 0 0 0 y r w i w i i i i i i i i i w w w i w i i p p i w w w i 0 0 w w p 0 w i w i w 0 p 0 0 i 0 0 i w i y w w w 0 0 0 w 1 w w y w w t w t w w t y w t w 0 w w e t e e e t t w i p u p e e e w p t p t w i r c S y y p t t w r w 1 e t i p p t w w y t t w y t y w y p y p t 1 w y w w 1 w w 1 1 w t t w t t t t e w t w 0 i 0 w 0 0 w w w 0 6 0 0 0 0 w 0 w w i i 0 + 0 0 0 i 0 0 i i 0 0 0 w 0 0 0 y i i w r r r r w 0 i 0 w y y 0 0 y w w i i i i i w w i i w q w w w w 6 0 i w i i 0 0 w w 0 0 i p i i w w 0 i i i 0 w i w y i w w i q i i i q w 0 w i i 0 0 0 0 0 i 0 0 i i 0 0 i y w w w y y q y ; ; 1 t 1 o g X.6.N t x L D H H p X       o 1 r 1 w : ; ; 1 0 0 0 w 1 t $ $ f.pXdX_.V 2 ( @.@.@.l.l.c.' l.c.+.( _ l.l.z.( c.] / ) W ` n.P.C.C n V.IXIXIX",
"IXIXZ.  ; t Q @.W N 3 1 p N K J G P G G K K L P p L F ^ ) , b iXhX<.%.h.aXC X 1 p q 6 p p ; ; 0 w @ y y X   O   # w p p H J H t h U B U Q K r 1 y t i p w i w w 0 w i i i i w 0 0 w w 0 0 0 w i p i w 0 i 0 0 0 i i i i i w i 0 0 i 0 w i i q 0 q 0 i 0 i i i 0 i i p p i w i i i y 0 0 0 i 0 @ q 0 0 i w 0 i i 0 0 i i i 0 0 i t y y t y 1 w e w e w w w w w t t 3 1 w y t t u 4 t 2 1 t g t y u u u u h t e 2 t t r r i r r x t r 1 w r t t t e w w w w 1 w t 1 1 t p t t y w t h p r t w w 8 w w r 1 w t t p w t y t r e r r i w i i 0 0 0 w i w 0 0 0 0 i i 0 0 q w w w 0 ; 0 w w w i 0 i i p i 0 0 0 0 0 i p c c r r r r r i 0 0 0 0 0 w i w w y i i q w i i 0 i w w w 0 w i i q 0 q 0 0 q w 0 0 y q i w 6 i y 0 w w w w y 0 i i i i i w i i p i i w i i 0 0 0 q 0 i i 0 i 0 0 w i i i 0 w 1 ; w y y w w y y i ; ; z 1 o 4 3.3.R N D D I x D i X         : ; ; : 3 : 1 w 0 q y 7 @ > . a y.).kXpXC > R @.+.( l.M.l.l.l.l.l.z.l.l.z.) ) Q ! 6.C.P.C.#.B n n N.IXIXIX",
"IXIXV.. > - o t ` 7.6.U t n M M P / ^ F J H L ^ P H ) W j C j.).<.1.,.J.3.X l c i ; 8 i w ; 0 : w @ @ X       + i p H F F U H U N n Y Q U 1 ; w r r i p i i i p 0 w i 0 0 0 w y w w 0 i y q i i i w 0 0 0 i i w i i w w w i i i 0 i 0 w w w i w 0 0 i w 0 0 0 0 0 q y i w i i i y i i 0 0 0 i 0 0 i y 0 0 0 i 0 ; 6 w i 0 0 0 0 w w w y w w w t 1 w 1 1 w 1 w 1 t t 1 w e w e t 4 t 4 4 4 t 1 3 u u e p j h t e p t t 3 r 5 3 5 r 3 3 t t t r 1 t 1 1 t t t r 1 1 1 t w w t t o w t t r t w 1 w w e e w w w w w w w 1 w 1 w 1 1 w 0 w w w 0 0 w y w 0 0 0 0 0 i w 0 6 0 0 0 i i q q y w w i 0 w 0 y i w 0 0 w i i w w w : w : r i 0 0 0 0 0 0 i 0 0 0 i i w 0 0 0 0 0 w y i i i 0 i w q 0 0 i p i 0 0 w i q w 0 0 w q w q w q w 0 i y 0 w w 0 0 w q 0 0 0 0 0 0 0 0 w i 0 i i w i w i 0 0 0 i i 1 1 y t w w q q p i w w t t 1 % < #.8.` U D P x A D i o     X X ; q w : ; ; w 0 q 8 y 6 y %   & (.).fXpXb #.@.P ( ' l.l.l.l.l.l.v.z.l.] W Q 7.C.C.C.#.v 5 z M h B.IXIXIX",
"IXIXB.  1 t . o - 5 K 8.n.~ B h D U K N I U F G H G W B  .`.dXp.Y.i.j.3.X 3 q c w t e o 1 ; : q e r X     O 7 F F F F H p p M Y N Y E K t o : i y i i 0 w w r ; 0 i 0 0 0 0 0 0 0 0 w p p 0 0 0 i w w w y i 0 i i 0 0 0 0 w y q 0 0 w w y 0 i i 0 w y i 0 i 0 0 0 0 0 0 0 0 0 + q i p q 0 i 0 0 0 i p 0 0 0 w y q q 0 i 0 0 i 0 1 w w w 1 1 w t w t w w t t t t w e w t r r 2 t 3 t z 4 t 4 3 t t r 4 4 t t t g h j t t 3 l 3 5 3 r 4 c t r r t p t r p p p 4 w t p p 1 1 p p t w w y t t w t w 1 w 1 w w 1 1 1 1 w w 1 w 1 1 ; i i i i i w y i w 0 0 0 i 0 0 i w 0 0 0 0 y w y w q 0 w w 0 0 0 + 0 i q 0 0 q 0 0 w w r t i i r i i q i i 0 0 i i 0 w i i w 0 w y q 0 i i w 0 w w i 0 0 y w i p 0 0 w i i 0 i i w w w w w 6 w w w i 0 0 w w q 0 0 0 0 0 0 0 w 0 i i 0 0 0 w i 0 q i i 0 0 w i 0 e i p t w 0 0 q p 0 w i 1 1 t 1   B #.9.E M J G L u h w     X   : : ; ; ; 1 8 q y q q y @ w w . f (.{.nXW. .! #.@.@.' { [ [ ( c.z.X._ E 6.w.0.9.#.4 > t M p e H V.IXIXIX",
"IXIXZ.. - 1 t 1 o ; o % K 7.n.W K U M n E J L P G _ n v L.dXY.<.R.d.V % M c r : ; t 1 1 1 ; : x 1 .       6 S F S F x M U J B g B ` B o 1 w q i w w 0 q 0 0 w w 0 0 w w i i i q p 0 0 q i 0 0 0 i i p q 0 0 0 0 i 0 0 0 0 w w 0 0 w i q w 0 0 w w w w 0 i 0 i i 0 0 i i 0 w 0 0 q p i p p 0 0 i p i 0 0 w 0 ; q p w i i 0 i i 0 w y y w 1 w y 1 w p e w > w r r 1 1 3 t t w 3 1 t n p 4 t t l z t t z 3 5 2 < p t r p x i l l z z t t t r 2 w p t 1 1 1 p p t p 1 1 t t 1 w t 1 t ; w p y w t t r w t w 1 w w e 1 w w e w t w y p p i y q q q w w i i i i 0 w 0 i w w w w i w 0 w 0 0 0 q w i y 0 i p 0 0 0 w w w 0 w w c i i : w i 0 i p i + 0 p i i i i i i i i i i i 0 0 0 0 w 0 + 0 i i i 0 i 0 q i i 0 0 @ w i i y w w i i 0 i i 0 p p y q i y p i 0 i 0 0 y w 0 0 i i i i 0 i p y 0 i i 0 w e w w w i y q y i w ; 1 w y w r > 5 3.6.N N z L L u r ; X       + 0 3 1 1 w q 6 7 7 q 6 ; y 1 . f T.sXfX(.s ~ @.+.l.[ l.' Q ( E ~ X.0.C.9.N d 5 e M M p H i h Z.IXIXIX",
"IXIXZ.  1 1 w 1 1 r 1 > . . p X.C.9.C n 4 U ^ L T R v k.dXp./.W.L.j o 4 r w x w u 1 1 e 1 1 w :         0 i F F G p p p M U N N E j > 1 r 1 w 0 7 q 0 q 0 0 w 1 0 0 q i i 0 0 i i w i p p y w 0 w i i i w w 6 q w i i i 0 0 0 0 0 0 i y i 0 w i i i i 0 0 i w i i 0 0 i w 0 0 i 0 0 0 0 0 i i 0 w 0 i 0 i i i p i i 0 w i i 0 i e w w t r w w w t r w 1 1 w t g t t e 1 i 1 r w r w p p x x c x c z z 3 z 5 z n t t u p t p e t t r r r 1 1 3 t r t t t t 1 1 x z 1 1 r 1 3 w p t r t t r w r x t w w t t w 1 1 w e w t w y t w 0 w i w 0 0 w i 0 w w i w 0 0 w q 0 i i w i i 0 i 0 0 i i w w i q 0 3 i 0 0 i w i w 0 0 i 0 0 i i i w y i i y i q i i y 0 0 0 q i i w i w 0 i 0 i q @ 0 0 i 0 0 i i p i y 0 0 i q 0 0 i i i w q 0 i i 0 i i 0 w p 0 w 0 q i w y i i i i w w y 0 w w 0 0 0 i i i r r w w y w i w q i S 0 0 i i q 9 i o v q.3.n R U L L y i r   O O   + w 1 1 1 1 w ; 0 7 0 7 ; : : . b ).sXhXi.Z ( G l.l.{ Y o.C 3.3.q.9.E M w e u h H H p H H U V.IXIXIX",
"IXIXZ.X w w 1 1 w 1 * 1 w 1 o > n ~ 0.N.! M h { P l L.aXT.=.<.r.= = 3 r ; 1 r i w 9 e * 1 w ;   .     ; p F F i F S c U U M K E B 4 w e r r q q S y q q 0 0 1 w 0 i 0 i p i 0 0 y w 0 0 i i w 0 0 0 0 w w w 0 q 0 i i i i w i q 0 0 i p i q i 0 w i i i i w w 0 i i 0 0 0 y w 0 0 i 0 i i i i 0 q w i 0 0 i q 0 q w y 0 w 0 0 i w 1 w w t r t e w w 1 1 1 w 1 1 e 1 t 1 w : r c i p A y r i : c c c t 3 3 l 4 4 t t t p u u u i t 4 3 r t 3 1 r 3 t w 3 r 1 w t t w r t t p t 1 w 1 y t w w y y w w 1 r y t w w w t t w t t w w 0 q w w 0 0 0 0 w q 0 0 w w w q w w i i w 0 w 0 i 0 i i i i i 0 w 0 : r w w r 0 i 0 0 i 0 0 0 i w w 0 i i 0 0 w w 0 0 0 0 i i 0 w w w i 0 0 i i i i 0 y i 0 w i w i i q i 0 w w 0 w i i w w w w i w 0 i i i w F q 0 0 i w i 0 i i 0 w i w 0 0 0 0 0 0 0 0 i 0 0 1 1 1 r w w i w y y i q q y w y S S e > n 3.#.N K M u D G w w     +     e e 1 e 1 w ; ; 0 0 0 0 q   . ..iXgXgXj.B P v._ Y E ~ 9.w.3.Z l 2 w u D D A A p H U x t V.IXIXIX",
"IXIXA.. w w w w w w 1 w t w * o .   > 9.C.w.~ B o 5.aXh.%.h.J.b . r x t t e r p 9 S u 9 y 6 .     O 0 A H p p i c H U M B Y Y B 3 3 3 w r w q q q q 0 q w i i p 0 0 0 0 p i 0 0 0 0 0 q q i q 0 0 0 0 0 w w w 0 0 0 0 w i 0 0 w 0 0 i i i i i i 0 i i i 0 0 0 0 w i 0 0 0 0 0 + 0 i i 0 i 0 0 0 0 y 0 0 0 i y 0 w w 0 0 0 0 0 0 r e t w y t t e 1 r t p z t r 1 1 1 r 3 t i i y w u p e e n l c i p S H p t < z 4 t t p p u u u t t t 4 4 1 4 t p 4 t t 1 2 2 t t 1 t r w t r 2 1 r r 1 w t t e 1 w w w w 1 e w t t w e y e t w 0 y i 0 i 0 0 0 i 0 0 i y w y w w i i i i i 0 i w i w i 0 i 0 0 w r ; w i i w q 0 0 0 i w 0 y 0 w i w w p q 0 w i w 0 w i p i i 0 0 w i 0 i i i w 0 i i w 0 # q 0 y 0 i w w w w 0 i i w q 0 0 w 0 0 0 0 i 0 0 p 0 6 w i i i 0 i i 0 w p w 6 0 q i 0 0 i i 0 0 0 w 1 w w w w w 0 i i i y y y i y 9 9 i o : Z 3.3.m t L I A A x ;         . e e 1 r 3 1 : : 0 r w ; w r . b dX^.dXaXC Y U Q 6.q.q.m 4 > > t t u S u S A S p M z 4 C.IXIXIX",
"IXIXV.  w e w w o w 1 @ * 1 1 p r r X   < 9.F.F.H.zXiX2.1.k.m . p c r w p t 8 u 9 S S S 9 X     X ; p L F i p U F M M M U E M * 1 t i r t w 0 r 0 q i i i w w w i 0 0 i i 0 0 0 i 0 w 0 i i i w 0 0 0 0 w y w w i y 0 i 0 0 ; 0 0 i w y 0 w i w 0 i i i 0 0 0 0 0 w q 0 0 0 i 0 0 0 i 0 w w w 0 0 w i 0 0 i p 0 i w q i i 0 w w t p t w w t r w t 1 1 t t p 1 1 t 2 r r c M c : m , % & > < < 5 p i u A p c p M 4 l 4 4 t p D u t 4 t t t r 4 t g w t p t r t w t t t 1 1 t r ; 1 t 1 r t p i t w e e t t w 1 w w w w w w t t w 0 w 0 i i i w q i i i 0 y w w w 0 w y 0 q w 0 y i i 0 0 0 0 i i : r w : i w q r i i 0 i i 0 i i w y w q i i w i i i w w q i y p i 0 i i i 0 i 0 0 i i w w w y w w 0 0 w i y w q w 0 i w w y w w w i i 0 0 w q y w q w q i i i i i 0 0 i w 0 0 q i 0 0 0 0 i i i w w w w 0 i q 0 0 0 0 y y q y y q 9 y ; 5 - l 0.~ B D L L S i p w         . w 1 1 1 1 1 q 3 w 1 i ; w + . 5.iXsXQ.Z o.! q.#.B > 1 1 1 i p p h S 9 S A p p x n 4 C.IXIXIX",
"IXIXZ.O w 1 0 0 0 0 ; 0 w ; 1 w 8 @ ; : .   j o.L._.<.p.j.Z o M l 1 1 1 r 1 * u 6 A u #         i A A F H H H M U M B K K M 2 o 0 c i w w q w i q q 0 0 0 0 y i i w i w 0 0 0 0 0 i 0 0 i 0 w i 0 0 6 0 0 0 0 0 i w w w 0 q 0 q i i w 0 0 0 w 0 i i i w 0 0 0 y 0 i i q 0 w i i i i i 0 i i i q 0 i i 0 0 i p i 0 i i 0 i 0 q w w w e 1 w t t w r 1 1 w t t t t 4 t x i y F t < > & v %.>.;.%.5 % % m h h h A t z 3 5 l 4 4 h h t 4 t t t t t 4 x t t p 2 t t 1 3 1 t r 1 t t 1 1 r r p x t e w 1 w t t w w w w r w w w r t t y 0 0 w i i y i p i i i 0 q 0 q w 0 0 0 0 w 0 0 i w w 0 0 ; ; w i 1 t : 0 3 : 0 w w i 0 i 0 w i i 0 i 0 q 0 i 0 i 0 w 0 i 0 q i w 0 i i i 0 i w 0 i i i q 0 w i w p i i i i 0 @ 0 0 i q 0 i i y q i p i w w i w 0 i w 0 i i i i i q 0 0 w 0 i q 0 i 0 0 i w i w i ; q 3 0 r r r r w ; ; q i 0 0 q i p 0 6 r > o m q.8.p p I H M p y w           w w ; ; : 1 w w * 3 * 0 F 7   y.W.Y.T.D.m N l + w p i u p i i t c u p z c c M c w V.IXIXIX",
"IXIXZ.o w @ @ 0 i i 0 0 w w ; ; 6 8 1 3 l ; . . k `.d.iXj.> l c x t t t 3 w w w w w 6       X ; F F A F x U M p B K W W M 3 1 r : r i w q ; w i 0 0 0 0 0 i i p 0 0 i i 0 0 0 y w 0 w i 0 i 0 w i i 0 0 0 0 0 q w q 0 i 0 0 w i w q 0 w 0 0 i 0 0 0 0 0 0 0 w i 0 0 i 0 6 q w i i 0 i 0 0 i i w w i i 0 0 0 0 i i w 0 i i 0 y 0 1 w w 1 w r t w w t t r t t t t < 4 i y y S > < & 2.JXLXLXGXvX{.} a & & j h u p z l l 5 4 t p g t 4 z t t t t t p 4 r 4 w t t r w 3 c 3 r p t r t r 1 4 r 1 1 1 w w r e r t 1 1 t t e 1 w t w w i 0 0 0 0 0 0 i i i i 0 @ 0 0 w 0 i w 0 w i i i q i w w q w w 0 i w ; ; r w w w 0 i w 0 0 q i i 0 0 0 i i i 0 w w 0 0 0 i i i 0 i 0 i 0 0 i i 0 0 w 0 0 0 w w 0 i 0 0 i i 0 0 q 0 i p i 0 q w w i q 0 i p 0 0 0 i w i w 0 i 0 0 y w w 0 w i p 0 w i q i i w 0 0 w r w q r i r : r w w r i 0 0 i i i i y w p 2 $ V q.6.B J J H F i u w         + 3 q r : o * * * 2 t : 0 S O . W.Y.~.H., l 1 w t w q u S p p c t i x z n c x x t Z.IXIXIX",
"IXIXA.X 1 - ; : q 0 : ; ; - : r u 8 - : q : 1 , a t.u.d.v > i F F h p w 0 3 1 ; ; o   .   . w p S F A F M h H B U E E M 2 1 t r q q q r 0 0 1 w w r i i i 0 w 0 i 0 i i 0 0 q 0 w i w q i 0 w w q i w i w 0 0 0 0 0 0 0 w w w y 0 0 0 i i i i 0 0 0 0 i 0 0 w 0 0 0 0 0 w w 0 0 0 0 i 0 w y 0 0 i w i w 0 0 0 w 0 i w 0 0 0 i 0 w w w w w y r 3 1 1 t 1 1 t r 1 3 1 w S S p o v 2.JXHXVXBXZXFXHXbX2.b , , g u p p c 4 l 4 4 n M z t l t t z t 4 t t 2 1 4 t t p t r t t r t t t t t 1 1 1 1 w w w y y w e w w 1 t r y w w t w 1 0 w w q 0 0 0 i 0 i w w q 0 0 i i i i i w i i i i i i i w i w q i r : w i i c w 0 p 0 0 0 0 i q 0 0 0 i i i w w i 0 y i p p i 0 0 0 i i 0 i i 0 i 0 i i w w w i 0 0 i i i 0 0 0 0 i i 0 0 q w q 0 0 0 0 i 0 0 i y 0 i 0 0 q 0 i w w w i i 0 i i 0 w i i i i 0 0 r i c 3 ; 0 w : r r t i i w y w t : p S y u u w X V C.~ B K H L p p p w     #   : 0 q ; ; w w * = w i q : O a kX<.<.t.$ e i r w p F p i p G c i r x M x x x x n Z.IXIXIX",
"IXIXB.  1 1 ; q w q ; 0 w 1 : w y w 0 + c r w o & J.d.y.s > i w u u w @ q q ; 3 - X       w H F A A c H M h U Y E Y n 1 ; 3 r r q q q i q q r w w w w 1 0 0 i i i w i i 0 0 i 0 0 0 w y i 0 0 0 0 0 0 0 0 0 i i i i i y w w 0 0 i 0 0 0 i i i i i i i i i q i i i 0 w i i w 0 @ 0 i i i i 0 0 0 w q 0 i i 0 0 0 i 0 0 i i w i i 1 w 1 e e t t 1 1 p p 4 r t t 3 t 4 r i S w % ..bXGXrX$X5X5XuXVXFXJX|.1.a a a g h z c t l z g t d t t 4 z t t t t n 4 1 t t t p t 3 t t t z 1 1 1 t p t t p w 1 1 1 1 1 1 w y w t i t t 1 w e w i i i i i 0 0 i 0 0 0 i i i i 0 i 0 0 0 0 w i 0 w w 0 0 0 i w q r ; ; i w w i w q i i i w 0 y 6 0 i 0 0 0 0 w i q i i w w 0 w i i i i w 0 i i 0 0 0 q p i q q i q w w i 0 0 + 0 i i 0 0 0 w w @ 0 i y 0 0 i i q 0 w p i 0 w w p q 0 i i 0 0 0 0 y w i 0 w i i 0 q r r 0 ; : ; : q r i w q : 0 0 r w i q 6 9 y i 3 X m q.~ g H P M x p i y     O   o q w 0 8 8 8 e @ + 0 0 . f dXh.p.s.. w J w t i H c i p c c c x c x x x G p w F.IXIXIX",
"IXIXA.. 0 ; w ; 0 0 0 0 w w w 1 w w 1 w ; r r - < J.d.y.a p 1 ; + p u w w y w +         q x G G p J N p M R E R M 4 ; r w 0 q y y q q p p i w i 0 6 0 0 0 0 0 i i 0 0 0 0 0 i y ; 0 i 0 0 0 0 i 0 i i 0 i i 0 0 0 i i 0 0 p p q w 6 @ w i 0 0 w 0 w i p i 0 0 0 p i i q i 0 0 0 i q i p i 0 w 0 0 3 x c w ; r w : ; : w q 0 w x w w w w w r i t w w t r t z r t x w q G F . , ~.hXCX$X#X&X5XXXXXwXCXFXBXU.b < 5 5 l p t t t g g z z 4 4 z z c n g 4 4 4 t t t t 3 w 1 3 t t x x x c w w c c w 3 c ; : x : w i : i c t w w r r i w 1 w t w 1 e i r w e r w w e t w t i e w w y t w 1 w w w t t y w r w 0 w i i i w p i 0 0 i i 0 0 p i 0 0 0 0 w i w i i q 0 0 i p i 0 0 0 i i 0 0 0 0 0 w i p i i i q q 0 0 0 i p i 0 q i i 0 0 i w q 0 i w w i 0 i i i y y i 0 0 0 q w i 0 0 0 i w y w 0 q i 0 ; 0 w w w w w 0 0 i i w 0 0 0 i w i i i y 0 0 0 0 r . N Z.3.M K x z x i x 0       O O w w w * w w * + 0 0 o < kXp.p.0.  p u h i h p t r t p x p p p p p r t t t 8.IXIXIX",
"IXIXV.X w ; w 0 6 0 0 0 w ; ; ; 1 w e w 0 3 q - , H.T.d.2 i i r @ @ * e t w @       + w i i p H U K M 4 M E E B 3 1 1 i i w y 6 q q i i 0 q i 0 @ 0 0 i i 0 0 0 i i i i i i i w q i i w i i i 0 0 i 0 0 y w i 0 0 i i 0 0 0 q q y q w i i y w i y 0 q w i 0 0 i i w 0 y i q w 0 0 0 0 i w 0 y 0 ; q r r q ; q 3 i w w ; ; ; 3 i w w w w w t y t t t t w t p 1 e p i q q i > k iX].CX X;XXX&X-X#X$XoXrXCXFX|.1.b , l 2 H J 1 r < c l z c z t 1 t t 4 4 4 4 t p t 3 r t r t t z x i x 3 ; r 3 : w t w w t ; w t ; r i c i i r w q w 1 1 y e w t i w 1 1 w t y w 1 w w w 1 y e y 0 e w y y w y y 1 w y w 0 i i w w 0 q y 0 0 i i i 0 p i 0 y i 0 0 0 q w i i y w w 0 i i 0 0 0 i p i y 0 0 y i i i w y w w i i 0 i y i w 0 0 0 i i 0 0 w i i q 0 w 0 i i w w q w w i w i i w y w i i w w y 0 0 0 0 0 0 w q w i i 0 0 i 0 q 0 0 y q w w i w i w q i r X 3 - B C.o.~ N z K c p x y   O   O 0 1 y w 1 @ @ 6 i S X % dX/.p.f.. h t i e p i y t i i p p p p M p p x t t q.IXIXIX",
"IXIXZ.o w @ w w @ 0 8 w 1 1 ; ; 1 1 w w ; w w o < s.j.d.< p x c r o + o 8 +       @ i F c p c J M M t t K E n : : 3 r w w y S q 6 y i 0 0 w i 0 0 i w y w 0 i 0 0 w i 0 0 0 0 0 i w 0 0 i i i 0 q i i 0 w 0 0 0 0 i i i 0 0 0 i w 0 0 0 0 0 0 0 0 i i 0 0 0 i i i 0 + p i w y 0 i 0 0 i q 0 w 0 w r r r t q ; w r w : w : r w : w e y t t w r r w e t 1 r p 3 p r r i 0 q o , ^.U.rX:X;X&X:X&X;XeX.XXX8XAXFXJXU.} k & = e H M 5 l 3 5 z c 4 p M t t p t t z z t 3 t t w : t t t p t r : 1 3 3 r w 3 w 3 r 3 r r 3 w r i r r w r t 1 1 w w w 1 1 e w t i i t e w w w w w 1 w w 1 y w y e w r r y 0 0 0 w i w 0 y 0 i i 0 0 0 w i 0 i i q q i 0 0 i 0 0 y i w i w 0 0 q w 0 0 i i i q i i w w w w w w w w i i i w 0 i i w i q i p w 0 w i 0 0 7 0 w w w y w ; 0 q 0 0 0 0 0 0 0 q w 0 w w q 0 0 0 q w 0 0 i i i 0 i 0 0 y i w i p r r w i i 0 y i r t 1 2 o m 8.! R x N M P L H i       @ @ i w @ * * w i p o , zX<.>.0.. M i i e p t y t i p i p p y i t t x r t C.IXIXIX",
"IXIXB.X w * w w @ @ w w 1 0 w w 1 1 8 1 1 ; 0 o > s.p.y.< x x x H r @           @ i c i i x U x M M M U R U 3 - 3 3 r w 0 y p q 6 y y 0 y i i 0 w i i w 0 i i i i 0 i i i 0 0 0 0 0 i i 0 y w i i p i 0 w i 0 0 0 0 i 0 0 0 i i w w 0 0 0 0 0 p i i 0 0 0 0 0 i i 0 + w i 0 0 i i 0 0 w w w 0 0 i c t w c r q w ; w w w i p i w 1 w r t e t e r w w 3 1 t p r p 1 t c w i 5 f E.}.CX&X;X:X;X8X*X:X5X5X&X$XwXCXFXJX1.} a & 4 3 t c l r c t g 4 2 t i t i t t 4 4 t x t 3 1 t t t t t 3 q w w w r r w i : x : r i w 0 : w r w w c p w 1 1 1 w w 1 1 w w t r w 1 1 y y y w w w w y w w w w w e i i w 0 0 w i 0 0 0 0 0 0 i i 0 0 0 0 i 0 0 0 w 0 i c i 0 0 i 0 0 w 0 7 0 0 i y i 0 i w q p p 0 6 q w y 0 q 0 i 0 i w w 0 0 i i 0 i p i i w 0 0 0 i i 0 i w w 0 q i i 0 0 0 0 0 0 i 0 0 0 w w q 0 i w 0 0 0 0 i w q w i w w 0 i i p p i w i i 0 0 w w r 1 r > $ N 7.` N M K ) K A A w O   + X * w o w p y w i 5 < pX/.<.w.. M i t p p w w t p p i p p p p i p M z t Z.IXIXIX",
"IXIXn.X * w w @ 0 0 0 0 ; 1 w w r 1 w w * ; ; o & D.y.&.m H x c x c x +       X w i c p M M N x M K R M p 1 ; r w w i i w w w ; i 0 0 0 i i w 0 0 i p i i w w 0 0 i i i w i i w 0 0 i i w 0 0 q w i 0 0 0 i 0 i i 0 0 0 0 0 w i w 0 w 0 0 0 i p 0 0 0 0 w w w 0 i 0 0 i i 0 0 i w 0 q 0 0 i i 0 r t : 0 t r : 0 r r : q : i c t e t t y t w e t t r t 1 t p 1 1 n t p i i > f !.U.ZX-X1X;X<XqX5X#X5XXX&X;X-X-XVXAXFX|.1.b % % 3 c 3 c z j h B M 4 l 3 c 3 r t t t n p r r t z t r 1 w 3 q r 3 q r c i : t ; ; w c w 3 r r q 3 c p w w w w t t 1 1 w w e w 1 1 w p y w w w e y w e w w w @ 1 y w i i i w i 0 0 w 0 0 0 w w 0 w w 0 0 0 0 0 0 0 p y w i i i 0 w q i 0 0 0 i p i 0 w 0 i p i q 0 w i w 0 0 0 w w i 0 0 0 0 0 i 0 0 i i q y w 0 i p w 0 i i i 0 0 i i i i i i w i p i 0 0 0 i 0 i i w 0 0 0 w w i 0 0 i i 0 0 0 q p r w 1 y i w 6 q w w t : 1 1 > M 8.8.K p H U h L I 8   O   + w t t F p q q : , (.Y.Y.S.. M i e p p t r p A p p A J h p i p x p t F.IXIXIX",
"IXIXb.  ; w w @ @ @ 0 w 1 ; ; ; 1 : * 8 @ ; ; ; < L.p.>.m G p p x p G 1       w y t p U J M z B N E K 4 > 1 1 1 w w w i i w w q p i 0 i i 0 0 0 q w i i w w q q 0 0 w q 0 0 0 i w i w w i i 0 0 w i i 0 0 0 0 i p w 0 q y w 0 0 0 0 w w 0 0 0 0 0 0 0 w i i i 0 i 0 i i p 0 i w i 0 w w 0 i i w r q w ; w w q 3 r r t w w w r r r w w w 1 w w r t 1 t w r t t r t w i q i % & ~.].VX;XXX%X:X-X9X#X:X:X&X3X-XXX*X5XVXSXZX}.%.a , v t l M t e h e z t l 3 l 3 i i t t t 1 r t t t w ; t r r r l r 3 t t ; r 3 ; 3 w w w i r r r r p y e r w w y w 1 w w w t w y t t w y e y w w y w w y y w w w w 0 0 0 i 0 0 0 i w 0 0 w i q w 0 0 0 0 0 i q 0 0 y w 0 w i w w w i i w w 0 i i i i w w q w 0 0 i i i w w i w 0 w 0 i y 0 0 0 0 i 0 0 w i i q w p i 0 0 i i w w 0 0 w i i i w 0 i i 0 0 w p 0 0 i i i i i w 0 0 i 0 i i w 0 0 0 i r w y i i i q y 0 c : r w o t . R N.8.M t K T ) H 8       # w p p i y y i + , dXY.p.S.. h i e p x p p p p p p p p i i e t M 4 1 P.IXIXIX",
"IXIXb.. o w @ * 0 0 w 1 w ; ; ; ; ; * w 1 ; w 1 $ L.(.r.< 0 p J G i F ;       i t w t B U M M R R R n r t p r 1 p w q w q i i w i 0 0 i i i 0 0 q 0 0 0 0 0 0 i 0 0 y w 0 0 w i i 0 0 0 w i i 0 i i w w w q 0 w i i 0 w w i i w 0 0 y i i w q i 0 0 0 0 i i i q 0 i w i i 0 i 0 i i i i i i i w r w w : ; 0 w : r r r r c w r : w e 1 t 1 w 1 r r 1 t t 1 t t t 1 3 i c x 2 a ~.I.CX%X&XwX8XqX+X:X;XqX-X-X3X3X*X#X$XyXSXCXbXU.} a $ > v n z x t t t 4 4 t l i l t 3 r t t t t 3 t 3 t i r 3 r r ; t w 3 r t i t ; 3 r r t i i t t t t w 1 1 w 1 w w 1 1 w w 1 1 w w e i y 1 w t w w y e y y t i 0 0 0 0 i i q y i i w 0 w q y 0 0 i 0 0 i i 0 i i i w 0 0 0 y i i i q 0 0 q i i i w 0 i 0 0 w i i i i 0 i q 0 0 0 i i 0 0 0 0 y q i w p i 0 0 0 i q w 0 i i i 0 0 i i i y w i i i i 0 q i 0 0 w 0 i i i i 0 0 0 0 i i w i q 0 0 t r r i y w q q q 0 0 x q - t 1   E 9.n.Q Y K B y * X   O @ r p p e w y i o s cX/.<.s.. p p e p p p i p p p p p i p x x M H t 3 P.IXIXIX",
"IXIXv.. w y w w w 0 0 w 1 w w ; : ; y e w w 0 1 > s.j.&.< i G p F c H 0       0 p r t t n B R E R t 1 1 w ; @ p i w 0 0 ; r t : 0 i 0 i 0 0 0 i @ 0 0 y w 0 0 0 0 i 0 0 0 0 0 0 0 0 0 0 0 i i i i i i w y 0 0 w 0 0 q 0 w i i i 0 0 0 0 q 0 q 0 i w y 0 0 i w 0 0 i 0 i 0 i i 0 0 0 y w 0 0 i w r w w w : ; w ; q ; ; : r r w w 1 w w w t p p t t 1 x p 1 r t r t i i q r % & E.I.ZX&X$X%X*X+X+X5XrX2X;X-X2X1X=X7X0X$X5XVXCXDX|.1.b , < , 4 x p p t t l z z c t z t 4 t t p c t 3 1 t t ; 1 t t w t t i r z x x 1 r t r w t i w w w e t w w w w M t w y t t w w y w w w w w w y w 1 y w 1 w y t i i w w p p 0 q 0 i i 0 0 0 i i p i 0 0 y i i i w 0 0 i i q w 0 w 0 w i i p w 0 0 0 y i i i w 0 i i 0 0 i i 0 0 w i w 0 i i w 0 w 0 0 i i i w y i p i 0 q p i 0 0 0 y 0 0 0 w 0 i i w 0 i i 0 0 0 q q i p i 0 0 0 w w y w 0 0 0 1 w r w q q q w i y 0 i w ; w t o $ B C.X.h t e i p #     w i x x p i i c : , zXp.p.S.X p M p p y r i p p A p u i i H x M M r o P.IXIXIX",
"IXIXn.X w * ; @ i w w # o w 1 ; @ 1 8 w w w 0 o % D.Y.>.2 A F U x x x q   X   w p t M g M N R R 3 > ; 1 w w w y q 8 q 0 ; w r w 0 0 0 i w q w y 0 0 0 i p i 0 i 0 i i 0 w q 0 0 0 i i q w i i w 0 w w w i y 0 y i w 0 0 0 i i 0 w i i w 0 i i 0 w i w 0 0 0 0 0 i i 0 0 0 i 0 0 0 0 0 0 0 q w i q l i r r c i r w ; w w : w t w 1 p r w t w 2 w 1 t 3 1 t x c 3 p n x i q > a !.I.CX-X3X-X+X=XoX<X4X=X<X8X7X7X@X@X#X;X:X-X2XVXAXCX}.-.b a 2 i p x x t g p 3 z t t t 2 r t t t p t t t z t t x M 3 i 3 1 p p r x w t p t t y w 1 t w 1 w t e t w 1 w e t t w y o t w w w 1 w y 1 w y t i i e u i c i i 0 0 0 6 q i i i 0 0 i i w p i i i 0 0 0 0 i 0 w w w 0 0 q w 0 i w 0 0 i 0 0 i 0 0 0 0 0 i 0 0 0 y 0 0 0 w i 0 0 i i 0 0 0 0 w i i i i w i w 0 i i i i i 0 0 i i 0 0 w i i i i 0 0 0 0 0 0 @ 0 0 w p i 0 0 i 0 0 0 0 0 0 0 w w 0 0 y i y q i i q y 0 i i w 1 2 > 6.7.4 4 t i u O   O @ w p t p r w F - , pX<.R.D.. p h p e r t p p y i e i p p i p t t i 3 P.IXIXIX",
"IXIXB.o 1 w w 0 w 0 w 0 ; w w 0 ; 1 w 8 w 0 0 1 $ s.d.r.j p c p x x x q       6 e i h p W Q N 5 1 ; - 1 w w y i q y q 0 0 ; : t 0 0 0 0 w 0 w w p y 0 0 0 0 q i i w w y w 0 0 q i i i 0 0 w i 0 w 0 0 0 i i w w w 0 0 0 0 i w 0 y w 0 i i w 0 0 0 i p i 0 0 0 i w 0 0 0 w i i 0 0 0 0 w w w q i r r i t r r l r r : w c w 3 w : w x p 1 1 w 1 ; i x t r t z t t 3 t r r c 2 , !.}.CX.X1X-X<X9X+X4X+X+X@X@X@X5X0X#X:X;X3X-XXX+X7XVXCXbXY.} f > > t p t i t p n p p z t 4 t t n p t t t t t 3 t i 1 t w 1 t t 1 t t r r t t t w 1 p p w t i r e t w w w w 1 r y w y 1 w w w w y w * w i i i i y r y i y 0 w w 0 q i i i q w 0 0 + i 0 0 0 0 0 0 0 0 0 0 0 0 0 6 q w 0 w w 0 w i 0 w i 0 w q i 0 i i w 0 i w i q i i 0 i i i 0 q i 6 q i 0 0 i i 0 i 0 0 i w i i 0 0 w i 0 0 0 0 0 q 0 0 0 y i 0 i q w q 0 0 i q i i 0 0 0 0 w i i 0 w 0 0 q i i y q q q 0 0 q q w t > . E 6.g p M h S O     o 1 t w e y p c X > pX/.p.0.. p p p p w r t t i i i i p p i t t t t t F.IXIXIX",
"IXIXA.o 1 0 w w 0 ; w 6 1 w w w 1 ; 1 e w ; w 1 < D.p. .t G p w x c x w       w w w 1 > ~ ! M > 5 ; : w 0 0 q p q q q 8 q w w w 0 0 0 0 q 0 w w i w 0 w i i i i 0 0 w w w w w i i i w y 0 0 0 0 q 0 w q 0 0 0 0 i 0 0 q w i 0 i i 0 0 i i i 0 q 0 0 q 0 0 + 0 0 i i i i i p i 0 i 0 0 i i y 0 i r t r w q r i c i w i c i w r w 1 t 1 1 w t t t w t w 3 t t i t t 1 r i p % & ~.I.CXXX,XXX<X<X,X4X,X7X0X,X=X4X,X9X;X-X2X1X<XOXXX1XBXAXCX|.1.s < > 8 p p p < 2 g t M n t 4 t t p t t t 3 r r r 3 r c t 3 t 3 1 t x t 1 1 t t t r y w 1 w w 1 w w t w w w t w t t e w w w 1 w y w @ w e i i t y w 0 w i w i w i i 0 0 0 0 w i y 0 0 0 0 0 0 0 0 0 i 0 w i w 0 0 0 i i 0 w i i i i i i 0 i i 0 0 i i 0 0 0 i i w 0 0 i w i 0 i i p i i w w 0 i i 0 w i q w 0 0 0 0 0 0 i w w q w i i 0 w w 0 w i 0 q w 0 w i w i i i w 0 0 0 i q i 0 w 0 i i y i q q y q 0 w q 0 w 4 1 o E 8.g M n H i O     @ : 3 y i w y p X < zX/.p.w.o p p p e t i p p p A p M h H M H M M x p F.IXIXIX",
"IXIXV.X @ * w 1 0 0 w w 1 w 1 w ; 0 y y w w 0 0 > H.p.4.& p p p x x M w       w D p w 1 K N 2 2 w ; w r i 0 0 w y q y y w t w w i i 0 0 w w y w w y w w 0 i i 0 q 0 0 0 w y i i 0 i 0 0 w i 0 0 6 q i p 0 @ q 0 0 0 0 i 0 0 0 y i 0 0 0 w y w 0 0 0 y i 0 0 0 0 i 0 i 0 0 0 i 0 i i 0 i i 0 0 i q q q : w r i r x : r r w r c i 1 1 1 t t 1 1 t t t t t t t c n 4 t t x i $ $ !.I.CX1X3X-X=X=X=X,X4X=X@X=X=X,X1X=X<X=X=X;XwX9X-X>X.X=XyXFXZX].b s % 2 e h N d g 4 z M t t z t 4 t t t t 3 t t t t z t t t r w t r 1 t r r 1 t p t t w w e w t w t 1 y t t w w t i i i u w w w e w w w y y i e e 0 i i 0 i w 0 i i i p i i i 0 0 w 0 i i i i 0 0 i i y i i i 0 0 i i q 0 i i y 0 0 0 y 0 i 0 0 i i i i i w 0 0 0 0 0 i 0 0 0 w 0 0 w w 0 0 w i 0 0 w y 0 0 i i i i 0 0 i i 0 0 i p i 0 0 0 0 w 0 q w w w i i 0 0 0 0 y 0 w y 0 0 y w w 0 w q y w y q y y w w w w 1 1 1 Q 8.1 t t h u       @ 1 t t p i q r o < pXp.<.w.. t i i w r t p p p p i D p p p p p M t 4 Z.IXIXIX",
"IXIXm.X ; 1 y y w 0 w w @ ; 1 0 ; q r w w w w o $ s.y.r.% p A G p p M w       u h u p e N M 5 3 r w i i i 0 0 0 y w w i c i w w 0 i w q w w w q i i 0 0 0 0 i 0 i w w 0 0 i 0 0 0 0 0 0 w 0 0 0 0 0 q i 0 0 i 0 0 q 0 w w 0 0 i 0 i i 0 i i i 0 0 w 0 w w i 0 i i i i i 0 0 0 i i 0 0 i w 0 q w 0 3 3 q r r r w r : w r w w r i 1 1 1 t t w 1 p t t t t t 3 1 4 3 z i c p , & ~.}.CX%X%X,X,X,X+XXX-X;X5X7X0X8X,XwX3XwX=X=X7X<XXX;XqXeXXX8XAXFXbX2.b < > > d < v g g p 4 t p g t t t t t t t t t t t r r t z p t w w t w r t r t p t w w e 1 w 1 t y w t r r w w p u t y w w w w u y w w t t i i i i 0 q 0 0 i i w i i 0 0 w i 0 0 i i i i 0 0 0 0 0 i i i 0 0 @ 0 i 0 0 0 q 0 0 0 q w 0 0 0 0 i i i i i w 0 0 i 0 i i 0 0 0 0 0 0 0 0 0 0 i i i w i i i i i i p w 0 0 i 0 0 0 i i 0 0 0 0 0 i i 8 i w y w 0 0 0 0 i y i q q 0 @ 0 0 0 0 0 0 0 0 w w w y i i 0 ; 0 w 1 K @.- 3 t p p O     # w t t t i i y + , _.<.<.0.o H u e @ y t x x i i i p i i t p p p t 1 P.IXIXIX",
"IXIXb.  ; w w w 0 @ @ 6 @ w 1 w ; r i * ; w w o % s.y.t.< H c w t t t w       w w u t w U R n r p w 0 y i i w r y q ; i p i q q 0 0 0 0 q w w w 0 0 i 0 q y 0 i i i i 0 0 0 w 0 0 0 0 i i i i i p 0 0 0 0 i i i w i w y w 0 0 i 0 i i 0 0 i i 0 i 0 0 0 0 w i q i i p i i 0 i y 0 0 0 0 0 ; 0 0 q q w r r : w : r q w r w : w w 1 ; r t r t n p t t 3 w t r w 3 4 3 t r c 4 & T.I.ZX-XXX1X,X,X,X3XqX<X=X@X,X9X9X1X+X+XOX7X9XwX;X7X7X;X$X#X@XyXAXCX|.1.b < > , g t p t t 4 g t t t t t t t 3 r 4 t 3 4 t t t t 4 t t t 3 t t w 1 t y 1 w r w r w i t w 1 1 w 1 r e p y w y e w y w t y y y i y i w i 0 0 i 0 0 p 0 i 0 0 0 i i i 0 i i w 0 0 i 0 i 0 0 i i 0 0 0 0 i 0 0 i w 0 0 0 i i 0 0 w 0 0 i w i i w 0 0 i 0 i 0 i i i w 0 0 i i i i i i y w w w 0 0 q 0 i i q y 0 w 0 0 i i y i w 0 w q 0 i i i w 0 0 0 0 0 i p i w w 0 0 w 0 0 0 0 w w w y w w t r r 0 ; w p ; N @.> 3 4 p p 7     @ r t t w y p c o s pX)./.5.  p p x U t p U M p i i p u p p x M M z t F.IXIXIX",
"IXIXn.. w 1 ; @ 0 6 @ 0 1 w 1 w w w 8 * 0 ; w 1 $ D.j.d.2 i p c p t y w       w u p p e J U z 1 r w 0 q 0 0 0 r w ; 0 w w 0 0 q 0 0 q q 6 0 w q 0 0 0 i i i 0 i 0 0 0 i 0 i i i q w y w i 0 i i p i i 0 i i 0 0 0 0 w w q w 0 i 0 w 0 0 0 0 0 0 i i w i i p y p 0 0 w i 0 0 0 q 0 i w 0 w w q 0 w r w r w w ; q i r r r w : w 3 r 3 t t 1 r p r t z t r t x p p 4 t t w p 2 & Y.I.CX3X<X<X;X+X,X-X;X<X=X,X@X,X,X,X,X<X=X*X&X;X=X=X=XqX;X9XOXXX*XrXAXBX].%.5 5 3 2 t t t t t t p z t t p c 3 w t p t t t t e t 1 t t y r t t 2 1 r t r p p t p p t e w 1 1 r r r w i y w r y w t * y i y w w w w w i w w i 0 q y p p i 0 0 0 0 0 w i i i 0 i 0 i i i 0 i i 0 0 0 i i w i 0 i i w 0 p i 0 0 i 0 i i 0 i 0 0 y i p 0 0 i 0 0 0 0 0 w w w q w 0 0 0 w y 0 0 0 0 0 0 i i i w w q i y w w i w i q 0 0 w i w 0 w 0 0 0 0 i 0 0 w i i 0 i q i i r w r r t w r w w y w w 0 F ; R 6.l 1 t p S O     o 3 t p w w i i o s fX<.p.N.$ H x e w y r p p p i i u p i p p x M x t P.IXIXIX",
"IXIXn.@ r 1 @ w q @ @ 0 w 1 @ ; w @ @ 8 w @ @ 1 % H.R.d.% i p H p t t ;       y D w t p K M 4 ; w 0 i y 0 0 0 q w 0 w w w 0 0 y i i i 0 w w w w i 0 0 i w w w p q y w i i 0 0 0 w 0 0 0 0 0 0 0 0 i i 0 i 0 0 i 0 i i 0 0 w i 0 i 0 i 0 0 0 0 0 0 0 0 q 0 0 i 0 0 0 0 i i 0 0 0 q p p i w i r ; r r w 0 3 : r w r 3 q t w w w 1 w 1 r p t t x t r r 3 1 3 t t 4 3 t i r e , & ~.I.CXqX<X=X*XXX,XqX<X=X-X=X=X@X4X4X,X;X8X1XeXwX=XOX#X8X=X-X*X=X+X+XqXAXFXhX2.b 5 , , d g p 4 1 4 p t t t p 3 r p t t p x t t t t 1 2 2 t t 1 w r 1 t w p t y e w w w 1 w w t t w y i w 1 y r 1 y w i p t 1 w w e w i i i i 0 i p 0 q i 0 i i i 0 w q y 0 0 i i 0 p i w 0 i 0 i i i 0 i w 0 0 i 0 i i 0 0 i 0 0 i i 0 0 0 w w q i 0 i i i i 0 0 0 0 i 0 i i i i 0 i w 0 0 0 q 0 w w w w i w w i w 6 w w 0 w q 0 0 6 w w 0 i 0 i i w w 0 0 w i 0 0 q 0 i i r y w e w w w w 1 w i i @ p ; R ` 3 1 t p S O     1 r t t y e y q X > j.=.Y.J.$ p p t ; t r p p D x p p A p p p p M t t F.2 IXIX",
"IXIXm.o ; 1 1 1 0 ; * w ; ; ; ; ; w w w * w @ o . s.d.r.% p p p M i t w       6 t y p p M U 4 - w w 0 0 0 y 0 0 0 w i w 0 0 i 0 0 0 0 w w 0 0 i 0 y p i 0 0 0 i w w 0 0 0 @ 0 i 6 0 0 0 0 i i w i i i w i i i 0 i 0 i i 0 0 i w w w w q w w 0 q i w 0 q 0 0 w 0 p i w 0 q w w i 0 0 0 q 0 i i 0 w t w 1 w w r w 1 w e w 1 1 w r 1 4 t w t 1 1 t w w t t 1 t 2 t 5 t c c i , & E.I.BX-XoX&X*X+X,X,X<X1X,X=X*X+X,X8X,X*X<X=X1X+X*X,X,X4X+X*X3X,X,X+XXX5XSXFXDX|.1.b , , d j e h p t w M M p p 1 * < p z p t t g g 4 d t 4 r w i c r t r w 1 1 1 1 ; 3 q 1 r r : i t 1 1 w e t w t w t t t w w 1 r i w w w e w w p 1 w e 1 w w e 1 r w 0 w i i i 0 i i i w i 0 0 i i 0 0 0 0 i w i 0 @ 0 0 0 0 i i i i i 0 0 i i 0 0 w w w y w i i 0 i p y 0 0 w i 0 i w 0 0 0 0 0 i 0 0 0 i i i 0 0 0 i i p i 0 0 0 0 0 0 i i 0 0 i 0 0 0 0 i 0 0 0 0 i w 0 @ 0 0 q w w w 0 0 i i y w o E ` 4 p p p y       ; r p x w y p p o > aXY.p.s.. p t i 3 p p p p i t t t t p H H x x p t V.IXIXIX",
"IXIXB.X 1 @ w w ; ; @ ; ; ; 0 ; ; 0 w * 1 1 q 1 > H.&.| < w i i M p p w       w u t t t M R n 3 w w q i i i i 0 0 i 0 0 0 i 0 0 w 0 0 0 i q w i 0 q q i 0 0 0 i i w 0 i w 0 0 q 0 w i 0 i 0 i 0 0 w 0 i i 0 0 0 w 0 0 i w y i 0 0 w 6 0 q w 0 w p i w 0 i i i i i q 0 y w 0 w 0 w 0 0 0 i w y 0 t t w e r t t r w w w t w y t y w t r 1 1 1 o 1 t t p w t t t 1 t t t w w > a E.].FX1X%X;X<XeX4X+X,X,X=X<X,X7X9X,X,X,X9X+X*X=X=X,X,X,X,X<XtX<X=X:X:X&X&XqXVXAXZX}.%.a % a j t p x i x M M g p p p z p 2 2 t j g t 4 4 4 3 r w w r 4 3 3 w 1 1 e 1 w : 3 i w w i r w y t t t w w w r y t w w t r r y w 1 1 w r 1 w r r r w t w w w w 0 0 0 i w 0 0 i 0 0 i 0 0 i 0 0 0 i i w 0 0 0 0 i 0 0 i i 0 0 i 0 0 0 i q 0 i i i w 0 0 0 0 0 i i i y i q w i i w 0 w 0 0 0 i i w i i i i i i i i 0 0 0 0 0 0 i 0 i i w y i i i 0 i i F p 0 q q y w 0 q 0 i 0 y i i y w w i u 1 o W @.t t y A p       ; r i x x u u p - < kX^.T.H.% h t c t x p p t r y t w y i t p H U p > Z.= IXIX",
"IXIXm.o 1 1 w 1 0 ; @ 1 w 1 w ; ; ; 8 w y w w 3 . H.j.y.g w p h p p M e       w p e t 2 M E n 3 w w 0 0 i w 0 0 0 i w y i 0 0 i y 0 0 i w i y w 0 0 0 p i 0 0 i i i w i i w 0 0 i i i i 0 0 0 0 0 0 w w 0 0 0 0 w i 0 i p q 0 0 0 w 0 6 w w 0 w q 0 q 0 0 0 w w p w w q i i y 0 0 0 0 i i w 0 0 r w w t t y w e 1 r w e y t e y 1 t 1 t 1 1 ; 1 t t t 4 4 p 1 4 z 4 r i i % & Y.I.CX-X1X<X<X,XoX+X,X7X9X7X<X=XOX=X+X,XqX=X=X,X=X9X,X1X8X*X*X=XeX=X;XOX:X6X5X6XAXFXbXU.} b & > M p w t t z n d 2 h g t 2 2 t t r p r y i i t t 3 t r t r r e r t r r w r 3 w i r w w 1 t y w w w t e w 1 2 y w e 1 r t w 1 w w 1 w e w t w w 1 e w 0 0 0 0 0 i 0 0 i w 0 0 0 0 i 0 0 i i i i 0 0 i w i w i i i w 0 0 0 0 0 w w i i i i 0 0 0 q i w 0 q w i 0 0 0 w i 0 0 0 i 0 0 i 0 w w 0 i 0 w 0 i 0 0 0 q i w q w 0 0 i 0 0 i 0 0 0 i i p i w y 0 w 0 w i i w w i i w 0 i w w u y o E #.2 r y A p .     @ w y i x y 8 p o 5 pXY.Y.w.o t p i c t r t y w t r w w t p x x M p t V.= IXIX",
"IXIXn.o 1 1 ; 1 0 : w @ ; 1 w w 0 ; 9 e i w 0 1 o s.pXu.o H J h p i p w       w t 1 y t M R t 1 w w i w w i i 0 i 0 w w 0 q 0 i i 0 0 0 i 0 w i i w 0 i i 0 0 0 p i 0 0 q w 0 i 0 0 w i i 0 0 i 0 0 0 q i 0 0 0 i i 0 0 i i + 0 q w w w i w 8 q w w w w i i y i i i w 0 0 w 0 i 0 0 0 i 0 0 0 0 e w w y w 1 1 w t w w r r t r t w t w t r t w t r r t 1 e t w t t t l c F > & T.}.ZX-X=X,X8X4X,X1X+X*X=X-X=X9X9X=X+X*X,X,X,X,X=X9X4X,X8X,X*XOX=X;XeX6X:X&X.X#X:XtXFXFX}.1.b < 5 t r p 3 5 g g d g j t 4 t c c w p i y p D j t p t t t w 3 w 3 w r 1 3 i q t c r r e w w y t y t t y w 1 w w e w 1 r t y w t r e w 1 1 w w 1 1 w i w w 0 0 i w i i i i 0 0 0 0 0 i w i w i 0 w 0 q y 0 i 0 0 i i i 0 i 0 i 0 0 y 0 w 0 0 0 i i p p i 0 w i 0 w w 0 0 0 0 0 0 i 0 i i 0 0 0 i 0 0 0 0 0 0 0 i p w w w 0 0 i i w 0 i 0 0 0 q 0 i 0 i i w w 0 i w 0 w w 0 q 0 w i i i e o W ! o t p S i       @ w w c i w w A > < aX/.Y.s.% p p i x 1 w e i t p p t t p x p p i p p C.> IXIX",
"IXIXm.X 1 1 1 ; ; : ; @ o w 0 ; w ; 8 w w w 0 ; % s.).i.. P K p t i p w       w w w t p U R z 3 ; 0 ; 0 0 i i 0 i 0 i i 0 0 0 w 0 0 0 w i 0 w 0 0 i i 0 0 0 i i q w w 0 0 0 0 w 0 0 0 i 0 0 0 i 0 i w y i 0 0 i 0 i 7 ; q w 0 0 w i y w y w q w i i i i p q q 0 0 i 0 0 0 0 0 w 0 y i 0 0 0 w 0 t y w r y 1 w t w 1 t t e r t t t t t 1 t w 3 e w w t t 3 t e t t t t c i > & ~.U.ZX-XXX.X<X@X,X7X=X,X9X7X=X=X*X8X8X,X=XqX7X=X1X=X=X9X=X*X7X<XOXOX;X;X8X7X5X:X&X&X&XBXFXZX].} v , , g h g M g n t h p p z z c 3 c i p p h u j j t t 4 4 r 1 w 3 1 3 t c 3 w i t t t y r t t i t w w r w 1 w w w w w i i t t w y y 1 1 1 1 1 1 t i i w i i 0 y 0 w i 0 0 w i 0 0 i 0 0 0 0 q w y i i w q 0 0 0 0 i 0 i i y q w i i i i 0 0 i 0 i i q 0 w w 0 w w 0 0 0 0 i w 0 0 i 0 q 0 0 0 0 0 0 i i w w y w 0 0 0 0 0 i i 0 0 i q 0 w y 0 w i i i i 0 w i w 0 i i 0 0 w i i i y w o W ` . i p p u X     o i i t ; i p y o v aX,.p.f.$ p M t c y t p p p p M p p p t i p p p w V.% IXIX",
"IXIXn.o 1 1 1 ; 0 ; ; ; ; ; 0 @ w ; 8 8 8 * ; 1 . H.j.4.% x H p p t p 1       w e e g t M K z 3 w 0 ; 0 0 0 0 0 0 0 i 0 i 0 i i 0 i w q 0 0 q w 0 i i 0 0 0 w 0 6 q 0 y i w 0 i w w w i i 0 0 i i i i i w 0 i i i 0 0 0 0 w 0 0 i i 0 0 w w w w y q w i 0 0 0 0 q 0 i w i i i 0 w i i 0 0 0 i 0 r t t t w y t i w 1 1 w w w w t t w t 1 t 1 r t t 2 p t t t t t 4 r t r w & a ~.I.CX-X,X;X*X,X,X<X*X+X=X,X<X8X8X<X8X<X,X9X=X=X7X*X=XeX=X+X<X9X8XwXOXOX9X;X&X7XeX;X&X#XyXSXAXbX2.} a $ d j M t t p h c l c c c i i r p g t e e u e w w r 3 3 r 1 w r i t t w r : w r w t r t y 1 w t t t w 1 1 w e w t t r w w 1 t w w w w w w w 0 w 0 0 w i i 0 i i 0 0 i i y 0 i 0 q 0 0 0 w w w w 0 @ 0 0 q i 0 w 0 i 0 0 0 0 0 0 w w 0 w i 0 0 0 q w w q w y 0 i w i 0 q 0 0 0 i y w i i w 0 i i w w 0 0 0 0 w i i 0 i i w w p i i 0 w w i w 0 w i 0 0 y i w w w 0 0 q w 0 y p e @ Q 6.> p e i y       ; w i z ; i i w . s (.$.p.w.o h h p i p p p p y t p p p p p H M p t y N.$ IXIX",
"IXIXM.X r 1 0 1 w 0 ; @ 1 w 0 ; w ; ; @ @ 1 ; ; > H.>.&.. A i u p p p w       0 p w e t M N t 1 p i i w i i i 0 0 0 0 i 0 i w i 0 w i w 0 w y q 0 i w 0 0 0 y q ; 0 0 0 i i 0 0 w i w q y 0 i 0 0 w w w i y i i i 0 i i i 0 i i i i w 0 q w w w w 6 w w i 0 0 i i w w i i p q 0 w i w 0 q i i 0 w r t w e r r t w 1 w w w 1 1 w 1 w r 1 t r r t r 3 t 1 4 g t t 4 t i p i > & Y.[.CX%X-X;XOX=X,X=X<X<X<X7X<X*X+X=X+X,X*X+XOX=X,X=X*X;X=XeX0X:X=X*X=X7X9X5X7X8X#X5X:X5X.X%XBXSXCX[.1.} & > e r c t l c t 4 z t t t t p p i w 2 2 4 t w 4 t t t t t t 1 t t t 1 3 w 1 1 w t y y o t i t y w 1 y r w 1 w 1 w y e 1 e r t w w t t y q 0 0 0 0 i i 0 i i i 0 q w 0 0 0 w 0 0 w w w 8 w q 6 0 0 w q w 0 i 0 0 0 w 0 0 0 0 0 0 i i w i 0 0 0 0 w w i w i i 0 0 w 0 y 0 i w 0 i i i w i q q w i w 0 0 y q i 0 0 w w w w y w 0 0 w y w 0 0 0 w 0 0 i i q 0 i 0 i w 0 0 0 u i o ! 6.- u e u y       o 0 0 x t u i i o , `.:.Y.H.. M i t q p p p t 1 r p p t p U J H r t t V.* IXIX",
"IXIXn.X 1 1 w ; ; ; ; 1 ; w 0 ; : ; 1 @ 8 w 0 o X s.(.j.. h t p i i M w       @ w * w t N W n 3 w 0 0 0 0 i 0 0 0 i i 0 i 0 i 0 0 i i i w 0 i p i i 0 w i w 0 0 0 0 0 0 0 i i i 0 0 i 0 0 i w 0 0 0 w w q i i 0 0 0 i p 0 0 w 0 0 w 0 0 w w q w w q 0 w 0 0 0 p i y 0 0 0 i i 0 w w q 0 0 0 w 0 1 w e t w r e w t w w e t y w w 1 t 1 t w t 1 1 t w t 1 w p t t z n c i u > & Y.I.CX3X-X8X8X<X=X*X8X,X*X<XwX8X<X7XOX,X<X+X+X9X,X9X7X7X*X7X:X*X7X7XwX<X=XOX&X=X=X5X:X5X6XXXOXeXVXFXbXI.} a , 2 t t r c l z n t 4 t p z c z l l 5 t t t w t t t t t r 1 1 c p r w e w w 1 r t y 1 p i t r 1 w w t w t w o ; t r 1 1 w w w w e e w i i 0 0 0 i i 0 0 i w 0 i w 0 i i 0 0 0 q w w q w w w w q 0 w 0 0 i 0 0 0 w i 0 0 y q w 0 i 0 0 0 i w q 0 i i y i 0 0 0 i i i w 0 0 i 0 i w q i 0 0 w i i 0 0 i w i i i y i w i 0 w q q w i i q 0 0 0 0 i i i 0 i 0 0 i 0 0 0 i i t - ` @.o p p y y O     o 0 0 r i i y w X v pX<.W.L.o x r c t p i p t y t p p i t i H U p t t V.> IXIX",
"IXIXn.  ; 1 1 w ; q ; ; ; o @ ; 0 @ w w w w 0 ; % s.d.>.d p w p i t i 1       w w 1 x 1 U E z > ; w i 0 w i i w q i i y 0 0 0 i 0 i 0 0 0 0 0 i 0 0 i i w 0 0 p 0 0 w w 0 i w q i 0 0 0 0 w i 0 y 0 w 6 0 i w i q p 0 0 i 0 i i i y i 0 i i i 0 0 i i i 0 0 0 0 0 w 0 6 q i p i i w w 0 w i i w w e t y w 1 w 1 w t t w w e t 1 1 r t 3 1 1 t t t e 2 r t t t t t z c p r % & ~.I.FX-X.X*X,X+X,X*X*X<X,X+X=X,X<XOXXX,X8X+X<XXXOX8X7X5X:X7X=X<X<X7X+X,X7X7X8X=X;X5X@X5X9XwX1XoX%XZXAXAXbX2.%.< > w w t g n 4 3 d 4 t 3 c z 3 l l p p 2 2 t r 2 r 1 t t 1 r t t r w w w w t t y w t w w e y t t t w t w t w r w r w w w 1 1 w t w 0 0 w y i i w w p i 0 w 0 w w w 0 0 0 0 0 w w 0 y y w i i 0 0 i i 0 0 0 i i i 0 0 y w w 0 0 0 0 w i i 0 0 0 i p 0 0 0 w i i q 0 w 0 0 i i 0 0 p 0 i 0 w i i 0 w 0 0 0 0 w i i i i + 0 i 0 i 0 w i 0 0 0 i w 0 y y q w 0 0 i 0 i u w o ` ` 5 i u w i .     o i w p w w w u * s aX=.p.D.o h e x i M p i i t t t i p t y t p M p p V.% IXIX",
"IXIXB.  : 1 1 1 ; ; ; ; ; ; ; 0 ; @ * 8 o ; 0 ; o H.j.r.$ F i p p p M y       w e 1 p 1 K Q p 1 0 w w w 0 w w 0 w 0 0 0 0 0 0 i i i i w i i i i i 0 w i i 0 0 i 0 y i w 0 0 i i 0 0 0 q i i i i i 0 0 w w i 0 0 0 0 0 i i 0 0 0 i 0 0 0 0 i i 0 i w i i i 0 i w y w w 0 0 i i y i i y w i i i i w w r t t w 1 w * 1 w 1 1 w t w t e w 1 1 1 w w x t t t t p p g 1 3 3 i i > & ~.}.CX&X*X<X,XOX4X7X<X=X+X,X,XoX*X7X=XtX<X8X9X9X,X.X=X=X8X<X,X=X=X*XXX+X=X*X@X@X7X6X#X=X<X<XrX3X%X;X8XVXFXDX|.-.< , 2 4 n v 4 4 t 4 z c c z 3 c c z M r 1 t t 1 p 3 t p t 1 1 r 1 t t w w w e t t e w t t t r t w w e w y t w w 2 w t e w w 1 w 1 w w 0 0 0 0 i 0 q 0 0 y w q i i i i 0 0 q i i 0 w i i i i i w w i 0 0 0 i 0 0 0 0 w w w 0 0 i i w i w w 0 i q w 0 0 0 y i i w i i 0 i i 0 0 0 i i i i i w w 0 q w 0 0 i i i i i i + 0 w 0 i 0 w i i i i w 0 0 0 0 0 0 0 0 0 0 0 i w o Q ! 1 t i u w O     @ i i i r y 9 i o < pX<.T.G.$ t u i i i t t i p p p p p t t p x p i t Z.* IXIX",
"IXIXm.  1 ; @ o 0 0 ; ; 1 @ ; 0 w ; 8 * 6 w w 3 o H.W.j.o F h p t t p w       w t w p 2 K Q z - w r i w i w y 0 i 0 0 0 0 w i i 0 w 0 0 0 0 0 0 i 0 0 i i i 0 0 i i i w 0 0 i i i 0 w p i i 0 0 i 0 0 0 i w 0 0 0 0 q 0 0 0 0 0 w q 0 0 0 w w 0 i 0 i i i i i 0 0 w w w q w w w w 0 0 q 0 0 0 0 e w w w 1 w w w w w y w w w w w t 1 1 1 t t t t t t t w t t M n 4 3 r i p > & E.I.CX;X;X<X<X@X9X7X,X<X<X,X<X,XqX9X*X=XoX.X*X8X7X7XeX,X7X+X,X4X8X7X=X7X9X9X9X7X@X0X@X=X8X1X<X1X1X:X:X:X:XZXFXbX].} k & a , 1 t 3 3 l 3 c c t t r t n z p M t 2 t r t c t r r r t w e t i t e w 1 w w i i y t w w w e r w w e w e w e r t w t w 1 i i 0 0 0 i i 0 0 0 i q i y i w 0 i i 0 w i i 0 0 w i i i i 0 0 i i q i i i 0 w 0 0 0 0 0 0 0 i i 0 y q i i y 0 0 0 i i i i i w i i i i 0 0 0 y 0 i 0 0 0 w 0 0 y i w i i i w i 0 0 0 w i i q i i 0 i i 0 0 0 0 0 0 w 0 i 0 0 0 u t - ` ! - t u S y       + i p w w w y w o < pX:.Y.D.. e H i i p t r t i t p t t w i x H i t t F.$ IXIX",
"IXIXn.. 1 @ @ w ; w 1 ; w ; @ w w ; w 8 * w w 1 o s.j.j.% p p h y t M w       w t w p 1 M R z - w w w 0 0 0 0 0 0 i w 0 w w 0 i i i i 0 y i i 0 y w w q 0 w i i i i i w 0 q 0 i i i 0 y i i 0 i i q 0 0 0 w 0 i i y p 0 0 i 0 i i w w w q y 0 0 i w 0 w 0 i i 0 0 0 q w w w w w i 0 i i i 0 w i t w w @ 1 w t t t y t t w 1 w r t r r 1 w t p t w w 4 t e r t t 4 z c t p > & E.I.CX%X.X;X8X,X+X,XOX,X<XOX+X=X,X,X*X<X7X=X7X<X*X<X8X*X=X*X9X,X,X;X<X7X=X=X7X=XoX7X7X7X7X,X+X+X<X5X#X:X:X6XVXSXAXhX/.} k & d B p x c 3 l p M h t t t t t p t r t t t 4 t t p t t 1 w t i i t w w w w t t w w w e r w 1 t t w r w 1 w w r y t r y q w 0 i i i 0 0 i w i w i 0 w i 0 i i w w i i y ; y i 0 i i w 0 w w w i 0 i i 0 0 0 0 q 0 q i i i i i 0 w w 0 0 i i i 0 0 w 0 0 0 i i w 0 i i 0 w i i 0 w y 0 i w 0 0 0 0 i i 0 i i i 0 i 0 0 i 0 0 w 0 0 0 w i w w 0 i 0 0 i i u t 1 ` ! o e p S w       o i c x i i p u : < aX:.g.S.. t D x i p p r w w w y e y w t x p p y t Z.* IXIX",
"IXIXv.. 1 o ; y : 0 ; ; 1 ; ; ; ; 0 w w 6 1 0 ; . S.j.y., p A H p p M w       w t e t 1 M R z > w w 0 0 0 0 q w w i 0 0 0 0 0 i i i i 0 0 i 0 0 0 0 0 0 0 y w i w i i w 0 0 0 0 i 0 0 0 0 i w p 0 0 0 @ 0 0 i 0 i w i w i i 0 0 i i w w w w i 0 0 i y w 0 i i 0 w 0 w 0 w w w y 0 0 0 w 0 0 0 0 t w w 1 1 w r t 1 ; w y t 1 w t t t r 1 3 1 w 1 1 t t t t 1 t 1 t t c c i % a E.U.CX1X%X;X*X,X,X<X<X,X,X9X<X*X7X<X+X<X7X<X<X,X=X*X=X,X1X8X9X,X,X=X<X8X<X=X,X8X8X@X,X7X@X,X7XuXuX5X#XuX=X@XoX0XVXAXZX}.-.b , = 1 x x t t 4 4 n g p g 3 2 4 t 4 p t t t t t r 3 1 p i t y y w p p y 1 w t r r e w w 1 w t t y w e 1 w w w t t t t 0 w q y i w 0 0 i w w 0 q w q i 0 0 i w w i i w q y i 0 0 i 0 0 i y 0 w w 0 0 0 0 w y 0 w i i p i i 0 0 w i 0 0 0 i y w 0 0 0 0 0 i i 0 0 i i w i p i q i w 0 0 i 0 w 0 i i 0 0 i i 0 0 i 0 0 w 0 0 0 0 w i i i 0 0 w 0 0 0 0 0 e e 1 Q Q o t u p y       o w i y w 8 w u . , (.T.)._.% p p p q p p y w w y e w t w w p H p t e C.% IXIX",
"IXIX7.X w ; o t ; ; @ ; w w w ; ; ; 8 w * * 0 o o J.j.>.5 i L h p p p 1       y u e r * x N z - i i 0 0 0 0 w i i i i i w 0 0 0 0 0 0 0 0 0 0 0 0 0 0 0 0 0 0 0 i i i i 0 ; 0 0 0 0 0 0 0 0 y q 0 i 0 q 0 0 w 0 i w 0 0 i i 0 0 0 0 0 0 w w i p 0 i i q 0 0 i 0 i 0 0 i q 0 0 w p y p i i i i i w w e t t w w e 1 1 1 w w 1 w e w t t t r 1 1 t 1 1 t p t t t 4 3 4 t i w & & ~.I.ZXXXOX<X&X=X@X*X=X,X,X,X<X=X8X=X=X,X9X<X<X=X1X7X<X,X,X,X+X,X8X,X=X*X8X,X*X;X8X<X+X<X8X7X8X0XuX5X7X0X5X4X4X4X@X#XyXAXbX^.} a d 2 2 4 g v t < n z g t t t t t e t t z t r 3 1 t p i t t t r t t t 1 w t i t r y 1 w e p p w w 1 1 1 1 w w w w t w i w w w w i 0 i i i 0 0 w i i 0 0 0 y q i w 0 w i 0 0 0 i w 0 0 i w 0 0 0 i i w i 0 0 0 w i 0 w 0 0 0 w i p q 0 w 0 0 i i i 0 0 w 0 0 0 i i i 0 i w y i q 0 0 0 0 i i i i i 0 0 i 0 0 0 0 i i p i 0 0 0 i 0 q 0 0 y q i 0 0 0 w y o ` ! % p i u y       + w w r i S u i o l pX:.p.S.. p i F p r e t i t t t t t w e p x M p t Z.& IXIX",
"IXIXn.  1 1 w w ; ; @ o w 1 w w ; ; w e w w w - o H.j.&.% q h e p t i ;       w t w 1 % H K n o w ; 0 0 0 0 q 0 w i y i i 0 0 0 0 i i 0 0 i q w i i i 0 w 0 0 q w i w i 0 0 0 0 0 q w 0 0 0 0 0 q i q i p 0 i 0 y p 0 0 0 w w i 0 y w w y w i i i 0 i i 0 0 i 0 i 0 i 0 w q q w q q i 0 w 0 0 0 ; w e t t w w 1 w w w e y w w w w 1 1 r w 1 r t 1 r 1 t t p p t 3 t i r i = & E.I.CX-X1XqX*X9X7X,X*X<X<X+X=X,X=X,X8X+X+XXX=X=XwX,X+X,X+X8X+X,X9X<X=X*X8X8X-X=X;X7X*X5X8X=X:X7X7X;X+X@X,X=X=X-XOX@X,XeXAXZXhX2.b f , 2 p n p 3 z p t n n t t t 1 t t t t t t p t w t r i p t w w t 1 r p t e i t t w w t t w 1 w y 1 w w e w w w i i 0 0 0 i 0 0 0 y w 0 w i i p w w 0 q i 0 0 0 w w 0 0 i 0 0 0 0 0 0 0 i w i i 0 0 0 0 0 y q i 0 0 0 w i i i 0 0 q i 0 0 i w 0 0 w q w w y i w 0 q 0 i p i w y 0 i i q p y w 0 0 0 0 0 i 0 i 0 i q 0 0 0 i i 0 w i 0 i i i i i i e ; Q ! 1 i e i r       o w w r r u y y X s pX<.p.S.% h A i i r t t t i i i t w e p p p H p t Z.> IXIX",
"IXIXn.  1 1 w o w w ; 1 w w w w ; 1 8 w w r w 1 $ H.j.y.2 w J H p p p w       w t y 1 ; N R M o w 0 0 0 y w 0 w w q 0 0 i i 0 0 0 0 w 0 0 0 i p i 0 0 0 i p i 0 0 0 i 0 y w w i 0 w i 0 0 0 i i 0 0 0 i p 0 i i q p 0 i i 0 i 0 i 0 q w 0 0 q i w 0 0 0 0 i i 0 i i 0 i w 0 0 i 0 0 0 0 0 w 0 0 @ 1 w w 1 w w w 1 1 1 w t t t y 3 1 1 1 1 1 1 4 p p t 4 t t p g 4 t t p i > & W.I.CX&XXX=X+X9X+X,X=X*XOX,X9X,X,X+X9XwX*X9X=X7X,X2X,X,X,XwX,X8XtXOX=X-X*X*X*X9X7X<X5X=XOXOX*XOX;X7X<X=X7X*X1X1XqX=X@X7X8XVXAXBX}.%.b a , j M t M n M p p 1 4 M g p t 1 w t M p 1 t u e t t t w 1 p w r t y w t p t w 1 w 1 ; w w w w t t t w w e i i i 0 0 0 0 0 0 w i i i 0 0 i p 0 0 w i w 0 0 0 0 0 0 i i 0 0 0 0 0 0 0 0 i w 0 0 w q w i i i + 0 0 i w w 0 0 0 i i i 0 0 0 0 i 0 w 0 0 0 0 0 0 0 i w i i 0 0 0 0 0 0 0 0 0 i 0 i 0 i i w i 6 0 0 0 0 0 w 0 0 0 0 0 0 0 0 i p r w o Q Q > w 8 w y       ; r w w w y u i - < aXp.T.w.. t u p H i p t y t t t y w r p p p p i 2 Z.> IXIX",
"IXIXn.X 1 w w w w 6 w w w 1 ; ; ; ; ; w w w 0 1 % J.y.i., A c H y p p e O     w w w p * M N M 1 ; 0 w w i 0 0 0 p q 0 0 q p i 0 p i 0 i i w i w 0 0 0 0 0 i p q 0 0 0 0 0 0 0 0 p 0 q y 0 0 p 0 0 0 0 i w q i i w w 0 0 i i i 0 i w q y 0 0 0 0 i i w 0 0 w i i y 0 i p i i 0 i i 0 0 w i 0 0 w i y w y e p i w w t w w t t w 1 r w 4 t r 1 t t t t t t t t t M 4 p t t 1 > & g.].CX2X+X*XOX*X1X=X+X+X=X7X,X*XOX8X+XOX&X1X*XOXwX7X,X+X=X7X,X+X<X8X7X7X9X8X=X=X,X<X;X+X+X8XeXwX=XXX,X<X9X=X=X*X<X*X*X-X1XXX3XVXCXNXI.b s s 2 e h z c p n 1 > n e t p e y F p 1 p t u u 1 1 1 5 3 w t i w w t i e r t t y y i t t w w y r i w * w w 3 q t i t w r i i w w 0 y i 0 i i i 0 w 0 w p 0 0 0 i i i i i 0 0 w i i 0 0 0 0 0 7 w i 0 w 0 i i w 0 ; 0 w q i i i i i 0 0 i 0 0 y i w i 0 0 0 0 i 0 w i i i p i q 0 i 0 q 0 w w i 0 q y i 0 w w 0 0 0 i p q 0 q q w w 0 0 i i w . R ` o 3 w w u       X y r 0 i 1 @ i > < `.$.p.L.o n p c i p t w t i p e i p p p H p M x t Z.% IXIX",
"IXIXv.. @ 1 @ @ 0 6 @ w 8 ; ; ; ; ; 8 w w ; ; 1 o s.j.r.d F i F i h x w       w 2 1 p w N Y M * ; 0 @ 6 0 0 0 0 i 0 y 0 i p i 0 i 0 0 0 0 i q i 0 0 0 0 0 p y p 0 i i i i i i 0 i 0 i i 0 0 i 0 0 q i 0 0 w i i 0 0 0 0 0 i i w i 0 0 w w w 0 0 i i i 0 0 0 i w i 0 0 0 0 0 0 y 0 0 0 i 0 i i i p i r w y i r w w t w w w e y t t 1 w r t 1 1 t t t t 3 4 t p p g p t r 4 , & g.}.FX2X+X1X,X<X8X=X,X<X7X8X<X,X=X,X+X,XtX7X7X=X,X*XOX<XqX=XXX+XOX-X,X1X+X&X<X7X,X,X,X<X<X,X=X=X,X8X7X*X=X,X8X,X<XeX-X-X-X*XoX1XeXAXCXhX2.b a & 2 w j n z t 1 r 3 p M i t x t t c e e t 3 r t c i t i r t r r t t t t r t t e i e 1 1 w y i u 1 w w w : q r i : w 0 0 i w w i i p 0 0 0 y i w 0 i i 0 0 0 0 0 i i 0 0 0 i i 0 0 i 0 0 0 i q 0 w w q y 0 0 0 0 w 0 i w i w 0 0 0 i i i q i 0 0 i w y q q w w i 0 q 0 q 0 w i i 0 0 w w i 0 0 w w 0 0 i i 0 0 i i 0 0 w y w 0 0 w i i w o ~ @.> t i w u       @ i i c x w t p X d zXp.R.J.. t t i y i w 1 w i i p p p p h p x M p t Z.> IXIX",
"IXIXb.X ; w w @ 0 0 @ 0 ; ; ; ; 1 ; 8 8 w w 0 1 % f.d.>.2 p c x A p n w     . w r 1 i w N E N 1 t w 0 w 0 i 0 i 0 0 w 0 0 0 w 0 i 0 0 0 0 w i i 0 0 w 0 0 0 q i 0 0 0 w i i 0 i i i w i 0 i p q i 0 0 0 0 0 w w 0 0 0 0 0 i i i 0 0 0 0 0 0 0 0 i i w 0 0 i w i i w w i i 0 0 i 0 i i i 0 0 y i p u r r y t e w w t w 1 1 w w t t 1 1 1 1 1 w w 1 t r 1 e p p t t t r t t , , j.I.ZXXXoX+X,X+X*XXX*X*X*X*X,X<X<XeX<X+X7X=X8X<XOX=X=X<X=X1X+X=X=XeX9X<X,X=X+X*X=X7X=X<X<X<X=X,X9X,X,X=X=X*X<X<X,X+X*X9XwXwX%XXX3X2XBXVXZX].| k & j e 4 5 B c c x p n g d t z t n p x t t 4 t t 3 i r y p t r r t w t w e r w i w 1 1 1 * w p w w i r q 3 r r r : 0 0 i q 0 0 i i 0 0 0 q i i 0 i i i i 0 0 0 0 i 0 y w i i 0 0 0 i 0 0 0 0 i 0 i w w 0 0 0 0 y 0 i i 0 w 0 0 0 w 0 0 0 0 0 0 0 0 i 0 0 i i i 0 i 0 w q w p q 0 0 y 0 0 i 0 0 w 0 0 i i w 0 0 0 0 0 i y w 0 i q i y y @ E ! > p u p S .     . y w i p 8 e w X s pX;.g.D.o p t i p p t e r y t u p i i p p t t p 4 V.= IXIX",
"IXIXn.X @ 1 8 w 0 0 0 @ ; ; ; ; ; 1 w 8 w 1 0 o > J.d.y.5 i x i D M M r       w t 1 e w U K B w i w 0 w i i i 0 0 0 i w 0 0 i y w y q 0 y 0 i 0 w i i i i 0 0 i 0 0 i i w i i 0 i 0 w 0 0 0 y p 0 i 0 i i 0 i 0 y w i 0 0 0 i i i i i 0 0 0 0 0 0 0 0 0 0 0 i i w q i i i w 0 q 0 i w i 0 q w w p i i r i t t w w e w 1 w 1 1 y t 1 r r t 1 t t r t t t 4 t t t 2 r t t 4 , , Q.I.ZX-X=X4X8X<XwX=X=X<X8X8X<X=X*X+XwX1X7X<X,X,X8X9X<X7X*X8X,X9X7X*XOX*X<X7X<X<X<X9X8X=XOX*X,X,X+X+X*X<X<X*X*X,X=X=X=X=X=X9X3X3X1X;X;XeXAXZXbXY.} & & s < l l l c t t n d < 4 n t 4 4 4 t t p c i t y t i t r 3 t 1 p w t t w t w 1 w w @ y t w y i r r q r r r r 0 w i i i 0 0 0 i 0 0 0 w i w q 0 w i w q 0 0 w 0 0 0 0 0 w w w 0 0 0 w i p 0 0 0 i w w i i i 0 0 i 0 i i 0 i i i w p i 0 q i p 0 0 p i w 0 0 p w w 0 6 0 i 0 0 w 0 0 i 0 0 w i i i i w 0 0 0 0 0 w w w 0 i i w y t o Q ! > t p i u       ; r r w p e 1 3 o s `.| T.J.% M w 0 w H M p i t y i i u i p H x M x t V.> IXIX",
"IXIXv.X o 1 w w w 0 w @ @ @ w ; : 1 1 * 0 ; q o % J.`.d.& y x x p H M 1       1 t ; u w N U M ; w w ; w i q 0 0 0 0 i 0 i i i w w i 0 i i i i 0 0 i w i 0 0 0 i 0 0 0 0 0 i i w 0 0 w i 0 0 0 0 i i i w i i w i 0 i i w 0 i 0 i i 0 0 0 0 0 0 i i 0 i 0 0 i 0 0 0 y q p i 0 0 w i w i 0 0 0 i 0 y w 1 w w w w w w y w w w r w t t w r t t t r t 3 t t p p t t p t t t t 2 > & T.I.CX:X+XoX@X-X8XwX<X,X,X<X,X7XwX,X<X=X=XwX,X=X+X,X*XwX7X=X*XwX*X=X7X9X<X<X<X+XoX<X8X<X=X+X=X=X=X8X<X,X,X=X1X,X-X;X;X8X9X5X0X8XoX:XOXoX;XBXAXZXbX%.b s > 5 c 3 3 4 4 v t < 4 n t l l l 3 3 t x p e i i e w r r 3 w t t t r w t t w w t y t y w r : r r r 3 0 q w i i i i i 0 0 0 i w 0 0 y i 0 0 0 i i i 0 0 w w w q 0 i 0 0 w i 0 0 i 0 i i 0 0 w i i i w w y i 0 0 i i 0 0 0 i 0 0 i y 0 0 i i 0 w p i y i y w i i 0 0 i 0 0 0 i 0 0 w i w i 0 w y 0 0 6 q 0 0 0 w 0 0 0 i 0 0 y e o Q ! - t i y i     X @ w w i c t t r . d pX;.j.s.. h h A F i i t y w w w t r t p p p x x 4 C.= IXIX",
"IXIXv.X @ w @ ; 0 0 8 0 w 1 ; ; r w w @ @ ; 0 1 $ s.j.>.2 p x i p A x t       w t 1 e w N N M - r w 0 w i i p i i i i 0 0 i w 0 0 i i i 0 i w 0 0 0 w 0 i w i 0 0 0 0 i i w i 0 0 0 0 w w i 0 0 i 0 0 w 0 0 0 0 0 q w i w 0 0 0 0 i w i y i p i i 0 0 0 i 0 0 0 i 0 0 0 0 0 w i i 0 0 w 0 i i 0 w w w w w 8 1 1 t t 1 1 e w w t t 1 1 t t w r t t 1 t n p 2 2 p p t 1 t t , & g.I.CX;X-X+X=X+X*X*X*X<X8X8X=X=X=X7X=X8X,X*XoX<X<X,X*X<X,X<X=X<X+X,X,X<X<X<X7X=XOX=X=X<X7X7X=X1X8X7X,X,X=X7X7X7X=X8X5X7X5XoX+X7X8X8X7X=X1X:XqXVXAXZX{.%.k % > l t l 3 l z < g h t l l z l 3 1 r w u p p w 3 t t t t t p t t t t i w t p p p r @ y w r i : q 0 ; w i w 0 y i 0 i i q 0 0 0 i 0 0 0 q i i 0 0 0 w i i i w i i 0 0 q 0 0 w w i i 0 @ w y w q 0 0 0 i 0 w i p i 0 0 i 0 0 w q 0 0 0 0 0 0 i 0 w c 0 0 i i i w i i 0 i i 0 i i w 0 w q w i q 0 0 0 w q w i i 0 0 0 0 + w t . ! ! 5 p h u p       - w 0 w i r w r o f _.>.W.D.. p t p i u p t w w 1 y p i y t p p z p 1 N.o IXIX",
"IXIXv.X w 1 6 6 0 0 0 @ ; w 1 @ w w w * 6 w w ; > e.u...2 p M i D D x w       w p 1 t o B K N ; w 0 q q w 0 0 i i i 0 0 0 q 0 0 0 i 0 w 0 i 0 0 0 i q 0 0 w i 0 0 0 0 y q i i i w q 0 0 i w 0 i 0 i 0 0 0 0 0 0 0 i w w 0 y 0 0 w w 0 i i i i w 0 0 0 i w q w y i i 0 w i w i i w 0 0 i i w i i w w e y w w * w w w 1 w w 1 w t t 1 1 1 1 1 1 t r r t p p w t t 4 t 1 t t , , R.I.CX3X4X,X9X<X*X<X<X<X,X=X*X+XOX<XOX1X<X8X9XwX7X<X9X=X+X9X7X=X<X<X=X+X=X1X,X,X,X<X=X=X<X=X*X*X=X-X=X<X=X8X=X,X7X5X@X*X;X<XqX,X#X7X9X2X-XXX*X5X0XAXCX|.Y.b & > t 4 l l l t p D h 1 5 3 t t t p t t p t t r i r i t 1 t w 1 p 1 t w y M t t r 1 1 w r r 3 3 w q 0 i w 0 w w i w i 0 q 0 0 i 0 0 w p y y 0 0 w w y i w i w 0 0 0 0 i i i y i 0 0 0 q w 0 i 0 0 0 i i w i i i 0 i i i i p q y i p i w 0 0 0 w i q 0 w i w w 0 i w 0 i 0 i i i w i 0 0 0 i w w 0 i p i i 0 0 i i 0 0 w e o ! ! > r p i i       @ p c i p t w r 3 b `.| R.D.$ g p x F M p i y w w w i i i p M M M z t V.= IXIX",
"IXIX7.. 1 ; 1 w 0 0 w w 1 0 ; @ @ 0 e w w r w o o J.d.r.d i F p p D p 3       w r 1 w ; U E M o y w y p i i 0 0 0 0 0 0 i w i 0 0 0 0 0 0 i i 0 0 i i 0 0 y i 0 w i 0 w w 0 0 0 0 0 0 y i i 0 0 0 0 0 i i q i y w i i w q 0 i 0 0 0 0 0 0 q q 0 0 i i i 0 0 0 0 p w i i w 0 0 0 w 6 q i i 0 q 0 w w y t y 1 w w 1 w r e y w 1 t x t t 1 r r r t t 3 3 w 4 t t t t p p x n , , j.I.ZX1XOX,X<X<X*X<X<X*XOX=X9X8X*X=X<X7X=X8X7X*X1X=X,X<X1X,X,X<X<X8X8X=X+X=X7X8X,X<X<X7X=X=X,X9X9X<X7X<X+X<X*X=X=X@X7X8X;XqX2X+XoX#X,X<X3X1X,X#X$X#XSXAXDX}.;.b > 4 < 5 z x i u h i l z p h p t e t e t c x t r i x w x 1 1 p 1 w w t t w w e w 1 c w q 0 w w q ; i 0 q p i i 0 0 i w 0 0 i i q p p i 0 0 w w 0 0 w i i i i 0 w y i c w q 0 0 i 0 w 0 0 0 0 0 0 0 0 y 0 q 0 0 0 w p i p 0 0 q p 0 0 0 0 0 0 y 0 i w y 0 + 0 0 i i 0 0 0 i w i i y 0 0 0 w 0 0 0 i w 0 0 i p y i i 8 i 1 ` Q - 1 w p A       @ p p p w 1 r : o v jX,.(.s.. z M p i i t e r w w y e y y w r p x p > V.% IXIX",
"IXIXv.o * w w w w w w w @ 1 w ; : r w 8 w w 0 o . L.(.r.d c i x p p M w     . 1 t 3 p * M B M * r i r i i w 0 0 q i 0 0 w 0 i @ i 0 0 0 i 0 0 i i w i 0 0 w i i 0 i i i 0 0 0 i w 0 q i y w 8 q 0 0 0 0 i i 0 0 0 w 0 i w 0 0 i i w 0 0 0 i i i 0 0 i i i 0 0 0 i i w 0 0 0 0 q i w 0 w 0 i i i y i w w e w w t 1 w e r w w 1 1 1 1 t t 1 1 t t t 3 t w e t p n 4 t t t z , $ g.}.CX;X*XoX4X2X<X<X=XOX=X=X*X8X9X=X<X8X=X=X<X*X=X,X7X7X1X<X8X<XOX=X<X=X,X7XwX,X=X<X=X<X7X=X<X+X7X,X1X,X,X,X<X<X,X#X,X+X<X;X;XqX<XOX@X@X,X<X-X;X-XOX;X8XVXFXNXU.} k = D h p p 3 i x t r x t e e 4 4 1 t n t i c i r t 1 1 r 1 e t i y e t t r w 1 w r w r r q c t p q 0 i y 0 q i w w q 6 i i 0 i 0 0 i 0 w i w w i i i p i i i 0 0 q i i w i w i w i w w i 0 0 w w 0 0 0 0 0 0 i 0 i i 0 0 0 0 w q 6 0 0 0 0 i p i i 0 0 w 0 w w 0 0 i q 0 w i w 0 0 y 0 i q 0 0 0 6 0 i i 0 0 i @ t 1 E ~ o p i u p       @ w w w w w w t   , pXp.(.H.o p r p i e p p t i i t w t y i h H x t t Z., IXIX",
"IXIX7.o 0 @ @ @ w 0 @ 6 0 w w ; ; w w * 1 w 0 ; % 5.p.r.2 F r c u h x r       w M w y 1 B K p o y w w w i w 0 0 i p 0 w i 0 y 0 i 0 0 0 0 i w i 0 0 0 0 0 i i y w w w i 0 0 0 0 i w w 0 0 w w i 0 0 0 i i i i 0 0 i w w 0 i i 0 0 0 i i y i i p p i i i 0 i 0 0 q i w y 0 0 i 0 w 0 0 p p p p q y w * w y w w t w e 1 w 1 t w w p w 1 1 1 1 t r r t t t t t t 1 t p p t 4 , & T.].CXqX<XwX,X,X,X1X=X=X9X8X,X=X+X8X8X+X*X7X<X7X=X<X<X+X<X*X7X<X8XoX<X<X,X<X*XXX,X9X<X<X=X=X9X=X,X<X=X,X7XwX7X,X,X4X,X+X,X-X-X1X9X9X7XuX5X7XwX3X;X%X=X$XOXeXSXFX}.:.b $ 9 d t c 3 w x p M e w t t t < 4 c 1 w i 0 t t t t 3 w 1 r t r r r y t e w ; 3 : r r r i c i i 0 0 0 0 0 i w w 0 0 i 0 0 0 0 i i i w 0 q 0 i i 0 0 w w w w 6 q 0 y 0 w 0 0 w w w 0 0 i w i i i i i w 0 y 0 0 0 0 0 0 0 w i 0 0 w w 0 0 i w i i 0 i i 0 w q 0 i i q 0 w y w 0 0 i i i i i 0 0 0 0 i i 0 0 0 8 r o E E o h p u u       o w i w w w t i o a pX<.T.s.. n G y i i p i w y e i r w w t h p t w 2 V.> IXIX",
"IXIXv.+ 1 w 8 @ 0 @ + @ ; w 1 ; ; w 8 * @ ; 0 1 , L.p.&.> H I r p D x w   O   1 p ; w 1 K N g o w 0 w w w w i i y i i w 0 0 i i 0 0 0 i i 0 w w i i i i i i w q q 0 0 y w 0 0 i i 0 w w w w w w q i w 0 i 0 0 i w y q w 0 0 0 i 0 i i i 0 0 0 0 i 0 0 0 0 0 i i w w i i w i 0 i i 0 i i i i 0 7 r y w 1 r y w w t w w w w e t y t r 2 t t t t r t t w 2 1 t t t 4 t p 4 1 > a Q.}.BX-X*X,X+X<X=X<X=X,X+X*X<X7X<XOX<X=X9XqX=X,X,X9X=X+XqX=X*XOX<X<X+X=X,X<X=X,XOX<X,X<X,X=XwX,X,X*X=X8X8X*XoXOX<X3X<X@X8X7X=X4X,X;X#X=X@X5X0X;X;X<X<X,X<X:X:XVXFXCX}.| k & % n z t j t e r t w < 3 5 4 z 3 t p y w t r w 1 t 3 w t t t 1 w w t w q c ; w i ; ; 3 i 0 0 i w 0 i i w i w q i 0 0 0 0 i i i w 0 q 0 0 0 0 0 0 i q 0 w w w w i q w 0 q w 0 0 0 w w w 0 0 i 0 q w w i 0 0 i i i w w i w w i i i i i i 0 0 0 i i 0 0 y i p i 0 i 0 0 i 0 0 i i i i i 0 0 0 0 i i w 0 0 6 y - Q ` - t t i S       @ i r p r e t c - s zX:.T.L.o h M i p p p t w w y y y t i i p p t r 3 V.= IXIX",
"IXIXX.o @ w w w 0 @ + 0 1 w ; ; @ 1 w 8 w ; 0 o % _.y.r.2 w H x u p p y       @ 3 ; e 1 B M g w w 0 0 i w w i 0 0 0 w q 0 0 w i 0 i i 0 i 0 0 0 i i i w i i i 0 0 0 0 0 i 0 i 0 i w 0 0 y w 0 q w i y 0 0 i i 0 0 i w i i i 0 0 w i i 0 0 0 0 0 0 q i 0 0 i 0 0 i i w q i 0 y 0 i 0 0 0 0 w 0 0 y t e w w w 1 y t w e w w w w t 1 w t p r t t r 3 r 4 1 1 t t p t t t w 2 , , g.].ZX-X,X*X8X8X=X=X=X7X-X=X8X<X8X7X+X=X+X,X,X*X<X,X*X,X7XwX<X7XwX7X=X<X,X*X=X9X,X,X<XwX<X,X9X<X9X=X,X<X=X=X<XwXwX3X1X,X7X7X@X#X4X7X:X7X5X5X7X5X=XwX1X1X;X5X:X#X5XCXFX>X1.b , > > d d t e j M p t z l 4 4 e t p w 1 t 1 1 w 1 r e 1 t t 1 1 w w w ; w w w i q 0 w 0 0 ; 0 w 0 0 0 w w w 0 0 0 0 0 0 w i 0 y i w 0 q 0 0 i 0 i w 0 w w y w i i i i 0 0 7 0 0 q q 0 0 i w w 0 w 0 w i 0 0 i i i i i 0 0 0 0 0 0 i 0 w 0 i 0 i 0 0 0 0 i i 0 p w 0 w i 0 0 i w w w w i w 0 0 i i i i w e ; ! #.o t y S p .     o i i w w w t z - v zX=.d.J.. t p i H i t i t e w i e e i t i t r 3 1 V.> IXIX",
"IXIX7.+ @ w w @ q @ @ 6 w ; 1 0 ; ; w 8 w 0 w o . 5.p.a.g t r p p p p w   O   w t 1 p 1 M M n 1 w ; w i 0 0 i 0 0 0 i w 0 0 0 q 0 0 i 0 0 y q w 0 0 0 0 w i i 0 0 0 i i y i 0 i i 0 0 0 0 w q w 0 i w 0 q i 0 0 0 0 i 0 0 0 i y i 0 0 0 0 0 w i 0 y p 0 0 i i 0 0 w w q w w 0 i i 0 0 0 w i i 0 y i y w w w 1 r w w i t 1 1 w t 1 1 w w @ 1 r t w r t t t t w w p p p M n , & p.U.CX&XoX,X,XXX,X1X<X9X,X,X,X*X<X9X=X,X=X,X,X*X<X,X,X<X*X,X=X<X=XOXwX,X+X=X=XOX7X,X=X<X*X*X+X*X,X<X<X,X,X<X9X<X<X<X<X<X<X1X4X<X7X@X*X+X=X@X#X@X#XOXwX<XeXqX=X<X4X,XtXCXCXbX1.k a , , s < t t e p z t r 3 l i t e r t t 3 t t 3 t 1 3 w 1 1 1 w w ; c w r c r 3 r q w 0 i i 0 w 0 w i w w 0 0 0 0 i 0 0 w i i w 6 w w w i w i 0 0 0 i w q 0 0 0 0 0 w 0 0 i 0 0 0 i q i 0 w w i i i 0 w i i w i q i 0 0 0 0 q i 0 y i 0 i i w w w 0 i w w p i 0 0 i i 0 0 0 0 0 w q i 0 0 0 i i w w e . E ! o z h i p       @ w w r r 1 w i o , pX:.T.s.. g t i c y t p i t y y i i i p p p t r 4 B.> IXIX",
"IXIX7.o @ 1 1 w 6 @ 0 w 1 ; 1 w 3 w w @ 0 w w * % 5.p.4.d G F r A H M t       w t w u @ B R N 1 w w w w q q 0 0 i 0 w i i 0 0 0 i i i 0 0 i i w 0 0 0 0 0 w w 0 i 0 0 i 0 0 0 0 i 0 0 i w y w w 0 w w i p i i 0 i i 0 0 0 i i w w 0 0 0 i i i i i p i 0 @ i i 0 i 0 0 y w 0 w i p 0 0 w 0 i i 0 1 t y 1 w w w e w y t t t 1 1 y t 1 3 w w t t t 3 t t t t t 2 t t g x M z , , j.].AX1XoX<X,X*XeX<X<X=X*X=X*X=X9X+X<X<X9X9X*X<X<XOX=X=X*X+X<X,X+X*X9X=X=X9XwX+X*X7X,X<X<X7X=X=X,X,X=X,X<X,X+XOXOX;X,X<X*X+X+X,X9X*X,X+X,X,X@X0X7X:X&X:X2X;X=X,X+XoXOXtXVXDXZX{.} b , , < d h p p r r l 3 t z p p t x t t r 1 1 w t w w t t r t w w c r i t w : q i p i i i 0 i p i i i i i y 0 i 0 i i q q q q w y 0 0 0 0 y i i 0 0 w y 0 0 0 w 0 0 0 w 0 i 0 i p i i y q 0 0 i y 0 0 0 0 w 0 y i i i 0 0 i i i 0 w q 0 q 0 i 0 0 p 0 0 q y 0 i 0 0 i 0 i w i 0 w w w 0 0 i i 0 w w o ! 6.o p p u i     X o i w i i r r i . , pX;.(.J.. p x M w y t i t t w t i p p p p z p t t N.= IXIX",
"IXIX] o @ w w w @ 0 w @ ; 1 1 0 1 w 8 * w w w o d D.y.&.2 0 c x p H M r       3 t 1 e * B E J 1 w w w w w 0 0 i i 0 q w i i 0 0 w i 0 0 0 i i i 0 i i 0 0 0 w 0 0 w 0 i w 0 0 w 0 0 0 i i i w q 0 0 i i p i 0 y i i 0 0 0 0 q 0 0 0 0 q y 0 0 0 i i 0 0 0 0 0 i i q w 0 i i 0 i y i 0 i w w 0 0 w w w 1 w y w w w e y t w 1 w r t r t t p M p t 3 t 1 t 2 t p x t t t r 4 > a ).U.BX;X*X1X4X<X,X+X,X=X=X<X<X,X<X,X<XOX=X8X<X9X7X,X9X9X<X,X,X=XOX8X,X<X9X<X<X<X,X=X=X,X=X<X*X*X*X<X*XXX=X8X7X<X=X7X7X,X=X,X,X3X<XwX3X<X3X1X=X=X5X7X@XeX7X*XeX<X1X<X=X*X1XBXCXVXbX<.b < - % d i i c z c z z t 3 t t t t t t 1 1 t t w 1 w t t r r ; r : t r r i r w w 0 q 0 7 0 0 i i i i w i 0 w 0 i p i w 0 w w 0 0 0 0 0 0 0 0 0 0 0 0 0 0 w w 0 i i 0 0 0 0 0 0 i 0 i 0 i i 0 0 w q 0 0 q i w 0 0 i 0 0 0 0 + 0 0 w 0 0 i 0 0 i i i 0 0 q 0 w 0 0 i 0 i 0 i i i 0 i i w i w 0 8 y o ` 6.- t y p u       @ r w 0 w 1 w c > f zX| R.L.. t M H p i r e r y r y e w w r t t t r 2 V.o IXIX",
"IXIX7.@ ; ; 8 0 @ q w @ ; w ; ; ; 1 w w w w w # , s.`.d.% p x p i p M t       r t w p y M B M 1 w y w 0 w 0 0 i 0 0 w w w i 0 i i i 0 0 0 i 0 0 0 0 0 i i i i 0 i 0 0 0 0 i w w i q 0 0 w w w w i i 0 0 0 0 0 i 0 w i 0 w i 0 ; w w 0 0 0 w q i i 0 0 i i 0 0 i p i i i 0 0 0 i q 0 0 q i i p i 8 w w w t p e 1 t w w t t w w t t 1 r t w t p t t t t t t t t p 4 t w e t % & W.U.CX:XOX+X9X2X,X,XeX<X7XwX7X,X=X,X1X7X,X,X<X=X9X,X=X9X=X8X=X9X9X9X=X+X+X<X*X=X8X,X<X9X=X,X,XeXtX7X<X,XOX+X=X9XwX=X@XOX7XtX<X9XOX1X1X3X;X=X=X=X7X5X5X&X@X,X*X<X9X1X1X%X-X=X,XtXAXDX{.-.b , , 2 t r i t 3 4 4 1 4 3 3 4 p p w 1 t t 1 1 1 t r 3 t c i q r r w w ; 0 w w i w 0 0 0 y i w 0 i 0 w i i 0 0 0 w i i w 0 0 i i i w 0 0 i i i 0 0 0 0 0 i i i i 0 0 0 i 0 0 w i i i i i 0 i i w 0 p i w i i p i w y w 0 w i i i 0 i 0 0 0 y i i w i i 0 0 0 0 0 0 0 0 i 0 i 0 i i i 0 y w t - E ` o p i u i       ; w w i t e r r o a _.p.T.D.. M p w D p t w w r y w 1 w y r p x p t r N.% IXIX",
"IXIX` + 1 1 @ # @ @ 0 0 w 1 1 w ; w w * 1 e w . % 0.d.y.& u t p u h M x #     i e 1 y @ g K p - w w w 0 0 w i 0 i 0 w p i 0 w i i i y 0 0 i w 0 0 q w 0 w i y 0 i 0 0 i 0 i 0 i i 0 i q i 0 q 0 i 0 0 0 0 0 0 0 0 0 0 0 i 0 0 0 0 0 i i i i 0 i p i 0 0 i i i 0 i i i w w 0 0 0 i 0 i i w i q i y w t p p w w e i y t w w p t t t t w 1 1 t t t 1 t t t t t t t p 1 p t e d % Q.U.CX-X%X1X*X@X+X+X;X*X=X+X,X=XOX8X8X,X<X7X+X,X=X=X7X,X=X9X=XXX,X*X7X9X<X=X<X<X=X<X*X<X*X9X,X=XXXOX*X7X9X9XqX=XOX@XoX7X9X<X*X,X<X,X<X<X+X,X9X<X9XOX*X=X+X+X<X8X7X-X*X,X=X=X*X+X=XVXFXbXU.%.f & % w U p r z 4 3 4 4 4 1 t t t t w 3 w w t t 1 1 t r t p t 1 1 1 t r i w w w : r w y w i 0 0 0 0 0 w 0 6 y i q 0 q 0 0 0 i 0 0 0 0 c i 0 0 0 0 0 0 i i i 0 w i 0 0 0 0 y i i i 0 w w i 0 0 i 0 w 0 0 0 i i 0 w 0 w 0 i 0 0 0 0 0 0 0 0 0 q i i p i + 0 0 0 0 i w 0 i i i 0 w i i 0 w t 1 E ) o t p p i       # 1 1 ; 0 i u p . v pX:.T.D.. M p y t p w w t i y y t r t w p M p t 1 V.% IXIX",
"IXIX` @ w w 0 w 0 @ 6 0 w 1 w ; : ; 8 w 1 e w o $ 0.i.r.> i r p D p x t     . i t w e w B E g 1 w w i w 0 i i y w 0 i 0 i 0 w w w 0 w 0 0 w w 0 0 0 w 0 0 y i 0 w q w 0 0 0 0 i 0 i i p i 0 0 i i i q 0 i w w i i 0 0 i i 0 0 0 0 0 i p i 0 0 0 0 i 0 q y 0 0 0 0 w q w i i i i i i 0 0 0 0 w w r y i p i t w t e 1 w 1 w 1 @ w 3 1 1 w 1 t w t 3 1 1 1 w 4 t g n 4 z t e 2 % T.].CX1X-X3X%X=X5X<X<X=X<X=X,X<X7X,X=X+X=X,X+X<X7XOX1X<X=X<X*XOX,X,X,X<X,X<X7X<X*X*X,X7X,X+X8XeX<XwX<X=X1X=X7X*X=X,X*X9X*XOX*X7XqX<X<X,XOX+X*X+X,X9X9X,X=X*X*X*X*X=X,X1X,X=X*X*X=X#XeXAXCX>X2.b a s > 1 p n t t z 4 4 t t t r t p t p w t p t r t t t t 1 w 1 y t r w 3 w w : w w q 0 0 0 0 w i i 0 0 0 w w w 0 0 0 i 0 i y i w i i y y 0 w 0 0 0 y p q 0 i i i i i 0 0 w i i i i 0 q w 0 0 i 0 0 y i 0 i i 0 i 0 0 0 i 0 i i 0 y i 0 0 0 i w i 0 0 0 w q i 0 0 i 0 i i i i 0 0 : w e * W ! o t x p i O     ; t w w w i y p o v zX:.E.S.X x p p h p t t e e t r r y t t p M H p e V.o IXIX",
"IXIX_ o w w w w w 6 @ w ; ; 1 ; : ; w 1 1 w w o % D.d.f.2 y w r i i p 1       w p 1 w w U K g 1 1 w w 0 0 0 0 0 0 y 0 0 0 0 w w i i i 0 i i i 0 0 0 0 0 0 i w w 0 w i i y 0 0 i i 0 q p p 0 0 q i i w w i i w i w i y w 0 w i y i w w w 0 y i 0 0 0 i w w i 0 0 0 0 0 i i i i i i 0 w i i 0 0 y w w y w w 1 w w t w w w e w 1 t t r 1 t t w w t 1 1 w t t 1 t n t 4 M t e , % g.[.VX3X1X1X&X+X=X=X=X=X8X=X=X1X7X+X=X*X<X,X,X7X7X8X7X*X=X9XeX,X*X*XXXXX,X<X*X=X9X8X9X=X<XwX,X+X7X9X<X=X9X+X<X+X<X9X,X9X7X,X7X<X*X9X<X9X8X9X,XOX*X8X7X,X8X9X7X,X=X=X=X=X,X8X<X=X;X-X%X6XVXFXJX}.%.b $ = j w M M t 3 t t 4 3 4 t 4 4 t e t p M i i y 1 1 w r 1 t t i r q q w r w w w 0 0 0 i i i i 0 0 w w w 0 0 i 0 0 0 0 0 0 0 i i 0 w 0 i w q w w 0 0 0 0 0 0 i i 0 0 q w w 0 i w 0 i i i i 0 0 0 q 0 0 0 i 0 0 0 w 0 i i w 0 i w i 0 0 w w i 0 i 0 0 i i 0 0 i 0 i i i w 0 i 0 w 1 > W Q . r x p i       @ i w t w r y i . b zX:.Y.H.X x p p p t p i w w t t w w w t p p x p t V.- IXIX",
"IXIX` o 1 w w * q @ 0 0 1 ; 0 0 w 3 y 1 ; 1 0 o $ G.`.y.2 p U x e u p 1       1 i * e w N R z 1 * w 0 0 i i 0 w q 0 0 ; 7 q i i 0 i i q 0 0 0 0 i w i 0 w q w w 0 0 0 w q 0 0 i p w 0 i y q 0 ; 0 0 0 y i 0 0 0 0 w 0 0 0 0 i i i q 0 0 0 q i p i i 0 i 0 0 0 0 w w y 0 i 0 i i i w w i i i i 0 y r y e w y r e w 1 1 w 1 w w y p r t t t 1 1 t t t p n h t 1 t 1 3 h p t 4 & T.].VX>X%X1XqX<XeX<X*XOX;X<X9X,XOX*X8X<X8X7XeX9X=X<X<X,X,X=X,X,X,X,X8X9X7X<X7XeXeX*X<X<X#XwX<X=X=X=X=X,X9X,X7X=X<X7X*X<X;X=X+X*X*X1X+X*X,X<X,X,X9X=X=X=X=X,X,X,X=XOX<X8X7X<X=X,X<XeX;X:X#XqXSXAXbX/.} a a 2 j n M p p r r 4 z t w w t e w t p t y t r t r t t w w r r : 1 q r w w i w 0 i 0 i i 0 0 w i w q 0 0 0 i i 0 i i 0 0 0 w w i i i i i 0 i i i w w q w p i w 0 0 y 0 i i 0 0 0 i i 0 i 0 w w i 0 0 w i 0 0 0 w 0 w q 0 w y i 0 0 i i i 0 y 0 0 i i 0 0 i i w w w 0 i w w e e ; W ) X 3 t p i O     @ y r t q i w i . s pX-.h.w.X t p p e p t p e w t w w w y t p p p t w B.o IXIX",
"IXIX_ @ 1 w w @ 0 0 @ 6 w ; 1 1 w 1 w e 1 1 1 o . H.j.r.2 G K M p p x 1       i p w e o M E M 1 w i i 0 i i 0 i i w 0 0 0 i i w w w w 0 0 0 0 0 w w i i 0 0 0 i i 0 0 0 w w i 0 0 y 0 0 y w 0 + 0 0 0 w 0 0 0 0 6 w w 0 q 0 0 w 0 0 w i w i i i 0 0 i w 0 0 0 y i 0 i 0 0 i 0 0 0 0 i i i i w w 1 w w w y t t p w w t w 1 w 1 w t w 1 r t w r t x z t 3 t t p t 1 4 x t t 2 a T.I.VX>X.X%X1X*X=X=X8X9X8XOX*X,X<X=X=X*X*X+X7X;XOX*X,X8X<XOX*X,X<X7X*X*X,X1X+X+X*X=X*X9X+XOX*XtX1X,X*X=X=X=X9X7X,X8X=X7X<X8XeX8X<X,X+X*X=X*X=X=X,X9X9X8X=X=X=X<X1X8X8X+X*X7XwX<X#X0X=XOX&X1X,XtXSXAX|.-.b & & j n c z x i i F A i i p t 3 t t 3 ; p t p t t w w 1 w ; 1 ; w r w ; i i i w i i i i i i i i 0 i 0 0 i 0 q w w w w 0 i w i w i i 0 0 0 y i w y i i 0 w 0 0 w i 0 q i 0 0 0 0 0 0 0 0 i w q w i w q 0 0 i i 0 w i 0 i i w 0 0 w 0 i i 0 0 0 0 0 0 0 w q 0 w 0 0 0 w w 1 t 1 W ` 1 t r i i .     0 i t i w u w i X s pX=.p.S.X t p h p p t p i t w w w p p p p p p t w B.o IXIX",
"IXIX_ o 1 w w 8 0 0 0 0 1 1 w q 3 1 8 1 1 1 w ; % S.u.r.% i p i p i M y O     w t w i * M ~ M 1 w i 0 0 0 i w 0 i i 0 0 0 i 0 0 i i i 0 0 i i i 0 w i 0 0 0 0 0 i i w 0 0 i i 0 0 w i 0 0 0 w q y i i 0 i i w 0 q w w i w 0 0 q 0 0 i 0 0 0 0 i 0 0 0 i i w 0 q i i 0 i i 0 w 0 i 0 0 0 0 0 i 0 w y w y w y w t 1 e p w w p t t t 1 1 r t r t p t t t r p h p 4 p n p t t 2 & T.U.VX;X&X1X<X<XeX<X<X;X;X=X9X<X+XwX,X,X8X9X9X7X8XwX7X<X8X<X7X<X=X*X<X<X=X=X<X1XXX7X=X,X<X*X=X7X,X=X,XwX,X*X,X<X<XOX=X<X=X,XeX<X*X<X,XqX7X,X<X=X+X*X,X,X=X*X=X=X=X=XqX9X,X*X,X<X8X#XuX5X:X4XoX+X,XVXFXbXU.} a k $ 3 t t i i i S A t z c 5 4 t r r z p t 4 1 1 1 1 r : w : w : w q i w i 0 w q 0 w w 0 0 w i i i 0 0 0 q 0 w w i 0 i i i i 0 w 0 0 @ q q 0 0 i 0 0 i w 0 w 0 0 0 i i 0 0 y i 0 0 i w i w w 0 0 w 0 i i 0 0 0 0 0 i w i 0 0 0 q 0 i 0 0 i 0 0 0 0 0 0 0 0 w w q 0 ; w t 1 K ! o t 1 y i O     * i t i w u y p X f pX=.Y.D.o p p h p p p t p i e w e p p h x H x t 2 n.IXIXIX",
"IXIX_ @ * w @ w 0 @ ; 0 w 1 w ; ; ; 8 e 1 1 w 1 $ w.d.t.> p p x u i h t       w t w i o B E n 1 w 0 0 0 0 0 0 0 q 0 0 0 0 y 0 ; 0 0 0 6 q w 0 0 q w 0 i i 0 0 0 0 0 0 0 0 i w 0 0 w i w 0 0 0 i i i 0 0 i i i i w w w i i w 0 0 i i 0 0 0 0 i i 0 0 0 i i i 0 p i 0 w i i i w 0 q i i 0 0 0 w w p p t i t i y w 1 w t w w t e i t t w t t t t t r r t n M n t 1 p z t t t & , T.].CX-X-X1X%X*X=X=X;X<X8X=X<X=X=X7X*X=X<X7X7X*X7X8X,X,X<X8X,X=X=X*X=X,X7X7X,X,X7X*X<X=X*X9XeX<X=X*X=X9X7X+X,X=X<X*X9XwX,XXX=X,XeX7X,X,X=X*X<X9X9XOX*X,X,X7XqX8X7X,X,X,X=X,X,X,X7X=X9XuX#X,X<X1X$X+XtXAXAXbX1.} & > * 2 2 t i u i w 3 l 5 4 t p p p p t r 1 1 w t w w r w r r q w i w i 0 0 i w 0 0 0 0 i w 0 0 i 0 0 q 0 w w 0 0 0 w w q 0 i w 0 0 p w w w i 0 i w i q y w 0 0 i i w i w w 0 0 i 0 i 0 0 0 0 0 0 0 i w 0 0 0 0 0 w i 0 w 0 q 0 w w i i 0 0 q w 0 0 w q i i w 0 0 1 t 1 W ` o 3 ; w w       @ e t i r i 8 i X s pX-.R.H.X U x t u u p i t w t r w p t p p p x p 1 N.o IXIX",
"IXIX_ o 1 w w @ ; 6 @ 1 w w 1 w w : w 1 1 1 w o $ s.`.j.2 p p x D p i w O     y t w u 1 M N t 1 r w 0 i 0 0 i 0 p 0 0 0 i w w q w i w q w i i 0 i i 0 i y w 0 0 0 0 0 0 0 w w i w 0 i i 0 0 0 i i q 0 + 0 0 i 0 w 0 q w y w w w 0 0 i i i i i w i 0 0 0 w 0 i i 0 0 0 0 w i 0 0 6 q p p i 0 i w w w y e i e w t t w p e w w w i 1 t 1 w t p t t t 3 1 p p t t t 4 t 3 t t % & T.].CX.X2X3X<X=X7X<X<X<X8X=X,X<XwX=X=X7XXXOX=X,X=X*X*X+X=X<X*X=X9X,X=X*X=X<X8X8X<X<X+X,X,XwX+X=X8X7X=XOX1X*XwX,X,X8X=XOX,XwXeX=X7XqX,X9X8X,X=X,X*X<X=X*X=X,X=X=X=X,X+XOX=X9X<X+X*X;X,X8X0X1X+X1X1X8X#X7XCXFXBX^.} k a , j h p i x 3 q : 1 3 t e i r 1 1 1 1 w y t w r : i w w w w i i i i p A i 0 i 0 0 i i 0 0 i i i w w y y w 0 0 0 y i 0 0 i i p i 0 0 q 0 0 i i 0 i w 0 0 0 p i i 0 i y 0 0 0 0 0 0 0 6 0 0 0 0 i i i i 0 0 0 0 i w y w 0 i i 0 w w w w 0 y i w 0 0 r r w w q w e 1 Q ` o t r i u       @ w y t : i w i . s pXY.iXG.X p p h h e t t w 1 w t 1 i i t i p M p e N.1 IXIX",
"IXIX` o w w w 8 0 0 0 0 ; ; w w : 1 ; ; w 1 w @ % G.y...4 p p p h p t e O     w i 1 w * M N t ; w w w w 0 i i i w ; 7 q 0 0 y 0 i q @ 0 i p i q w w 0 0 w 0 0 w i q 0 w i i w i w i w i i 0 0 0 w 0 i 0 w 0 0 y 0 0 0 0 0 0 w i i 0 p i 0 0 i w w q q q 0 0 0 0 q w w y 0 w i w 0 i 0 i p q 0 q w w w w * w w 1 t y t y 1 t t y 2 w r t t t t r t t t t 1 1 t 4 t 4 z x p < & T.].VX-X&X%XXX<X+X*X;X*X=X,X,X,X=X+X*X8XeX8X,X7X7X=X7X=XeX8X+X,X=X<X,X9X9X7X,X+X<X7XtX9X9X,X=X9X9X9X7XwX9X<X*X<X9X,X,XwX=X<X,X+X*XOX,X7X*X*X*X,X*X,X,X,X=X=X7X,XOX+X<X,X9X*X+X,X,X;X*XXX1XeX<X1X=XOX@X#X:XrXAXFXbX/.} k = = t 5 5 5 c q c c w w w w w t r w t y w : ; 3 w r w q 0 i 0 0 i i i 0 0 i w i i i 0 0 0 0 0 w i i y w i 0 0 0 w i 0 0 0 i 0 0 w i 0 0 0 0 0 i 0 w i i w 0 0 i y w w 0 0 0 0 0 w i i i i 0 0 q w 0 0 0 0 w w 0 p i 0 i 0 y i i 0 0 0 i i 0 i 0 0 w i 0 r e t o ) ` 1 1 w w r       @ i 1 3 i r r i o s pX| g.H.o t i e w y p e t p t p y w w r t p x i w B.o IXIX",
"IXIX` . 1 ; w @ 0 ; @ w 1 ; 1 ; i r 1 1 e 1 1 % % s.u. .2 p M p u p i t O     w p w w w N N t 1 w w w w 0 w 0 i y 0 0 w i 0 0 0 0 0 w i i i 0 q y w 0 0 w q 0 i 0 0 q 0 y w 0 0 0 q 0 0 0 0 i w w w 0 i 0 0 w i w 0 0 0 w 0 0 y 0 0 0 0 0 0 i 0 p p i y i w 0 i 0 q y w 0 0 i w 0 0 i 0 i y 0 0 u w e w w w 1 w w w w t w t w w r 1 3 w t r t t t 1 t t t t p t 4 t x t 1 % & T.].CX;XXX%X-X8X4X7X8X<X*X+X<X,X=XtX8X=X=X=X=X,X<X<XwX1X=X=X*X<XOX<X7X*X,X,XXX<X<X*X*X+X$XoX<X*XOX+X,X<X=X,X,X<X<X,X<X,X*X*X+X+X+X7X,X<X0XwX<X<X<X,X1X<X,X=X1X<X8X=X7X,X,X+X,X,X=X<X8X-X-X-X%X*X,X#X@X=X#X.X;XVXCXCX}.<.f & , < l 5 c c i i w w M t t w 2 w t t r r q w w : w 0 w i i 0 i i i i i i 0 0 i i 0 0 0 0 0 0 i i w w w 0 0 0 i 0 i i i w y i i i w w w 0 0 F p 0 w y q i w w i q w w w i w i q i w w i p 0 y 0 0 i 0 0 i i 0 i i 0 w 0 0 w i 0 0 w i 0 0 i 0 0 w w 0 w w 2 o I ` o t t t t       @ i w q i y i i o v fX=.p.S.X p p p i p t t i p i p e t t i p x M p 1 n.IXIXIX",
"IXIX` . @ @ w w 0 0 @ 8 1 w ; ; 3 w w 1 1 1 w 1 $ s.j.y.g p U i u e t t       1 p w e w B N p 1 0 i w w 0 w i w i 0 w i 0 0 0 0 0 0 w y i 0 0 0 w w 0 0 0 0 0 0 0 w 0 0 w w w 0 y w w 0 0 0 0 0 0 i i w w 0 w y p w 0 q 0 0 q w 0 0 0 7 0 q i 0 0 6 @ q w 0 0 w q 0 w w q 0 0 0 i w q 0 i i 0 i w w w w w w w t e 1 w r 1 w t 1 t w 1 t w w r t t 3 t t p g x t t 4 t t t , & h.}.VX1X-X3X3X,X#X8X;X8X1X7XeX,X<X*X,X7X<X7X,X=X7X*X,X1X*X*X<X8X8X<X<X<X<X<X<X,X=X<X+X*X=X,X9X*X*X,X=X=X<X<X<X,X7X+X,X+X<X*X=X9X7X9X*X+X,X,X,X,X<X7X,X=X,X=X=X=X*X*X*XOX+X+X<XwXeX1X1X,X1X<X:X;X5X7X:X:X@X5X8X8XrXCXCXBX].%.f > 2 c x r i A i 1 p t w 1 w r w y t w w q : 0 ; w w 0 0 i 0 0 i i i 0 0 i 0 0 w i 0 i w 0 w w y w 0 i i i 0 0 i i 0 i i w q 0 q w 0 q i A p i w w 0 i i 0 w 0 0 w 0 y i i 0 0 0 w i p 0 0 0 0 i 0 0 i q 0 i w 0 w 0 0 w q 0 0 w w q 0 i i i i 0 ; w e t o I Q o t t i u   O   + t r 1 w w u i . v zX:.h.H.X t u t t p w y t t r r t p p p p x p t e n.IXIXIX",
"IXIX) O w o 6 w w 0 @ 0 1 w w 0 ; w 8 1 w > w 1 % S.d.r.5 w p p i i t r       1 e w e * M U n 1 w 0 i w w q i i i 0 w w 0 0 0 i w 0 0 0 0 w 0 0 0 i 0 w i w 0 0 w w w w w i i y 0 q i p i i 0 0 0 0 0 i 0 0 0 0 i 0 0 w w ; 6 w w q 0 ; i p 0 i i w w w i 0 0 0 w 0 w w 0 0 0 0 i p w y i i i w 8 8 w w w w w t w 1 1 w w y r t t r 1 t w 2 r t t t t t t p t 2 p 4 t x M d a j.I.ZX%X-X3X%X+X1X,X*X<XqX,XOXXX<X,X<X<X<XwXwX7X<X7X,X9X7X,X7X=X8X9X,X<X+XOX,X=X8X,X9X,XtX9X=X,X<X<X,X*XwX,X=X+X<X,X<X,X<X=X,X<X,X*X,X*X1X*X<X,X7X<X*X*X,X7X8X<X=X9X9X8XtX,X=X+X*X7XqX1X9X8X=X:X=X#X*X5X-X;X;X=X<X-XtXVXFX>X2.b 5 > > t c i t 4 t 3 1 r t 4 1 1 t w t r r w r w w 0 i i 0 0 i i 0 0 i 0 0 0 i i 0 i w q 0 w i w q 0 i i 0 0 0 i 0 0 0 w 0 0 0 0 0 i w 0 i i p i q 0 0 0 q i i 0 0 0 i 0 0 i 0 0 0 0 0 i i 0 0 0 i 0 0 0 0 0 0 w q w 0 w 0 0 w i w 0 0 0 i i 0 : w i p o K ! o r w i y       o w t w w w i p . f pX:.Y.H.X i p e e p w t w w t w t p p p p p p r 1 V.> IXIX",
"IXIX` . 0 ; ; @ 0 0 @ 6 w w 1 ; q t w w * * w 1 $ S.d. .a w t p D p p t X     1 t w y * M N n 1 ; 0 0 i i w i w w 0 0 0 0 0 i 0 i 0 0 w 0 0 0 0 i y i i i i 0 y 0 i y 0 q w y w 0 0 w i i 0 w 0 0 i 0 i 0 0 @ 0 0 0 w p p q q 0 0 i 0 0 i i i i i w 0 w i 0 0 0 w 0 0 i w i i i i i 0 0 i i w w w w w w w y w t w 1 1 y e r t y 1 w t w w t t t t t r 3 4 t w w t z t t 1 % & T.[.AX.X.X1X;X8X0X9X<X=X<X7X=X<XwX&X7X9X=X=X*X,XeX9X=X<X<X9X9X*X=XXX8X<XwX<XOX,X=X*X9X<X7X+X+X,X7X=X7X<X<X*X,X<X<X9X=X7X1X<X,X,X,X+X<X<X9X,X<X,X,X<X7X8X<X=X1X7X<X=X*X=X7X*X=X+X,X+X,X,X1X;X@X7X0X4X<X-X3XqX<X7X#XtX-XXXVXAXAX|.-.a $ j h 2 t p t t t p x r 1 1 r r r r c i i i w 0 i i i i i i w 0 0 0 0 q i i i w i 0 y i 0 w q 0 i i 0 0 i 0 0 0 0 0 0 i 0 0 0 i 0 0 0 0 i i 0 0 0 0 w i i 0 0 w i w i y w 0 q 0 0 i i 0 0 w i 0 0 0 q 0 0 w y i i 0 0 0 0 i i w q 0 i i 0 q i e e o I ` o 3 t i y       # w t r 1 w u u X v pX| Y.G.- c p u h M p M w w t w e t t i t i p r w V.1 IXIX",
"IXIX] o w ; 8 + 0 0 @ w 1 1 w ; : 3 e e 1 1 e 1 $ S.a.| g D i r p p p t       y t w i * M N g 1 ; 0 0 w i w 0 0 w 0 i i 0 0 0 0 0 i i q 0 w i i i p i 0 i w i i q 0 w w q w w i i w y 0 0 0 0 w i i 0 0 q 0 q w w q i i i i q 0 0 w i 0 w 0 0 i 0 0 ; 0 0 y i i i 0 i i w y i i 0 i w 0 w y w 0 y w i e w w e r 1 1 w t r t w 1 w t t 1 r r t 1 t t t w t t t n n M M h t 2 , R.].FX>X-X-X.X+X=X+X=XXX-X=X=X8X=X,X=X*X=X7X9X=X@X=X*X,X=X,X9X<X<X7X8X,X<X<X<X9X9X7X<X<X=X=X<X*X1X<X9X8X<X,X<X<X7X,XOX,X*X<X7X7XqX<X,X,X,X=X,X*X=X,X,X<X<X=X<X<X*X,X=X*X*XXX<X,X*X8X8X,X,X+X#X@X@X,X9X-XrXrX=X,X#X-X-XOXOX4XyXFXbXE...& & 2 t r t r t t p 1 1 w x r r : q c i i 0 i i p i i i i i 0 0 i 0 0 0 w w 0 0 q 0 0 0 0 0 0 0 0 0 w i i 0 i w w i i i i 0 i 0 i 0 ; 0 0 i i w q 0 0 i i i w i w 0 w w w w i 0 0 i 0 p w 0 0 0 i i 0 w 0 w 0 i i i i 0 0 0 w i 0 0 i i w i y t o K ` o t 1 r y       + w r t q w i i . m pX| T.G.  r t p H h h p w 1 t w 1 r t i p p h t e V.o IXIX",
"IXIX+.o w 1 0 @ 0 6 ; @ w w 1 0 : q w w e 1 t 1 2 D.r...2 i x p p y t w O     w e t e * n N M 1 w w 0 w 0 0 0 0 q 0 w i w 0 0 0 0 y w w i i w i 0 i 0 0 0 0 w i 6 q w i w w w i p i w 0 0 0 0 q i i 0 0 q w w i i w w 0 0 0 i i 0 0 i i 0 0 i 0 i i i i i i w i i 0 i 0 0 0 0 0 w i w 0 0 y w q e i i i r y w w 1 w r w y i t o t t t r t 1 3 w r x t 1 t p t n r 4 t t t 2 & p.I.VX%X3XrX1X*X7XOX8XwX<X+X+X=X+XeX9X9X9X=X*X=X7X=X<X8X7X=X*X=X9X8X*X<X,X7XwX*X<XqX*X=X,X<X8X+X=X8X<X,X,X<X,X=X+X=X=X=X*X=X*X*X,XwX,X=X=X=X+X,X9X+XOX+X=X,X<X<X=X*X*X8XwX7XeX,X,X+X@X4X7X4X,X0X*X1X1X+X1X*X+X5X5X=X:X-X7XXX1XBXAXDX}.%., < n 3 i 1 3 t t r 1 i t r w w 3 w r i 0 0 0 0 0 0 0 0 i w i i i 0 0 i i 0 0 w 0 0 0 0 0 w 0 q w i i 0 i 0 0 w i i 0 0 p i w 0 y 0 0 0 i w i i y 0 0 0 i 0 i w q w w w i i 0 0 i q y 0 0 i 0 p y w 0 0 w 0 i i i 0 0 i 0 i i y 0 0 0 w w e p > W ` 1 3 w t r       @ r y ; 0 r i 0 . v pX=.W.L.  1 p t h i p y y w w r w y t p p x p t w Z.* IXIX",
"IXIX+.o 1 @ 0 w 0 0 0 0 * ; 1 w 0 w 1 w 1 1 w 1 . s.d. ., p H x u e t y       y w w i 1 M N p 1 r w 0 w y w i i w 0 0 w 0 i i 0 i 0 0 i i i 0 0 0 q 0 0 i i 0 0 0 w w i w w q w i q w 0 i 0 i i w 0 0 0 y r i i 0 y i 0 0 i 0 0 0 0 0 0 0 i i 0 0 y i w w i i q i w 0 w 0 w i i 0 i w 0 0 w w w r r u t r e 1 w w e t w 1 p p w t 1 w t t t t p t t 4 1 t t r t t z z x p < a g.I.CX-X&X&X3X1X7X,X=X;X=X,XeX<X,X,X*X=X7X=X*X7X9X8X,X<X9X<X+X*XwX,X7X,X<X=XoX,X<X*X7X*X=X+X,XwX7X<X<X7X*X8XeX8XOX,XeX,X9X,X*X=X,X=X=X<X=X=X+X,X9XeX9X<X,XOX+X,X7X,X+X=X<X+X+X@XeXOX,X7X0X,X<XwX1X3X1XwX,XOX+X=X5X5X6X=X=X*X1XXX1XCXDX}.b o M i c w w t t r t w 1 c i w 0 0 0 i i i 0 0 0 0 0 0 0 y i w w 0 0 0 0 w i w i i i i i w i w i 0 0 0 y w 0 y i q 0 0 p q 0 0 0 0 i i 0 0 0 0 i i 0 0 0 0 y w 0 i i r y 0 0 0 0 0 q 0 0 i 0 p y q i 0 w 0 w 0 0 0 0 y i 0 p i 0 0 0 0 0 w w o I ! o r t w y       6 r w 3 w p A q o b pX:.~.K.. x x p i p p 1 t e ; y t r t p M p p w o C.* IXIX",
"IXIX7.. w @ @ w @ @ w 0 1 r w ; 0 0 w * 1 w y @ = D.y.&.n r p x p i i i       w t w w 1 N K M > i i w 0 q w w 0 w 0 0 i w 0 q 0 0 i i 0 i i 0 0 0 0 i i 0 0 0 i 0 0 0 i i 0 0 0 0 w i 0 0 i F p i 0 0 w i 0 w i 0 i 0 0 0 0 0 0 0 0 0 0 0 i i 0 0 0 w y i w q 0 0 i 0 0 0 0 0 i q w w w i 0 w i i i i 0 w 0 w w : w r r r c r ; t w t t 1 1 r c 4 3 t p p t t t n t t r l < & T.[.CX>X%X%X*XOX8X@X1X,X7X<X7X8X+X<X*X9X1X=XeX,X9X=XOXOX*X7X<X,X*X<X=X,X7X<X7XqX,X+X*X,XqX9X7XqX,X*X+X8X*X=X,X7XwX,X*X,X=X=X9X=X7X=XqX,X<X*XeX8X*X,X=XXX,X,X7X,X=X7X<X=X*X<X<X<X,X8X<X#XOX=X=X<X-X@X=X@X7X7X7X=X8X:X:X5X0X1X-X-X1X1XCXDX%.& t 1 r p t r w w t r 1 t p i 0 0 i 0 0 i i y 0 0 q 0 0 0 q w r i w 0 y 0 0 i i i w i 0 p i q 6 w w i w i 0 0 i i w i p 0 0 0 0 i 0 0 i p i p p i 0 0 i p i 0 q 0 0 q w 0 0 i i i q 0 0 p i i 0 w w i q 0 0 0 0 0 w w w w 0 i i w w r i 1 w o K ` 1 4 1 t r       @ w t t w y p p - f pX<.Y.s.o x t t t p p t p p w t p r t p p t t w 1 N.IXIXIX",
"IXIX7.@ 1 @ @ 0 0 6 w 1 1 w ; ; 0 @ 8 8 1 1 1 o . s.d.r.< t p t u p u i       w p 1 e o U K M 1 w 0 w 0 0 0 i i i 0 i w 6 @ 0 q 0 i 0 0 0 i i 0 w i 0 0 0 0 0 0 i y w 0 0 0 0 i 0 0 i i y i q 0 i w 0 i i w y i w 0 i 0 0 w i w 0 + 7 0 0 w i w w w w w w 0 0 0 0 0 0 0 0 i 0 i 0 w i i 0 0 0 q 0 w i w q w w w w w 3 q q r i c 1 w t 1 3 t 3 r r t t t t t t v n z x r w 5 $ Y.I.CX.X%X=X*XOX8X,X8X*X+X+X=X=X=X,X9X=X7X=X+X=XOX<X7XwX=X=X9X7X<X1XeX8X=X8X,X+X<X7X9X7X8X,X+X,X+X<X,X9X9X<X+XOX=X1XOXOX+X,X9X=X=X<X,X,X<X,X,X=X,X=X<X<X<X<X,X*X+X<X<X<X7X7X*X+X,X*X=X;X;X-X:X;X,X5X=X4X7X7X,X=X;X%X;X5X#XOX*X=X3XoX-XGXg.& e t w p t r y w r y t r r w w 0 i i i w 0 i 0 i w i 0 w 0 q 8 w w w i 0 0 0 w 0 0 0 0 i q 0 0 0 w w 0 0 0 q i i 0 0 i q y w 0 i w 0 i i i w i q i 0 0 0 0 0 0 0 0 q 0 0 0 0 w i 0 0 w q i i y i i i 0 0 6 0 0 i i y w q 0 i i 0 w w r e t o W ` o 1 1 r w O     o w r t y y u i o f aX-.j.s.. c x p p p t w i p w r r r y i t r p h p N.IXIXIX",
"IXIX] o w w 6 @ 0 0 w 6 ; ; ; w 0 0 8 w 1 1 1 o , w.d.4.> i x x D h p p       w t w 1 * B I M 1 w w w 0 0 0 y i 0 0 w y 0 0 i w 0 i i 0 0 i i 0 i 0 i i i w 0 0 0 0 i i i 0 0 0 0 i i 0 i i i 0 0 0 0 y w i w q 0 0 y 0 0 i i i 0 0 0 p p i q w y 0 w 0 0 0 0 i i 0 i i y 0 0 i 0 0 w i w 0 0 i i 0 0 w w w 3 q c 0 0 r w q w i w t t 1 r p t 1 t t t e 4 t t p 4 t c c t d a E.I.CX%X1XeX;X+XOXoX@X*X,X9X<X,X<X+X<X<X<X*X*X*X=X,X=X9X,X<X,X=X<X+X*X=X=X,X,X,X<XwX<X*X,X<X<X9X,X8X*X+X<X9XwX=X=XeXeXeX9X1X*X+X<X7X*X<X7XwX+X*X,X7X9X9X*X<X,XwXwX<X*X*X<X9X8X=X,X&X;X7X7X=X@X7X7X7X;X=X;X<X-X;X;XrX;X=X=X+X;X5X:X.XBXLX!., o i w x i p i t t r t i w 0 w 0 0 0 i i 0 i i w i w 0 i q 0 0 0 w w i w 0 i i 0 i i 0 w i 0 0 q 0 0 w i i i w 0 0 0 0 0 i i 0 i w 0 0 i 0 0 0 w i i 0 0 0 0 w w w 0 w i w y w w w 0 i 0 i i i w i y 0 i 0 w y i w q w w w i w w 0 w : y 1 o I ! 1 r t r w O     o w 3 e p u i q : b pX:.iX_.: t w t p t i w t p t t y w w y t y t p p N.IXIXIX",
"IXIX` o 1 w @ @ 0 0 1 w w ; 0 w 0 0 w e 1 t w ; $ f.j.4.< p p r i H p i       w t w w o M K M 1 w 0 0 w i i 0 0 0 0 i i w i i 0 i 0 0 0 0 w i i i i 0 w i i i 0 ; 0 0 i i 0 0 0 i 0 0 0 w w i i 0 0 w w w i w q 0 0 0 w 0 0 i i 0 0 q p i i w y 0 i w q 0 0 0 i 0 i i 0 0 0 0 i i y 0 0 y i i 0 0 0 i 0 0 0 0 q w 3 w r r 3 r r 3 r 1 1 3 t t t 3 t t t t n t 3 4 t x i i , & T.I.CX.X&XXXOXwX=X,X<X*X,X,X=X+X=X<X<X=X=X,XwX7X,X=X*X=X,XwX*X,X=X<X,X=X<X,X=X=X+X=X<X9X<X*X+X,X,X7X9X<X<X+X=X=X,X=X+X*X=X<X<X7X8X9X=X<X*X=X*X7X<X<X,X,X*X,X<X,X+X+X,X=X*X*X,X,X7X8XwX8X<X=X@X*X&X&X%X:X2X;X;X<X;X<X-X;X8X:X6XqX>X6XFXPX*.% M w x p i t p t y w w w q 0 w i 0 0 i i i w 0 0 0 0 0 i 0 0 w i y 0 0 0 0 i i i 0 i 0 0 0 0 q 0 0 w 0 i p i 0 0 0 0 @ 0 i i w w q ; 7 0 0 7 0 i i 0 0 w 0 y i i y w 0 i i i i i 0 0 0 0 0 w i w 0 0 q F i w w q 0 0 w i i w i 0 i w q p e o K ` o t p t w O     @ y 2 4 t i i : X v dX%.T.G.X x H p p y t w t p t t y w e r t t p t t N.IXIXIX",
"IXIX` @ 1 y @ 0 w 0 w w ; @ o ; q 7 0 w 1 1 1 o o s.y.4.t w p x u p p p       w r w 1 o h K M ; ; ; 0 w i p q 0 0 0 i i 0 i 0 0 w y 0 0 0 0 0 i i i 0 i w y w 0 q w 0 0 0 0 0 i i 0 0 0 0 0 0 i i i i 0 w p i w 0 w i i i 0 i i i w w 0 0 0 i 0 i i i 0 0 0 0 0 w q i 0 0 w w i p i 0 i p i 0 0 w 0 w 0 0 w w r ; : w t i l i q r w 1 1 3 r r t r t t t p n n 4 l t c x t % & Y.I.CX-X2XOX+X<X,X<XOXXX<X,X7XtXwX=X9X*X=X,XOX<X+X<X9X=X=X7X1XtX,X=X9X=X=XwX8X=X8X,X*X*X,X7X9X<X=X<X8X<X,XOX=X=X<X9X,X+X,X8X7X,X+X8X7X9X<X<X8XwX7X,X+X=X,X*X8X*XXX,X9X9X,X*X,X,X,X,X4X4X*X,X<X<X1X;X-X-X;X:X:X:X:X-X3X-X;X;X.X$X6XHXDXh.% % w w t r 1 t t t w w e r : q w r q w i i q 0 0 0 i 0 i 0 0 i i i i 0 0 0 0 i i 0 0 0 0 0 0 0 0 0 w q 8 w y 0 0 q w w 0 0 i i 0 i 0 0 0 i w 0 w 0 q 0 0 0 0 w i 0 0 0 0 0 i i i i w 0 0 i i i 0 i 0 i p i w 0 0 0 0 0 w w i i i w i i w t w o W ` 1 4 t t w .     + w w w 4 i u q X s pX=.E.D.  c x w w w t w t t y t t t w t p x M p w V.IXIXIX",
"IXIX] o 0 w @ @ 0 0 w 0 w o 0 ; 0 ; * w 1 1 w o 2 s.>. .v w x M y p h i       w t y 1 o M Y h % w w w w i 0 0 i i 0 w 0 0 w i 0 i q 0 0 0 0 0 i 0 0 0 0 w w 0 w i i i i 0 0 0 i 0 0 0 w 0 0 w i 0 0 0 0 i i i q 0 q w i i q 0 0 0 i i i 0 0 i 0 0 i i i 0 0 0 0 w y w 0 w q 0 i 0 0 i i i 0 q i w q 0 0 0 i r c q r r w r r r q t t r t r 3 r t t t 4 t t p t t t z t c x 5 a W.[.CX-XXX-X<X+X,X,XoX*X7X,X*X=XoX<XwX9X9X9X=X9X<X<XwX=X,X<X=X7X,X7X9XwX8X,X*X=X=X<X7XeX9X,X,X,X<X=X*XOX<X9X9X9X<X+X,X<X<X=X=X<X<X*X+X+X,X*X,X*X*X,X=X,X<X*X9X7X9X7X<X<X7XqX7X=X,X+X+X,X4X=X<X<X2X1X1X2X;X=X=X=XOX-XBX2X.X>XCXFXFX{.} % $ g i 3 i w w 1 w w w t i t i w r w w w w y w i 0 w 0 i i 0 0 q w 0 0 w y 0 i i i 0 0 i i p w 0 0 q w w w i w 0 0 0 i w ; 0 i w 0 i i 0 0 0 0 0 i i 0 w 0 w q w i i 0 0 0 i 0 i w y 0 w i w w 0 0 w w i p 0 0 w w 0 0 q 0 0 0 y w w w w q 1 1 o Y ` 1 r 2 y w       @ w t e 1 y p c X v pX=.E.J.. c w t M e r w w w 1 y t t w t p p p t 1 N.IXIXIX",
"IXIX7.X ; o 6 0 @ @ @ 6 ; w 0 ; 0 0 w 9 1 1 w o = S.i.4.B p p w u h A i       w r r 1 o M E M ; i i w w 0 0 w q y 0 0 0 q i p i i w 0 0 0 0 0 i 0 w i y w 0 0 q i i w i i i 0 0 0 0 i 0 0 w w i 0 0 0 i 0 0 w w 0 0 0 i q 0 0 0 0 0 q i i i 0 @ 0 0 0 w 0 0 0 0 0 i 0 i w 0 i i 0 0 0 i 0 0 i p w 0 i 0 i i w i t r i r q w : w t t p t 3 t 3 t c t r t t t t z 4 n t c t , & Y.U.VX%X.X<XeX*X*XeX<X,X9X<X=X<X+X<XOX,X+X<XeX=X=X=X=X*X9X1X,X+X=X<XOX,X7X+X,XwX=X<X*X*X+X*X8X8X<X<X8X7X9X7X*X=X=X,X9X7X8X<X<XwX9X8X<X=X1X=X,X9X9X,X+X9X9X=X,X*X=X+X+X*X,X,X*X*X,X1X<X9X4X4X4X*X,X+X1X;X*X;X9X7X5X1XoXXXBXFXGXgX%., & $ 2 o - c w t w w w w t t p q w r w i w i q i w i i i 0 0 i i i i 0 0 0 w 0 i i 0 0 0 i i w i q y w w w w 0 i 0 0 0 w y q 6 0 i 0 0 i i 0 i 0 0 0 w w i i i i q w i i 0 y i p i 0 q 0 0 0 w 0 q 0 0 q w 0 i 0 i i 0 0 0 0 0 0 w q i 0 w w r e p 1 W ` > 1 > r w       @ w t t y 9 y q o v zX:.T.S.  p i t y w w 1 t t w w w y t i p p t r 1 N.IXIXIX",
"IXIXv.. * + w w 0 0 w 0 1 w w ; 0 w e w 1 1 y ; $ f.R.r., 1 t p i H H p       w w y o * M E M % y 0 0 0 i p i 0 w 0 0 0 0 i 0 0 0 0 0 0 0 0 i i 0 w i i w 6 0 w w 0 0 0 i i i 0 i i i 0 0 i i 0 0 q i 0 y w 0 w w 0 q i i y p p i 0 0 w 0 0 0 0 i w i q i 0 0 0 0 w i i i i w i i q i w 0 y i i y w i i i 0 w r w : : w w 0 3 w 1 t t 1 1 r r 1 p 4 t p t < t z 2 z r i w % & Y.U.ZX%X&XOX*X7X,X<X,X=X,X,X=X<X,X=X7XwX,X,X*X<X7X7X=X,X,X*XtX,X<XwX1X=X,X<X8X8X=X9X<X9X*X+X,X,X,X=X<X=XOX=X*X9X<X=X<X*X*X=X=X<X+X*X=X7X9X<X<X<X+XqXOX7X=X*X*X<XwXqX9X*XXX*X8X7X1X<X,X1X4X4X9X7X,X,XwX8X*X;X<X=X#X$X:XFXGXhX,.l X = e u 1 z l : t 1 w w 1 w e t w ; w r w w i w 0 w 0 0 i w 0 0 0 p i w q w w w 0 i 0 i 0 0 i i 0 0 0 w y w 0 q w 0 0 0 w i i i w i 0 0 i i 0 0 p p i q 0 y w 0 i p 0 0 q i w 0 0 i w y w 0 0 0 w i i 0 i w i 0 q 0 i i w 0 q p i w 0 w i q 0 i r y p o K Q 1 r 1 r w   O O o 1 1 w e u i q . b pX-.Y.S.X p p i t e w w p p t t y 1 r p M p p p e N.IXIXIX",
"IXIX] o @ @ w 0 0 0 6 0 w 1 ; @ 0 0 9 w 1 1 1 o $ w.y.4.2 i H r u p D i X     0 w i t 1 h Y M o ; w i w i i i 0 0 w y i 0 i i i w w i i 0 i 0 0 i 0 0 0 i i w q 0 0 0 0 p i w p F i 0 0 w w y i q w w w w 0 0 0 0 i 0 q i i i w w w 0 w i 0 i 0 i i 0 0 0 0 0 i 0 w 0 i 0 w 0 0 q w w i i i 0 0 w i i w w q w 1 w i t : w r r r o r w w t t 3 w t z p t 4 p n z 4 4 i c p < & ~.I.CX-X%XXX=X,X+XoX<XOX8X9X*X,X,XwX,X,XXX,X<X=X7X<XOX,X,X<XOX=X+X=X<X7X,X,X,X*X=X9X+X9X<X=X<X=X,XeXwX9X<X7X<X<X<X1X,X<X7X*X+X,X<X<X<X,X,X,X<X7X=X<X,X,X,X7XwX9X7X8X1X8X,X7XwX*X<X1X<X+X,X7X4X#X+X1X+X-X3X1X-X X5XSXHXDXQ.a $ o > 4 1 o w t r w w t y w w w t p p w w 0 i i i i p i i 0 0 7 0 0 w i w w w i q w 0 w y 0 0 0 q 0 0 0 0 0 q q y r 0 q 0 i i 6 w i w 0 0 0 i i 0 i 0 p 0 0 q 0 0 i 0 0 0 0 0 0 i 0 w 7 0 0 w 0 q 0 w 0 y 0 0 i i y 0 0 i i i 0 0 i 0 0 0 0 0 i w 0 w 1 1 o K ` ; r > w t X     + t w t p y u i o v pX=.).D.  M p w e t i 1 y p y w p t r r p p p t w N.IXIXIX",
"IXIX+.o ; ; w @ 0 0 @ 0 0 1 ; ; 0 0 8 w 1 1 w 1 o 0.i.| > w p w w u p y       w t w 1 1 M E M o w r i w 0 i i w 0 0 0 w i 0 0 i 0 i 0 i 0 0 0 i 0 0 0 w w 0 0 q y 0 i 0 q i 0 i i w 0 i i i w i w w i w i 0 0 0 w i 0 0 w w 0 i i i w 0 0 i w i 0 0 0 0 0 i i i 0 i 0 0 0 y 0 w w 0 0 0 0 i i 0 w 0 0 w w w ; ; r i i w w w r r t 3 1 t z x r 3 t t p t t p z t 3 1 t i i < & E.I.VX1XrXXX=X,X9XOXoX=X=X9X9X=X=X*XOX=X,XwX,X*XwX,X7X<X<X<X<X=X+X+X,X,X<X,X*X=X,X=X$X,X<X=X*XOX+X+X,X<X,X,X<X=X=X,X8X<X<X,X<X7X*X7X*X,XwX8X*X*X8X*X,X,X*X*X8X<X*X=X=X7X*X*X=X=XeX<X*X,X=XoXOX0X4X1X<X1XXX>X%XCXFXAX{.b $ $ w > : > 1 w i y y y p r y t t t y w t r i w w q i 0 w w i 0 0 ; 0 0 0 q w w q i 0 0 0 0 w 0 w w 0 w 0 0 w i 0 6 w r w w w i i w w i 0 0 0 0 0 i i i w p q 0 i i 0 0 i w 0 0 0 w 0 0 0 0 : 0 0 0 w 0 q q 0 w 0 0 p p 0 0 0 0 0 0 0 0 0 w 0 i i i w 0 ; 1 t 1 W ! o 1 1 w w       o w t t e 8 p y O m lX<.iXG.  p i t w h p w t M t w t p p p p x p t 1 N.IXIXIX",
"IXIX] X * @ w * 6 @ @ @ ; w 1 ; 7 q w 8 1 1 w * = s.r.r.d r H t t p p w     X y t w > 1 h Y M 1 r w w w 0 0 0 p w 0 0 w w q w 0 w i i i 0 0 0 p 0 0 i 0 0 0 0 0 0 0 i 0 w q 0 p 0 0 0 i i 0 0 w w w w q w 0 w 0 y w w q i 0 0 0 0 0 q w i w 0 0 0 i y w i 0 w 0 0 0 i 0 0 w 0 i i 0 w 0 0 0 0 0 w 0 0 0 w w : ; : r t q : r c r r 1 t p t 1 r t 3 3 e r 4 t t 3 3 3 r r i < & E.I.ZX3X&X&XOX9X@X=XwX,XOXwX=X*X<X<X7X<X,X7X9X,X,X,XeX=XXXOX<X,X9X<X9X,X<X,X=X<X9X9X<XwX,X*X9X<X*X=X=X,X,X*X*X<XwX#X*X+X,X<X9X<X*X<X=X<X8X<X=X,X7X,X9X9X,X=X,X,X+X=X=X<X,X=X=XXX=X=X;XqX-X2X2X1X*X1X>X.X%XBXPXGXgXZ -   % 4 5 - l ; 0 i u t r u p i r t t y r 1 w r r 0 0 w w q 0 p p i i i 0 w 0 0 w i w 0 w w w 0 0 0 w w q 0 0 0 q w 0 q 0 q 0 w w i 0 0 w w q i 0 0 i i 0 0 0 i w w y w 0 0 i 0 0 0 i i w w w 0 0 0 0 i i i y 0 i i 0 w i i 0 i i 0 0 w w p q 0 i w q 0 i q 0 1 1 * W ` o t t y t       @ w w 1 e 8 y q X b zX} p.D.X i w t t r t w w p p t w p i i i p t y 1 N.IXIXIX",
"IXIX` . w w w w w 0 w @ 1 ; 1 0 0 : 8 w 1 1 e 1 $ s.y.t.n r H t u h p w       w w ; 1 1 h U z 1 r w w w q q 0 0 i i 0 0 0 w w i i 0 0 0 q 0 0 i 0 0 i w 0 0 0 0 i 0 i 0 i i q p i 0 0 i 0 0 q 0 y w y 0 0 0 y 0 0 i i p i i w w y 0 0 w w w q y w w i i i i 0 0 i i w i 0 q 0 i i i i i i 0 i 0 w i q 0 0 0 q w w r q 3 w q r r t 1 1 t 1 t t 3 t r 4 t t p n t 4 l c r p a & E.I.CX3X-X=X<X,XoX$X<X=X*X<X7X+XwX+X<XOXOX=X8X<X,X*X,X,X<X<X,X=X,X,X,X=X+X+X*X=X,X<X7XwX,X=XwX7X+X=X+X=X7X<X+X+X7X<X<X*X*X,X*X=X7X<X,X=X*X=X=X1X=X,X,X,X<X<X=X*X+XqX7X<X,X<X<X=X7X5XOXqX2X-X;XqX-XXX.X>XGXLXbX=.& . o t x 3 5 l 5 w 0 y i i t u t e r r e 1 w w t q r w 0 i w 0 w 0 0 i 0 0 y w 0 0 0 i w w 0 y w w w 6 q w 0 i 0 0 0 w i i w 0 @ w q q 0 6 0 i w i 0 0 w i 0 0 0 0 i 0 0 i q 0 p 0 0 0 i w w 0 0 0 0 0 0 w w w 0 w 0 i i 0 0 0 i w i 0 0 q 0 w q 0 i 0 0 0 p p q w * . W ` 1 t t t i       @ w w 1 t y y q o f aX=.T.H.o x i i r w t @ w t t t w e t e t t y r t N.IXIXIX",
"IXIX_ o w w w w 0 0 0 w 1 ; 0 ; ; w 8 8 w 1 r 1 $ s.i.y.m w x r u i u w       i t 1 w 1 h W g w w 0 0 i w 0 0 q i i i 0 0 q i 0 i 0 0 i w 0 0 i 0 i q w i 0 0 0 i i i i y i 0 0 i 0 0 0 0 7 0 i w q 0 i i 0 i i i i i 0 0 y i p i 0 i 0 i i i w 0 w i i i w i 0 i i i 0 i 0 0 w 0 0 0 0 w i w i 0 0 0 0 w w w c r r r w t r q : w 1 t w 1 t x 3 t w t t t t p t 4 t c i t < & T.I.CX-X%X-X=X+X,X9X7X*X9X+X+XwXOX<XwX8X9X1X*X*X7X<X*X,X7X=X*X=X=X,X,X9X=X,X9X=X,X9X=X*X=X,X,X<X9XwX<X*X=X=X=X1X9X7X<X<X,X9X+X=X<X9X,X,X,X,X,X=X=X=X+X+X,X,X=X=X,X,X,X,X,X,X,X,X1XXX-XqX3X3X3X-X.X>XZXGXDX2.s . = o * 9 y 0 0 r 3 w 1 w e t t 1 w t w w w 1 r r i r c i w w q 0 w 0 0 w w 0 0 0 i i q w 0 0 i w i i w 0 0 i w i w i 0 0 i i w w 0 i q 0 0 0 y w i 0 0 0 i i 0 i i 0 i w w p i 0 y i y i 0 0 q 0 0 q w q w 0 q 0 0 0 0 0 0 0 0 w i y 0 ; 0 q 6 w @ w i w 0 0 i r q t 1 . Y ` % t r y t       @ t 1 t y q u q X v pX:.).G.. F p t u t p w y w w t w t i p i i t r t N.IXIXIX",
"IXIX] X @ @ w * 6 @ 0 0 ; w ; ; 0 w 8 w 1 1 1 o * S.r.y.z 1 p t h p i w       i i w e 1 M E p o w 0 0 0 w w w w w w y 0 0 w i i i 0 0 0 i y 0 0 0 y w i i i i i i y 0 0 i w 0 0 0 0 i w w 0 0 0 0 0 y 0 0 i w i i i 0 0 w w w i i i 0 w 0 w q i 0 0 0 q 0 q y i i 0 i 0 p 0 w 0 i 0 6 0 0 w i i i w 0 i i i r w c r 3 w r r w ; 1 t x 1 ; 3 t t t 3 1 t t 4 4 4 4 t c t t < & W.I.VX%X X;X*X,X,X9XoXwX*X*X9X7XwXXX=X=X=X,X,X1X8X+X*X<XwX=X8X,X=X<X<X9X=X=X9X*X=X<X*X+X+X+X+X=X<X1X9X9X9X9XwX7X+X*X=X=X=X9X,X1X+X*X,X9X<X=X=X,X=X,X,X,X,X,X<X<X<X<X<X<X7X9X8X4X*XqXqX-X3X-X|.[.CXLXGX{.b . . o w M p 8 y i p c 1 1 t t i t w 3 r w w t w t r r t q r w w w w 0 w 0 q y i 0 0 0 i w i w 0 q i i i 0 0 0 i p i i w 0 0 w i w 6 w i i i w w i i 0 w 0 0 0 0 i i 0 i 0 i 0 y i 0 w 0 i q i 0 0 0 0 0 w w i w w w w w i 0 0 w 0 0 0 i i i 0 w w w w q 0 w i w w w w ; r t ; W ! o t t e t       o w t e i 9 y y + v pX| T.D.. F p w p r p t t w w p e t p H M h i t t N.IXIXIX",
"IXIX` . 1 + @ @ 6 0 1 0 w ; 0 ; 0 0 8 1 1 ; 1 . > s.| t.d ; p r u h p t       i p * w o M E p > r w 0 0 y w i i y q 0 q w w y i q 0 0 0 i i 0 0 i 0 i 0 w i w 0 q 0 0 0 i i 0 0 w w w i i 0 0 0 0 0 0 i w w 0 q 0 i 0 i p q q 0 0 y 0 0 0 0 0 i i i i 0 0 w 0 q 0 0 i 0 i 0 w 0 i 0 w q w 0 w i p w i i i i : w w w w w r r r : t t 1 ; 3 t r 1 M t p M z t t n t t x i i , & ~.U.VX%X1X+XeX=XOXOX+X7X1X8X=XXX*X7X8XwX+X=X9X=X=X=X<X<X,X+X9X9X9X7X9X<X,X,X,X<X8X*X9X9X7X<X8X<X+X,X<X<X*X=X,X<X,XwX7X=X=X*X=X<X,XOX,X9X,X+X,X<XOX,X,X<X,X=X=X,X=X*X+XXXXX+X,X,X+XoX@XoX$X XrXGXLXsX%.. . t 1 l q o 3 i A y w t 4 4 t h p i r w t r t r y t r t w ; q q w r w q r 0 q 0 0 0 0 0 0 i i i w q y i i 0 q 0 i i y i q 0 0 0 0 0 @ 0 i 0 p 0 i i w 0 0 q 0 0 i w 0 0 0 0 0 i q 0 w 0 0 0 0 0 0 w w 0 0 w 6 0 0 q w w q 0 0 0 w i 0 0 i 0 0 @ 0 0 6 0 6 0 q i w w w q w w t 1 W ` o t t t i X     + w 1 1 i w 9 y o b _.<.R.H.  x G i u y t r i w w p e r t p p p p t w N.IXIXIX",
"IXIX_ . w @ w w 0 w w w 1 ; ; : 0 0 8 w r ; ; o , s. .i.B i H t i p i w       y i 1 e * t Q M 1 r w w i w i w y c 0 y p p 0 @ 0 w 0 0 i w i 0 w 0 0 0 i i 0 w w w w i 0 i 0 0 i i q i i i 0 0 0 0 0 w i i 0 0 0 i i 0 0 i i 0 0 i w w 0 0 0 0 w 0 w w w 0 i i p i 0 i 0 q 0 y i 0 i i i i i i 0 0 0 0 i w w w i 0 : : w : w r i 1 r 1 ; 3 r t z t r 4 p t 4 t t 4 4 c c c > , ~.U.VX1X1X#X-X7X<XwX=XoX=X=X<X=X7X<X*X8X=X7X*XoX=X*X=X7X*X7X+XOXXXXX*XXX<X,XXX<X9X,X<X=X*X=X=X<X9X7X=X=X,X=X+X+X<X*X-X*XeX,X,X,X,XqX7X<X0X<X<XqX8X*X*X<XqX7X=X=X<X=X8X9X<X,X+X+X4X=X@X#X;XFXLXbX$.a . = e r w : : 5 4 w i e w p 2 t t i p i i w : x i t r t r w w t r w w i i 0 ; i i w 0 i i i i 0 i i i 0 w w w 0 w 0 y 0 q 0 0 p i 0 y w 0 0 0 0 i i i p i 0 r 6 q 0 0 i 0 i i 0 0 i p 0 q i 0 0 0 0 ; 0 0 q 6 w 6 @ 6 w i i w 0 0 0 0 i 0 0 i w q 0 0 0 0 w 0 w i w w 0 0 0 w w t o T ` o t 1 w y       + 1 w w e y S q . b kX=.p.S.X i p p M t r t h t w i 1 w y t r p x p t N.IXIXIX",
"IXIX` . 1 ; o @ ; ; w ; 1 ; 6 @ 0 0 0 * o @ w > > s.y.t.n ; p t y t p w       w w w i * p E p o r i i 0 w i 0 w i i i 0 i 0 q w w 0 0 i i y 0 q w 0 0 0 0 0 0 y i y q i w w w 0 i i 0 0 0 0 0 0 i 0 i i i w 0 w i 0 0 0 0 0 i i i 0 0 w w 0 i i w 0 0 q 0 w 0 0 p 0 w i i q 0 p i 0 i p w 0 w 0 i i r w w e t p 1 t t t o 1 1 t w r 1 w w 1 r 3 r t 1 t 4 1 p t 3 1 3 c t > $ ).U.CXwXOX7X8XOXOX9X7XwX7X8X<X<X*X+X,XOX+XoX7X8X7X<X=X8X=X8X<X=X<X,X=X=X=X,X7X9X=X,XwX+XtX9X=X+X*X9X,X,XqX,X=X7XqX&XrX8XqXqX-X<XqX9X9X+X,X8X1XwX2X9X1X,X+X,X,X,X,X1X*X1X2X7X7X4X#X$X;XFXLXbX,.k % % 2 e 2 1 r 1 2 t 3 3 i r r 3 1 t t r r w ; t c t w i c i c t ; t i w : ; ; ; w p i i 0 0 0 w 0 0 w i i 0 0 0 i i i w 0 0 w q y i w i i i i i 0 8 w w q 8 w y i w 0 0 0 i w i 0 0 w i i 0 0 0 y i i w 0 0 w 0 @ 0 w w 0 0 0 i 0 0 0 @ @ 0 i i i @ 0 i i i 0 0 i y i w i c i 0 ; 1 1 o Q Q : r w w w   O   + i i t 1 t y q . b _.O.R.J.* x x r w y t i y r t p p p x t y p M p w n.IXIXIX",
"IXIX] X 1 1 ; @ ; ; 1 ; ; w 0 ; ; 0 w w w 1 w 1 > s.r. .< w x r i p n 1       w 1 w i * t Y M 1 w y r 0 w i 0 0 i 0 w i 0 w i i y 0 0 0 w 0 0 0 w 0 0 0 w 0 0 0 w w 0 0 0 w w 0 i 0 0 i w w p i i i w 0 w 0 0 0 y 0 w 0 i i i i i 0 0 q 0 0 0 0 i i i 0 0 i 0 i i w w i w 0 q i w 0 q i i 0 y w p i r w 1 w w w 1 y p t y 1 r t w 4 > w w 2 w 4 4 r 4 t t 4 n p p x l z 3 & a sXI.CX;XOX,X1X1XwX=X=X=X<X<XwX,X+X=XwXeX,X<X<X9X=X=X=X=X,X=X7X<XwX<X<X9X8X*X*X+X*X*X*X<X+X,XeX<X<X,X*X,X<X=X,X<X,X,X:X-X;XqXwX*X*X+X,X@X=X4X*X1X,X+XOX1X,X,X=X3X<X<X<X-X-X:X=XoX$XCXHXJXU.b & % * 1 w r t t 4 t t t t t t 4 r 3 1 r t t t i c i : r w i i t r t q : q w w w r r c i i i i i 0 i i 0 0 0 0 i 0 i w w w i w 0 0 0 w 0 0 0 0 0 i i 0 q w q w 0 0 w w i 0 0 0 0 y 0 i i 0 0 0 0 0 0 0 0 0 0 0 0 q y 0 q w i w 0 0 0 0 q 0 0 0 0 0 0 0 0 i 0 0 i 0 0 0 w i w 0 i i 0 0 w w o W Q 1 4 t t r       # w r p 1 w w 7   b _.=.R.D.. p x t w M t r 1 y r p x p p p t p M p 1 N.IXIXIX",
"IXIX+.. 1 1 w o 0 : ; @ @ * 0 @ + 0 * w w 1 w - $ s.p.t.d w J t i p r 1     . 1 t w w o t R p 1 w w w 0 w i w y i q 0 0 0 0 w w i i 0 0 0 w 0 0 w q w w w w 0 w i 0 q 0 w q i i i w i y i i w 0 i i w 0 0 i 0 i q w i w i i 0 0 i 0 y w 0 0 w 0 w w w 0 0 i 0 0 0 0 0 y y w 0 i w y w w i 0 0 w w y y w w w t t w t t t t 1 r t 1 w 1 t r 2 r p r t 4 t p t n p t n c x t > & ).I.CX-XOX=X#X*X<X*X=X,X9X=X<X,X7X,X*X=X=X8X+X,X,X1X7X8XwX,X<X+X*XwX<X,X<X<X<X<X7X<X+X<X7XeX<X<X=X+X,XwX7X*X,X8X7X@X@X7X=X=X=X+X7X8X,X@X=X7X1X,XOX,X,X7X*X,X,XwX4X:X7XOX#X&X:XBXHXGX}.} & $ > , $ * w w w 1 4 e t t t t t r t t 1 r r w 3 t x c t r 0 w i t w q 1 : t r t i r r r i 0 0 i 0 0 w i 0 0 0 0 0 i w 0 0 i 0 w 0 0 0 0 0 0 i 0 0 0 0 i q w 0 0 w w y w i i i 0 w 0 0 w 0 w i i i 0 0 0 6 ; 0 0 0 w 0 0 0 w y i i 0 0 0 0 q w i i 0 0 0 w i 0 0 q w 0 q 0 w w 0 r w w ; r r o T Q ; 1 t y y       + w t t y p i i - Z ).:.R.D.. p x p h p r w t t t p p p p p i p p t 1 V.IXIXIX",
"IXIX+.X 1 w w ; 0 ; ; ; 1 w q @ 0 0 8 1 > w w % $ D.`.d.n w x p p p t 1   O   w w e e 1 n E p 1 w i w 0 0 i w i i i i 0 0 i 0 0 i w 0 0 0 i i i 0 w i i i w 0 q w i w w 0 w 0 w q i 0 0 i i 0 0 0 0 w 0 q p i 0 w i i i i w 0 0 0 0 i i 0 w i 0 0 y w 0 0 i 0 0 0 0 0 w w i i 0 w i 0 0 i q 0 0 ; 1 1 r r t y w w w t 1 r 1 t r 1 t r t r 1 c z t t t t t 4 p t 4 p z z c < & ~.I.CX8X=X=X+X2X<X<X*X=X=X7X*X=XXX,X<X+X+X*X,X<X+X,X*X=X*X,X=X<X8X*X=X7X9X<X=X*X*X,X,X=X,X=X,XeX<X*X,X,X*X,X8X<X+X0X4X0XuX=X=X#X=X,X,X9X7X+X#X@X,X7X=X,X7X1X+X1X9X0X#X$XXX>XFXLXbX;.v $ , 2 2 e p u t t t t t j t e t t r 1 3 r 1 3 w ; 1 3 x x i c 3 r c w w w : q r r i i r : w i 0 0 i i 0 0 0 0 0 i 0 0 0 i 0 0 0 0 i w i 0 0 i p i i i i 0 0 w w 0 w w i i i i i w i w q 0 0 0 0 0 0 i i q i 0 0 0 w i 0 0 0 w 0 0 w i 0 i i 0 0 y i 0 w i i 0 i i 0 0 0 0 0 0 i i 0 w w 0 q t r o T W > r t 1 w       o e w w w u i q - v (.-.E.H.. r p i h p w y t p t t p t p p p M M i 1 V.IXIXIX",
"IXIX+.. ; r w 1 w 0 * w w w w @ q 0 ; @ ; 1 w - % s.d.r.d * t r i M M t       w w 1 y 1 n E p 1 y r r 0 0 w 0 w i i w w i i i 0 0 0 0 0 w i i i 0 w i i w 0 0 y 0 y 0 0 q 0 0 0 0 0 0 0 w i i 0 i i i 0 i p i 0 w 0 0 i 0 0 0 i 0 0 i 0 0 w i 0 i i i 0 0 i 0 0 q 0 i 0 i i 0 0 i i 0 0 i 0 0 0 w w w w e w w w t r t 1 t 1 p t r t w r t r t p t c e t 4 t t 4 t n t l t < , ~.I.CX>XoXOX+X8X=X=X,X9X7X<X+XeXyX,X=X*XwX9X+X=X9X<X,X=X*X,X*X=X=X7X<X<X*XOX*X<X7X7X,X,X,X+X*X,X7X,X,X*X=X<X,X=X+X4X+X4X4X4X9X8X7XeX5X5X;X7X8X5XuX8X;X7X1X2X1X;XXX$X$X:XAXGXmXQ.s X o > 2 1 y i y t t t t e t e i 2 t t r 3 t t 3 3 1 r c c r r w c w 3 r r q w : w : r r r w q 3 i i y i i w w y i q i 0 q w w w i 0 i i i i i 0 y i 0 0 i i 0 0 w q 6 0 w w w w i 0 i 0 i i 0 0 i 0 0 0 + 0 i p i 0 0 i i q @ 6 y w 0 0 i i i 0 0 0 0 i q 6 0 0 0 0 i i i 0 0 0 0 i 0 0 i 0 0 w r t ; R ) 5 t r y y   O   + w w r r u i 0 . b _.-.W.L.o e p t p M t y t y w w p p h M p p p p w V.IXIXIX",
"IXIX+.. 1 1 1 1 ; 0 ; ; 1 w 0 @ 0 q 8 1 1 ; ; o % 0.y. .2 w p t i i t 1       1 e 1 w * p K n 1 y i i w 0 0 0 i i w w 0 w i y 0 p i 0 w y w w i i i w i i i w q 0 w w i i 0 i 0 w w 0 0 q 0 0 i i 0 i 0 0 i 0 y i i w 0 0 0 0 y i i i i 0 0 i 0 0 0 i 0 q p 0 w i i w i 0 0 q @ 0 i i w w i q i i e w 1 1 e e t 1 1 r 1 r r t 1 t t w t r 1 t r t t t 4 t t p 4 t p c r r , & ).U.CX-X.X+X,X<XXX,X<X=XwX8X1X=XoX=X<X7X*X1X=X7X,X+X=X*XwX8X9X<X,X=X=X,X<X7XwX9X*XqX,X<X9X9XoX+X*X=X<X8X8X,X+X*X9X1X<X<X9X4X4X7X7X5X=X;X5X5X;X4X7X=X8XqX-X-X;X;X$X&XVXHXDX{.b % $ > ; r p w w u y w 3 2 1 t e e u p t c t r t t w r r t i r 3 r t i w q r r c i r q 3 w w 3 w 0 q q w w w w w y w i p p i 0 y i i w i w i i y 0 0 0 i 0 0 0 i i 0 w q 0 0 6 w w q i i w 0 i 0 0 0 0 0 0 0 0 0 i w i 0 0 q i q 0 0 w i i 0 0 i 0 0 y 0 0 0 0 0 w w i 0 0 0 y p i 0 0 w i 0 w i 0 w w w @ T Q 1 3 w r u O     @ t w t t p i i #  .).=.R.D.. r x p p i t t t t w r p p p p p p p t 1 N.IXIXIX",
"IXIX] X ; 1 ; 1 ; ; @ @ @ w 0 @ 0 w * 1 1 - 1 o > s.j.r.2 r p t i y 1 ;   7   @ 1 1 w * z K p 1 i i i 0 i i 0 w 0 w w 0 0 i 0 0 i i i q i i q w i i i i w i i 0 0 w i i w w w i i i w y w 0 0 0 i 0 0 0 0 i q i i 0 w w 0 0 0 0 i i i w q w i i i 0 w 0 i i 0 w i 0 0 i 0 0 0 0 0 i w i 0 i i w t i w w w t t t 1 w r t r t 1 1 t t 1 t t 3 t 3 t z t t t n n t 3 z z c t , & ).I.CX1XOX,X<X+XOX=X<XXX*XOX=XtXtXwX9X<X,X<X*X,X*X7XwX=X8X=X=X,X<X*X,X9X<X=X*X,X1X,X9X+X+X,X,XeX,X+X,X*X,X<X,X*X<X3X3X1X9X<X4X9X4X5X5X&X5XqX<X7X<X*X+X;X;XXX X&XrXHXGXsX} o . % o : : w w w x t w t t t p g p A c p t t x r t r 1 t r w w : r i c t w i w : c t w r q 1 q q ; 0 ; 0 0 w 0 0 w y w w i i q i 0 i i i 0 0 w 0 0 0 0 i 0 w i i 0 i 0 w w q w w q q w 0 0 0 0 0 0 i 0 0 w i i i i i 0 w w 0 i 0 0 0 i i i i i i 0 0 0 w i 0 0 i w i i w 0 0 0 i i 0 0 6 0 i i i w 0 0 1 1 o R T 1 1 1 r i       @ t e w 1 i i q - b `.=.Y.s.. w p r t w t t t p i t e p p i i i p t w n.IXIXIX",
"IXIX` o ; ; 1 w ; ; 1 @ @ @ w 0 w w 8 * 1 1 w 2 < J.`.4., y p t p h M t       i w w y 1 M R r o w 0 q 0 w i 0 0 @ q q 6 0 i i i i i 0 i 0 w 0 0 i 0 0 0 0 w 0 0 0 q w w y 0 i 0 0 i i 0 0 0 0 w i 0 w i i 0 0 w 0 0 0 q i 0 0 w 0 0 0 i w 0 0 0 i 0 i 0 i i 0 y y w 0 i i i 0 i 0 0 i 0 0 0 i 0 w w w 1 w w y w w w 1 t 1 t 1 r r t t p p t c t 3 t 3 w t t x t p c r l p & & ).I.CX3X+X8X<X+X3X<X<X=X,X9X,X7XoX$X,X,X9X=X9XqX7X*X=X,X=X<X+X7X<X<X=X,X<X=X=X<X7X9X,X+X*X@XtX+X8XXX*X=X+X,X,X=X<X1X1X1X<X4X4X,X#X:X5X-X;X-XXX=X1X;X;X>X.X%XrXAXGXhX%.& . > w 2 t c l q r c t 3 4 t 3 < 4 p i i p w 2 3 t p p t t w w l 3 w i t r r r i w 1 r i ; r w w 3 q w 0 3 0 i i 0 q w i w w w q q 0 0 i w 0 i i q i w 0 0 0 q 0 i i i w i 6 w w w w w w i 0 0 0 0 0 0 0 i i q 0 6 0 0 i i 0 0 i 0 0 0 i p w 0 0 i 0 0 0 p i i 0 0 w i 0 0 0 0 0 0 q 0 0 0 + i i w q 0 0 0 r t o K R : t t p i       @ r 1 r w u q q - V `.:.~.G.$ p p r p p p i y w t y 1 t p t p M h p t n.IXIXIX",
"IXIX+.@ ; 1 @ w : ; w 1 w 1 0 0 0 0 w 1 1 1 w o $ D.y.u.4 w p t t z M 1       w t t p w h E p > w w y i w q 0 0 0 i i 0 0 i i 0 0 0 0 q 0 0 0 0 0 0 w q 0 q 0 6 0 i 0 0 0 0 0 i 0 0 0 i 0 i i i w i y w w w w 0 0 0 0 0 i i 0 0 i 0 q w y 0 0 i 0 0 0 i i 0 0 i p 0 0 i q 0 0 p 0 0 i i y 0 0 i r y w 1 y 1 1 w t y 1 1 t t w t t 1 1 1 t r 3 t 1 1 4 w t t t t n t 3 q l > , !.I.ZX%XoX1XOXoXwX*X8X+X,X7X<X=X=XtX7X*X*X=X<X*X=X<X<X*X=X9X9X*X*X=X*X<X7X,X,X<X,X+X,X9X=X*X*XOX<X9X9X*X=X,X*X=X=X,X,X+X@X7X4X+X7X9X7X2X2X2X3X1X=X-XOX$X:XAXHXJX<.& $ . > 2 5 o 1 5 1 3 t c n t 4 2 3 p t t c 0 ; 1 t M p t w t p t 1 r x 0 r w : : ; q w r q : : i r r q w w w w p i 0 w i q w 0 0 0 0 w i q 0 i i i 0 0 0 0 i w w 0 0 0 0 0 0 i w 0 q w w q w i w + 0 y 0 w i w w i p 0 0 q i 0 w i w 0 0 0 0 0 i y i 0 0 0 i w i 0 0 0 0 0 0 w p 0 0 0 i 0 0 0 w w i w 0 w w w t r ; T ) 3 z w y t O     6 y r w 2 p i q X f ).<.T.s.- p x w u p t i t w w w t p r p p p t i w N.IXIXIX",
"IXIX] o o 1 @ ; : ; ; ; 1 ; w 0 0 0 8 w 1 1 y ; > a.d.J.4 0 U p i p p w       1 1 1 w * p K p 1 p i i i w q w i 0 i i 0 0 0 w w w y i 0 0 i 0 i w i i i i i w w w w i 0 0 0 0 0 0 0 i 0 0 w w w 0 0 0 0 w i w w 0 i i i 0 0 0 w p 0 0 q 0 w y 0 0 0 0 0 y i 0 0 i 0 0 p p 0 0 q i p i q 0 q w i r e 1 w w w 1 r t r r 1 w t 1 t t w w t t 1 r t z t 1 2 3 4 t p 4 t r z z 5 a ~.I.ZX1X-X,X=X1XOXOX<X7X8X8X=X=X=X*X*X*X1X=X<X,X8X<X9X,X,X,X<X<X9X,X,X8X7X*X+X=X,X,X<X+X*X,X,X0X<X,X=X*X9X9X=X*X=X@X4X,X7X4X0X9X,X;X;X;X8X2X;X-X1X.X&XVXHXDX{.b $ $ 2 g 3 > 1 < > : 5 5 3 4 t 4 t e t n t 4 p c i p p t 1 t t t 1 t w w t w c i w q 3 w w r w t w w t r w : r r : q i i 0 0 0 w i 0 0 0 i w w 0 0 0 0 i w i i w 0 0 @ 0 0 0 0 i 0 0 q 0 w w 0 w i i 0 0 q y y i w 0 i i 0 0 i i w w q w i i 0 0 i 0 0 0 0 0 w i y w 0 0 0 0 0 0 0 0 0 q i i i i i i w w 6 q i w : t r - K W > p t t i O     7 t t w 1 i u c ; V `.<.p.S.. U M p t p t y i M p p p x p p p t p p 1 N.IXIXIX",
"IXIX+.. 1 1 @ 1 0 ; ; 0 w w w 0 @ 0 * w 1 1 t o % s.r.y.v ; x t i p p w     . w 1 1 w * p E p 1 i i i i y y w w w i q 0 @ 0 q 0 i w i i i 0 0 i 0 i i i w i i i q w w y 0 i i i i 0 0 0 w i y w 0 0 0 i i i w y 0 0 i 0 i 0 0 F i i w 0 i i 0 0 q w 0 i w i i q 0 0 i i i w q q p i i 0 0 w i 0 r i r r t w e p 1 w w 1 1 r 1 t r t t t t r t t t r 3 p p 4 4 n t t 3 c x , & ~.I.CX<XOX+XoXXXwXwX7X1X*X,X*X9X9X+X=X7X8X8X=X<X9X,X,X,X=X,X,X,X,X<X7XqX<X,X*X*X,X<X<X=X,X<X,X<X+X<X9X,X+X*X=X7X<X9X7X7X,X,X9X<X%X-XqX<X+X@X;XXX$XVXHXDXsX%.$ . 2 j 1 : 4 4 > 1 t 5 5 t 4 2 e t t t t p e 1 l r l t p t r 1 w r w x i r x r c c w q q w 3 : w w r r r r : w r r r 0 y 0 0 0 0 i i 0 y 0 0 w w i 0 0 0 i 0 0 i 0 0 w 0 0 0 0 i i 0 w w q i i w w i 0 0 0 p w w w w w i 0 0 0 q 0 w w y i 0 0 0 0 0 0 0 w w q w i w q 0 0 0 w q 0 i 0 0 0 0 w 0 w i i 0 q 0 w c w w 0 1 - K ` - 1 1 r i X     @ i t t w y i p o v ).<.R.s.  t i i p p t t p M M p p M x p p p p p t 7.IXIXIX",
"IXIX] . ; ; @ 1 w ; ; ; 1 * w 0 w w 8 w 1 r t > > s.&.&.n 0 p p u M A i       y t w w * n E p 1 w w w i i i r w w i i i 0 0 i 0 w 0 0 i 0 0 0 i 0 i 0 0 0 w w i i w 0 0 0 i 0 i i i i 0 w 0 w y i i i i i 0 0 q i i i i 0 0 0 i 0 0 i w w p i 0 0 i i 0 w i p i i i 0 0 0 0 0 6 0 w 0 0 0 w 0 0 w w 1 1 e w w p 1 w 2 w r r 1 t t r t t t t t t r 3 4 p n p t t g p l r r , & ~.I.CX%XoX=X$X$XOX*X+X+X=X,X=X,X+X<X=X<X,X7X*X,X,X=X=X=X,X,X<X=X+X*X,X*X=X,X,X*X,X8X,XeX9X9X9X,X*X+X8X9X,X7X8X8X=X@X7X=X1XwX2X-X1X8X=X=X=X.X$X;XAXLXbX1.a o $ u 1 t 3 5 5 1 1 t j t t t t e e p h e 2 p t r 3 : t ; 3 t p t t 1 1 t i w r r r w w 3 r r w r r w w r r w 3 : w q r 0 w 0 0 0 i 0 0 0 0 0 0 0 i i i 0 0 i 0 0 0 0 0 i i 0 i 0 i i 0 0 0 w i w q w 6 i 0 w w 0 0 q w i w 0 i w q 0 0 0 0 0 i i i w 0 i 0 w y w w w q w i i w w 0 q 0 0 0 0 0 0 y 0 0 i w i w i i w i w r X J W - 1 t y t       @ e r 1 w q y q X Z pX=.Y.H.o w x t p t i p x p r p p p p p p t p p 1 n.IXIXIX",
"IXIX+.o 1 1 ; 1 ; ; @ @ @ ; 0 0 w q w e 1 1 w o > w.>.t.4 ; J t i x M w       w w w w 1 M E t @ w w i i p p i q y i i 0 0 w w 0 0 0 0 i i 0 0 w i 0 w q w w i i 0 0 0 0 0 i 0 0 0 i 0 0 q w w i p i 0 i i 0 0 q 0 0 0 0 w 0 i p w i 0 0 0 w i i 0 0 0 0 0 i i i i i w 0 0 0 q 6 0 i i 0 w i w 0 w y w w t t w i 1 1 r 1 1 r 1 t t 1 1 r r t t t t z t 4 t t t p p n l c c , a ~.U.ZX3X,X9XeXeX,X=X<X8X8X=X<X<X9X,X=X=X*X=X=X1X=X<X7X7X<X,X<XqX9X,X<X<X<X9X7X<X9X,XOX,X+X*X<X,X+X*X+XOX*X=X*X+X<X#X7X1X;X2X1X1XtX5X5X5X.X:XDXHXJX<.v $ $ & u 8 t 1 c t 1 1 M H e p t t t e t p p p w t t t t 1 r 2 1 1 t p p t w r r r : w ; 3 w w r w w r c r ; q r w : w 3 0 ; 0 i 0 0 0 i w 0 0 i 0 0 0 0 0 0 p y 0 i q y 0 w i i i i 0 0 i 0 0 0 0 0 0 0 w 0 0 0 q w 0 0 0 0 i w w q 0 0 6 0 w w 0 w i 0 i w w 0 0 i w y i i 0 i w 0 w 0 6 w 0 0 0 + w i i i 0 0 i i q 0 ; r 1 r o K ) 1 3 t i i   O   + w 1 r t t u w . V zX<.R.G.$ 1 i p H i p p h t w e x p p p p t i t 1 N.IXIXIX",
"IXIX] o o 1 ; w 0 ; @ @ w * w w 0 0 w 1 1 * 1 o > s.i.4.4 0 x t p p M w       w 1 * w 8 n R t @ r y w w i i i 0 i 0 w 0 y 0 0 i i 0 i 0 w 0 0 0 i w w w i 0 0 0 i w i 0 0 0 0 0 0 i 0 y 0 q w w i 0 0 0 0 0 0 0 0 0 0 0 y w q i y i i 0 0 q w i w i 0 0 0 0 0 w 0 i w w w w w 0 w i i y w w w w e i w e p p t t w w 3 1 t t 1 t t r 1 1 r z z t r p t p p n n t t c c c c < , ~.I.FX3X+X*X+X-X*XoX*X<X7X,X<X+XOX=X=X<X,X,X,X<X<X<X<X,X=X*X,X<X7X*X,X,X,X*X+X+X,X,X<X,X*X,X+X9X=X<X<X9XwXtX8X=X7X9X9X2X;X-X1X3X3X6X$X|.ZXLXGX{.b , $ > d e e t t M t 2 r p p p p u u e t e t t e p 1 w t x t 3 t t t t w 1 t p t 1 r i w r : w i c r w 3 w i c : q r t w w 0 0 : i i i 0 0 0 w i 0 i i w i 0 i 0 q w 0 w i i 0 0 0 w w 0 0 0 i w i i i w i i i w w i w w i 0 0 q y y w w w 0 0 0 0 w y 0 0 i 0 w i 0 0 w w w w 0 0 w 0 0 q w 0 0 i 0 0 0 i i i i 0 0 i 0 w w 0 0 o r 1 Q ] 3 t : i u O     + e 1 t p i p p o V ).O.p.s.. H x x t i t i i t y y t p p p p t p i * n.IXIXIX",
"IXIX+.o ; ; ; 1 0 ; 1 0 1 w 6 w 0 w 8 w * - 1 o = L.d. .g x p x p x p 2       w 1 w w * n R p ; i w q 0 q i i 0 i w 0 i 0 0 0 i 0 i i 0 w 0 0 0 y 0 0 w y i 0 0 i i i i i 0 0 i w 0 0 i 0 0 0 i w i i 0 i w i q p p y 0 0 0 0 0 q 0 q p p i 0 0 i w w y 0 w 0 i 0 w w y i i w i i 0 w w y q w q 1 w 1 w y w 1 w w w t 1 1 w 1 t p t r r t t z r 1 3 t B n p t 4 4 p r 3 t > & ~.I.ZXOX#X9X=XXX9X7X<X=XOX*X<X1X<X,X<X<X8X7X8X8X7X*X,X=X*X,X,X+X+X,X,X,X,X,X=X,X<X+X<X9X,X<XOX<X*X8X8X7X+X*X=X;X,X8X=X<XqX<X<X=X$X$X6XFXGXsX} $ $ * w . t 4 > z 2 t x c t > 1 t M t e t r t 4 4 3 r 3 t e t t e e w p p w 1 1 t p 1 r t w p w r i 0 i i q r c r r 3 q w w w r 3 ; i i w 0 0 0 0 i 0 0 i i i i i i i 0 0 i i 0 0 0 0 0 q w 0 0 i 0 w w q 0 0 0 0 6 0 i w 0 i 0 0 w w i w w w w w q 0 w w q 0 w w y i 0 0 i w q w q 0 0 0 0 w w 0 0 i w 0 0 0 w y 0 0 w i 0 w i w ; r r ; K T > p t y i       @ t r ; w q i F o C pXp.T.D.# U G M p t w w t i t w y p M x p p M p 1 n.IXIXIX",
"IXIX] o 1 ; ; w ; : @ 1 @ @ ; 0 w w w w 1 o w * & G.).y.< r x p i t t ;       o 2 w y @ n E p 1 r w y i i p w 0 0 0 0 i i i 0 w 0 0 i w 0 w i w i q 0 i i i i 0 0 0 i i i i w w i w 0 q i 0 w 0 i i i q 0 w 0 0 q 0 0 0 i w 0 i p 0 0 0 i i i i w 0 0 i i i i i w 0 q w w w i i 0 @ 6 i i w w w @ w r e t w w e w t p t 1 1 ; t 1 t t w r t r r t r 4 t p 4 1 t 4 t l t i , & ~.I.ZXqX,X=X+X1XwX,X8XeX*X7X8X,X9X=X,X*X,X<X9X<X=X+X9XwX<X<X*X+X=X<X*X*X9XqXwX9X7X*X*X8XOX9XwX8X7X=X*X=X=X=X=X&X8X<X<X=X-X@X$X X:XAXHXbX-.s $ $ e i i i 3 4 p > 4 t 4 e 4 t p t r t r t 3 3 3 3 1 2 t p t t p e w 1 w 4 t t t r w ; w w 0 i : 0 w ; : i t r r r r r r q : q w r i i 0 0 w w i q y i 0 0 0 0 0 0 i i 0 i 0 w 0 0 0 i w 0 y i 0 i i 0 y w w 0 w 0 0 0 i q 0 i w 0 i w i w w q i w 0 q w i i 0 i w 0 i 0 0 q w w w 0 q w 0 0 y w w 0 0 i i i 0 0 0 0 0 w i 0 0 w 0 ; r w - H K - M t y t       + i t p x y p q X ..pX<.g.s.. p p t t 1 y i h M i t r t t p p i p t 1 N.IXIXIX",
"IXIX] X w 1 ; @ 0 0 w w @ @ @ 6 i w w @ 8 @ w % % s.r.5.m w p U H M p w       w w w e 1 M K p 2 r r p 0 0 0 0 0 0 0 0 i i i i w 0 0 0 i 0 0 0 i i i 0 0 0 0 0 0 0 0 y q i 0 0 + 0 i 0 0 i w 0 i p 0 0 0 i i 0 0 0 w i 0 0 w i w i i 0 0 i i i i 0 0 0 0 w w i w i i 0 0 i q w p 0 0 i i w 0 0 w p p y ; r t 1 w t t i i i i y 1 w 1 p t r t 1 t r 1 t t t 3 z p 4 3 1 r t > & E.I.BX<X,XOX&X<X+XOX+X9X<X7X=X*X,X*X*X<X<X,X+XoX0X9X+X,X,X7X9X8XeX5X&X5XOX*XOXOX,X<X<X1X+X,X4X1X,X+X,X8X4X*X<XOX;X-X-X&XXX$X.XFXHXJXu.f . $ > < 4 3 t t t z 3 3 z p z t 3 z t t t t t c p 4 1 1 3 z t w 1 t t t t w t t w t e w t w r w w t p p r 0 0 w i w w 0 0 w i 0 i i i i 0 0 0 0 0 w i 0 + y i 0 0 0 0 i i i 0 0 i i 0 0 i i 0 0 i 0 0 0 0 w i w 0 0 0 w 0 0 i i 0 0 0 0 0 w 0 0 q 0 0 0 0 0 0 0 0 0 i 0 0 w 0 0 w i i 0 0 w 0 0 0 i i q @ 6 0 0 i 0 0 0 0 0 i 0 i y i i r t r o R Q ; t w r y .     @ y w t t w w w X b ).:.Q.G.X t p p t p p p M M p r y w y t y t i p 1 N.IXIXIX",
"IXIX] . ; w 1 6 0 0 0 w 1 1 1 * w q 0 @ w w i 1 a f.&. .l r e w t p i 1       w w 1 e 1 M K t 1 w w 0 0 0 0 0 0 w i i i i i i w i 0 w i i 0 0 0 w w i 0 0 0 0 0 i i w 0 0 i 0 y 0 i i 0 i q 0 i i 0 7 0 w w i w 0 0 0 0 0 i q 0 i w 0 0 0 0 i 0 w 0 i i i q 0 0 0 i 0 i i i w i q 0 w i i 0 w 0 p t y w w w w w y t p t t t e w t 1 t t 3 t 3 t r 3 t t z t n z g t t w w % a ~.I.ZX3XOX-X-X=X,X*X*X+X*X*XXX*X,X7X*X,X9X=X,XwX9X,X+X,X*X;X=X;X;XeXeXqXwX<X<X=X1X=X<XqX<X,X1X4X+X2X8X9X7XeX1X=X1XqXXXXX.XVXLXJX{.v X . * 1 1 1 3 1 t t 3 t t t t t t r t z t r 3 t t t z t w 1 t t 1 w t t w w e w e t w w w w t y e t y i i i r i 0 i i 0 w q 0 i y i i i i i 0 0 0 0 i i i 0 0 w i i w i 0 0 0 0 0 0 i i 0 0 i 0 0 0 i i 0 i i i w 0 0 0 0 i y i w i 0 0 0 0 0 0 0 0 0 0 0 0 0 0 i i w 0 i w q w 0 0 0 i w i 0 i 0 0 i i 0 i 0 0 w w i i i 0 i i 0 i 0 q w w i r 1 o K Q : t r r r       0 w w i i w t i o ..iX<.!.G.  x t t z p t t p A M x M i p p t p p i 2 n.IXIXIX",
"IXIX] o 1 w w 0 0 0 6 0 w 1 w w 0 0 0 ; w w i > = f.t.*.4 p F H i p e w       w t w w > M R z 1 t w w w i q i p i 0 0 0 0 q y q i i 0 0 i q i y 0 i i 0 0 0 i i i i w 0 0 0 i i i i i i i i 0 w 0 0 0 0 0 0 w i i 0 0 q y 0 0 0 0 i 0 0 q 0 0 i q w 0 w i w 0 y 0 0 y i 0 w y i i 0 0 y y q p i y w r e 6 1 t @ 1 y w w 1 w w 1 t r t w 1 r 3 p t 4 r x t t z z z z x x x > a ~.I.CX3XoX=X1XoX+X<X7XOX,X,X+X7X<X<X9X<X7X+XOX,XoX,X,X,X<X7X<X=X#X#X8X=X8XXX*X<X9X,X*X1X<X,X7X4X,X7X7X8X8X,X+XwXoX.X.X2XFXGXhX| $ 5 > < 4 > : : 1 4 t 4 3 t z t 3 3 r 3 r p t r 3 c t t t t r r r 1 t w t t t 1 w w t t y 1 w y w w w u y w w y r p i 0 i i i i 0 i p i 0 0 p i 0 i 0 0 i i 0 0 0 0 0 q i i i 0 0 0 0 0 0 0 i i i 0 q w y i i w 0 i 0 i i q 0 0 0 i 0 0 0 0 i i 0 i 0 0 y w 0 w y y i i 0 0 i i 0 w q w 0 w i i y i i i 0 0 0 w 0 i 0 0 0 0 0 0 0 0 0 w i w w w r t r ; K W > i 3 r y O     @ r e i w 1 : i # C ).=.g.w.  z t w p p p t p p h p M x M p p p p t w N.IXIXIX",
"IXIX7.@ 1 w 6 @ 0 0 @ @ @ w w w q 0 0 ; w 0 r o d f.r.o.n M p u h p p 1       0 w 1 w w M R p 1 r w 0 w w i 0 i i i i w i p i p i i w i w w i 0 i 0 i i i 0 0 i i i w 0 0 0 0 0 0 w 0 w i i i w 0 i i i q 0 w i p i 0 i i 0 0 0 w 0 w 0 0 w 0 0 0 0 y i i w w 0 0 0 w q 0 0 i 0 i 0 0 0 0 i i i w w y y y y t w y e t t t w e w t 1 t 1 3 t t z c p 3 x 4 z t t z t c x x , a E.U.BX-X$X,X2X+X1X=X<X+X9X<X=X,X<X+X<X*X+X,X<XwXtX1X,X,X<X8X=X9X=X5X5XoX+XXX,X,X4X,X,X<X-X,XwXeX8X5X:X&X;X+X,X#X X6XFXLXJX-.a $ $ < 1 t > 1 z t t c t r 1 3 z t 3 w t 3 r z p t p t 1 3 r t t 3 r 1 w t t r 1 w w i t p t w w t w w 1 w w i e y e y i w i i i i 0 0 q i 0 i 0 i 0 i w 0 i i i 0 i i i w w 0 0 w i w i 0 0 0 i 0 0 ; w 0 7 0 i i y 0 0 0 i p w 0 0 i 0 0 0 i i i w 0 0 w i i w w i w i i i i i i i 0 0 w y w q w w i 0 0 0 0 i i i 0 0 i i i w i 0 i i i 0 w w q w r r ; R ) 1 z r w y #     o r w u i w w p %  .).=.h.w.  M M p p t i i p p i i r p p M x x p t w 8.IXIXIX",
"IXIX] X @ o @ @ 0 @ 6 @ 0 * w @ 8 w ; : w @ w o $ 0.t.*.5 : t p p p p 1       y 1 w e 1 p K t 2 w y w q q w w 0 w i i i i i i A i 0 0 i w i 0 i w i 0 0 w 0 w 0 0 0 0 i 0 0 0 0 i 0 0 w 0 0 w 0 0 i 0 0 w 0 i i i y w i i 0 0 i i w 0 y w w w w 0 0 0 i i i i 0 0 0 i i 0 0 i i i 0 0 w w i i 0 1 y w w i i w y t t t i t y w w w t 1 t 1 t z p i z 3 t t z 3 3 4 t t w y , a ~.I.CX3X+X1X-X,X,X*X,X<X9X,X,X*X,X*X=X,X<XeXeX+XOX8X,X+X1X,X+X<X,X9X;X*X7X,XtX,X,X8X#X=X7X,X;X&X#X@X5X5X:X%X.XoXVXHXJXh.b $ & = j > r 4 1 1 3 : r n t 3 3 t 3 3 t p z t r p z p z 4 1 w 4 t t r t t w t t t y t i i e t p w r t w t w w e t y t y i w i i i i i 0 i 0 0 i 0 0 0 0 w y i 0 0 w i 0 i p i q 0 0 0 i 0 i 0 0 0 i i 0 ; 0 0 + 0 i q i 0 0 0 0 0 w i F p 0 0 y i i 0 0 q 0 0 w i 0 0 0 q w i i i i i 0 0 0 i 0 0 i 0 0 w i 0 w w i i i 0 i i w q w i i i w w q w q 0 w 1 1 - I Q - t t r r O     @ t w c i t w y .  .dX<.h.H.o h H M t w t t t p p p t p h p p x x t e N.IXIXIX",
"IXIX7.@ 1 w 6 w 0 0 0 0 1 1 @ @ 8 q q ; w 1 w o a 5.*. .n x p i e p i w     X w w w t 1 M K t : r p i w q w w q 0 0 w i 0 0 0 0 0 i 0 0 w i i 0 i y 0 i i i i 0 w 0 0 0 0 0 w 0 i 0 w 0 0 0 i 0 w i i 0 i i 0 0 q 0 w i w 0 0 i i i 0 0 q w i y i 0 0 i w 0 0 0 0 0 w i i i i i 0 0 0 i i w i q y i 1 @ e t 1 i r y e w r w 1 1 1 t w y r 3 p t 3 t w t t t 3 t 2 t x c t % a ~.I.ZX1X%X-X<XwX*X,X,X8X7X,X=X+X<XeX*X7X,X+X,X8X8X,X4X,X,X<X*X=X+X8X7XeXqX,X,XOX,X8X#X@X7X<X=X&X;XrX#X&X X|.CXFXDX}.Z $ . = 8 8 h t z z t t r 3 M c 3 r t p t 3 p n p r 3 r 4 3 r r r 1 w r t t t t t 1 t i t i p t y r t e w w 1 t w w w w w w w q w i 0 0 i i i i 0 i i i 0 0 0 0 w i 0 0 0 i 0 0 w w i 0 0 0 0 y 0 0 i i i 0 i 0 w i q i i 0 0 0 0 q 0 0 0 w i i i 0 i w 0 0 0 0 0 0 w 0 i 0 0 0 0 0 i 0 i i 0 0 w 0 i i 0 0 i i i w 0 i i 0 0 0 0 0 0 0 0 0 i 0 0 w w w i w r w 1 o K T - r t y r O     6 y r i w w : y   o.dX:.g.H.X p p p w w r y y t p p p t p i h M p t 1 N.IXIXIX",
"IXIXv.o w w w w 0 0 8 w w ; w w w 0 w q y 1 w . a D.t.*.v r p u p p t ;       w e w t 1 M K p 2 t w w 0 8 w w q 0 w q i i w w i 0 w i 0 w w i 0 i w w w q i i i i i 0 0 i 0 i i w 0 0 q + 0 y 0 i w q y w i 0 + 0 w 0 0 w 0 i 0 0 i 0 0 0 0 0 i i 0 0 w w y 0 w 0 w i i i i w w 0 0 0 i w i i w w e w w y y r t p w w t t t y t 1 t w t t r p w r t t r c t t z 3 t x x p , a E.I.BX1XoXXX-X1XXX<X=X=X=X,X+X=X=X<X=X<X<XXXOX,X=X*X=X7X1X7X<X,XOX@X=X*X+X+X<X,X=X@X0X0XOX1XrXeX-X&X XOXrXAXLXnX} 1 . d = h u w h e t z l t t w r t r 3 t n t 3 t t t r 3 t r 1 w t r w t t t r t y w w y t i t t w w y t t y 1 w w y w w w w w 6 q i i w 0 w i i q i i i 0 i y q 0 0 w q 0 0 0 0 0 0 0 w i 0 i 0 0 0 0 i i 0 0 0 i w i i w 0 0 0 0 0 y i w 0 0 0 0 0 0 i i w q i 0 i i 0 i p i 0 w 0 0 0 i w 0 0 i i 0 0 0 i i 0 0 w i 0 0 i 0 0 0 i y i i w i i 0 0 q 0 w r i r r r ; K T o 4 r w r #     @ y r i w r t S $ r.dX=.g.H.o M M t t t t t w r p p p i i t p p p t w N.IXIXIX",
"IXIX7.@ o @ @ # @ ; @ w @ @ @ w 9 0 i w y w w . & D.4.*.4 r h p t p i w     X r 1 1 1 * n I p 1 p w 6 q w w w w 0 0 0 0 0 i i i 0 i i i i i i i w q w w 0 0 i i i 0 w i 0 i 0 i i 0 i w 0 0 i i 0 w w 0 i i i 0 0 w 0 0 0 i 0 0 0 0 i i i 0 w w i w 0 w q w q w i i w 0 0 0 0 0 i y i 0 0 0 w 0 w w i p y t p t t w 1 w w t r w 1 t 3 t z t z 3 t t t r n 4 t z n z i r p 2 a E.I.VX3XoXXX*X+X9X<X<X*X<XtX,XwX,X<XeX<X<X<X=X,X,X<X1X7XOXOX,X7X=X=X9X,X<X,X<X8X,XuXuX*X+X*X1X%X%X:XBXCXGXbX:.& . t t 1 h u j u p t r i 5 2 t p M 3 t t t n c 3 1 3 r r t x z t t t t t t w r t w t t w t i e w 1 t t w w t t w w 1 e t w y r y w i i i i 0 y 0 0 0 p p 0 0 i p i 0 0 0 i i 0 0 p i i 0 0 y i i i i 0 q p p 0 0 0 0 0 w p 0 i p i 0 i i 0 0 w i i i q w i w 0 0 0 i i w 0 q i i 0 i 0 w i i i i 0 0 0 0 0 0 0 0 0 0 q i i i 0 i 0 i 0 0 0 0 i w i w i i w w w w q 1 w - R Q 1 p p w t O     @ w t w 0 w w p .  .W.=.(.H.  M p y x p p p i t p p x M p i p F p t t N.IXIXIX",
"IXIX7.o @ 1 @ @ 0 0 @ @ 1 @ @ 1 w w : w w w r . j f.&.4.t i p p t p p w       r r 1 1 1 M J 2 1 i w w w 0 0 w i w w q 6 0 i 0 i 0 0 0 0 0 q i i i i 0 0 i p y 0 0 0 0 i y p i 0 0 w w i i 0 0 0 0 0 0 0 0 i i 0 i w i 0 0 i i i i i 0 0 i w 0 i 0 0 i 0 i 0 i i i i 0 0 0 0 0 0 i i i w 0 0 0 0 * w e y y t t 1 1 1 1 w r t w t r 1 1 r 3 r t t t z z t t l i t z z t c p < k ^.I.BX-XXX2X8X<X4X=X+X7X<X+X*X,X<X*XeX9X7X<X9X9X<XwX=X*X7XwX=X+X,X<X<X1X<X<X<XqX*X5X=XOXeX;X$X[.&XVXHXDX2.f . o > t w 1 3 z z i t t i p t p t p p t x p r t t t c z t t t p t 1 1 t t r w w w w w t 1 1 w w w w t y 1 w r t 1 1 w w t y w w e e e 0 i i 0 0 0 0 0 w 0 i i i 0 w p 0 w i w i i 0 0 0 p i 0 0 w i 0 0 i p q 0 w i 0 i 0 w i p p i i 0 i i y 0 0 0 i 0 0 0 i w 0 ; q p i 0 0 q i i 0 0 w w i 0 y 0 i i i i 0 0 0 i i i i 0 0 i y 0 i q 0 0 0 w i 0 i i i i i 0 i 0 0 w r o W ! X r t p S #     ; t 1 w p w : i o 4.).:.).G.  M t p p p U t p i p M h p p p p M x y t V.IXIXIX",
"IXIXv.o @ w w w 6 0 @ 6 1 @ @ @ w w 1 1 w 1 1 X & s.&.5.< r M M e p i w       y t 1 1 1 M K t r i i w w w 0 w i i i w w i i i 0 0 0 0 0 0 0 w w w 0 0 0 i i q 0 q y w i i p 0 0 w 0 0 y i i i 0 0 0 i 0 0 i i 0 0 i 0 i w 0 0 0 0 i 0 0 w w i i i i i i w 0 0 i w i i 0 i i i i w i i i i 0 w i w w y w 1 w w 1 t 1 w r t y t p 3 t w r t 3 t r 3 t t t 3 t c 4 t 4 t i p 4 k !.I.CXqX*XqX1X*X1X,X,XOXXX8X9XOX*XXX+XoX,X=XOXOX*X=X;X8X9X<X<X,X=X=X7X=X*X;X-X-XqX#X&X;XXX.X6XSXHXGX{.b . $ e < 3 4 3 > 5 z z 3 r t p p t t g h h t n p 4 t t t c t r r t z p p r t r r t t t t 4 y w w r t y e w t 1 1 y w w 1 w t w w w w y i p i w 0 0 q i i 0 w 0 0 i i w 0 i 0 w 0 q i i w w 0 0 0 0 i i i q i i 0 0 0 0 i i i w i i q i 0 0 0 i w w 0 0 i i i 0 w i w 0 0 w w w 0 i w 0 0 i w 0 0 0 i i i 0 0 0 i 0 0 0 0 i i 0 0 0 0 i w i w w i 0 i 0 0 i i 0 0 i i 0 w q r 1 X K Q X 3 r r y       * w w p y : x p    .dX-.).G.  h t p p p p r p t i i p p i i t p t 1 w C.IXIXIX",
"IXIX7.X w 1 @ w 0 0 0 0 1 @ @ ; 6 0 ; : ; ; 1 . k f.4.5.v r t w e i i *       y r w 1 1 M U t 3 y w w w w 0 0 q w w w w w i 0 i i i y p i i i i i 0 i i i 0 w q w i i 0 q i i 0 0 w i w 0 i i 0 w i w i i i 0 0 0 q i 0 i i y w 0 0 w i i i i w i i 0 0 0 0 0 y i q y w i i i i q w i i 0 w i i w w w w 6 w 1 w y w e y w w r p w t 3 t t t t 3 ; t r w 3 3 t 4 t 3 t i t , a !.I.ZX-XOX=X-X*X,X+XOX<X,X*X,X<X9X7XtX9X9X<X9X<X,X8X;X=X*X+X,X,X+X;XOX;X;X-X:X%X>X>X>X X%XBXFXLXhX} $   > 2 1 4 t 3 5 1 r t z 4 < 4 t t t t p d 4 t z c t t 3 w t t w w r t t t t t 1 1 t t t w w o w w t t t y w w w 1 2 w y w w 1 w y w w y w i i y 0 i i p w 0 y 0 0 w i i 0 0 w i 0 y w i q i q 0 i w i w w 0 i 0 6 0 0 0 0 0 0 i i 0 0 0 0 y 0 w w 0 0 i i i 0 y i i 0 @ 0 y w 0 q r i 0 w p i i 0 w i i 0 0 0 i i 0 0 w i i i 0 i 0 0 0 w i y w 0 i i 0 0 i i w w i w r i w r 3 X K Q : t r w w       @ w w w w 1 3 i . r.dX%.Q.S.. M p u p i t w p p t t p M p M p h p t p Z.IXIXIX",
"IXIXv.X @ 1 6 @ @ w 6 @ w w @ 1 6 0 ; ; 1 w y o a D.t.4.z 1 t e p i t w       w w w t 1 M J 3 1 w q w i y w 0 q 0 w q 0 0 i 0 i 0 0 i q 0 0 y i 0 0 i p p 0 w w i w w w q 0 0 i q i i 0 0 0 i w 0 i i i i i i 0 6 q w 0 0 i i i q 0 i p w y i q 0 0 0 i w 0 0 w i w 0 i i 0 w i i w w 0 0 0 0 i 8 w w w w y t y e w w w 1 1 e i r e 1 r t r c i 3 i t 3 t 3 z t t l t i t % a ~.I.3X-XeX-X*X2X+X,X8X<X*X7X<X+X9X<X,X*X<X*X+X*X,XeX<X*X=X,X,X<X9X7X;XOX&XqXqX&X;X%X>X>XGXHXhX-.% > # e p ; 4 z 3 4 z t r t n l 4 l 4 v t g 4 4 1 t z z t t t 3 w t t 2 t w 1 r 1 r t 1 w r w e y @ 1 e w w e w 1 w w w w w t t e w 1 y r w 1 1 w w w w w q i w 0 i w q i i i 0 0 i i 0 0 w 0 0 i i y i i 0 0 0 0 i 0 0 0 0 0 0 0 0 w q 0 0 0 0 0 0 0 0 0 q 0 0 i w w q i i 0 0 0 i 0 ; 0 i i i 0 i 0 i w q 0 0 0 0 0 i 0 0 0 0 i i 0 i p 0 0 0 0 w i 0 i i 0 0 w i 0 i w q w w w w w o K Q ; M t 1 y O     @ e w w c 3 ; 6 . 5.).$.(.S.. p h i i t t y x p i p H p p h i p p w t Z.IXIXIX",
"IXIXv.X @ w ; w @ 0 @ @ 0 w @ @ w w 0 w w w e > & D.r.*.< t x p e i i w       w 1 w t 1 M K t 1 1 0 w i i w q i w y 0 0 i i 0 w i 0 0 0 0 0 0 0 i 0 w y w 0 0 i 0 0 i w 0 w 0 i 0 i i w 0 0 i 0 i q w i i i w 0 i i w 0 q w w 0 w q w y 0 w w 0 0 w y w w 0 i i w w 0 i i 0 0 0 i i i q i 0 i p w w w w y e t w r 1 t w w w e t r w 1 e t t t w 1 t 4 p t r z 4 n 4 i c h 2 k {.I.3X%X1X.X%X9X+X<X7X=X+X8X7X*X,X+X+X,X,XOX=X=X7X+X1X,X7X9X=X*XwX=X;XeX;X>X6X:X[.|.DXLXJXh.f . , * 1 p t r t t n p L p t z n p t n l l l 4 l 4 t t z 3 r t 4 r r t p t r w 1 t 1 t 1 w e w 1 w t w p p t y r i y t y w w t t w w w w e t y 0 w w 0 i w 0 0 0 w i i i 0 q 0 i w 0 i i 0 0 y 0 0 w i 0 0 w 0 0 0 0 i i i 0 0 i i w 0 0 i 0 0 i i 0 0 0 i 0 0 0 0 0 i w w i i i 0 i i w 0 7 0 w w 0 0 0 0 0 0 i w i q 0 0 w 0 0 0 w 0 0 i p 0 0 0 0 i q w w i 0 0 i w w w w w q w w w 1 1 K E 1 t t w w X     @ w w i r : 3 i X  .dX-.W.w.  y p i i i M p H p i p x i t p t i p w t C.IXIXIX",
"IXIX7.X @ 1 6 @ 6 q 0 @ w 1 ; ; w w ; 1 w w 1 o a s.&.*.B : t p t t t 1       w 1 1 e 1 p K t t y w 0 w 0 i i p i i i 0 i i i i i i i i 0 0 i w i 0 0 0 i w y w 0 0 0 i i 0 0 0 0 0 y w 0 i 0 i w 0 w i i i 0 0 i w 0 0 0 i 0 0 i 0 0 w 0 w i w p i w 0 0 0 0 i i w i 0 q 0 w w 0 0 w i i i i 0 p y w w w w w 1 w r w w w t t w 3 t 1 t t w 3 3 1 t r p t 3 z t t 4 i x p 2 k !.U.ZX1XOX;X<X<X+X*X+X8X9X,X1X<X<X+X<X9X,XXX8X8X*X#X<X<X,X9X,X+X,X:X:X;X6X:X X>XCXLXPX{.b $ . h 8 p r 3 5 t 4 2 4 p A h t 4 t t z t t 4 4 4 5 t c t t r t z c t t t t r t t 1 w t r t t w w 1 w t y t t w y i i i r e t t t y w w t e y w w w i p p i 0 0 y w i 0 p i i 0 0 0 i w 0 i i 0 w w 0 w p 0 0 0 y w i w i p 0 0 i p i 0 0 i y i i p i i 0 0 0 0 0 i 0 w i w 0 0 0 0 0 i 0 i i 0 0 w i 0 0 0 0 0 i i i i 0 w w w 0 i y i i 0 0 i q i w i w i y w i 0 0 i q 0 0 w 0 w w w 1 1 1 K W 1 t w 1 y       @ w w r w - c c . 5.iX-.j.S.  t p t w t H p M p p p p p p p t p M t t C.IXIXIX",
"IXIX7.. @ 1 @ @ 0 0 0 6 w w 1 1 w w ; 1 * 1 w . m G.u.e.V : r U y w y @       6 1 w 1 o t N t t t w w 0 0 w i i w i 0 w i i i i w i 0 0 0 0 0 0 0 q w q 0 i w w 0 0 0 i i 0 0 0 i 0 0 w 0 0 0 i i 0 0 w 0 q y w w 0 0 0 0 0 0 i i i 0 0 w w w i i 0 0 q 0 0 0 0 0 i i 0 0 0 i w 0 0 0 w i w 0 0 t i w y w w w t 1 w 1 1 w w t w r t w t t 3 w 3 3 t 1 z t w M z t t t c p , k ~.U.ZX3X.X&X&X*X7X=X8X,X=X9X8X+X=X9X@X,X9X,X<X=X=X1X8X<X,X,X,X,X+X:X:X&X|. XZXFXFXgXb % . < 4 % t 4 t M z 4 < t M p p p t 4 z t p r p i i r r 3 c r t t p x t t p t t w r 1 t 1 w t w w w w w e r w w r y w t i e t r i p t w 1 e t w w w w w i p y q 0 0 0 i 0 w i w w w q w w i 0 i 0 i w w q 0 i q 0 0 i i 0 q i 0 0 0 0 i i 0 w i 0 i i i i i 0 q w 0 0 0 w y w 0 q 0 0 0 0 0 0 i w 0 0 i i q i 0 0 0 i w y q 0 6 0 w 0 0 0 0 i 0 0 0 i i i i q i 0 0 w w 0 i w 0 q w q w i w w 1 1 K Q : t t y i O     @ e w t x t r y .  .).%.j.H.X h D i y i M i x p p p p p p p w t i y t V.IXIXIX",
"IXIX7.X w w @ 6 @ 0 @ @ @ w 1 * 0 w : w w w w . m `.a.*.n i M t t t r ;       1 y t t 1 p M 3 r p i w i i w 0 0 i p y q w w 0 0 w 0 i i 0 i i 0 0 0 0 0 0 i i 0 i 0 0 0 w 0 0 w i 0 q 0 0 0 0 i i w y i w w 0 w i w w i 0 @ 0 y w i 0 q w q 6 0 0 0 0 q i w i 0 0 i 0 0 ; y i 0 i w i 0 0 0 y q y e p t y w 1 p w r e w 1 1 w y t t w t w 3 t t t x 3 c t 3 n t 4 z x i w = k !.I.BX1XXX<X-X=X,X;X+X*X*X=X<X<X*X,XoXOX*X*XeX9X=X;X&X=X,XoXXX,X*X5X.X X6XFXHXbX%.& . > l 2 p t 4 z 4 4 4 5 t g p g t t 4 p n t t y i S F p w 3 t r t z z t r 1 t t t 1 t t t w 1 t 1 1 t p t t r t t i e r y w w t y t p i w 1 t u 1 w w y w 0 w 0 0 i i i 0 0 i i 0 0 0 0 y q i 0 0 i w w 0 6 0 0 0 i i 0 0 w w i q i i i 0 0 i i 0 0 0 0 0 0 i p p i 0 0 0 i i 0 0 i i i 0 0 0 0 7 ; 0 i i y 0 0 0 i 0 0 0 w p 0 q w w i i i i i i 0 i p y 0 q 0 0 0 0 w q i p w w w i i i i r 1 1 : K Q 1 w t t i O     1 r w w p 3 r p   *.).-.g.G.. p p h p H p y M p t t t t p p w y t t p N.IXIXIX",
"IXIXv.X w 1 6 @ 0 0 w 6 @ 1 1 1 ; 1 w 3 8 w i o m d.&. .B x r M p w t w       6 r 1 y 1 z I t 2 i q w t w w w 1 1 i r w q i i q i 0 0 i w w r w i w i 0 0 w q 0 i 0 i 0 i 0 i i p 0 i i 0 w 0 i q i y w w 0 0 0 w i i p i 0 0 i p i i q 0 0 w i w q 0 i i i 0 0 i i y 0 w w i 0 i 0 0 p 0 0 0 0 w w 1 w y y 1 w t 1 1 w w e t i 1 1 1 3 1 3 t z t r t 2 1 x t t 4 4 t r z < % iXI.3X1X+XoX,X<X-X#X5X5X5X:X1X*X9X,X,X,X,X,XOX1X1XeX*XOX<X,X*XeX.X X:XFXLXDXj.< . o > 2 2 > t t t n g t z g t t g t t 4 t t t t p 2 t t y p t r r t t r 3 t w w t t t w w w t e w t w w w t 1 1 w t w r y 1 1 w e r i i w 0 0 q 0 w w i 0 0 0 0 0 0 w w 0 i 0 0 0 0 i 0 i w 0 i 0 6 0 w i q q @ w w p i 0 0 i 0 w 0 i p i 0 0 0 i i i 0 0 0 y w w y i w 0 0 0 i q i 0 0 w w 0 0 i 0 i 0 0 6 0 i i i i 0 i 0 0 q i y 0 w i i i w 0 i 0 0 i i i w w 0 0 0 0 0 y i q q w u e y t y w 4 w * K ` 1 t t 1 e X     @ w w ; x w ; w =  .fX<.).S.. U M e p p i p A H i i i i p p x i t 1 t N.IXIXIX",
"IXIX7.X 1 @ 0 @ 0 0 w @ 1 @ ; 1 : 1 q ; 7 y i . V J.r. .M t r r p t i y       0 t ; e 1 p K 1 1 w 3 i i 2 1 w 1 w i r 0 q 0 q 0 q 0 i w w i i w i i i 0 0 i w 0 p i i 0 0 0 0 0 i 0 i i 0 q 0 w w i 0 w i 0 0 0 i 0 0 i p p q q 0 0 y i i i 0 i i i 0 i w i 0 0 0 i i i i i i i i 0 i i i i i 0 w w w w t w w t w w w t y t t t w 3 z t t r r t r 3 t 3 t n t t n t x n n < , ).U.BX3X+X+X=XOX;XqXuX5X8X<XeX<X1XwX4X*X9X1X4X1X-X<X#X1X8X,XXXOX:XZXHXLX{.b $ o - > t t 4 t 4 t t t t t g t t 4 p g t p n p p t t t p t r t t r t w 3 1 1 2 w 1 t 1 t y t w w w t o 1 1 w w y t t w w t t w 1 w 1 w w w y i i w 0 0 0 0 0 i i i i 0 y w 0 w w 0 0 i i 0 w w y w 0 0 0 0 0 0 0 0 0 q y i 0 w q w 0 q w 0 0 i 0 0 0 0 0 0 0 0 0 w q 0 i w q 0 w i w i y 0 q i 0 0 w i i i q w i i 0 0 0 0 0 w i p p 0 0 0 0 0 i 0 i 0 0 0 0 0 w w q q y y q i i i i 0 w w w y w y 1 1 1 1 K ) o w 1 r 3 X     @ y y ; r t i w $  .).1.Q.S.  p p r i y i i p p H M M p F M x t p w e N.IXIXIX",
"IXIX7.. * 0 @ w @ 6 0 w w 1 w 1 ; 3 1 1 @ w i X  .J.i. .4 1 p t p p t y       w t 1 r 1 x K r 2 ; : r i y w w w i t w w w q 0 i 0 i i w 0 i i 0 i 0 0 0 0 i w y p i 0 0 0 0 0 i y 0 q w i w 0 0 i 0 0 0 0 q w 0 0 i 0 p i 0 0 w 0 q i p i 0 0 w w 0 y w i w i i 0 q w w 0 0 0 0 w w w q i y 0 i w w y y y w w t y t t r r y r t r t z p t w r t n t t 4 t z t t p 1 t t t < a W.U.BXwX*X=X5X:X1X,X+X7X+X+X=X2X:X1X*X=X<X=X7XwXXX;XrX;X>X$X.XrXHXHX{.} % . $ 4 < t t t t t t g n t 4 t t t 4 t 4 t t t p t t t t 2 p t 4 t 1 1 p r t r 1 r w w w t w t t y 1 1 w y t p e w t t y t y t e w w w w 0 i w w p S 0 0 i w 0 0 i i i 0 q w i i i 0 0 0 0 0 y 0 w i w w c i y 0 i w i w 0 p i i i i 0 y 0 0 0 0 0 0 i i 0 w w 0 i 0 i i 0 0 w w i w w w i 0 0 i i i w 0 w i i w i p i 0 i i i i q 0 w 0 w 0 0 q 0 0 0 0 0 0 0 0 0 0 y 0 q q q y w i w w q w i i y w w r w t 1 R Q o w w w w       @ i t D 1 o w y . o.dX,.T.S.  p t i i p h p p u M p r p M p p p H r t C.IXIXIX",
"IXIXx.. @ 1 0 w 0 ; @ 8 1 0 w w : : 1 : 6 8 i . f y.y.5.4 t p 1 p y t w       w i w 4 1 n K p r 0 w r t w 1 w w r r w i c r q p w i i y 0 w y 6 0 0 w i 0 w w i q 0 i i i 0 i i i i w 0 i w 0 i 0 i w 0 0 w i w 0 0 q y i 0 0 0 w w 0 i w 0 0 i i 0 0 0 i 0 w i 0 i i w i i 0 i 0 i 0 0 0 q 0 w i y w w w w w e t w w y r t w 1 1 t t r 1 5 t t M p t t t t 4 t p 4 p t 3 < a ~.I.CX-X<X=X5XeX;X1X9XeX9X,X*X:X5X=X-X2XeX;X+X8X9XqX;X[..X>XGXHXbX-.a . , 2 1 2 4 g 2 4 p g t t p g p g p g t t g 2 4 t t t t 2 t w t t w r t 1 t t p t t t t t t w 1 w r t w 1 w M p t w w w w e t 1 w t w w r e i p 0 0 p p 0 i i 0 0 i i i w 0 0 i w w 0 0 0 i i 0 i 0 q p 0 y p q 0 0 w w y q 0 i 0 0 i i i 0 0 0 0 0 0 0 0 i w 0 0 0 i i i w 7 0 i i i w 0 0 w 0 i 0 i i i 0 0 i i 0 0 w w 0 0 i 0 0 i w y i 0 0 0 0 0 0 0 0 i i i 0 0 0 0 i y y y y 0 0 y i w w i i e w w t w 2 1 K W @ t e w w       @ y r i w w p w . r.zX<.h.D.  n p p p i i i p p A p p t p t p p H e t V.IXIXIX",
"IXIXv.. w ; w w w 0 0 0 1 @ @ o : w 3 ; 0 w i . m t.j.5.t H x z p p i y       w i y r 1 p U p 1 w q t w 0 0 i w w w y r p p w i i i i w w 0 w q 0 0 i i i 0 i i 0 i i 0 0 0 0 i p 0 0 0 0 0 0 0 0 i q w 0 0 i 0 F w 0 i i i q 0 0 0 0 0 i w i i i w 0 i 0 0 w q i i w i w i i 0 i i 0 0 i w 0 i y w w y w w 1 t t y 1 w e i i t t t t 3 3 3 i x t 3 1 t g t t t p M p t z < , W.I.CX<X+X:X#X*X%X.XXXXX2XrXwX:X0X0X0X5X=X7X;X-X-X.X.XNXFXLXJX>., o o 5 4 5 5 4 n M t 4 n n 4 r t p z g p t t t t t t t t t t t t w t r t t t r 3 t t r t t w 1 w 1 1 w t t w w t p w w 1 w w w 1 w 1 w t r w w 1 0 p 0 0 i 0 0 q 0 0 q i w i w w 0 w q 0 0 0 0 i i 0 i w i i 0 i i 0 q 0 y 0 w 0 i i 0 0 i i w w 0 0 w 0 0 0 0 0 i 0 0 0 w i i i q q i p i i 0 i 0 w w i w y w 0 0 i i w 0 0 0 q 0 i i i y i w w i 0 i i i 0 0 0 0 i 0 0 0 0 w 0 q q w q ; ; q y w w w r w w w w 1 w * U ) o t t t w       ; y w * w w p c    .sX1.,.w.X t t t h i y t p D p p p H p t p x p w t Z.IXIXIX",
"IXIXb.  @ 1 8 @ 0 0 w @ * 1 ; @ w 1 : : w w i X C t.a. .> i 1 p H p p i       w t w 2 1 z U x t i w w w 0 y i w 1 w y r i r w w i w 0 i q q w w 0 i 0 i i w 0 0 0 y i 0 0 0 i p y i 0 0 y i 0 q 0 i y w i i 0 i i i 0 i 0 0 0 0 0 0 0 0 w i i 0 w w i 0 q 0 i p w 0 0 0 0 0 0 0 i i 0 0 0 0 0 w w w w w e y w r y 1 1 1 y t i t t t r r w t r t 3 t w p n t t t 4 M t t n 5 , ).U.BX<X$X5X#X,X-X3X3X&X;X;X8X#X@X#X5X#X*X;X%X X.X>XCXLXJXh.v . $ w w 3 3 4 l t M p t t p p t 4 t t n n t t t t 4 w 2 t t w 2 1 t 2 4 1 r t r 1 w 1 r 1 1 t t 1 w w t p p w @ 1 t y 1 1 w t t w w w 1 e p t w w 1 q y i w i 0 0 i 0 0 0 0 w q 0 y i i i 0 q 0 0 i p 0 i i i 0 q i w w i 0 w w w w 0 i i w 0 y 0 0 0 i 0 0 i i 0 0 i 0 0 0 i i 0 0 i i y p 0 0 0 0 w 0 0 i w w 0 6 q i p i i 0 0 0 i i i w 0 w 0 q i i w w i w i p i i i 0 w 0 0 w q q w w 0 : 0 q w w w y w w w w > t 1 K ) @ t r w w       ; t y y w o 3 H X  .W.<.h.w.. p t t p H p p H H i r t M i y p p p w p C.IXIXIX",
"IXIXb.. ; 1 q @ @ ; 6 @ 1 w w @ t q 1 w w w y . ..d.a.*.M p r M p p p r       w 1 w 1 1 x U M p i 0 q w q y y y e i w w r w w 1 0 0 w i q i i 0 0 0 0 y 0 0 0 0 i w 0 0 0 i i i i 0 i w i p i i i 0 0 i i i i 0 0 0 i 0 0 ; 0 i i 0 0 i y q 0 0 i 0 0 i i i y p w 0 q w i i i i i 0 0 0 0 q y 0 w w w w t i t y 1 w 1 w w e t i y r r t r r 3 3 r t t p p t p 4 4 p t h z < a iX].BXqX.X#X=X5X.X1XtX1X;XXX;X=X#X$X#X&X1X&X X%XZXGXGX{.b . o 2 1 w c l r r z z z 4 4 t t t 4 t t t n p t 3 t t r t 4 t w e 1 r t r r e 1 t 1 w t 1 t w r t w w t w t t e w ; 1 w w y w w r w w w w w r p w 1 w w w i i i w 0 0 w w w i w i w w q i i i y i w w p 0 0 0 q 0 0 0 0 q q q i 0 0 0 6 0 i i w i 0 0 w i i 0 0 i w q 0 i 0 0 0 0 i 0 0 0 0 0 0 0 0 0 i w 0 0 i y 0 0 w i 0 i i y 0 0 0 0 0 0 i w i i i i i i i y w i i i 0 0 i i y y w i i i i i i w p w w e y w w e 1 w t 1 I W 1 i t e w .     ; r r y p i r i   5.(.<.T.S.X p p x p p i u H H p p x x p t p A H r g Z.IXIXIX",
"IXIXb.  ; w 6 @ @ w y 0 1 w w + 3 ; : r w 8 y   C a.&...p r p M t r p y       w e r 1 1 z U z 1 c i 0 i i y i w p p y w w e w w 0 0 i 0 0 p p 0 w 0 0 q w w q i i i i 0 0 i 0 0 q 7 0 i 0 p i i i i 0 0 i p i i 0 i 0 0 y i p i i i 0 w i i i i i 0 i 0 0 0 0 0 0 0 0 w y i 0 i p y w w w i i q e w w w u t t w 1 w t t r 1 w t t 1 1 w t t t t w t 4 t t t p t 4 1 3 p 3 o a Q.U.VX&X:X#X5XwX5X<X+X=XtX8X:X8X=X5X;X%X[.%XBXGXGXgX} $ . & e 1 w r : q c i z 3 4 z p g t n t t t t t z t t t 4 2 t p t t w 2 t t p p t w w w 4 p 1 t t t t t t t w w w 1 w e y 1 w t t 1 1 1 e w t 1 w w 1 * w t i 0 i i i 0 i i i y 0 w i i i w w w 0 q p 0 0 0 0 i 0 i i @ 0 i y y 0 p 0 0 ; 0 0 0 i i w 0 q i i i i w 0 0 0 y i i i i i 0 0 0 0 0 0 0 w 0 i i q 0 0 w i 0 w i i 0 0 0 w i i w 0 i w 0 0 0 0 0 0 0 0 i w 0 q 0 0 0 0 0 w w w w w : 1 w 0 0 w p i i t w w y y 1 w t o U W o t t w 1       ; y 1 t r p t p $ f.iX1.Q.w.. p M J p i p A p A p p H p p p M M J t p F.IXIXIX",
"IXIXv.. ; @ ; w 0 0 0 0 @ ; * w 1 : : ; w w r X  .j.J. .2 p i t t y i y X     w p ; w w M K t 1 w w w i A i y y S F w w ; w t w 0 p i 0 0 i 0 0 w 0 w i i 0 i w 0 i p 0 0 i w 0 w 0 q w 0 w p 0 0 y w i 0 0 0 0 q i 0 y 0 i i i i 0 0 w 0 0 i 0 w 0 i 0 0 i i i i 0 i w w w i p 0 0 0 y 0 0 p 0 p e w w t p y 1 w w 1 w t i t w 1 t p t 1 1 1 t t t t p t w t M M t t p t < a Q.I.rX-XoX#X#X.XoX*X@X7X@X7X*X&X:X:X.X X>XGXLXhX%.& . % < 2 g p 5 l 3 3 4 4 t t t t t t 4 t t p t p 4 t t 4 t 4 w t w r 2 p t t w t t p p t r r : t p w 1 t w p 1 1 1 1 1 y w i i t i y 1 t t w 1 w 1 1 1 t w 1 p y i 0 0 i w i 0 0 0 w p i q 0 0 w 6 6 w i 0 0 0 0 0 i 0 q p p i w w r w i 0 i i 0 0 y q i 0 0 0 0 i 0 0 w w i i 0 i 0 c i 0 i i 0 0 w 0 0 0 w i 0 0 0 i w w w w p i i 0 0 0 0 0 w i w 0 0 0 w 0 0 0 i p i 0 0 0 w 6 w q 6 0 q i r ; 3 i i i y q i i w 1 y w 1 w r n 1 I W o t w ; y   X   @ t t w t o x w . t.R.-.<.q.  M p p M H i i H D i p U p p p p p p t t Z.IXIXIX",
"IXIXb.X w ; @ w 6 0 0 0 @ ; 1 1 ; ; w 0 i w i . b a.*.b t H p 1 M i e w       w w 2 p e p K n r r p t r i i y i q i w i w w t 1 i p i i i 0 0 0 q 0 w i i 0 0 0 q i i i 0 i i i i w i i 0 0 0 0 w 0 0 w 0 i 0 w i i w i q w w i i i i i 0 y i i i w i 0 0 i i i i 0 q i i q 0 i 0 0 i c i 0 i 0 y w w w y t w 1 t y w w w e r y r 1 1 1 t t r 3 w 3 t t 4 t g x M t t M 4 > , W.I.CX3X<X5X5XqXrX@X0X#X*X<XOXXXXX.X>XFXHXMX2.a . o ; 1 4 4 e t 2 r r 4 z z z c M t t t 1 4 t t 4 t 3 4 t t t t t t t t t t t 2 w 1 1 w 3 1 1 r w 3 1 1 1 e w y 1 y t y y e y w @ t h t w w w 1 @ w t y w t w w y q w 0 0 0 i i i w 0 q i 0 0 0 y w q 0 0 0 0 w i i i i i i i 0 0 0 w w i 0 i i 0 w i i w i i 0 0 0 0 0 0 w 0 0 0 0 i y i y 0 w w 0 0 0 i i 0 0 w 0 0 0 0 w q q w i i i i w 0 0 q w i 0 0 0 0 i 0 0 i i 0 0 0 0 i w q w w 0 w w i r : q i q w S y 0 y y w e t 1 t 2 t t T I 1 w e w r       @ t w 1 y 1 c p   f.lX1.T.w.o p t y i p i i A M F t y i t i h M p p p F.IXIXIX",
"IXIXb.. 1 w 0 @ @ 0 w ; 1 w 1 w ; ; : w w w i . C `.r...M w p M p p i 1       w t w t 1 M I x r p M p r r y 0 i y y 0 p p t t t i i q w i i 0 i w y 0 i i w 0 q i y 0 0 0 i q w w i i i w 0 i 0 i q i 0 i 0 i 0 0 0 w 0 w w 0 w 0 i i i i 0 0 i i i i w i i i 0 i w w i i 0 w 0 w 0 i p i 0 w 0 w w y e e y w 1 1 w t w w t w 1 r 1 r t t p t t 1 t t e t p g t g t t p z > , W.I.CX3X-X=X=X1X1X7X+XqX1XoXXX#X@XZXHXDXQ.s $ $ % 5 3 l t t t u u t t p 4 l t z n 4 t t t 4 p t t 1 t t t t t 2 4 2 t t t t t t t 3 t r r 0 0 t p w w 1 t t w y t w 1 @ 0 w i i e y t w 1 w y w w w w 1 1 w y 1 1 w w 0 i i 0 0 w w 0 i i 0 0 w i 0 w w q 0 w y i 0 i i i i y w i 0 w i w i w i 0 0 i w w w 0 0 0 w 0 w 0 w q w 0 i i w i w 0 i w 0 i i i i 0 0 + p i i i y w i q i i 0 i 0 w 0 i q 0 q 0 i i i 6 0 0 w 0 0 0 0 q w 6 w q 0 0 0 w r q w q 0 w q i 6 q w w r t 1 1 1 t M U M t w p i p       @ 1 w e h w r p o 5.pX<.iX0.. p t p p i p H p p F p p i t p p M p p p F.IXIXIX",
"IXIX7.X w @ 1 w @ ; 6 0 1 @ @ w w : w 0 8 8 r X 3._.r...M i p t r t u w     O w t 1 1 - t U U U t t 4 t p i y i y i 0 0 w 1 r y y i 0 0 0 0 i i 0 0 i i i w p y i 0 0 0 0 0 0 0 0 0 w w 0 0 w q p i 0 0 0 i i 0 0 0 0 0 i 0 0 0 0 i i i i w 0 i 0 0 i y 0 0 i 0 0 0 0 y i i i w q q q i i 0 w i y r y w w w w w 1 w t e w e w 1 t t r t r 1 r z t r t t t p t t t p t w p < & T.I.CX2X-X:X-X-X%X*XqX3X>X%X XrXFXGX}...> . . 0 w q l q ; i p u h h h h g t < 4 4 t t t t t t p t t t t i t 1 w w e r w t r w t t r w r w ; 3 w i e w y i p t r w w r w @ w e e w 1 w w 1 w r e t 1 w w w e t t w 0 w i i 0 i i w p 0 0 i i i i 0 w w w w 0 0 0 0 i 0 0 i w 0 0 i 0 0 i 0 0 w i w 0 0 i w i 0 i i y w 0 i w w w q i w y w i 0 0 0 i w w i i 0 0 0 q 0 0 0 w q q 0 i 0 0 0 i 0 i i 0 0 ; 6 w w 0 @ 0 0 i i i i y w w q w 6 0 w 0 w w c r 0 w 0 0 y i q w @ 1 3 1 1 z M K 3 o t y y i p O   O o 1 t p i y r w . r.dX%.Q.0.  t g p p u p H p p p M H i t i h H H x p Z.IXIXIX",
"IXIX7.  @ w * 6 0 0 0 0 1 1 1 w w : i 3 8 6 w .  .j.&.b n p p t i p p w       w 0 @ w 1 1 t M Q U t 1 t p t w r i i 0 0 1 : w w 0 i i i i i 0 0 0 0 i w w i i w w 0 i i q 0 w i 0 0 i 0 0 0 0 0 i i 0 w i i i y i w w i y 0 i i 0 i i w i 0 0 i 0 q i i 0 0 i w i w 0 i i i i i w 6 0 0 0 0 w i w w w @ w w w 1 w t t w 1 w i i w t t r w 1 e p t w w t t t t t t g t t t < & R.I.CX3X-X%X-X>X>X%X|.[.[.2XHXLXvX| & . o 2 c t r 3 3 w 2 t t r t u t h h p 4 < t t z z t t 3 t t i t 3 t t t t 4 r t t w 1 1 3 1 w 1 w : w w i r 1 t t w y t e y 1 t i y w w w @ e t e w t t t i w w e 1 w r t r 0 w i i i q w i i 0 0 i i 0 y 0 p 0 0 q 0 0 0 i p i 0 i w 0 0 0 w i w 0 w i w q 0 i 0 i 0 0 0 0 q w 0 y q w w i 0 0 0 0 0 0 0 6 0 0 0 y w i w i w q 6 0 0 w 0 0 y 0 0 0 0 w 0 i 0 0 w 0 w i w q i 0 w 0 0 i i i w q w w i i i i r t q 0 i i i i p 0 1 1 1 1 5 x K K x ; o 1 y @ w w     X @ o w w p t 1 i > e.).| T.S.o n p i h M p i i p F h H p i t p H M x h Z.IXIXIX",
"IXIX7.  @ 1 w ; 6 0 0 0 w 1 w w ; w : 0 w 0 r .  .d.y. .g r F p x M p y       w 1 w 1 e 1 o 1 N Y B g t t 1 w t i c i i w r i q 0 p i 0 i i i i i i i i y i 0 0 w i w i i i p i 0 i w 0 0 i 0 i q w w i i i i i p i 0 0 0 0 0 i i i 0 0 w i 0 i i i i i i 0 0 i p i i 0 0 0 0 i w w 0 ; 0 w w i y e w w y e t w r e w w w w t t t w y t t w w r p w 4 p t e 1 t t t p h z , & R.I.ZX3X%X-X-X%X%X>X>XrXAXHXJX4.< $ . * t w 3 r 4 2 4 t r r t t x t p p p p j t t t p c t r t t t t t 3 1 t t t p 3 w w t r r w w t 3 i c c i r 3 w r t w w i t t w w i t y y y w t w w w 1 w t y w t w 1 1 w 1 w i 0 i 0 y w 0 w w 0 0 0 ; 0 q 0 i 0 0 q i i w i i q i i 0 0 + 0 w y w 0 0 0 y i w 0 i 0 i 0 0 0 i w w 0 w w w i 0 0 i 0 0 i q w 0 0 w w 0 0 0 i i y w q w i p p i 0 0 0 0 i i i 0 0 w w w i w i y i 0 0 w 0 0 0 w w w w w i 0 0 : q ; w i S y i i ; r r 1 1 t R N z o 1 1 * w w @ O     o w w @ # r ; w F .  .T.1.(.H.o M p y i i y u p F p p x M p t p p p t p F.IXIXIX",
"IXIXv.. @ 1 0 @ 0 0 w 6 ; ; ; w w 1 w w w 6 w . 0.J.d. .M x H p p p r ;   O   + @ @ 1 w 1 * 1 2 B N B M t 4 w w w w q r r : w w q i 0 0 0 i i p p i i i i i i 0 0 i 0 q y F p 0 0 i w 0 i y i p 0 0 w w 0 i i i i i 0 0 0 0 0 0 i 0 q w 0 i i i p 0 i 0 0 w i i p i i i 0 0 0 0 q w 0 0 i i 0 i t t i t i p t w y w w t e w r w w 1 e t t r 1 4 t t t t t t 4 w p t t p z < % p.I.NX-X%X>X$X[. X>XFXLXPXT.v . . 1 1 w h t t 2 g g t t t t i x x c l 4 t t t t t t t p t z t t x t 4 w 3 3 i t p 1 1 t t t r r 3 r w q t r w q : r w p t t t i i r i u y w w w w r ; 1 w 1 w t w t i w w t y w w i i i 0 0 0 0 0 0 w i 0 0 0 w i 0 0 0 p p i 0 0 0 0 i i q w q 0 i i 0 0 0 i 0 0 0 0 i i 0 0 0 0 i i w i i w i 0 i w p i i i q w i w y w 0 0 q w w w 0 0 0 0 i i q 0 0 0 w 0 i i w 0 w q q w w i 0 0 0 i i 0 0 0 w w w 0 0 i 0 0 : 0 w w y y p w 0 0 r w 3 z B N t > o 1 y 1 w 6 O     + r p w w w o X r 6   f.sXh.!.3.  p p t w y y i F p p p H x i t p i t t p Z.IXIXIX",
"IXIXb.. w 6 w @ @ @ * w 1 @ ; ; 3 : r w y w w   5.(.y.Z g r D p 1 1 ; O           X w 2 1 1 1 1 % M E U M p e 1 i w q i i q q p 0 y i i i 0 0 i w q 0 0 0 i w 0 i w 0 0 i p i 0 0 w q 0 i i 0 i i 0 i i 0 0 0 0 0 0 q p i w i 0 i 0 w 0 0 w i i 0 0 0 i 0 i i 0 i q i 0 y 0 0 0 0 y w y F p 0 y y r y y y w 1 @ t w 1 r e w t t w w r t t 1 w p 2 r r w 1 t t e z M p 1 4 n . ..~.ZXNX|. X|.&XCXLXGX{.b . o o r w p M e 2 h 2 2 g e e t t x c : l l 3 5 t t e e 1 t c t t t t r t p c t w 3 w 3 t t w t t t 1 1 w q r r r w r x y 1 e w w w o w w 1 1 y e w w w i 1 1 w 1 r t y w 1 * 1 t w w 0 0 0 i 0 0 i i i i i i i 0 w 0 0 0 0 q 0 i i i 0 w y i w i 0 i i i i q 0 i 0 w 0 0 i i i i i 0 i 0 0 0 0 0 0 0 7 0 i F i q i @ 0 q q w w w 0 w i 0 0 i w w i w 0 w 0 0 w i i i 0 i 0 w q 8 y 0 0 0 0 0 0 0 i i 0 q 0 w q q p i w w q i i 0 w i w y ; 0 3 w M N c 1 > 1 * w i @       @ u p x x c p i t e   V zXW.<.W. .o M M H i H x p u F H p p h p i p p i i g Z.IXIXIX",
"IXIXn.X ; 1 @ ; w 0 w @ 0 @ @ ; - ; : w w y 2 . 5._.J.d 2 p F u 9 e p t : X X   #   O 9 u 0 1 4 o * t K K x 3 w t w r r 0 q 0 i p : w q w r ; r q : w i i w q i i i i w i i i 0 i i i i i 0 0 0 i i 0 0 0 w 0 0 0 i i 0 0 i i 0 i 0 w p 0 0 w i 0 w 0 0 i i 0 0 0 0 0 0 0 0 ; 0 0 w w 0 0 0 0 0 i 0 0 i w i i i p i i 0 0 i i i t i w : w t r w 1 t t w r t t e t w 4 r 4 < a $ Z sXDXJX>XDXLXPXaXb X o o 2 1 2 w w r t t t 4 g t n t 4 t t t 4 c c 4 r 3 t t 3 i c t i t t r 3 p t p t t t 1 1 w w w t w 1 t 1 w t t y w t w w i 0 0 0 0 q 0 i 0 i i 0 w 0 0 0 i i i 0 0 i i p w i i i w i i 0 0 0 0 0 0 i i i p 0 i i p q 0 w i 0 0 i i w y i w 0 i 0 0 0 p i i 0 0 i 0 i w 0 i 0 0 0 i w q p w i i w i 0 0 i i i i w 0 q 0 w i q i p i w 0 y 0 0 0 0 i i i 0 w 0 0 0 i y i 0 i i i i 0 0 0 0 0 i i 0 : w i w : 0 r c r q w i S i i i w ; w t e t 1 t U M t 2 - w w 6 6 q +     * u D h p c c c c F 1 $ zXfX1.-.Y. .o N i G S H A i i i H p i p i F x H p i j F.IXIXIX",
"IXIXn.X o 1 ; 1 ; 6 @ 0 w 8 0 1 1 > 1 w 8 y 1 % 0.j.s.b g I F p h U J H x l X       O O + y t ; 1 1 o u W U 2 t t t c w ; w q q w w p w q r w i r r i i q q q q i w 0 i i 0 w 0 i 0 0 0 i 0 w w 0 0 0 i i i i i 0 i w w i i i 0 w 0 0 i 0 0 w i 0 y i i w i i 0 0 0 i i 0 0 0 6 i i i w 0 0 0 0 i i i w 0 i w 0 q i i i i 0 i i w i t w i r t p 1 r t t t t p t y w r 4 t g u $ o b 2.hXPXPX{.} 5   - > 1 g t p t 3 4 t t 4 g t t t t t 4 t p 4 4 z t t t t i t t z t 3 t t r 1 t r t 3 w t r e 1 1 1 w w w t y w t t w w r t 1 i w i 0 0 w 0 0 + 0 0 i i i i w 0 i i 0 0 w 0 i 0 y 0 i w 0 0 i i 0 0 y 0 i i 0 q 0 0 w i i 0 i i i 0 i i 0 0 0 ; 0 0 i 0 0 y p 0 0 i 0 i 0 i 0 w 0 0 0 q q i 0 0 0 i i i i 0 0 i w i 0 0 0 0 0 0 0 0 i w 0 0 0 0 0 q i i i i w 0 0 i w i p i i i i i 0 w w 0 0 q y i 0 ; w r 3 i i r r w r i i q q i w w 0 1 r 1 t t h M t ; 1 = w i w 6 O     o e h h F H G x c G > , t.pX<.-.| R.5.% M p F i p u p H p D F F S i F p p x t t F.IXIXIX",
"IXIXn.  ; 1 @ @ + + 0 w w 8 w 1 ; : 8 9 q 9 6 o *.K. .b v t S / h U F F H G c :           @ 8 y e e o * x K N t t t i w 0 i y i 0 w i w q w w q r q q q q w r q i w i i 0 0 0 i w i w 0 0 0 w w 0 0 0 i i i p i w 0 w q i i i w i 0 0 w q i i 0 0 0 0 i y w i 0 0 i i 0 0 0 0 i 0 i i w w 0 w i 0 i w 0 q i i 0 0 i i 0 0 i i i w c c i i t t t 1 t t t t t t z t < < 3 e t u 9 2 % $ & s a & $ $ t n 2 2 3 1 r t t 2 w 4 t 4 g 4 t t t t t g t t t r t t w t t 1 z t 3 3 t t 3 t w t r 1 t w t t 1 w t t w e w w r w 1 w y w w 0 0 0 0 y 0 0 0 0 i i i i 0 0 y q i i 0 w 0 i q 0 w 0 w 0 i 0 i w i w q i i w 0 w 0 i i 0 i 0 w 0 w w i 0 w 0 0 q q i i i 0 w 0 0 i i i 0 i i 0 i i w w 0 w i i @ 0 i i w q 0 0 w i w 0 0 y 0 w w y 0 0 0 i w 0 i i y i w 0 i i y q q w 0 i w 0 i w 0 w i w y 0 0 i 0 0 : w 3 q r r w w i S p y 0 q w w 1 w w 2 1 t M M p 1 o 1 8 w u w X     O i p F F F H G S T . % k.fX<.;.%.&._.e.> J H p i r t p M U F p p p i p M x p e 2 Z.IXIXIX",
"IXIXb.  ; ; o @ 0 @ 6 0 w w w ; ; 6 y y q 9 ; . b aX&.Z v v H G H J p A S S G p w . . . .   O q y i i o o M T U x 3 3 i p i 0 w i 0 i 0 w x w 0 q i i r q i i r w 0 0 i i 0 0 0 w i i i 0 y q 0 i w 0 0 0 0 q i y 0 w i 0 0 0 0 i i y 0 0 i i 0 q i w 0 w q i p 0 0 0 0 w i i q 0 i i w q y q w 0 q 0 w i i i w 0 0 i w 0 0 w i r w r : i r w 1 t t t p t w t p t 3 4 t t i A u u e 2 , , & = e 2 4 > 1 p z t z t t t t t 4 t M t p n z p t t t t r - 3 t 3 t 1 t t t r i t t r t r t 1 1 w 3 w t w y t w 1 w t w e e w w t t t 0 0 i 0 w w w 0 i i i 0 w 0 0 w 0 w w i i w i y q i 0 0 0 0 0 0 i i w w i i 0 0 y 0 i 0 0 i 0 0 0 0 0 0 i q i 0 w p 0 0 p i 0 6 0 i i 0 0 i i i i 0 0 y y w i p 0 i i w 0 6 0 w 0 0 i 0 0 i w 0 0 i i 0 0 w i 0 i i p p i 0 0 w i i i 0 0 0 0 0 y 0 w w q i 0 0 i i i i w w w ; ; : ; w i i F i i i w w w w 1 1 r U B t 1 1 1 w i y * o     + i H S A G P p S L r d s.fX2.,.;.%.>.k.Z % M J F J H p t p p p A F F p H H M M t w V.IXIXIX",
"IXIXn.  ; ; 6 ; 0 0 ; 8 @ 6 1 w 6 6 y q ; ; > o % o.j.J.*.Z 3 x G G F J J u L p D u $       7   ; i p w 1 : c E K t 3 r i t w 0 c w w i i i q w r i i w r r w w i w 0 i i 0 0 i i q i w i 0 0 0 0 i 0 0 0 0 0 0 i 0 0 i i 0 0 i i i 0 q 0 0 0 0 i i q w w y 0 i 0 0 0 y p y 0 0 p y i i i i 0 0 w 0 q i p q 0 0 w 0 i y 0 q y i r w ; : r r : 1 r r t t t w 4 t t 4 t t u i p u 2 z n l < 4 p t 4 3 2 z z 1 1 2 x n t p t p g n t t g p g p t t c 3 - 3 t i t r t t t t z r w r r r p w 1 t w 1 y w r t w w w p w r r w e t t r w i 0 i 0 i 0 w 0 i 0 0 i w w i 0 0 0 i 0 w w 0 i w 0 0 0 0 0 0 0 0 q w 0 w 0 i 0 0 i 0 0 i 0 i 0 0 q 0 0 i 0 0 w y 0 0 i 0 0 q 0 0 i 0 0 0 0 0 0 0 0 i 0 0 q i i i i 0 0 0 0 0 0 0 p 0 0 w y i w i 0 0 6 w w @ 0 0 w q q 0 0 0 i i w 0 0 q i w 0 0 i i i 0 0 0 0 i i w q w : r 0 w w w 0 i w q w w t p r 1 1 w M M M 1 o w e w u 8 .     X r x G L G G J L p M % 5.pXh.2.%.>.*.a. .o o t u p M K M p p p x x P J c M M M M t t Z.IXIXIX",
"IXIXb.. ; 1 o ; w 0 @ @ w @ o w 8 8 6 6 ; : 1 1   o  ._._.e.Z c F i r J J H L A D D h $         + w t p 1 o 3 M K M M 3 r x t r i q c i i w 0 i q r w w r q 0 ; i 0 0 w 0 i i 0 0 0 w i 0 i i 0 0 0 i 0 w 0 w w i w w i i w q w 0 i 0 0 i i i 0 i w w 0 w 0 0 0 i 0 q w q 0 0 0 0 0 0 q i i 0 0 w 0 w i p q 0 i 0 i i i i i 0 w : i w r r w 3 t t r w t t w e t t 2 e p i t p t 1 5 4 4 l 3 5 3 t 3 4 c t r t t t t t p p 4 g p t t 4 t z p n n r t t t t t z M t r 3 t t 3 3 t t t t 2 1 t t t w w t t w 1 y t w t t y w w t w i i i 0 i w w 0 0 0 0 i i i 0 w 0 0 i 0 0 i 0 i i i i 0 0 0 0 0 0 i i 0 0 w i i 0 0 0 0 y w 0 0 0 0 i y i 0 0 0 0 i i w 0 + 0 i w i 0 y i 0 i 0 w i y 0 0 i i 0 0 0 i i i i i 0 0 w p i q w w i 0 w 0 0 6 q 0 0 0 0 0 q 0 0 w 0 w i i w 0 0 w i 0 0 i w i 0 0 0 0 y i i q 0 r i w r : 1 0 0 w w w 3 r r 1 o r N K t 1 1 * w y e 6 +       3 x x S ^ ^ S h B t o 5.zXQ.<.,.2.{.j.s.m   1 e @ > 3 p M U J H x x x G x p t r p r 2 Z.IXIXIX",
"IXIXn.X o ; ; w 0 0 6 w 1 1 0 @ w w w q : - : w * j $ o.L._.k.Z K x z z t p H A D H H p @     X     w p o 1 t 1 z M K z e z p t q w p i 0 w 0 i q 0 w r w t 3 w q w w 0 0 y w q 0 0 i w i 0 w i 0 0 i i y i i w 0 w 0 i i i y 0 0 p i q i i 0 i i w 0 i i i 0 0 i i w 0 0 0 q i 0 0 0 0 w i i w 0 q w w i w i i i w 0 i p i i 0 q r i t i w 1 p t t t r r t r t t 2 e p i r t z l l z l q 3 r l 4 5 t t t z t 3 r 2 u j t 4 e e t 4 1 4 t t p p r p t p r 3 p x 1 3 3 r t r r t t 1 t 1 1 t t w t t t y @ 1 e w w p t e w y y w i i 0 i 0 i q w i w i i p q q w i i i 0 0 i i i i 0 0 i i 0 0 0 0 w i y i 0 0 0 0 0 0 i i w 0 0 0 0 0 i i 0 i 0 i w i i 0 0 0 w i w q i i i 0 i i i w 0 0 p p 0 0 0 i i i w q 0 0 0 y q 0 i w i i w 0 i q w w i w q 0 0 0 i y i i i w 0 0 i i 0 i w 0 q i 0 0 q i w w 0 w w w i r 3 ; : w : r i r 1 1 ; w r M U p w @ w w w w w +     . w p M G G S G ^ J % v 5.dXg.p.:.} %.j.K.Z % o @ 1 o w % 1 1 x U J H c t i i t w 3 t r t Z.IXIXIX",
"IXIXm.o 0 1 w y 0 6 @ w w w @ @ w 1 i i 3 ; 7 0 9 9 # % Z J.K.k.Z m E M r D L D A F F F S i +         0 r ; ; 1 o 3 U M t t r t w i i 0 w i w i w w q w t w w 3 i i i 0 0 w i i 0 y i i i i i i 0 i i i i i i q 0 i i 0 w i w 0 0 i i i p 0 0 i i 0 0 w i i i i 0 0 i i i i p p p i w w i y 0 i w i i 0 7 i p i p 0 0 0 0 w w i c t q r t t r w t t r t t t t 4 t 1 e p r w t z l z c r 3 c c t t t t 5 t 4 2 t r t t t t e t e t t t t t 4 r 2 t z t 3 3 r t r 1 t t 1 w t 1 r 1 w t w y i w 1 w e r w w w t w w t p t w t t t 0 0 0 0 i 0 0 y i i 0 i i 0 0 y 0 0 0 0 i 0 i i 0 w 0 0 i i 0 0 i i i 0 w i 0 0 0 0 0 i p i 0 q p i 0 i i 0 0 p i 0 0 i w 0 0 0 i 0 0 0 i w 0 w p q 0 0 i i i 0 7 0 i w 0 0 0 0 i 0 i i i i 0 i w q 0 0 w w w i w w w 0 0 0 0 0 0 y w i w i i 0 p i 0 0 w 0 w w w q 0 w w r r w r q w r c q r r t 1 : 1 p N J M @ * y t w w w +       w h H H J F G G H g 2 5.lXW.-.:.| } i.(.C o @ r w % 1 p 8 ; ; ; w H R P G r p x x p x t 4 Z.IXIXIX",
"IXIXn.  o 1 w w @ 0 0 @ @ @ @ 1 i e w 1 1 ; 0 0 u O 9 9 . m a.k.J...> t u L L J p x G G G G r o       X ; t w ; t o 4 K U x M z p t r t w q i i c i i w ; 3 r t 0 0 i 0 i w 0 ; 0 0 i i i 0 w 0 q p p 0 0 0 i i 0 0 0 i 0 0 0 i w i i i 0 0 0 0 0 0 i i i w w i w w q i i w w i 0 0 0 0 i i i q w y i 0 i p p 0 i i w i q i i w t ; 1 r c q 3 ; t 1 w p p t e t t t p i S u z 4 4 z r p i F p t t r 3 z c 4 w 4 p n t 2 h h e t p n p t t t t 1 M t w t p t t t w r p r 1 1 t t t t w w t w w t 1 w t r 1 w y t w t p r w t p p 0 0 0 0 0 0 w p w i 0 0 0 0 q 0 i 0 i i w 0 0 0 6 w w w 0 0 i w 0 w i 0 0 i 0 0 p 0 0 0 0 w i w 0 0 0 0 0 0 y w i 0 0 i w w i p 0 w 0 i i i 0 p p q 6 0 0 i w 0 0 w i w 0 0 0 0 0 i 0 w i 0 0 0 0 w 0 i i i i i i i w 0 0 0 0 0 i w 0 0 0 i i 0 0 0 0 0 i p i 0 y w q w w w w y i r q 3 w q r 3 w 4 1 r N J p 1 w * @ w e w +     X w F D L L S A G F p l 5.zXj.<.1.%.| g.`.o.. 8 7 ; 1 5 - 8 u w w @ o w t H I H x w t M z 2 t F.IXIXIX",
"IXIXv.+ @ @ w 0 @ 0 0 0 ; w w y @ 1 1 1 ; q 7 0 7 9 9 9 e   5 t.(.J.5.d e H h x t x G G L H p t w     O X 1 p 1 ; i 1 r N K n p 3 i i w w i p r r r i t w r t r w i i w 0 w i y 0 q i i i 0 0 i 0 i 0 0 0 0 0 0 0 i i i 0 0 0 w 0 y 0 i i i i 0 q w 0 0 0 0 w q p 0 0 i i i 0 0 0 0 i 0 0 0 0 0 w w 0 y 0 i q 7 0 i p i y 0 w i r : q r r 3 w 1 w 1 1 t t 1 3 p z z p i i t t 5 n n t p S F p z 3 3 t t t t t n z M t w t h e t h p t 4 1 t t t t t w t p t w 3 1 3 t 1 1 w r 1 t r w t w r e w ; 1 y i t t w 1 1 w e 1 1 w w t 0 0 0 0 0 0 q y 0 0 i 0 0 0 w y i 0 0 w i 0 q q w i i i w w 0 i 0 0 i 0 q p 0 i S i w w 0 i i q 0 0 0 0 0 0 q 0 0 0 i 0 0 q 0 w i i i 0 0 w 0 i p w 0 0 w i q i w i i 0 0 i i w 0 i q 0 w i w i i i i i 0 w w 0 0 i i i i i 0 0 i i w w i p i 0 i 0 i w i i i w y w w y w q 0 q w w w r r r q : t > 1 M J t 1 ; w w w w w +       ; i x D D L D S { 3 X 5.zXh.%.1.:.-.$.(.3.a # w 8 ; 5 > ; 9 9 * * * 1 w * w ; H ) I t ; t r 1 Z.IXIXIX",
"IXIX] o w @ y w 0 0 @ ; o w 1 1 * * o 1 ; 0 0 7 + w @ @ u =   , d.H._.0.& % M 0 G F G G J M x F x @       X ; t 3 w 1 % p K U t 1 t x r w r r r r w i c i r t : 0 i i w 0 i i i 0 i w w 0 0 0 i q 0 0 i i 0 i 0 0 0 i i w y i 0 0 0 0 i i p i 0 i i i i w w w y 0 0 0 q i i i 0 0 0 0 0 0 0 0 0 w 0 w w q w w 0 0 i i i w i 0 0 ; w r r t w r 3 t t t t t r t t t r r i i t 4 l l t 2 t e M d z 3 r t t 4 t t t t t t t t p t t t t t e t t t 1 3 w w t t t t r 1 1 r t r t t r t y w t w w w w t y 1 1 w e t y e r w w t t t t i 0 w i i i p p i w i i 0 0 0 p i i 0 i i 0 w 0 i w i i i q w i i i i y i i 0 0 i w w w 0 i i i 0 0 w i i w 0 0 0 i 0 w 0 w q i p i 0 0 i 0 0 0 i q 0 i 0 i i y i w w 0 0 i i 0 0 p 0 0 i q 0 w 0 w i y 0 0 0 i 0 i w w i i w i i 0 w i p i 0 0 i w 0 w 0 q y w w w w w q 6 q u i w q w 0 3 3 0 w 1 t K x 1 w 1 w w i w +       ; H M x L L L A L t > e.zXQ.h.| =.=.>.J.w.$ # 8 y ; : 1 y 6 9 y * w 1 w ; + ; @ + : x T K t t J P.IXIXIX",
"IXIX`   1 @ w ; 0 0 @ @ ; 0 1 o w w ; * ; 0 q 0 - o 1 y 8 8 $ . & f.a._.e.< 4 N ( G F F M c x x A F 0 O       w p r 1 1 ; t H N M x t t t w r r i w w w q w w q q y i i 0 i 0 0 p i 0 0 i i i 0 i y 0 w i i w 0 0 i i 0 q 0 i 0 i 0 0 0 i i i 0 0 q 0 0 0 0 q q 0 i p i w w i y i 0 i w i 0 0 p y 0 0 i w w i i p i q 0 w i q 0 0 w i r w r t w w t t w r t 4 1 3 3 w w p t n l < 4 2 t e g 4 4 4 c z r 2 t t t 2 t t t g p t w 3 t t t t t e 1 r t t t t r 1 r r r t t 1 r t t t t w t e w t t 1 w y r t p t 1 t y w t w w w y 0 0 w i 0 0 q 0 i y 0 0 i w w i i 0 0 0 w i q 0 0 0 w i i 0 0 i w i i 0 w i 0 0 w 0 i q 0 w p i w i w i i i i p i 0 i 0 0 i i p i 0 0 0 0 y 0 q 0 w i i 0 0 0 p q w 0 0 0 i 0 0 0 i i 0 y i 0 0 0 i q w 0 0 i i i i w 0 0 0 i p q 0 0 0 i 0 0 0 w y 0 q 0 i i i w w w w q q y i i w 0 ; ; 0 3 r 5 p N M 3 ; r 1 w w w @     X w c J p H H D L D h o  .cXh.%.%.<.;.>.j.d.a . u y y ; 1 1 y 9 q y w 1 1 1 1 1 w 0 ; @ o r J I U M N.IXIXIX",
"IXIXn.  @ ; 0 # 6 @ @ @ 1 1 1 ; ; @ 8 7 6 6 ; ; - - : 0 ; 7 ; 1 . . b a.a.J.C > c G K J p t i x p r p i     X   ; p 1 ; 1 1 > U R M 1 t p p i r i q y 0 0 q i w w w q w i w w 0 p q 0 0 i p w 0 i w w i w 0 0 w i 0 0 w w i w 0 y i 0 0 w y w q 0 w w q 0 i i i 0 i p i 0 0 i i i 0 i i i 0 i p i 0 q y i w p p w p p i 0 0 w i r i r r w c t 1 w t r t t x t w 3 q r r t t t t t n t p t x t < z z p t t n p t t t p z t t r r p t t t e w 4 t r t t r r 1 r 1 3 w t r 1 1 r w y r t i t y r t w t r t t r y w t y w w 1 1 w e w 0 i i 0 0 q 0 0 w 0 0 w w w w i 0 0 i i 0 i i i w 0 w 0 0 0 0 i w i 0 w i 0 0 i i i i 0 0 i i i 0 0 0 q w i i 0 i 0 i w w i w 0 w q 0 i w 0 0 0 w i i 0 0 0 i q q 0 0 i 0 0 0 0 i 0 0 i w 0 0 i i i i i w i i w y i i i i 0 q i 0 0 0 i i 0 i i 0 0 0 0 0 i i i i q w 0 q y q 0 q w i i w : 3 t K N 1 ; : ; ; w 0 + O     @ p H G x G x p K U ,  ._.T.;.<.p.Y.>.&.s.d . e w w 3 ; @ y y 9 7 @ 1 w * y i r 0 0 0 q ; X ; p n p K IXIXIX",
"IXIXv.@ 1 w 1 w @ 0 1 1 1 w 1 ; @ * w y w ; ; ; : ; 0 + 7 q w ; 7 8 % b 4.k.H.~ 1 i D U J H x x F i A J r #       1 p r r ; ; w N N N t t p i y 0 0 q y i c c i i 0 0 0 0 i i w 0 i i i q i i w i w i 0 w 0 0 i i i 0 0 i i i i p p i q 0 w y w w w w i i i i p p i 0 0 i i 0 0 0 0 0 i i i 0 0 w 0 i p i w i q 0 i y i p i i i c l r q r r t w r t t t x x t 5 t 3 t t t t t t j h p D t p t r x p t t t t t 4 p 4 t c r t x t w t t g t 2 w t t t t t t t t t t 1 1 3 w r 1 ; 1 w r t t r w 1 p t y w 1 1 w w r t t w w w t i i i i i p w y i 0 q i 0 6 0 0 0 i w 0 i i 0 0 0 i i i 0 w w w q i 0 i 0 i i i i i 0 i w 0 i i 0 0 0 0 q w i i i 0 0 0 i i w 0 0 w i w i i i 0 0 i i 0 0 0 0 i w w i 0 i i i p i i w 0 0 0 i i q w i i i 0 0 w 0 0 w w i i i 0 0 i 0 0 i i q 0 i w w i i i i w 0 y i y y q i y 0 0 0 3 w 3 0 r c K N t 1 1 w ; 0 w #       + w p J H G F G I n o k jXpX<.-.:.=.>.a. .v o u p 6 w r ; w y y 6 @ @ 1 w * w w 0 0 6 ; 0 t r w o 1 M IXIXIXIX",
"IXIXIXIX; ; # w 0 0 0 ; 1 ; o @ w w w 1 1 o 6 + q 7 q i : o ; 0 w w . o v *.a.a.o.V t D L L L H L H p H J i         w p ; w r o 4 M K N t 2 i i y q y p i i c i w w w w i i i i q y i w 0 q w i i w 0 y w i w i w i q 0 0 i i i i i i i w i w w q 0 q y i 0 0 q p q 0 0 i i 0 0 0 0 w q w i 0 0 w 0 i i i i 0 0 0 0 0 i S c i 0 r r r r w w 3 r r t t e w 3 1 1 r q t t t t g z 1 t i t e t 3 z t t t t t 4 2 3 4 2 w i r r x i 1 3 t n p 4 w w t t r t t t t t t 1 r t t t r ; w w r t r w w y w r t t r w 1 ; w t w 1 1 1 y w q y w 0 q 0 0 0 0 w i w q 0 w 0 i 0 0 0 0 0 0 i 0 i i y i i i i i w q 0 i i 0 0 q 0 i 0 0 p p 0 0 w w q i i i i w 0 0 y w r q ; i i w 0 q i i 0 i w i w 0 w i i w w 0 i i i i F i i 0 0 i i i w 0 0 0 w 0 0 0 i 6 w 0 0 0 i i p i 0 0 i w i 0 y w 0 w w i i w 0 q q i i i S i p w w w ; : 3 x U M p 1 1 t t w w @       ; r c x M M G p G H 5 v pXiX,.=.=.p.;.W.`.C   t r ; i i r w w w w 1 : w w e w w w w 0 0 i i w @ w y 1 IXIXIXIXIX",
"IXIXIXIX; w @ q + 0 1 1 @ ; 0 o @ @ * 1 - - 6 7 q q : 7 - - : w w o 1 o . Z 5.j.`.5.m h A A D J H x H H A J c O     O o w r ; 1 o 1 z U U M i i p i i q i q i 0 0 q i i i 0 0 q i i 0 0 w i i 0 i q 0 0 0 q i q 0 i i i 0 0 0 0 w q i 0 0 i i 0 i w i i p i 0 i 0 0 0 i w q 0 i i i i 0 0 i i w i q 0 0 0 w i i 0 0 i w i i q i w q t i i ; r r r t t t w w r t c 3 1 w t 4 t t t p p p 1 4 3 l r 3 t t p t t p p r l z r t i ; p 1 w 1 w w t t 1 1 w 1 1 r r 1 r w r i w r r t t r y w w w y i r r y w w r r y r r r ; w r y 1 i p 0 0 i i 0 i p i w i i i w w 0 0 0 i i 0 q i 0 p i q i i i 0 0 0 0 0 0 i 0 0 0 0 i i q q 0 0 i w 0 0 w 0 0 q p q 0 0 q r w w i i 0 0 i i i i 0 i w q 0 0 i w i y 0 i 0 0 0 0 i 0 0 0 i p i 0 i 0 w q w y 0 0 q w w q q w 0 0 F p i 0 0 0 0 0 i q 0 0 0 i i w 0 i S p i q i w 0 w r r w t M R t 1 1 4 1 1 w 0 O     + r N J H M c c P P 2 s K.kX;.| $.$.$.j._.3.o 2 1 w t 3 1 t y w 1 ; - ; 1 o w w y y w i y w r y ; 1 w IXIXIXIXIXIX",
"IXIXIXIXIX* 0 @ @ w w 6 @ ; w w w @ ; w 1 ; w w 6 0 0 ; ; @ ; @ - ; 0 q w o v u.u.p.d.Z j D L G G c x H A L i r X X     6 i w q i o 1 M K M z r t r 1 ; w y y w i q w q i q q i i q 0 q y q 0 0 q i i 0 0 q i q 0 q i q i q i c q q y i S q q y y i S q q q y q q q q q 0 q i i q q q q w q q i q i i q 0 0 i c i i y q 0 w i p r w i i i i i r i w r r w p c p p p w i x w 1 p x x t i i p i i t i r w 1 t x t t r r w i i r 0 p w w t r w r r p r w : w w w r 0 q i r q i i w i w 0 q q i i w w 0 i 0 0 w p i i q 0 q w i i i i i y w y 0 w q p y y q y 0 w i q q q i i q q q q i i q q q q r q q q q ; q q : 0 0 0 0 i i q 0 q i i q q q q q q q w i q q q q i q q r w q 0 : r i w 0 r q 7 : w 0 i q 0 0 w 0 w i w 0 w p i 0 q w q q 0 0 i i q q w 0 0 0 0 q p i w 0 w i w w i r r q w w w i w y y i A p i w p w 1 1 t U K t w 0 1 > 3 3 ; O O O # A x M K x G F H J z < K.xX<.:.>.,.%.4._.C . 1 t w 1 w w w * @ 0 w 1 o 1 w w 1 @ 1 y e y w w y y w @ IXIXIXIXIXIXIX",
"IXIXIXIXIXIXw w 0 @ @ 6 w @ @ 6 w @ o ; o @ o @ @ ; 1 0 ; @ ; o ; 0 0 q y @ o f u.g.j.J.3.B x G c G F c H J u H i X       @ c r w e ; 1 H K z c 4 r r 3 w w t p i r q q q w i r i i i 0 q 0 q w q q y y q q i q 0 y q q q 0 q y q q w i q 0 q i y i i q q S i i S i i q w w i q q q w w i i q i r w w i q q w w q y i 0 w w i i q w w r i t r r x p p p i i p i r r i t x t r t r w r r t r r r 3 t t w t i r 1 r r r 3 r t t 1 c i r r t 3 r i t r w w w 3 w r q q c r 0 i c w q i w w q r w q w i i q 0 w i 0 0 q w w w w 0 i t w w 0 q 0 1 w w w w 6 y 0 w w i q 0 0 q w r w q w q q q 0 ; 0 q w i w r r i i 0 q 0 : q i i w q q w 0 0 0 0 q 0 w q 0 q r w w i q q q i 0 q q w i w w c i q w i i i p q i r y w q ; q r w q w 0 w w 0 0 0 w i w w r r i 0 0 0 w w 0 0 w q i i w q w i w w w 0 y q w w y w w w 1 t t 1 N R p o 8 q ; 2 1 > #   O # 8 S x x c x x H x z > J.kXg.=.-.;.%.u.jX5.o @ ; y t t w 1 w w 1 * w 1 @ w w w w y w w w 0 8 o w w 1 IXIXIXIXIXIXIXIX",
"IXIXIXIXIXIXIX0 8 ; @ w @ @ @ 0 w 8 ; @ @ + @ 0 0 @ ; ; ; ; ; ; ; w 0 : 0 ; X . , e.a.u.j. .v t T F p U M M K H M c +       : r w e w 1 : z J K t t r w w w w i q q 0 t p i w ; q i w 3 i 0 w r 0 q y y q q 0 q y y q w q 6 6 6 y w 0 w w 0 q i w @ w w i w w w i w 0 w w 1 r w 0 ; w r w w q w w 1 t r w ; w ; w w w w 1 r t w 1 1 r 3 y 1 y y w w 1 w w 1 ; 1 t y t w 3 r p p w r t t t e 4 p w r r 3 r r r 1 e 1 1 1 3 3 w 3 1 t t t t t r 1 r 3 r 3 r 3 e t 1 w t w w w r r r r r r i c i i w w w i w r t w i i i w w 1 w i t w w w w 1 w y w w w y y t w w w q ; ; q 1 ; ; ; w 1 w c i w 1 w 0 y y w w q i i y q 6 0 i i i q w w w w w r r ; w ; ; 0 w r w 0 @ ; 0 w w q y 0 y q 0 w y 0 w i w w 0 ; 0 w w r 1 0 q y w w 0 w y i i t w r r w w w r r w 0 0 w w w w w 0 w y r w w i y w w ; 0 y r e y w w 1 1 r 3 M K z > 1 7 w w w ; .       i p r x H H L H H K $ s.pXj.,.$.:.1.;.J.e.$ > 1 @ 1 r t 1 1 w 1 w 1 ; 1 @ @ 1 1 y y w w * w w * w w + IXIXIXIXIXIXIXIX",
"IXIXIXIXIXIXIXIXw w w 6 @ w w 8 o 1 ; w w @ o w @ o @ 6 1 1 w ; 7 w 7 + ; : w 1 * $ 5.(.4.j.a.m t T K x x M I N M I x :       8 w w t w o ; N K R M r 1 w u i w r r i t x i t r r w r r r 0 e i q w y y 9 9 w q y w y e i y y 6 w w w w w w w w w @ * t i r w 1 3 ; 1 w 1 w e w w w r r 3 1 1 w 1 1 w r w 1 r 3 w 3 t r t 1 w t t 1 w w 2 1 t t 1 1 1 2 e 1 1 t t 4 t 3 ; r g p t 4 t p t 1 t p r 4 4 r 2 r 3 2 t w 2 1 1 1 e t 1 4 t 1 e 4 w > e 2 1 1 1 1 1 t ; 3 r w 3 t t 1 3 r r 3 r t t t 3 1 w 3 3 t r r t i t 3 3 r r t 1 1 e t e w 2 w 1 1 1 2 2 t 1 1 1 t n c w t e w w 3 1 w x t r 3 p i i p i r r i e w w w 0 w w w 3 w 3 1 1 : t t t t c t t c t r i r i p u i 8 w c p y w i r i i p i t r w w i i y r y w w t y ; w r i p i r y r r y w w y w r i p i i i i w r r i w w w w t i y w r t w t t t w 3 ; x T x 1 1 w 6 6 y w o     . t M J c x G G P H t > 0.aX&.,.$.| %.<.j.s.5 . e t 1 1 w y ; 1 y @ ; w 1 w 1 @ @ w 1 y w w w w i i w @ IXIXIXIXIXIXIXIXIX",
"IXIXIXIXIXIXIXIXIXw w @ @ w w 0 + @ @ 1 * @ @ ; o @ @ o @ w 1 0 6 8 q 7 : 7 : q 9 . % s.4.i.(.5.Z B t M H x x x J J P G +       @ i y 1 r 1 1 p W R x o o w w o 1 1 o o o o * 1 1 r 1 1 1 > 1 t * ; * 1 @ 1 1 1 2 1 1 w 1 ; 1 * o 1 1 * 1 1 1 1 1 > * 1 e 1 1 1 1 1 * 1 % 1 > 1 1 2 e 1 ; 1 1 2 t > o > 1 t 1 o - ; 1 1 1 o 1 1 1 > * % * o % o * * 1 o > * o 1 o o > = $ > > o , % > > o o o * 1 % * % > % * > 2 % 1 > 1 % 1 < % % % . o % 1 o = o o % % o $ 1 o o 1 o @ o * o o - o @ o o o . ; o o * o o % o X o o 1 1 > o o . o % o $ o % o * % o % @ * $ o . X o o o X o o o o o X + . . X o X o o o . . X o o o o o o o o . o o . o . o - . . o X . X .   . X o o * o o o o o o . o o o o o + o o o o o > o o o o @ 1 1 o o o ; o o ; o o o o o o o X o o @ 1 o o o o o 1 1 o + o @ @ 1 1 1 : o o o > 1 : 3 x R M 1 3 1 - 6 y 6 7     O w N c M K L S F L U % 5.`.>.&.:.;.<.;.u.e., o > w * w 1 t y 1 ; @ @ 1 w w 1 1 @ @ w w w 8 w ; 8 w y @ IXIXIXIXIXIXIXIXIXIX",
"IXIXIXIXIXIXIXIXIXIX@ @ 6 w w # @ o w w ; ; @ @ 6 1 w w 1 1 @ @ w w 6 q 0 ; 7 7 7 w   .  ...&.g.d.C d M J c H p U F S H p o       0 t y r 1 1 - r M T J x H U M M N M M M j M U M n g t g p p n t 4 4 t t t g n M t t n 2 4 g M M M j t t g h h M M p h g p g p M z M M M M M M M M M M M M M M U M p M M M B h M M U U B M N U Y K K Y N K U B U B B B U B B U B N Y U U K Y Y K K Y E K N B B K N K K K K N K Y Y N K N U N Y K K K K N K Y N N K K Y K N K K R K K K B K K K K K K K K K K N K N K E K K K K U N U U K K U M U N U U U U K K K Y K Y N Y Y K K K K K Y Y K K N U J N B B M U K N U B K U K N N M M N B B K K K K U U N J N J K E R U N U K B M N N N R K E E U B K R K Y E U N N K W I I W K R U K K K K K W W Y K K N U K K I K Y K U M M U N B K U U U K N U U N N M M N M N M N N U K N n M R J 2 1 1 1 w y 6 7 O     1 p n z x H G F F i $ 5._.r.&.| %.;.i.u.e.Z $ 1 * y 0 1 w w 1 1 ; @ @ 1 w 0 @ w w w w 0 @ w w w w @ @ IXIXIXIXIXIXIXIXIXIXIX",
"IXIXIXIXIXIXIXIXIXIXIX@ w w 0 @ w * w @ @ w 1 @ w w w w 1 ; ; @ 0 @ @ 0 w 1 : - : 0 w $ . C r.d.p.j.f.n c G J L D L p D J i . X     y p 1 1 r o X r K W ) ) _ ] ) ` ` ` _ Q Q Q ! ` ! ) ` ! ` ! ! E E ! Q ! Q ! @.E Q ` W ~ ! ! ` ` ` ` ` ` ` ` ` ` ` ` ` ` ` ! ` ` ` ] ` 6.7.7.` X.7.` ` 7.6.7.` X.] 6.` X.7.6.8.7.7.8.8.7.v.b.7.7.6.` X.X.` ` ` X.X.` ` 7.X.X.7.7.6.` 6.6.6.7.X.7.7.7.7.7.6.X.X.X.X.7.7.X.` X.7.7.7.` ` X.+.` X.` 7.7.7.6.` X.X.7.7.7.7.6.6.7.7.7.6.X.7.` 7.7.@.7.6.7.7.7.7.7.7.@.7.7.7.] 7.7.7.7.7.X.X.] 7.` 7.7.` 7.6.+.` 7.` ` 6.` ` ` X.7.7.] @.7.7.7.` Q 6.7.@.7.7.7.7.7.6.#.` 6.@.6.6.@.6.@.6.@.X.@.6.7.9.7.7.7.7.7.+.7.7.7.7.7.` +.7.7.7.6.6.6.` ! ! @.@.! 6.6.6.6.7.6.@.6.9.9.9.9.7.6.9.6.6.9.9.#.6.9.9.9.6.6.6.6.9.9.9.9.9.q.9.6.9.9.6.9.9.6.9.6.6.6.6.6.6.#.#.! #.! ` @.@.7.7.7.] Q N x 3 ; 1 : ; t 1 @ O O   q p c c K J A F F c 5  .jX(.:.:.$.,.,.j.j.#.X t 1 w @ y w * ; @ 1 1 w @ w 1 o @ * 1 1 @ 8 1 y y e w w IXIXIXIXIXIXIXIXIXIXIXIX",
"IXIXIXIXIXIXIXIXIXIXIXIX@ w * w 1 @ @ @ o ; @ 1 o 1 @ ; @ @ @ @ : ; 0 w w w : : 1 : 0 y 9 $ V t.y.j.L.3.n x L G D L T J x J p X       o p r 1 1 3 1 1 1 1 o X + * o o > * o * 1 o o 1 o * 1 o 1 2 > > 1 > ; % * 2 o - 2 - o 1 o o % 1 o % 1 > o @ % * o o > * o % o 1 > o o * o o o o % 1 - * o o o o * % 1 1 1 * o o o o * % o % o o o 1 > > 1 % o 1 1 > 2 1 o * > 1 > 1 ; o 1 . - o . o % * o - . o o o o o o o o o . o o o . 1 o . o o o o o o o o 1 o . . o o . o o o o o o . o X . o o o   . o o 1 o . .   ; > 1 o o o o > o o * > 1 o o . $ 1 1 o * % 1 1 % o o > * o % 1 @ 1 o o 1 ; % - % - - o > 1 > o > 1 2 2 1 o o o ; - o 1 > o o o . 1 1 o o - % o o - o - > o % - > - ; > o o > - > > > > o > > > > 5 > > > > > > 2 - > > > > - - > - o - o - > 5 o - - > 5 3 1 % > - > > o > > 5 > > > - - ; 3 ; ; o ; w ; r r 0 o .     8 A M c p J H J I p l Z J.g.;.$.$.$.2.,.k.m   3 y @ * w w 1 ; 1 y w 1 o o w y ; @ 1 w @ w w w r r y 0 IXIXIXIXIXIXIXIXIXIXIXIXIX",
"IXIXIXIXIXIXIXIXIXIXIXIXIX0 w 1 w 1 ; 1 o @ + 1 @ 6 @ ; ; ; ; 0 7 ; 0 1 1 8 = 1 ; : 0 q 0 @ > a t.u.u.k.s.V c G ^ { M x R x c G O O     ; r w y 1 1 1 o ; 1 o o . - : 1 o o o ; ; ; o o ; ; ; o + + @ @ @ @ @ @ @ + @ @ @ o @ w o o o ; 1 1 o . ; - o ; 1 o o ; 1 1 ; ; o ; o : o ; ; ; - 1 - o 1 * * 1 o 1 * o 1 * 1 * o 1 * o o * - ; 1 o ; 1 1 1 1 o ; 1 ; % 1 ; o o ; o * o 1 1 * o 1 o 1 o 1 1 1 1 o o ; > 1 * o o o 1 @ * o o * ; 1 o 1 1 o o 1 1 o 1 * 1 @ ; 1 w 1 1 1 - 1 ; ; 1 1 1 ; ; 1 3 1 1 > 1 - ; 1 1 ; 1 1 1 ; 1 ; 1 ; > @ 1 1 1 ; % o ; 1 1 1 1 1 ; ; - o ; - ; 1 1 1 3 w 1 ; ; @ @ @ ; @ ; 1 @ w w w * w w * @ 1 1 1 1 w 1 1 1 1 3 w 1 1 1 1 1 w 6 o ; * 1 w w y 1 @ 1 w w w 1 1 @ 8 8 8 @ 6 1 * 8 y * @ + + w # * w * * 8 8 8 @ w 8 w w 8 * w 8 w 8 6 6 @ @ @ 8 8 w * 8 @ @ * ; - 1 - 1 1 1 w 1 1 w 8 q w 6 +       0 A A G G p A D p n 4 v k.Q.,.$.| >.-.>.`.C . ; r 7 : @ w w w w w 1 w * w 1 @ 1 1 w w 1 o w w r y w w IXIXIXIXIXIXIXIXIXIXIXIXIXIX",
"IXIXIXIXIXIXIXIXIXIXIXIXIXIX0 y @ @ @ ; 1 @ w ; o @ @ ; 6 @ @ 0 : 7 ; @ * 8 8 8 7 0 : q 0 ; @ $ , a.j.%.i.s.M G / G c J c x P G A O       o t r 1 w ; ; 1 w w 1 1 w w w r 1 w w 0 1 1 1 ; 1 w 0 w w 6 8 0 0 w 8 w 8 w w 0 0 0 w w w w w w w w 1 w 1 ; 1 0 ; w w r r 1 ; w w w 0 1 1 w w w 1 w w w w w 2 w w 1 1 1 1 1 w y 1 y w 1 1 w 3 1 1 1 w 3 1 1 1 1 1 1 w w 1 1 1 w r w w 1 1 w w w w w 1 1 1 1 1 w ; w w w w w 1 1 1 w 1 w 1 o 1 @ ; * w w w 1 1 w ; w 1 o ; 0 ; 1 : 1 1 0 ; ; 1 w 1 ; ; w 1 w w y w w w w 3 w r t 3 r r r 1 1 1 w 1 1 w w w w w y 3 r w w w w w w w w 1 w ; 1 1 w 1 0 0 y w w y w w w 8 w 8 6 w w w w w ; ; ; 1 ; ; 1 1 1 1 w 1 w 1 w w w w q 0 6 6 w w w w 0 6 6 8 w w 8 8 w w y w 8 * 8 w y w 8 8 8 8 8 y y y y w u w y w e u y 9 9 w 9 w w 8 y 8 6 8 y w 9 w y 9 y w 1 1 1 1 1 1 > w 1 w ; ; q 0 + X   . @ i A F G H P L D L > v J.j.%.| :.&.:.y.`.5.$ . w i q i ; ; 1 w o w 1 0 1 w w @ @ 1 1 w y w # w y w 1 IXIXIXIXIXIXIXIXIXIXIXIXIXIXIX",
"IXIXIXIXIXIXIXIXIXIXIXIXIXIXIXw 1 w w ; ; w w @ @ o ; ; @ o o w 7 7 0 6 = 9 9 9 8 q : : : : : +   < 4.h.$.>.e.l G T F c r G G q L p .     O o w r r 1 1 w 1 @ w ; ; 0 0 0 0 ; ; 0 0 0 0 ; ; ; 0 0 ; @ 0 ; 0 ; ; 0 ; 6 w 0 7 ; 0 w ; ; ; 0 ; 0 @ q 0 ; ; @ @ @ w 1 1 0 ; w ; @ 0 0 ; ; ; 0 0 ; @ @ @ 8 w w ; 6 @ @ @ * 1 w 1 @ 1 ; ; 1 q 1 ; @ ; w ; 1 : ; ; ; ; 1 ; 6 0 1 ; @ ; 1 ; @ ; * ; 6 0 @ ; @ ; 0 ; ; 0 0 ; 8 ; 0 0 0 @ w 0 w ; 0 ; w w 0 ; w ; 0 ; 0 ; ; ; 0 ; @ ; @ 0 0 ; 0 0 1 ; 0 ; ; ; 0 ; w ; w 0 ; 0 0 0 @ ; @ ; 0 0 ; ; @ @ 0 ; ; ; 0 ; o ; # + @ @ @ ; + ; @ ; 0 ; 0 ; ; ; ; 0 w 0 w 0 0 0 0 ; 0 0 w q w w w w 0 ; ; ; 0 ; 0 w 0 ; w w w w q 0 w w 0 w w 0 0 0 0 0 ; 0 0 0 w w 1 1 w w w w 1 1 w 1 1 1 w 1 1 w w w w 1 w 8 w 1 8 1 w w w 1 0 w w 1 w w w w w w w w y w y w y 1 * 1 1 1 1 * ; 6 w 8 w 8 9 7 O     1 r p c x L F D u D j > s.dX$.%.%.<.%.u.`.5.%   y i q q q ; ; o 6 @ 1 0 @ 1 1 w o @ ; o * w o @ w w 0 IXIXIXIXIXIXIXIXIXIXIXIXIXIXIXIX",
"IXIXIXIXIXIXIXIXIXIXIXIXIXIXIXIXw t y @ @ @ * o 0 1 @ w 0 @ @ ; q : 0 8 9 9 8 8 y q ; - X : 0 0 @ . v J.h.;.j.k.5 x P P M K S G H I i X       X i t e w w w ; w w w 0 0 w w w w w w i w 0 w 0 0 0 w w w 0 w w 1 w w 0 w 0 ; ; ; 0 0 0 0 0 0 0 0 0 0 0 0 w q 0 q 0 w w 0 w ; @ ; w 0 0 0 0 0 0 ; 1 w w w 1 * w w w w w w w w w 8 1 1 w w w ; ; ; w w w ; : ; w 0 y w w 0 w ; 0 0 w 0 0 q w w w w w 0 0 w w 0 w w w w w 0 0 w w w w 0 0 0 0 @ ; ; w w w w w w w w 0 w 0 0 q w w w @ 0 @ 6 0 ; ; 0 0 0 0 w 0 w 0 0 w w w w 0 0 0 w y w 0 0 0 w w 0 w w w w 0 0 0 0 ; w 0 0 0 0 w w 0 0 0 0 ; 0 0 0 w w w w ; w w w w 0 ; w ; w 0 w 0 0 0 w 0 6 @ w w 0 w 0 q 0 @ 6 @ w w w 0 ; ; 1 0 0 0 ; ; w w w w > 1 1 1 1 1 1 1 1 1 1 1 1 1 * 1 w w w 1 w w w w w 1 w w w 1 w 1 * 1 1 @ 1 * 1 1 1 1 1 1 1 w @ w w y e y y w w y w 6 w 7 O     * t p p x F H p A D U $ H.zX>.=.%.$.<.%.j.f.$ 8 w p 0 q i 0 : ; 1 1 @ 0 * 1 @ w w 1 y w w w w w 8 w w @ IXIXIXIXIXIXIXIXIXIXIXIXIXIXIXIX",
"IXIXIXIXIXIXIXIXIXIXIXIXIXIXIXIXIX1 w @ o @ w w w @ @ ; @ ; + @ ; ; 6 6 6 9 6 7 8 6 @ : 3 5 ; @ O @ . d *.&.h.j.w.m u I J K G G J H H i     O   o @ @ @ 6 @ @ @ 0 @ w 6 w w w w 6 w 6 @ @ w 6 @ ; ; ; ; 1 : ; : ; o @ - ; o o @ ; ; @ # ; @ 0 0 ; @ @ 0 6 @ @ @ ; ; ; @ @ 6 @ @ 0 8 w 0 ; @ ; 0 8 w * 8 6 8 * w * 8 w 8 8 w * w 0 0 w w 0 6 w 6 6 6 6 o w w w y w w * w ; ; w y w w w 8 w w w w w 0 @ 6 0 ; @ ; 0 0 6 @ @ w w 6 w w w w w w 6 w 6 0 8 0 * 0 ; w 6 6 @ 6 @ @ ; 0 w w w w w w w w 0 ; ; ; @ ; @ ; w w @ 0 0 w w w 0 0 @ @ @ @ 6 @ ; 0 0 6 6 @ @ 6 @ 0 w 6 0 @ 0 w # ; 0 @ @ @ ; 1 ; ; o ; @ ; ; ; 1 1 1 w ; 1 0 @ r w w w w ; 0 w w w w @ w @ q * 1 1 1 w 1 ; 1 r 1 1 1 w 1 1 1 ; e w * 1 w 1 8 w w 1 w 1 8 w w w * 1 * * * * 6 1 * 8 * * * * * w 8 1 w * w e 8 w w * @ w w 8 * o * @ @ 0 @ 0 @ @ 6 @ # +       X p D p p H x F p h e % o.zXu.=.p.:.| <.h.e.& @ u w ; ; y w + ; ; w 1 1 @ @ w @ ; w w 1 y w w w * w @ @ IXIXIXIXIXIXIXIXIXIXIXIXIXIXIXIXIX",
"IXIXIXIXIXIXIXIXIXIXIXIXIXIXIXIXIXIXw 1 @ w 1 w w o @ @ 1 w w o ; ; 6 ; 6 6 8 * w @ o 0 0 : ; w ; 0 8 . % *.k.j.pX0.j j K Q I I H x H J r                                                 X             X .                       O       O     O       O         O           O O   X   O     O     X O X       X           X O X O X   X     X X X X O X O O . + O X   O O . O O X . O X       X O     . O O     X X         X                   X X   O   O       X   O O   O                   O   O O   O             O         O   O O                                           O     O                                       O                                                                                                           X X                                             O .                         @ u p H M U U c F M g % ~ kX).%.p.:.y.i.j.R.% * 6 6 0 ; : w ; + w @ w w w @ @ o 1 @ @ o 1 ; @ w 1 ; w + IXIXIXIXIXIXIXIXIXIXIXIXIXIXIXIXIXIX",
"IXIXIXIXIXIXIXIXIXIXIXIXIXIXIXIXIXIXIX@ w 1 @ @ w @ @ 1 * w ; 0 ; 1 1 : : : ; : : : ; # 6 6 8 w q q 6 0 - < 5.`.i.y.f.j H P x K c M x U I w                                                                                                                                                                                                                                                                                                                                                                                                                     X                                                                                     O                                         O     O       O O             O         O                                                     O                           X w h A D A J G c H M % Z J.iX>.h.| $.<.d._.V o o w q 0 0 1 1 + o w w 1 * 1 @ @ w 0 ; w * w 1 * w w w @ IXIXIXIXIXIXIXIXIXIXIXIXIXIXIXIXIXIXIX",
"IXIXIXIXIXIXIXIXIXIXIXIXIXIXIXIXIXIXIXIX1 w 1 @ @ @ @ 1 @ @ o 0 @ 1 1 : - o ; : : - ; 6 6 8 8 7 9 0 : q q   o 5.y.R.). .m B P G H M x H M H i     O     X     X                                                                                                                                                                                                                               O                                                                                                                                                                                                                                                                                                                                                                                                                     .   . @ 1 w A D p M F x M g v K.aX;.-.$.| :.R.`.o.  - l : 3 0 ; 1 r r w w w 6 w w 1 @ w 1 o w ; 1 w ; 1 1 1 IXIXIXIXIXIXIXIXIXIXIXIXIXIXIXIXIXIXIXIX",
"IXIXIXIXIXIXIXIXIXIXIXIXIXIXIXIXIXIXIXIXIXw w # 6 @ @ 0 w 6 @ 0 o w 1 @ @ ; ; + ; 1 @ @ @ 6 @ 8 9 9 ; : : : : o 5.`.p.T.&.a e ^ J G c H J L S w i A H p x x x p H H H A A L A p S p i i S u w y u S p c u i i i u 8 w w w i w y u w w 0 y y p i w y w i i @ y i y @ w e y w o w y w 1 ; @ 1 w w @ y w y q 6 # 6 6 6 w w 9 w 8 6 y 0 i w w w w 0 6 6 q @ w w w 8 q i w q q q 8 6 6 0 6 6 w q + 0 @ ; @ 0 w 6 w O @ 6 + 0 + + ; + @ + @ 6 + 6 @ @ + 0 X @ w 6 + @ + w @ + + w + . @ @ @ # @ @ @ @ 6 X w @ w 6 8 w @ w 6 + w 8 # @ 0 0 w w 6 8 q 6 w 7 6 w + w 6 6 0 @ ; ; ; + 0 ; y ; @ w 0 @ i ; ; ; ; ; + w O ; @ 0 @ + w @ + @ ; + 0 : 0 0 + ; 0 + + 0 # 6 q @ o + ; ; ; ; ; ; w @ i @ 6 w + w @ 6 w @ # 0 i # 0 @ i + + ; @ @ o ; 1 ; > o 1 o @ 1 1 1 0 @ y w * w 0 ; @ w w o 0 @ w ; + o 0 + o @ e M t t p p M p i p M p w w h h p x P x e d _.).:.O.;.g.:.p.'.N . 1 1 1 t ; w w @ @ 0 @ 8 w # 0 0 @ w 8 @ w w w w @ 6 y @ IXIXIXIXIXIXIXIXIXIXIXIXIXIXIXIXIXIXIXIXIX",
"IXIXIXIXIXIXIXIXIXIXIXIXIXIXIXIXIXIXIXIXIXIXw t @ 0 w 0 @ w w @ @ @ 1 1 @ o ; ; @ w 1 @ 1 ; @ @ 8 * : : : q 7 0 &  .,.<.W.a.h P R x x F F A F F L F F F F x H R H J H H H H L F p p L K U L J x J K L J J H U K K J U J L U J J H F L G H F I I H L L G D P P J J K I H M K K I T U U K I K J I J H L { L I / K I L J L ^ I ^ K L J / I L H I I L I P H L I ^ A S J L H A F H A F G H F L H F J P P F H F H J J H H J P L I P K L J J K L K I J p J T P H J I J L K H J J J H H G K P K I I P R P H I L K I I ) U H K J J K I I H J P J P J I I H H I { / ) I P P P G P J G P P G P / J G P / H H I P P J J H H I T / R J I ) J J J R T T T I P L P P K P P L H I H H G J J J H I G H G P I P I I I { K I I ) J I I P H { ) I K W J T T W T _ J I K U H H I I J U K I P P T ) ' T I I L H I T P I U J J M x M x J J K L U J M r 9 w M c G 2 d s.dX:.-.-.| =.j.J.~ 1 o 3 1 1 1 ; w 6 w 8 w 6 @ @ @ 0 6 w w w w w w 8 w w w @ IXIXIXIXIXIXIXIXIXIXIXIXIXIXIXIXIXIXIXIXIXIX",
"IXIXIXIXIXIXIXIXIXIXIXIXIXIXIXIXIXIXIXIXIXIXIXi y @ ; w y w w 8 1 @ w ; ; o ; ; o 0 @ 0 w @ @ @ 1 1 > : : 0 8 8 $ $ 4.d.e.`. ., z J x G ^ G S L G F A F F p F x H U H x p p p p M H J T M p J p x x x c x c x G F c G c p x p i G c G G H G G G J p G F G L F J F P I G p H H c P p c J J H H H P x F J p J P H P P P J H G L H P K / P L H I T F H L K G x F H J G A H L c F c G x J c F G c H G H c F c p G c L i c i c I x i H x x c G M J G G p K J F H H x x x c x K G H H G J J H L J G M x G H U c p x i H M H H p x H F J G K x J F G H H x H G x c c x p H x I H G H K T G P x H T G c F I G R J H K J G J P J H J P x x x x x J J R K J T P H K J G P L F G P L G L P L P F G L G H A F G F F F G L c A F p p L L A L F p / ^ G x I G L P G p L P L F G G G G F F F G P G G T P P ( / G L P / { P L H ^ J L F L L { ^ ^ D y S M v k.xXT.=.-./.p.p.zXo.$ o ; r 1 1 w w w 1 @ w 6 6 6 w @ @ @ w 6 @ w w w w w e w IXIXIXIXIXIXIXIXIXIXIXIXIXIXIXIXIXIXIXIXIXIXIX",
"IXIXIXIXIXIXIXIXIXIXIXIXIXIXIXIXIXIXIXIXIXIXIXIXi 1 # * w w 8 w @ @ @ @ @ ; ; ; 1 w @ @ o w 1 w 1 : ; : ; w 8 8 = # . o.s.5.k.e.l x P J c p F S S S L G S F G e G H H M J U J K M J P R H p K F x G J J x G x G T P J G J P G G P L P P P P P G P F G G L G F P K L J G P P G A G G G G F G L G p J H J P I F G F J P J F G L T L G J J P J ^ P G P I ) L H F K H F p G G p F G P L P G F L P L P P P P P H G J G G P H c G G G H H H c H H L H J p G P K J H x I H J H T J L R K J P P J J J G p K H I P I R I H / P J T I P / P P J H J K J K M x I J K H I K H J I I K K x G R K H x H K H K x K x H K x H M H K M H I J M J x P J J x c H J x H M G H G H I L L L P G F P L G P P I P J L G H I P ^ J L P K L T P P K P L I P G / I P P I L P P P L P P L P P P T P P G G P G G G P T G P P P L G L L H L P ^ I { P P P ^ H S A S + v e.iX:.:.:.-.:.:.(.o.% o 1 w ; ; ; w 1 6 w @ w @ 0 w y 0 @ @ 8 @ * w w w y y 1 IXIXIXIXIXIXIXIXIXIXIXIXIXIXIXIXIXIXIXIXIXIXIXIX",
"IXIXIXIXIXIXIXIXIXIXIXIXIXIXIXIXIXIXIXIXIXIXIXIXIXy y o @ w w @ @ @ @ ; @ @ w o w w @ o ; 1 w w 1 ; @ @ * 8 8 8 # 9 @ 5 3.t.i._.9.4 5 M t r x p S H D D D L ^ L G x x c H H L J x P K J J G J H R K K J G x H x T P J J P L F P L L L ^ L P / P G ^ ^ L G G ^ J P J G G T P P P P P / T G T / ^ P ( ^ P P ( P I L P P L I I / P L P L R / ^ ( I P / / P P ' / F L ( ^ L H I ' ^ ^ ^ P P L P ^ P T P / P P L P / P I P ( / P T L G P I J ^ L L K H P P L I L L I ] ) I G L G I T P H I ) T ) ' { T / P P J L G L P ) L L / I P T I P H H H I I J T G I G M c x p T H I D G H c H L K F H P T I x T P I K { T J I I J F I K I K I P P P R I K T T J L I J L I ) P T T I J G x P x I K P H G J M G x J G K x x H H M K J R G T P J U J T G K I P K ) I K J J P L I ^ I L P P P P J ) { J L I L I K T I P P J H H G F T ( H P T / G H M g . a.zXT.-.<.| ;.p.k.5., $ 1 * @ @ 1 w ; @ @ @ ; @ 0 o 1 w w 6 8 w @ 6 w w r r w IXIXIXIXIXIXIXIXIXIXIXIXIXIXIXIXIXIXIXIXIXIXIXIXIX",
"IXIXIXIXIXIXIXIXIXIXIXIXIXIXIXIXIXIXIXIXIXIXIXIXIXIXi r 6 @ @ @ @ @ ; @ @ ; w ; o w @ ; w w 1 w q ; @ 7 8 8 8 w i q 6 o o e.k.&.s.o.m < > . . $ $ . . . $ o . $ o X - - > - - o - > - o - - . % - o > - . $ 3 > . - 1 o % $ . > t 1 o - X -     o 1 ; 5 5 X : o X o o . X o > : o . X o - o X $ % o $ o   % e % o > > = > > 1 > 2 2 1 4 - % 2 > > 2 2 * 5 g 2 # 4 3 . o > 1 2 - > > 1 > 1 2 > > 2 > 2 3 2 2 > 3 n 4 % t 2 2 4 2 > 2 t 2 j = > 4 > n 2 % 2 = 2 2 5 > % > > > > < d > 5 , > 2 4 4 2 3 2 2 4 t > 4 < 3 > < 5 2 t - 4 < < > > d n d m 4 4 5 4 m n d < % n , v t < B > 2 > g n 2 4 > , > 2 < m V d g v % , m , B K d v 5 < 4 d m 4 4 l v n 5 % j g % 4 v 4 g n m m l d 2 v 5 l v 4 5 4 v < v v n 4 < n v B N n Z l v m d B v 4 4 < d B n d m m n m 2 m m B m B B B d g N j v j g g v 5 < < 4 d d < > t d 4 d n d n B B > s 5.dX).-.-.O.O.R._.s.- 2 o w w 1 w w 1 0 o 1 * 1 w w w 1 w w w w w w @ 8 w t y 6 IXIXIXIXIXIXIXIXIXIXIXIXIXIXIXIXIXIXIXIXIXIXIXIXIX",
"IXIXIXIXIXIXIXIXIXIXIXIXIXIXIXIXIXIXIXIXIXIXIXIXIXIXIXi p @ + 0 ; @ ; @ o ; 1 @ @ ; ; 1 1 w ; ; 3 0 0 9 9 8 9 1 ; : q ; . o *.j.4.J.s. .b b  .o. .o. .o. .C b o.C Z C o.o.3. .*.3.C  .3.3.5.o.5.*. .5.5.5.5.5.5.3.5.5.5.0.f.0.5.*.3.5.e.e.w.t.w.e.e.e.a.u.e.e.e.5.a.a.a.t.5.t.4.t.t.t.t.a.s.t.a.t.r.t.d.a.J.j.y.t.u.d.y.y.d.k.j.d.d.y.d.a.y.a.a.t.t.t.y.t.t.t.y.a.t.e.t.s.t.t.e.r.t.t.e.e.e.&.t.a.e.t.a.s.a.e.4.t.s.t.a.e.f.t.a.a.a.d.t.a.r.t.s.a.d.t.a.a.r.d.t.u.a.a.j.J.j.d.j.J.(.a.y.a.a.u.k.k.k.J.j.`.j.e.a.J.J.j.J.J.(._.(.j.J.`.j.J.(.pXJ.(.`.`.`.`._.(.j.k.J.(.(.(.(.`._.R.`.`.(.k.i.j.(.j.j.`.j.`.`.`.`.`.j.j.`.R.`.(.(.).j.(.j.R.J.a.j.j.j.j.J.R.d.d.d.j.J.J.`.`.(.(.J.R.`.J.j.Q.(.).`.`.`.).pXzXiXaX).(.aX`.`.(.(.i.(.`.j.(.j.j.`.`.a.`.(.j._.`.`.).j.i.j.R.j.j.R.(.j.y.R.j.R.R.j.j.j.j.k.d.u.y.d.J.k.j.d.t.j.j.t.4.j.k.&.h.gX~././.| 1.T._.G.5 X X 3 1 w @ 0 @ @ ; @ w @ 1 y w 1 1 w w 6 w w w * @ w y 1 IXIXIXIXIXIXIXIXIXIXIXIXIXIXIXIXIXIXIXIXIXIXIXIXIXIX",
"IXIXIXIXIXIXIXIXIXIXIXIXIXIXIXIXIXIXIXIXIXIXIXIXIXIXIXIXp i w @ 1 @ * ; w w w @ o ; ; ; w 1 1 0 ; : 6 6 9 8 = 1 : : : : 3 X . e.`.y.j.pXdXcXKXKXKXKXKXcXKXKXKXKXKXKXKXKXmXcXcXcXcXzXcXcXcXxXkXkXkXkXxXcXlXcXcXzXdXzXdXpXkXcXzX).(.pXkXcXfXfXkXxXsXdXlXkXlXlXfXdXfXlXkXfXfXdXfXdXpXfXkXdXfXfXdXkXfXkXsX).).dXdXdXpXiX).(.).).).(.pX).W.).iXpXpXiXpXsXdX).dXfXfXdXR.pXdXiX).iXdXpXpXdXpX).iX).(.pXpX~.(.(.).iX).W.(.W.W.pX).kX).(.zXdX).R.).R.).dX).).).kXdX(.).).iX).).dXdX).W.iX).iXW.Y.).W.g.~.R.j.).(.).(.g.(.).pX(.).).(.(.W.W.W.dXW.!.W.iXp.h.T.W.W.T.W.T.g.~.).T.W.p.h.W.~.).~.).T.p.W.).).R.R.T.Y.W.g.R.T.E.W.p.g.T.p.| p.(.h.T.p.p.R.p.~.).T.E.dXfX~.W.).(.W.R.~.R.p.Y.E.E.).T.Y.g.g.).~.h.Y.R.W.).T.R.T.Y.h.p.<.Y.Q.:.W.).p.R.W.E.).).Y.g.g.p.W.T.T.dXW.<.~.sX!.~.iX!.Y.Y.sXiX{.iX!.iX).).~.Q.T.W.sXlXiX).iXT.W.W.(.W.pX).sXgX^.1.O.| p.g.J.s.. X q : : 0 1 w w 6 0 w o w o + o 1 1 1 w @ w 1 w i w w i r IXIXIXIXIXIXIXIXIXIXIXIXIXIXIXIXIXIXIXIXIXIXIXIXIXIXIX",
"IXIXIXIXIXIXIXIXIXIXIXIXIXIXIXIXIXIXIXIXIXIXIXIXIXIXIXIXIXH p + w + 1 @ o y w @ ; w w o @ w 1 o 1 @ 6 w 9 8 : - : : : ; ; 1 % $ r.;.$.p.=.} } %.} %.%.%.%.-.1.<.<.-.=.| =.:.| :.-.O.| =.<.:.:.:.-.<.=.| -.1.-.=.<.-.=.| | -.=.>.| | | =.&.| } O.$.| Y.,.$.:.:.=.$.;.$.$.;.;.$.$.$.;.;.| | | | } %.>.| %.$.| b | | %.} | $.} %.| >.:.$.$.$.%.$.%.%.%.| %.$.$.$.$.| $.&.%.} } $.&.$.$.>.} $.} ..| | | $.$.$.| $.&.p.i.,.&.$.i.$.} ;.;.,.:.>.>.>.;.;.p.p.i.>.$.$.p.i.<.,.,.$.;.;.,.,.p.<.;.,.h.g.;.i.,.i.,.>.;.>.,.$.&.i.p.,.;.$.$.,.i.p.p.;.;.>.;.p.p.>.>.,.,.,.,.<.p.p.<.,.;.:.;.,.;.,.,.:.:.$.,.$.:.$.$.$.| $.-.$.:.,.,.;.=.=.$.,.| ;.=.$.;.<.>.| $.| =.| } } } } | O.$.:.} } O.O.| p.<.| =.<.$.| =.=.-.p.-.$.:.=.=.:.=.:.h.:.| -.p.=.%.=.=.1.:.<.| $.-.| } =.=.=.=.:.-.| <.-.;.:.p.:.| | =.=.=.-.=.1.,.=.<.=.%.<.} | =.| <.-.-.%.;.Y.Y.-.-.:.d.J.5.5   : c 0 : w w w 8 w @ @ w w w w o ; w o o @ w w 6 w i i i IXIXIXIXIXIXIXIXIXIXIXIXIXIXIXIXIXIXIXIXIXIXIXIXIXIXIXIX",
"IXIXIXIXIXIXIXIXIXIXIXIXIXIXIXIXIXIXIXIXIXIXIXIXIXIXIXIXIXIXp F o w y @ ; y o w o 0 w ; @ 1 1 @ 1 * @ 6 0 ; : 7 : - ; @ 0 w 9 $ . u.dXj.T.(.j.R.(.Q.J.j.j.Q.(.(.iXW.W.R.W.W.d.W.T.d.p.R.(.j.T.Y.h.R.u.i.j.h.p.j.j.p.u.>.>.i.&.>.y.y.&.&.a.y.r.y.u.4.d.i.;.r.r.i.y.u.y.4.i.i.y.t.r.i.y.t.i.t.r.&.4.d.t.k.j.j.r.u.4.t.4.i.u.&.r.4.a.a.t.t.4.&.&.&.*.&.&.e.r.r.4.4.4.5.e.4.t.a.y.t.t.s.y.4.t.a.a.e.t.t.t.t.5.5.4.4.4.4.t.4. .&.&.5... . .5. .&.4.4... . .&.r.4. .&.&. . .&...*.&.&.&.e.4.&.&.4.&.*.&.*.5.&.*.*.5.&.*.&.t.a.e.5.5.*.&.4.4.r.5.&.>. .4.&... .4.r.t.4. .r.>.&.4.r.i.i.&.4.u.u.i.r.t.u.a.d.y.j.j.j.J.`.y.u.k.d.d.d.d.d.j.j.j.d.y.y.a.d.y.j.a.(.J.j.`.j.d.`.`.d.j.y.r.i.r.>.p.d.p.p.h.u.g.,.u.u.p.u.g.p.&.p.j.,.&.p.i.$.,.p.| &.i.p.,.&.d.,.p.T.R.h.,.>.p.i.y.g.p.g.d.g.,.>.;.;.i.p.p.| ;.$.,.i.;.p.i.,.j.<.g.h.&.r.$.i.;.&.>.=.:./.R.J.o.5 + c q 7 8 w w 6 ; 6 8 @ @ 6 @ 1 t 1 o 1 o w @ w @ @ w h i IXIXIXIXIXIXIXIXIXIXIXIXIXIXIXIXIXIXIXIXIXIXIXIXIXIXIXIXIX",
"IXIXIXIXIXIXIXIXIXIXIXIXIXIXIXIXIXIXIXIXIXIXIXIXIXIXIXIXIXIXIXH t + o w * o o w @ ; @ o 6 w w 1 1 o o ; ; ; : : : ; ; 6 w 8 8 * - . ! R N V R E C E C Z m Z Z B m n m g d n < d d d j g d < d d v v 5 v v 4 v n B d m d n B 4 g g n n B ~ E m j V B V m g B B m v N m m m m B V V V V V ~ C V m V E B N B E B N m B B B N B B V n m m M B m B B n m m n m 4 4 < 2 2 2 2 4 t g 2 2 2 1 5 = 5 > 3 1 % o o % o . o o o > > $ . o 5 $   $ > o . $ 2 4 5 o . % $     o o $ o . . % > o . o . . . . o   . o o o . o - . . - o . .   . . . . o . . .   . .   .   . X . . . o . o . . o o % o > > o > - , & % d d , d v d d d d d g v g g E m B m Y V ~ V ! ~ 6.6.6.9.6.9.0.X.o.3.3.3.3.5.0.0.f.s.w.0.S.S.0.s.S.w.s.H.3.o.w.H.0.0.H.D.s.0.G.L.K._.K.K.L._.K.H.H.K.K.K.K.L.J.`.L.J._.J.J.J.H.J.K.J._._.k.K.s.G.J.J.G.H.H.G.L.K.L.s.L.G.J.s.J._.D.H.`.a.C % o 0 w t w 8 e 8 1 0 @ @ @ @ + w 0 1 w 1 1 o w 6 @ @ w u i IXIXIXIXIXIXIXIXIXIXIXIXIXIXIXIXIXIXIXIXIXIXIXIXIXIXIXIXIXIX",
"IXIXIXIXIXIXIXIXIXIXIXIXIXIXIXIXIXIXIXIXIXIXIXIXIXIXIXIXIXIXIXIXH @ o w + @ w + 1 w 6 @ o 1 ; ; * * @ - + : ; 0 0 0 0 q 6 6 o * 0 + O O   O X     X X X X X     O   + X O + X O O + + . O + ; ; + O + +   O ;   + O + + 6 6 O +   + @ o + X X @ X X X X o X X X   . o o @ o o . + X X X + X X .   @ O X   @     + O ; + ; ; + q X X + @ + + + ; + + + + O + X @ + + @ +   O X + @ @ + y + + o w 0 0 ; 0 q w w 0 w ; 0 ; 0 0 ; ; 8 6 0 0 @ @ 6 w 0 ; ; + 7 w 0 i ; ; 1 w ; ; w 1 0 ; : ; w 0 : ; 0 ; 0 0 w : 7 ; 0 0 : ; 7 q w 0 i 0 0 0 0 q w 0 0 y w q 6 + 0 ; + ; 0 ; 7 ; ; + ; ; + o ; + @ X @ +   @ +   X O @ o X + X O X     # X   + 0 . + O o o . . . o . . . . $ . X . .   X . . o X . o . o - . . . . . $ o % . . o . . . o o . . X . X o > . o < > o > % , < , . , , > , , d s > , d < l > > > < > > > > > . > > < > % l < d & a f < $ X i q @ q t 9 8 w w w 6 @ w w o w @ o @ 1 w @ o y @ * i p IXIXIXIXIXIXIXIXIXIXIXIXIXIXIXIXIXIXIXIXIXIXIXIXIXIXIXIXIXIXIX",
"IXIXIXIXIXIXIXIXIXIXIXIXIXIXIXIXIXIXIXIXIXIXIXIXIXIXIXIXIXIXIXIXIXx t @ @ w ; @ 1 ; ; o 0 w 1 o o 1 ; 1 o @ @ 0 6 7 6 6 6 @ 1 y 6 L 6 S 9 8 7 u w 0 y w w e e i r w i i w i i w @ 0 w ; 0 w w w w e w 1 r y w 1 1 @ w 8 w * o 1 t r w o * > w w w t * 1 t 1 1 w w w w 1 1 1 1 ; 1 1 1 1 1 3 w t ; ; ; w 1 w t t 1 1 w w w t ; 1 w o w 1 w 1 ; 1 ; 1 w r t w w e i w w 0 ; w w 1 0 w t r @ 0 w w ; 0 ; w ; ; ; ; w w r 1 0 w 0 r 0 ; ; 0 ; 0 w ; ; ; w ; ; + @ 1 w ; w 3 0 ; q : t ; ; w w 3 ; ; w w : w w ; ; ; ; ; ; ; : i t : ; 0 ; ; : ; ; ; w ; ; ; w ; 0 + 0 : w 3 w w w ; ; i w t q : i t q 3 0 w ; ; r : 0 ; ; w w : ; ; y w w @ 1 w w o w 1 1 1 1 1 w 1 t @ ; r w 1 * w w ; ; ; ; 1 1 o o p 1 . * 1 o 1 * o o 1 1 1 1 p t e * o 1 > 1 - > 1 o . X . - 1 % @ : 1 o - o 1 % o o o X X o o o o 1 o : . 2 : > e o % o % o * 8 X . w > o - 1 3 ; 0 i w 9 y @ @ w y 1 ; 1 w @ + 1 1 1 @ @ 1 1 y w i h i IXIXIXIXIXIXIXIXIXIXIXIXIXIXIXIXIXIXIXIXIXIXIXIXIXIXIXIXIXIXIX",
"IXIXIXIXIXIXIXIXIXIXIXIXIXIXIXIXIXIXIXIXIXIXIXIXIXIXIXIXIXIXIXIXIXIXH p 1 + 1 w @ @ @ @ 1 1 ; ; ; ; 1 w q # # ; @ @ 7 6 6 @ 1 1 w 8 9 6 # w p w w @ 8 @ @ 8 8 w 1 + o ; @ ; * + w 0 w ; 1 r w w w * @ w w o * * ; 1 w w 8 1 y y 1 o * 1 w 1 w > 1 w % w > 1 1 1 1 1 1 1 - ; @ @ @ o 1 1 1 ; @ * t 1 1 1 o * w w 1 1 1 @ 1 w o ; 1 o o @ o 1 1 1 w 1 1 1 1 1 1 1 ; ; o ; ; ; w o 1 ; 1 1 ; ; 1 @ w 3 w 1 1 : ; ; o 1 w ; 1 3 ; 0 q ; ; o ; 0 w : @ @ q ; ; ; ; 1 w : w ; ; ; ; ; ; : ; ; ; ; ; ; ; ; ; ; 6 o ; ; w ; w w w ; w ; ; 1 : w r ; ; ; ; ; ; : 1 w w 3 w 1 q ; ; : ; : ; : ; ; ; 1 i : ; ; ; o + ; r : 0 o ; : w ; ; o o o e w o @ t @ @ * 1 1 1 1 1 * @ @ ; 0 @ 1 w w i w i p w w r y w r w w y p y @ w w w w w w w 1 @ 0 w t t r w w 1 w t r 3 t 3 1 t w w t r r w ; 0 r 1 1 w r w w 4 e t > t 2 t 2 w e 1 e w * 1 p w i w w 6 y i 1 ; ; w i y 6 8 3 @ 8 w w 1 @ ; w @ w w @ @ @ w w 1 i p i IXIXIXIXIXIXIXIXIXIXIXIXIXIXIXIXIXIXIXIXIXIXIXIXIXIXIXIXIXIXIXIX",
"IXIXIXIXIXIXIXIXIXIXIXIXIXIXIXIXIXIXIXIXIXIXIXIXIXIXIXIXIXIXIXIXIXIXIXP e X w 1 @ @ @ 1 w w @ ; 0 : 6 6 8 6 o - 1 o : @ @ @ o ; 1 ; w @ i w @ y w @ w w w w * 0 w ; @ w w 1 w 1 r w 1 * o 1 * r 8 + 0 i ; ; y o ; 1 w ; @ @ @ @ w 1 ; 1 @ ; w w o w w y w w 6 w 1 @ w i w w w @ 0 w w w w w @ @ @ o w w * 8 w @ 1 * * * w e ; w e w w 1 w y * w w * o 1 * u p i w w w w 1 ; w w r ; o w 1 1 o w 1 1 e * 1 w w 1 w w 8 1 r r @ ; w 1 w 1 ; ; 1 ; w 1 w ; 0 w w w w ; w o ; @ w w ; 0 w w 0 w w w w 1 1 ; w 1 w w w o @ ; # o 1 w ; 1 1 ; r ; ; w ; w ; 1 @ @ 1 1 w 0 w r 0 w i w w ; 0 ; 0 r w ; 0 w w @ w w 1 1 w 1 1 w r w w w y w i t 7 * w w w * t y 1 o @ w 1 w w 1 @ q 0 0 ; 0 w w ; @ 0 w w q @ 0 + y w 0 8 6 6 0 w w w 1 i @ w + w @ 0 @ ; ; ; ; 1 ; 1 1 o ; ; 1 1 r t o 1 w 1 1 3 w 1 t w 1 e 1 p M r w w * 1 8 w 1 1 w 8 w w F i 6 0 0 ; t q ; w 6 7 q ; ; 0 1 w 1 @ 1 * 1 o 1 w @ y w w y w IXIXIXIXIXIXIXIXIXIXIXIXIXIXIXIXIXIXIXIXIXIXIXIXIXIXIXIXIXIXIXIXIX",
"IXIXIXIXIXIXIXIXIXIXIXIXIXIXIXIXIXIXIXIXIXIXIXIXIXIXIXIXIXIXIXIXIXIXIXIXU r ; @ @ @ ; w 1 @ @ @ ; 7 6 6 9 8 w > ; > ; ; 0 0 ; o w t o o 1 1 o 1 * @ @ o @ 0 6 w 1 1 * w 1 1 w w w o w w w w # r + r 0 @ 0 0 0 0 + ; ; ; ; w w ; w 0 0 w w 6 0 * 0 0 0 0 O w @ w w @ 6 w 6 1 w 8 w w 8 6 6 w w w * 1 e * @ w e * w w @ @ 1 1 @ ; w * * * * w @ 8 * @ * w w w * @ 1 o o w 1 1 w 1 ; w y 1 @ w w * 1 w w 1 1 w w 1 * w ; o w 1 o 1 w 1 y i w @ w r w @ w w ; 0 w w w * y w 0 ; w 0 ; @ ; 0 0 0 1 0 y 8 @ w w 8 * 1 y 0 w e y w w w y r o ; w ; o 1 r r ; ; ; 1 w w : ; w i 0 0 w ; 0 w i 0 ; w q i ; ; ; ; e r 1 y w w @ 1 w 1 w y 6 * 8 u 8 w @ 8 w @ 8 @ e w w 1 @ r ; i @ 0 + 0 0 w 0 0 w w 0 q @ 0 0 w 0 w 0 w 0 0 0 w 0 @ w y ; @ y q w @ : ; ; w ; ; w ; ; 1 w 1 1 t 1 > * w t 1 1 1 1 1 2 1 1 o w > 1 p * 1 w * e w e t r r 1 1 : ; q w A 0 w ; ; ; 0 0 : - 0 ; @ w w @ * 0 @ @ 0 w o X 1 i y w IXIXIXIXIXIXIXIXIXIXIXIXIXIXIXIXIXIXIXIXIXIXIXIXIXIXIXIXIXIXIXIXIXIX",
"IXIXIXIXIXIXIXIXIXIXIXIXIXIXIXIXIXIXIXIXIXIXIXIXIXIXIXIXIXIXIXIXIXIXIXIXIXL p X 1 @ 1 y @ o @ 1 ; ; ; 0 8 6 1 ; ; o o w ; o 6 1 1 o 0 ; 1 o @ w @ ; @ @ @ @ ; * 8 @ w w 6 w @ 8 w # @ w w o ; w w w * @ ; 1 w w o 8 1 @ 1 * w o w @ @ @ @ ; w w * w w o + * w @ * w w @ 8 1 w ; 0 w w * @ 1 w @ w 1 1 ; @ w t w 1 1 1 @ @ @ w 1 w o @ 1 w 1 * w @ @ ; w y w 1 o w ; * @ w 1 w 1 w t y @ @ @ 1 @ + ; w 1 ; @ ; o 0 w w w w w 1 ; + 1 w @ o w w 1 o @ w 1 @ @ @ ; w w 1 @ @ w w 1 1 w w w w 1 w ; 1 1 ; w w 1 * o w w 1 w w w 1 @ @ w 1 @ w w 1 @ w w w 1 w w 1 w @ 1 w 0 o w w @ w w w 1 1 o w e 1 1 w 1 1 1 w 1 o w y 1 1 t w w 8 @ @ 6 w w y r w w @ 6 @ 0 @ @ 1 w w 1 w @ @ w + 1 w w 0 @ 1 @ @ w 1 1 0 w 1 @ w @ * w w 1 1 y 1 @ w w w 1 @ 1 y 1 o 0 w 1 @ y 1 t e w w @ * w * w w ; w 1 1 w e 1 ; 1 w e y r t w w w 2 w w w w w 1 w y r y y 1 w 1 1 w r w ; w 6 @ w 8 @ @ 1 o 0 w w 1 1 1 1 w IXIXIXIXIXIXIXIXIXIXIXIXIXIXIXIXIXIXIXIXIXIXIXIXIXIXIXIXIXIXIXIXIXIXIX",
"IXIXIXIXIXIXIXIXIXIXIXIXIXIXIXIXIXIXIXIXIXIXIXIXIXIXIXIXIXIXIXIXIXIXIXIXIXIXJ y @ t 1   o y w @ ; ; ; ; @ 1 o @ @ 0 @ w w @ 1 w w @ ; w 0 @ @ @ 1 ; 1 @ @ @ @ + w @ w @ @ 0 @ @ 0 @ 0 w 6 ; w y 1 1 1 1 @ @ w w 1 w 1 w w w w w 0 o @ 1 1 ; @ 1 ; w w w 1 1 w @ w 1 w w 1 w w ; + @ 1 1 0 8 1 1 y w w 1 @ 1 w @ 1 @ ; ; 1 ; w 1 w @ 0 w 1 w 1 1 w 1 o @ 1 w 1 ; @ @ ; 1 w w @ @ 1 w 1 1 * 1 w w @ * 1 1 * w w 1 w @ * w 1 1 1 @ 1 w w * * w w w 1 w w w w ; 1 @ o @ 1 1 1 * 1 w o @ * w @ w @ * w 1 @ @ @ w w w @ 1 * w 1 1 w @ 1 ; @ w w 1 w @ 1 1 * w w ; * 1 * w @ o @ 1 1 1 1 0 1 1 0 1 w w 1 1 1 ; @ 1 1 1 o w w 1 1 1 w 1 w @ 0 w w w @ 6 * 0 @ w 1 6 w 6 o @ * 1 1 1 w 1 1 w 1 w 1 1 w * w w 1 w * w 1 @ 1 w w w 1 w w 1 1 ; @ w w * @ ; 1 ; o w w 1 o w 1 w w w 1 w 1 * w w 1 1 1 1 1 w w w 1 1 w w w 1 1 w 1 w * 0 1 w 1 w * w 1 w w 1 1 t w w ; w w ; @ w @ 6 0 w w ; w 1 * 1 o 1 w t @ IXIXIXIXIXIXIXIXIXIXIXIXIXIXIXIXIXIXIXIXIXIXIXIXIXIXIXIXIXIXIXIXIXIXIX",
"IXIXIXIXIXIXIXIXIXIXIXIXIXIXIXIXIXIXIXIXIXIXIXIXIXIXIXIXIXIXIXIXIXIXIXIXIXIXIXJ r w 1 @ 0 w w 1 ; ; ; ; 1 @ @ @ + o w 1 @ w ; @ 1 @ @ @ @ o 6 1 * @ ; @ @ @ @ o w @ @ 6 w w @ w w w w 8 @ 0 w 8 1 1 w @ @ 1 1 w 1 w 1 @ 1 w w @ 1 * w w w ; w 1 1 w w w w w ; ; 1 1 w 1 ; 1 1 ; * 1 1 w 1 @ @ w 1 w 1 o ; w w * * @ @ @ @ w w * @ @ @ ; w w 1 w w 0 w o + * 1 * @ @ w w 1 1 1 w 1 1 1 w w ; w 1 o @ 0 @ @ @ @ 1 1 1 1 ; w @ @ w w 1 0 @ @ w w ; o w o w 1 @ @ @ # ; w 1 ; @ w 0 @ + @ ; 1 1 1 w w 1 1 @ @ 1 w w @ 1 w 1 w 1 @ ; ; w 1 8 1 w w 1 w 1 @ 1 1 @ o * ; w @ @ @ w w 1 * @ @ ; w 1 w w w 1 1 1 @ w ; * w w 1 1 1 1 t 1 @ w 0 w 1 w 8 @ 6 @ w 6 1 w w w 6 0 w w w w w w w w 1 @ w w w @ w w w 1 1 1 ; w * w w 1 1 w w 1 w ; ; 0 1 1 1 1 * 1 w w t w ; ; w 1 w 1 w w w 1 1 w w @ w 1 w y w w w @ 0 1 w 1 1 w 1 1 @ o 1 y 1 @ 0 * w 1 w 1 1 w w 1 1 8 w 1 w 8 @ @ ; w @ ; @ @ o w y t r w IXIXIXIXIXIXIXIXIXIXIXIXIXIXIXIXIXIXIXIXIXIXIXIXIXIXIXIXIXIXIXIXIXIXIXIX",
"IXIXIXIXIXIXIXIXIXIXIXIXIXIXIXIXIXIXIXIXIXIXIXIXIXIXIXIXIXIXIXIXIXIXIXIXIXIXIXIXx 1 w r * + * w ; o ; ; @ ; ; @ + * ; @ @ 1 1 @ w * w 1 w @ 1 w ; 1 w w 1 ; 6 w 6 @ w @ w y 0 1 w w w w @ @ 6 @ w 1 w w 1 1 @ w @ 1 ; w * 1 1 w w w 1 w @ * ; w w o * 1 1 @ @ 1 @ @ ; ; @ @ @ @ w w w w w @ @ 1 @ @ w @ @ 1 w w 0 @ @ ; * 1 w ; o 1 w 1 @ w w * 1 * w w w ; @ @ 1 w * w 1 1 * w w @ @ w w @ @ o w 0 1 1 @ @ 1 @ 1 6 w 1 1 1 1 w @ w @ o @ 1 1 @ @ @ * @ @ ; 1 1 @ w w w ; @ o @ @ @ @ @ @ 1 1 w 1 w 1 w 1 w o @ @ @ @ w * @ 1 w 1 ; w 1 1 1 * w w @ @ w w @ 0 w @ @ w ; * w w ; 1 ; @ 1 6 1 1 1 1 w ; ; 1 @ w @ w 1 w 1 w w w w @ 6 w @ @ w w w w w 1 w w w 8 0 @ w y w w 8 8 w w w 6 @ 0 8 w 6 1 @ @ w w ; 1 w w w 1 1 1 1 w 1 1 w ; w w w 1 w 1 w w w w w w w w w w 1 w e w w 1 w w @ * * @ 1 1 w 1 w 1 1 1 @ 1 w w w w 1 1 w 0 1 1 w 1 w w 1 1 w w 1 @ @ 1 1 w 0 w ; 6 @ 1 @ @ ; 1 w r w o IXIXIXIXIXIXIXIXIXIXIXIXIXIXIXIXIXIXIXIXIXIXIXIXIXIXIXIXIXIXIXIXIXIXIXIXIX",
"IXIXIXIXIXIXIXIXIXIXIXIXIXIXIXIXIXIXIXIXIXIXIXIXIXIXIXIXIXIXIXIXIXIXIXIXIXIXIXIXIXH t + @ w 1 o 0 ; @ @ w @ w @ @ w w @ 1 w 1 1 * ; ; 1 ; 0 o w w w w w 1 @ 0 1 ; @ @ 6 0 w @ 8 8 @ 6 w 0 @ w @ * w w 1 w @ @ @ 1 @ ; w w w 1 1 1 @ @ @ o + @ w w * * ; 1 @ @ w w o w * o @ 6 ; 1 @ o w ; @ @ w w 1 w @ * 1 @ @ w @ @ @ ; w 1 @ w w w @ @ ; ; @ w w w w 1 1 w 1 ; 1 w @ o ; w w @ @ o w w @ ; w w * w * ; @ w w @ 1 1 w w w 1 1 @ ; w 1 @ @ 1 1 6 ; ; w w 1 1 w o 1 w 1 w @ @ ; 1 ; @ ; ; ; 1 ; * w w 1 1 @ @ @ @ @ * w ; 1 w 1 w 1 w 1 0 1 ; w w * ; w w o 1 w 1 w 1 @ 1 ; ; @ @ @ w ; ; 1 @ @ @ 0 @ w @ w w w 8 w w w w w w w w w w @ @ 0 w w * 0 w * w w 8 0 0 6 w * 6 @ 0 @ w w w w w w w w w @ 0 w 0 0 0 0 0 0 0 0 0 0 0 w 0 0 0 0 0 w 0 0 @ q 0 0 0 y 0 0 w 1 1 * 1 w w 1 1 w * o 1 * ; 1 w w w * w w w 1 1 w e w w 1 1 w ; 1 @ ; * w 1 w w 1 w @ 1 w w 1 * w w @ 6 @ 1 w w * 0 1 w @ IXIXIXIXIXIXIXIXIXIXIXIXIXIXIXIXIXIXIXIXIXIXIXIXIXIXIXIXIXIXIXIXIXIXIXIXIXIX",
"IXIXIXIXIXIXIXIXIXIXIXIXIXIXIXIXIXIXIXIXIXIXIXIXIXIXIXIXIXIXIXIXIXIXIXIXIXIXIXIXIXIXM y @ w w @ w 1 1 @ @ @ @ 1 @ @ o ; ; w w w w @ w @ @ @ @ @ @ 1 1 w @ 1 * 1 w 6 w @ @ 8 w w w @ ; y w @ 6 w w @ @ w w * w @ w 1 w * @ @ @ @ w o @ 1 w 1 1 1 w w 1 w w w * w w w w w w * w 1 w o o 6 1 1 w 1 * w w @ @ w w o w ; 1 @ ; ; @ 1 @ w * 1 1 1 w 1 1 @ w 1 0 * 1 w o 0 1 w w @ 1 w * @ @ ; * w w 1 ; @ 1 @ 1 ; o w * @ w w @ @ * @ @ o w 1 w 1 @ w w ; * w w w w 6 0 ; @ @ @ 1 w * 1 @ @ ; ; ; @ @ 1 ; w 1 1 w 1 1 1 w ; @ w ; w w 1 w @ w w 1 @ 1 1 1 1 w * w @ 1 w 1 w 1 * @ @ ; @ 1 @ 1 ; * w w 6 @ 0 6 8 w w w @ * w w w 1 w * y w 1 8 6 * w 6 6 w w w w w w w w w 0 @ @ @ 1 w * 8 * w 8 w @ w w w 0 i i 0 ; 0 0 6 @ w w @ 6 w 0 0 0 0 y 0 0 + # w i 0 w 0 0 0 1 w 1 * 1 1 w 1 1 w @ w 1 1 w w 1 w 1 w 1 w y @ 1 1 w w w 1 w * @ * w 1 ; 1 @ 1 e w 1 ; 1 w w @ 0 w w 6 @ @ 1 w 1 w w y 1 IXIXIXIXIXIXIXIXIXIXIXIXIXIXIXIXIXIXIXIXIXIXIXIXIXIXIXIXIXIXIXIXIXIXIXIXIXIXIX",
"IXIXIXIXIXIXIXIXIXIXIXIXIXIXIXIXIXIXIXIXIXIXIXIXIXIXIXIXIXIXIXIXIXIXIXIXIXIXIXIXIXIXIXK i @ w @ ; ; @ @ 1 @ w 1 @ @ @ * w 1 * w 1 w 1 1 1 @ @ @ @ @ @ 1 w 1 w w w w y 1 @ w w w w w w w @ 8 w 6 @ 0 @ 1 ; w @ @ @ @ 1 w 0 o @ @ w ; 1 w y w w ; 1 w 1 w w w 1 ; w w w 1 w @ 1 w w w w w w @ 1 @ @ 1 ; ; ; w 1 @ 1 w ; ; @ w w 1 o @ @ @ w w w w * ; o @ o @ 1 w @ 1 w w w w 1 w 1 w 0 ; 0 w 1 @ @ @ @ 1 w @ @ ; 0 1 1 @ 1 @ @ w ; 1 * w 1 w w @ 1 w @ 1 * 1 ; o w @ ; ; 1 w w 1 w @ @ w 1 8 w @ 0 @ w * @ * w w 1 0 1 w w 1 * w 1 @ o w 1 w ; 1 w w 1 6 @ ; w @ w 1 @ @ @ 1 @ w ; @ @ w * w 1 w 0 @ w * w w 8 0 6 w w w w 6 8 w w @ * 1 w w 1 @ w 1 1 1 w 1 * 1 w w w @ 8 w w w w @ 0 w w @ 6 8 0 w w 0 0 q 0 6 0 0 q 0 0 0 0 0 i 0 0 0 0 0 0 @ 0 w 0 0 i i 0 w w 1 w @ w w w w @ 1 8 ; w w 1 w 1 w w ; 1 w w 1 w 1 w w w 1 @ 1 w w 1 w ; 0 1 w y w 1 * w w 1 w w @ @ @ @ w ; ; * w r w IXIXIXIXIXIXIXIXIXIXIXIXIXIXIXIXIXIXIXIXIXIXIXIXIXIXIXIXIXIXIXIXIXIXIXIXIXIXIXIX",
"IXIXIXIXIXIXIXIXIXIXIXIXIXIXIXIXIXIXIXIXIXIXIXIXIXIXIXIXIXIXIXIXIXIXIXIXIXIXIXIXIXIXIXIXJ w o w * ; ; ; @ 1 @ @ w ; 1 1 w w @ 1 @ @ w 1 w w 1 1 1 1 ; @ @ w 1 1 @ ; w y w w 8 w @ @ w @ @ w w @ o @ @ 1 1 ; 1 1 1 @ @ 1 w ; @ w w * @ @ w o @ @ @ 1 @ @ o w 1 @ 1 1 w 1 0 o @ 1 @ 1 1 w w 1 @ @ ; w 1 @ 1 w w 1 w 1 1 w * @ 1 w w w @ 1 1 @ o * w @ 0 ; 0 w w @ w ; 8 o ; @ * 1 w 1 ; @ o 0 * @ w 1 w w w @ 1 @ @ w 1 w @ @ 1 w y w @ o w w w @ w o @ @ ; w w 1 w 1 w 1 ; 6 o @ @ 1 @ 1 1 w @ o 1 w 1 w w w 1 w w @ @ 1 1 w 1 @ w @ @ * w 1 1 ; @ 1 ; o @ w w 1 + @ 1 w w w ; * w w @ o 1 w w 1 w w w w w @ @ @ @ 1 w w @ 0 w e t 1 ; 1 w w w 1 w w w w * w @ @ w w 6 @ @ w 6 @ w w 0 8 w @ w w 6 0 w 0 q w w 0 0 0 i 0 0 w w 0 i i 0 0 w 0 0 0 i 0 @ + 0 0 0 q o w @ 1 * w 1 ; 1 w ; 1 w w * w * 1 1 * 1 1 1 @ 1 1 1 w @ ; * w @ 1 @ ; @ 1 1 y w 1 1 1 1 1 w * 1 w @ o ; 1 ; o 1 1 w ; IXIXIXIXIXIXIXIXIXIXIXIXIXIXIXIXIXIXIXIXIXIXIXIXIXIXIXIXIXIXIXIXIXIXIXIXIXIXIXIX",
"IXIXIXIXIXIXIXIXIXIXIXIXIXIXIXIXIXIXIXIXIXIXIXIXIXIXIXIXIXIXIXIXIXIXIXIXIXIXIXIXIXIXIXIXIXJ y o w o 1 w o @ w ; 1 ; @ w 1 w @ w 1 @ w 1 0 w w w w @ o w w ; o w w @ 8 0 0 w o w w @ w w w w w w o * @ 1 * @ @ 1 o 6 1 1 1 * @ @ w @ @ 1 @ o @ @ 1 @ o 1 w ; * + o 8 ; 1 @ @ 1 w * @ @ o 0 @ ; w w 1 @ @ @ ; w * @ @ @ @ 1 @ 1 @ ; w @ 1 w t y 1 o ; 1 1 @ @ @ 1 w o @ ; @ o ; w w 1 @ @ o w 1 w @ o * w @ 1 w @ 1 1 o @ @ w 1 @ ; ; ; 1 w w ; o ; ; @ w 1 w ; o 1 1 w o @ @ @ @ w 1 @ @ w w w 1 @ w w 1 1 1 1 o * ; 1 * @ o 0 w w 1 @ o @ @ w y @ w w o @ w 1 1 o w w w 1 1 @ w ; w w w @ * w w 6 @ w 8 6 w 0 @ 6 6 @ w 8 @ w w w @ o @ w w w ; 1 w w ; 1 w w ; w w w @ @ 8 @ @ w w w @ 6 w w @ 0 @ 0 0 0 0 ; ; 0 0 w w 0 0 0 w 0 0 0 0 0 0 0 0 0 0 w w 0 0 0 w @ 6 1 w @ ; w ; @ @ w ; @ o @ w @ @ w 1 1 w @ ; w w 1 @ @ @ 1 @ w 1 w 1 @ w w o 1 1 w 1 1 @ w @ 1 + @ @ w 1 o w 1 y 1 IXIXIXIXIXIXIXIXIXIXIXIXIXIXIXIXIXIXIXIXIXIXIXIXIXIXIXIXIXIXIXIXIXIXIXIXIXIXIXIXIX",
"IXIXIXIXIXIXIXIXIXIXIXIXIXIXIXIXIXIXIXIXIXIXIXIXIXIXIXIXIXIXIXIXIXIXIXIXIXIXIXIXIXIXIXIXIXIXK i + w 1 + 0 1 o w 1 w 1 w 1 * o w 1 1 @ 1 o @ * 1 w @ w w @ @ @ 1 w @ w 0 8 w 0 6 w @ @ 8 * + @ @ w w w w w 1 w w ; w w w w 1 w @ @ w w w w w 1 o w w w w @ 1 w 1 @ ; 1 @ @ @ + @ 0 0 ; w @ w ; w w @ 1 w w w 1 w 1 * ; w w 1 w ; @ 0 @ @ 1 y w w 0 1 w w w @ 1 w w w * 1 w @ o w ; ; ; w 1 w w w 0 @ 1 w 1 1 w ; @ w w 1 w w w o @ * w w w 1 w w @ 1 @ 6 @ @ 0 * w 6 @ 1 0 @ 1 @ ; ; 1 w w 1 w @ 1 1 1 w w w y w 1 w 1 w w w w 1 1 @ 1 w @ w * w * 1 @ + o * @ @ 0 * 1 w @ ; @ 1 1 ; 1 1 w ; @ 1 w w ; w w @ w @ w w w w w w w w 1 w w @ * 1 * w @ w 1 1 1 w @ @ w w w w w w w w 1 w w @ @ w w @ 6 0 @ 6 0 ; 6 w 0 0 1 w 0 ; 0 q ; 6 @ @ 7 0 0 ; 0 0 0 w w q w w o ; w @ @ * 1 @ * @ ; 1 0 @ @ w @ @ 1 * @ w @ 1 @ * w @ @ w 1 w w w 1 1 * 1 w w * w 1 w 1 w 1 w w @ w 1 @ w 1 y w w IXIXIXIXIXIXIXIXIXIXIXIXIXIXIXIXIXIXIXIXIXIXIXIXIXIXIXIXIXIXIXIXIXIXIXIXIXIXIXIXIXIX",
"IXIXIXIXIXIXIXIXIXIXIXIXIXIXIXIXIXIXIXIXIXIXIXIXIXIXIXIXIXIXIXIXIXIXIXIXIXIXIXIXIXIXIXIXIXIXIXK e @ @ w y ; @ y @ 1 w w 1 @ w 1 w w w w w w w w * @ @ o @ 1 1 w @ @ w @ 1 y w 6 w w w w w w @ w ; ; w 1 1 w @ @ o @ @ @ @ @ @ @ o @ @ w 1 @ @ + o w @ @ o @ @ 1 w w 1 w @ @ o 1 o @ o @ @ o @ o @ 1 @ 1 1 1 @ @ @ @ @ ; ; * @ @ w o @ ; 1 w 1 @ @ w w w w * w @ w * ; 1 w 1 0 w @ @ @ 1 * w @ o @ @ @ 1 @ @ 1 ; @ 1 1 w @ @ @ @ 1 1 w @ * o ; * @ @ @ o o @ @ w 1 @ o @ ; * @ @ w ; * w 1 w @ * @ @ @ ; 1 w w 1 @ @ 1 @ * 1 @ @ 1 w w w y w 1 w w ; 1 w w y w w 1 1 @ 6 o 1 w o ; w 1 w 1 @ w w 1 0 w 0 @ w 8 0 @ @ @ ; 0 @ @ 8 1 ; 1 0 ; w 1 1 @ @ o 6 w 1 o 0 * 1 1 @ @ ; w * ; w w 1 ; w w w 0 0 ; 1 ; ; 1 w ; ; w w w 1 w w 1 1 1 w 0 1 0 1 @ @ @ @ @ 1 o w w 1 1 1 1 ; @ @ 1 1 @ 1 w w @ o ; @ w @ ; 1 @ 1 ; ; 1 1 * w w 1 w @ 1 @ @ w w 1 0 w w @ w * 1 1 w w e 1 1 w w e 1 IXIXIXIXIXIXIXIXIXIXIXIXIXIXIXIXIXIXIXIXIXIXIXIXIXIXIXIXIXIXIXIXIXIXIXIXIXIXIXIXIXIXIX",
"IXIXIXIXIXIXIXIXIXIXIXIXIXIXIXIXIXIXIXIXIXIXIXIXIXIXIXIXIXIXIXIXIXIXIXIXIXIXIXIXIXIXIXIXIXIXIXx H 1 + o 1 1 0 o @ @ @ 1 @ @ ; @ @ ; * @ w * @ 1 w w w 1 @ w 1 y @ w w 8 @ w w w 8 w 8 w 6 @ 6 ; @ @ @ @ ; 1 w 0 0 0 1 w w ; w o w ; 1 ; * ; @ w @ @ w w @ @ @ w o 0 @ @ @ @ @ @ @ @ w @ 1 @ 6 w w 1 w @ @ 1 ; 1 @ @ o 0 w w 1 @ 0 @ o * w @ o w * 1 * w ; 1 @ w 1 w w w w @ 1 w 1 @ ; 6 0 @ 1 w w ; 1 w @ w 1 w y w w o ; ; * w w w @ 1 1 w w @ 1 w 1 w @ 0 1 w w 1 w @ w w w w @ @ o @ o @ @ + w w * 1 1 w y w w 1 ; w w w w 1 1 @ * w w 1 1 o o @ @ 1 1 w w 1 @ w @ o @ w w 6 * w 1 w @ 1 @ 1 @ w 8 w @ @ @ @ w w w 8 w 6 w w @ w @ ; @ ; @ w w w * 1 w w ; 1 8 w w @ ; @ 1 w @ ; 1 ; @ 1 @ o w ; ; ; @ ; w 1 0 w w w w w 1 1 * w w 1 ; ; ; ; w ; * w w w w w 0 w w @ 1 1 @ w w w w w 1 @ 1 w 1 ; w 1 ; @ * 1 w 1 w 1 ; w @ 1 ; @ * 1 @ 1 1 @ 1 1 1 w ; w 1 ; 1 w w o o w w ; IXIXIXIXIXIXIXIXIXIXIXIXIXIXIXIXIXIXIXIXIXIXIXIXIXIXIXIXIXIXIXIXIXIXIXIXIXIXIXIXIXIXIXIX",
"IXIXIXIXIXIXIXIXIXIXIXIXIXIXIXIXIXIXIXIXIXIXIXIXIXIXIXIXIXIXIXIXIXIXIXIXIXIXIXIXIXIXIXIXIXIXIXIXt K p O @ y w 1 w 1 1 1 w 1 w 1 1 o @ ; w w w o 1 1 w o o ; 0 o @ @ i @ + @ @ 6 w w w w 0 w * w w @ @ @ ; ; 1 o 1 w w w w w @ 1 1 1 1 @ @ @ 1 ; @ 1 6 1 @ @ ; w 1 w w w w w 1 w @ ; 1 w w @ o ; o @ @ @ o 0 w w ; @ @ o @ 1 w @ @ o @ @ 1 ; * 1 @ @ @ 1 1 @ @ o w 1 1 @ o @ * w 1 @ @ o @ @ @ ; w w w 1 @ @ @ @ w w w o @ 1 1 @ 1 @ @ @ 1 w w 1 o 0 1 @ @ @ @ w w @ @ o ; 1 @ @ w 1 1 1 1 1 1 ; o w 1 @ ; w 1 0 1 w @ 1 1 w 1 ; w ; 1 w w y w 1 0 0 w 1 w @ @ w w w w @ 0 y w 1 ; 1 ; 0 ; 1 1 1 * ; 0 @ ; @ 1 1 1 ; ; ; @ w 1 w 1 w @ @ @ @ @ w w w @ 1 y 1 ; w : ; ; @ o w ; o ; 1 r 1 w w 1 w r w 1 1 r r 1 y r r t r e w 1 w w r t w 1 1 1 1 o 1 1 w y 1 1 @ w 1 @ w @ @ w @ w w 1 w @ 1 1 w w 1 w 1 ; w @ w w w 1 w 1 w w w w 1 w w w w w w @ w w 1 w 1 w w 1 w t w w p y IXIXIXIXIXIXIXIXIXIXIXIXIXIXIXIXIXIXIXIXIXIXIXIXIXIXIXIXIXIXIXIXIXIXIXIXIXIXIXIXIXIXIXIXIX",
"IXIXIXIXIXIXIXIXIXIXIXIXIXIXIXIXIXIXIXIXIXIXIXIXIXIXIXIXIXIXIXIXIXIXIXIXIXIXIXIXIXIXIXIXIXIXIXIXIXp H w @ o 1 w @ 0 @ 1 w w w * w 1 0 1 1 w ; o 1 w w w 1 1 w w ; w u w * 0 @ w @ 1 @ @ @ @ @ ; 1 1 @ ; 1 w w 1 @ @ ; 1 1 1 1 @ * 1 w * 1 w ; @ @ ; @ ; ; ; @ o @ @ o o + o @ + ; ; w 1 1 @ 0 1 # ; @ w 1 1 @ 1 w 1 w 1 1 ; 1 @ w ; w w 1 w w w @ 0 1 w 1 1 1 @ @ 1 ; 1 @ @ @ 0 @ 1 w 1 w ; 1 1 1 @ ; * @ o ; @ 1 0 @ @ w w w ; @ o 1 w @ @ @ ; @ @ w @ 0 o ; ; @ 1 ; 1 o w ; @ @ o @ + @ + @ @ @ @ @ @ ; @ @ o w 0 1 ; ; 1 * w w o o 0 ; @ o * @ o @ @ o + @ 1 + o + o o w o @ @ @ o @ @ @ @ 1 @ @ ; @ @ 1 w w o @ @ @ o # @ @ ; @ o @ @ @ o @ o 1 + + o + @ @ o ; . @ @ o @ @ @ o o ; o o o o . o o o o o - o o o . o o o o o o o o o o o o o o @ o o 1 o o o + 6 o @ @ @ o + @ @ @ o @ @ @ w @ @ ; @ @ ; + @ 1 0 o ; + o @ * 0 o ; w @ o 1 @ @ @ @ o ; 1 * @ o o w o o w IXIXIXIXIXIXIXIXIXIXIXIXIXIXIXIXIXIXIXIXIXIXIXIXIXIXIXIXIXIXIXIXIXIXIXIXIXIXIXIXIXIXIXIXIXIX",
"IXIXIXIXIXIXIXIXIXIXIXIXIXIXIXIXIXIXIXIXIXIXIXIXIXIXIXIXIXIXIXIXIXIXIXIXIXIXIXIXIXIXIXIXIXIXIXIXIXIXIXI t w p p p p p p p M p i p p p p i p r y w 1 w w r y r p w 0 r r y y w p y w w y i i y w w w w 1 y t t w w 1 w 1 w 1 0 1 w w w w w w w 1 w 1 w 1 w 1 w 1 w w e w w w w w w 1 1 w w 1 w w 1 w w w w w 1 w w w w w w 1 ; w 1 0 ; ; ; 1 w 1 1 w y w w w 1 w w w w w w 1 w w 1 w w w w w w 1 w ; w 1 1 w y w 1 w w 1 1 w 1 w w w w w w 1 ; 1 ; w 1 w w ; 1 1 w w w w 1 w w w w w w w w 1 w 1 1 w w 1 w 1 1 ; 1 1 w 1 1 w w w t y w t w w w t w y i p i t t p p t t i p p p i p p p p p p p p p p p p x x M H H x M p x M x M x p p p p p p x x U H M M H x H M H M M M H H M K H M U J H J M M J H M U J U J J M U J J U U U J K U J H U U U M M J H M M M M M p p x p M p p p H x p p M M p H x p p h M p p p p p p p p p x p p p H p M M H p M A p p M M x t i p w ; IXIXIXIXIXIXIXIXIXIXIXIXIXIXIXIXIXIXIXIXIXIXIXIXIXIXIXIXIXIXIXIXIXIXIXIXIXIXIXIXIXIXIXIXIXIXIX",
"IXIXIXIXIXIXIXIXIXIXIXIXIXIXIXIXIXIXIXIXIXIXIXIXIXIXIXIXIXIXIXIXIXIXIXIXIXIXIXIXIXIXIXIXIXIXIXIXIXIXIXIXIXIXIXIXIXIXIXIXIXIXIXIXIXIXIXIXIXIXIXIXIXIXIXIXIXIXIXIXIXIXIXIXIXIXIXIXIXIXIXIXIXIXIXIXIXIXIXIXIXIXIXIXIXIXIXIXIXIXIXIXIXIXIXIXIXIXIXIXIXIXIXIXIXIXIXIXIXIXIXIXIXIXIXIXIXIXIXIXIXIXIXIXIXIXIXIXIXIXIXIXIXIXIXIXIXIXIXIXIXIXIXIXIXIXIXIXIXIXIXIXIXIXIXIXIXIXIXIXIXIXIXIXIXIXIXIXIXIXIXIXIXIXIXIXIXIXIXIXIXIXIXIXIXIXIXIXIXIXIXIXIXIXIXIXIXIXIXIXIXIXIXIXIXIXIXIXIXIXIXIXIXIXIXIXIXIXIXIXIXIXIXIXIXIXIXIXIXIXIXIXIXIXIXIXIXIXIXIXIXIXIXIXIXIXIXIXIXIXIXIXIXIXIXIXIXIXIXIXIXIXIXIXIXIXIXIXIXIXIXIXIXIXIXIXIXIXIXIXIXIXIXIXIXIXIXIXIXIXIXIXIXIXIXIXIXIXIXIXIXIXIXIXIXIXIXIXIXIXIXIXIXIXIXIXIXIXIXIXIXIXIXIXIXIXIXIXIXIXIXIXIXIXIXIXIXIXIXIXIXIXIXIXIXIXIXIXIXIXIXIXIXIXIXIXIXIXIXIXIXIXIXIXIXIXIXIXIXIXIXIXIXIXIXIXIXIXIXIXIXIXIXIXIXIXIXIXIXi t r r r y IXIXIXIXIXIXIXIXIXIXIXIXIXIXIXIXIXIXIXIXIXIXIXIXIXIXIXIXIXIXIXIXIXIXIXIXIXIXIXIXIXIXIXIXIXIXIXIXIXIXIXIXIX",
"IXIXIXIXIXIXIXIXIXIXIXIXIXIXIXIXIXIXIXIXIXIXIXIXIXIXIXIXIXIXIXIXIXIXIXIXIXIXIXIXIXIXIXIXIXIXIXIXIXIXIXIXIXIXIXIXIXIXIXIXIXIXIXIXIXIXIXIXIXIXIXIXIXIXIXIXIXIXIXIXIXIXIXIXIXIXIXIXIXIXIXIXIXIXIXIXIXIXIXIXIXIXIXIXIXIXIXIXIXIXIXIXIXIXIXIXIXIXIXIXIXIXIXIXIXIXIXIXIXIXIXIXIXIXIXIXIXIXIXIXIXIXIXIXIXIXIXIXIXIXIXIXIXIXIXIXIXIXIXIXIXIXIXIXIXIXIXIXIXIXIXIXIXIXIXIXIXIXIXIXIXIXIXIXIXIXIXIXIXIXIXIXIXIXIXIXIXIXIXIXIXIXIXIXIXIXIXIXIXIXIXIXIXIXIXIXIXIXIXIXIXIXIXIXIXIXIXIXIXIXIXIXIXIXIXIXIXIXIXIXIXIXIXIXIXIXIXIXIXIXIXIXIXIXIXIXIXIXIXIXIXIXIXIXIXIXIXIXIXIXIXIXIXIXIXIXIXIXIXIXIXIXIXIXIXIXIXIXIXIXIXIXIXIXIXIXIXIXIXIXIXIXIXIXIXIXIXIXIXIXIXIXIXIXIXIXIXIXIXIXIXIXIXIXIXIXIXIXIXIXIXIXIXIXIXIXIXIXIXIXIXIXIXIXIXIXIXIXIXIXIXIXIXIXIXIXIXIXIXIXIXIXIXIXIXIXIXIXIXIXIXIXIXIXIXIXIXIXIXIXIXIXIXIXIXIXIXIXIXIXIXIXIXIXIXIXIXIXIXIXIXIXIXIXIXIXIXIXIXIXIXIXIXIXIXIXIXIXIXIXIXIXIXIXIXIXIXIXIXIXIXIXIXIXIXIXIXIXIXIXIXIXIXIXIXIXIXIXIXIXIXIXIXIXIXIXIXIXIXIXIXIXIXIXIXIXIXIX",
"IXIXIXIXIXIXIXIXIXIXIXIXIXIXIXIXIXIXIXIXIXIXIXIXIXIXIXIXIXIXIXIXIXIXIXIXIXIXIXIXIXIXIXIXIXIXIXIXIXIXIXIXIXIXIXIXIXIXIXIXIXIXIXIXIXIXIXIXIXIXIXIXIXIXIXIXIXIXIXIXIXIXIXIXIXIXIXIXIXIXIXIXIXIXIXIXIXIXIXIXIXIXIXIXIXIXIXIXIXIXIXIXIXIXIXIXIXIXIXIXIXIXIXIXIXIXIXIXIXIXIXIXIXIXIXIXIXIXIXIXIXIXIXIXIXIXIXIXIXIXIXIXIXIXIXIXIXIXIXIXIXIXIXIXIXIXIXIXIXIXIXIXIXIXIXIXIXIXIXIXIXIXIXIXIXIXIXIXIXIXIXIXIXIXIXIXIXIXIXIXIXIXIXIXIXIXIXIXIXIXIXIXIXIXIXIXIXIXIXIXIXIXIXIXIXIXIXIXIXIXIXIXIXIXIXIXIXIXIXIXIXIXIXIXIXIXIXIXIXIXIXIXIXIXIXIXIXIXIXIXIXIXIXIXIXIXIXIXIXIXIXIXIXIXIXIXIXIXIXIXIXIXIXIXIXIXIXIXIXIXIXIXIXIXIXIXIXIXIXIXIXIXIXIXIXIXIXIXIXIXIXIXIXIXIXIXIXIXIXIXIXIXIXIXIXIXIXIXIXIXIXIXIXIXIXIXIXIXIXIXIXIXIXIXIXIXIXIXIXIXIXIXIXIXIXIXIXIXIXIXIXIXIXIXIXIXIXIXIXIXIXIXIXIXIXIXIXIXIXIXIXIXIXIXIXIXIXIXIXIXIXIXIXIXIXIXIXIXIXIXIXIXIXIXIXIXIXIXIXIXIXIXIXIXIXIXIXIXIXIXIXIXIXIXIXIXIXIXIXIXIXIXIXIXIXIXIXIXIXIXIXIXIXIXIXIXIXIXIXIXIXIXIXIXIXIXIXIXIXIXIXIXIXIXIXIXIXIX",
"IXIXIXIXIXIXIXIXIXIXIXIXIXIXIXIXIXIXIXIXIXIXIXIXIXIXIXIXIXIXIXIXIXIXIXIXIXIXIXIXIXIXIXIXIXIXIXIXIXIXIXIXIXIXIXIXIXIXIXIXIXIXIXIXIXIXIXIXIXIXIXIXIXIXIXIXIXIXIXIXIXIXIXIXIXIXIXIXIXIXIXIXIXIXIXIXIXIXIXIXIXIXIXIXIXIXIXIXIXIXIXIXIXIXIXIXIXIXIXIXIXIXIXIXIXIXIXIXIXIXIXIXIXIXIXIXIXIXIXIXIXIXIXIXIXIXIXIXIXIXIXIXIXIXIXIXIXIXIXIXIXIXIXIXIXIXIXIXIXIXIXIXIXIXIXIXIXIXIXIXIXIXIXIXIXIXIXIXIXIXIXIXIXIXIXIXIXIXIXIXIXIXIXIXIXIXIXIXIXIXIXIXIXIXIXIXIXIXIXIXIXIXIXIXIXIXIXIXIXIXIXIXIXIXIXIXIXIXIXIXIXIXIXIXIXIXIXIXIXIXIXIXIXIXIXIXIXIXIXIXIXIXIXIXIXIXIXIXIXIXIXIXIXIXIXIXIXIXIXIXIXIXIXIXIXIXIXIXIXIXIXIXIXIXIXIXIXIXIXIXIXIXIXIXIXIXIXIXIXIXIXIXIXIXIXIXIXIXIXIXIXIXIXIXIXIXIXIXIXIXIXIXIXIXIXIXIXIXIXIXIXIXIXIXIXIXIXIXIXIXIXIXIXIXIXIXIXIXIXIXIXIXIXIXIXIXIXIXIXIXIXIXIXIXIXIXIXIXIXIXIXIXIXIXIXIXIXIXIXIXIXIXIXIXIXIXIXIXIXIXIXIXIXIXIXIXIXIXIXIXIXIXIXIXIXIXIXIXIXIXIXIXIXIXIXIXIXIXIXIXIXIXIXIXIXIXIXIXIXIXIXIXIXIXIXIXIXIXIXIXIXIXIXIXIXIXIXIXIXIXIXIXIXIXIXIXIXIX",
"IXIXIXIXIXIXIXIXIXIXIXIXIXIXIXIXIXIXIXIXIXIXIXIXIXIXIXIXIXIXIXIXIXIXIXIXIXIXIXIXIXIXIXIXIXIXIXIXIXIXIXIXIXIXIXIXIXIXIXIXIXIXIXIXIXIXIXIXIXIXIXIXIXIXIXIXIXIXIXIXIXIXIXIXIXIXIXIXIXIXIXIXIXIXIXIXIXIXIXIXIXIXIXIXIXIXIXIXIXIXIXIXIXIXIXIXIXIXIXIXIXIXIXIXIXIXIXIXIXIXIXIXIXIXIXIXIXIXIXIXIXIXIXIXIXIXIXIXIXIXIXIXIXIXIXIXIXIXIXIXIXIXIXIXIXIXIXIXIXIXIXIXIXIXIXIXIXIXIXIXIXIXIXIXIXIXIXIXIXIXIXIXIXIXIXIXIXIXIXIXIXIXIXIXIXIXIXIXIXIXIXIXIXIXIXIXIXIXIXIXIXIXIXIXIXIXIXIXIXIXIXIXIXIXIXIXIXIXIXIXIXIXIXIXIXIXIXIXIXIXIXIXIXIXIXIXIXIXIXIXIXIXIXIXIXIXIXIXIXIXIXIXIXIXIXIXIXIXIXIXIXIXIXIXIXIXIXIXIXIXIXIXIXIXIXIXIXIXIXIXIXIXIXIXIXIXIXIXIXIXIXIXIXIXIXIXIXIXIXIXIXIXIXIXIXIXIXIXIXIXIXIXIXIXIXIXIXIXIXIXIXIXIXIXIXIXIXIXIXIXIXIXIXIXIXIXIXIXIXIXIXIXIXIXIXIXIXIXIXIXIXIXIXIXIXIXIXIXIXIXIXIXIXIXIXIXIXIXIXIXIXIXIXIXIXIXIXIXIXIXIXIXIXIXIXIXIXIXIXIXIXIXIXIXIXIXIXIXIXIXIXIXIXIXIXIXIXIXIXIXIXIXIXIXIXIXIXIXIXIXIXIXIXIXIXIXIXIXIXIXIXIXIXIXIXIXIXIXIXIXIXIXIXIXIXIXIXIX",
"IXIXIXIXIXIXIXIXIXIXIXIXIXIXIXIXIXIXIXIXIXIXIXIXIXIXIXIXIXIXIXIXIXIXIXIXIXIXIXIXIXIXIXIXIXIXIXIXIXIXIXIXIXIXIXIXIXIXIXIXIXIXIXIXIXIXIXIXIXIXIXIXIXIXIXIXIXIXIXIXIXIXIXIXIXIXIXIXIXIXIXIXIXIXIXIXIXIXIXIXIXIXIXIXIXIXIXIXIXIXIXIXIXIXIXIXIXIXIXIXIXIXIXIXIXIXIXIXIXIXIXIXIXIXIXIXIXIXIXIXIXIXIXIXIXIXIXIXIXIXIXIXIXIXIXIXIXIXIXIXIXIXIXIXIXIXIXIXIXIXIXIXIXIXIXIXIXIXIXIXIXIXIXIXIXIXIXIXIXIXIXIXIXIXIXIXIXIXIXIXIXIXIXIXIXIXIXIXIXIXIXIXIXIXIXIXIXIXIXIXIXIXIXIXIXIXIXIXIXIXIXIXIXIXIXIXIXIXIXIXIXIXIXIXIXIXIXIXIXIXIXIXIXIXIXIXIXIXIXIXIXIXIXIXIXIXIXIXIXIXIXIXIXIXIXIXIXIXIXIXIXIXIXIXIXIXIXIXIXIXIXIXIXIXIXIXIXIXIXIXIXIXIXIXIXIXIXIXIXIXIXIXIXIXIXIXIXIXIXIXIXIXIXIXIXIXIXIXIXIXIXIXIXIXIXIXIXIXIXIXIXIXIXIXIXIXIXIXIXIXIXIXIXIXIXIXIXIXIXIXIXIXIXIXIXIXIXIXIXIXIXIXIXIXIXIXIXIXIXIXIXIXIXIXIXIXIXIXIXIXIXIXIXIXIXIXIXIXIXIXIXIXIXIXIXIXIXIXIXIXIXIXIXIXIXIXIXIXIXIXIXIXIXIXIXIXIXIXIXIXIXIXIXIXIXIXIXIXIXIXIXIXIXIXIXIXIXIXIXIXIXIXIXIXIXIXIXIXIXIXIXIXIXIXIXIXIXIX",
"IXIXIXIXIXIXIXIXIXIXIXIXIXIXIXIXIXIXIXIXIXIXIXIXIXIXIXIXIXIXIXIXIXIXIXIXIXIXIXIXIXIXIXIXIXIXIXIXIXIXIXIXIXIXIXIXIXIXIXIXIXIXIXIXIXIXIXIXIXIXIXIXIXIXIXIXIXIXIXIXIXIXIXIXIXIXIXIXIXIXIXIXIXIXIXIXIXIXIXIXIXIXIXIXIXIXIXIXIXIXIXIXIXIXIXIXIXIXIXIXIXIXIXIXIXIXIXIXIXIXIXIXIXIXIXIXIXIXIXIXIXIXIXIXIXIXIXIXIXIXIXIXIXIXIXIXIXIXIXIXIXIXIXIXIXIXIXIXIXIXIXIXIXIXIXIXIXIXIXIXIXIXIXIXIXIXIXIXIXIXIXIXIXIXIXIXIXIXIXIXIXIXIXIXIXIXIXIXIXIXIXIXIXIXIXIXIXIXIXIXIXIXIXIXIXIXIXIXIXIXIXIXIXIXIXIXIXIXIXIXIXIXIXIXIXIXIXIXIXIXIXIXIXIXIXIXIXIXIXIXIXIXIXIXIXIXIXIXIXIXIXIXIXIXIXIXIXIXIXIXIXIXIXIXIXIXIXIXIXIXIXIXIXIXIXIXIXIXIXIXIXIXIXIXIXIXIXIXIXIXIXIXIXIXIXIXIXIXIXIXIXIXIXIXIXIXIXIXIXIXIXIXIXIXIXIXIXIXIXIXIXIXIXIXIXIXIXIXIXIXIXIXIXIXIXIXIXIXIXIXIXIXIXIXIXIXIXIXIXIXIXIXIXIXIXIXIXIXIXIXIXIXIXIXIXIXIXIXIXIXIXIXIXIXIXIXIXIXIXIXIXIXIXIXIXIXIXIXIXIXIXIXIXIXIXIXIXIXIXIXIXIXIXIXIXIXIXIXIXIXIXIXIXIXIXIXIXIXIXIXIXIXIXIXIXIXIXIXIXIXIXIXIXIXIXIXIXIXIXIXIXIXIXIXIXIXIXIX",
"IXIXIXIXIXIXIXIXIXIXIXIXIXIXIXIXIXIXIXIXIXIXIXIXIXIXIXIXIXIXIXIXIXIXIXIXIXIXIXIXIXIXIXIXIXIXIXIXIXIXIXIXIXIXIXIXIXIXIXIXIXIXIXIXIXIXIXIXIXIXIXIXIXIXIXIXIXIXIXIXIXIXIXIXIXIXIXIXIXIXIXIXIXIXIXIXIXIXIXIXIXIXIXIXIXIXIXIXIXIXIXIXIXIXIXIXIXIXIXIXIXIXIXIXIXIXIXIXIXIXIXIXIXIXIXIXIXIXIXIXIXIXIXIXIXIXIXIXIXIXIXIXIXIXIXIXIXIXIXIXIXIXIXIXIXIXIXIXIXIXIXIXIXIXIXIXIXIXIXIXIXIXIXIXIXIXIXIXIXIXIXIXIXIXIXIXIXIXIXIXIXIXIXIXIXIXIXIXIXIXIXIXIXIXIXIXIXIXIXIXIXIXIXIXIXIXIXIXIXIXIXIXIXIXIXIXIXIXIXIXIXIXIXIXIXIXIXIXIXIXIXIXIXIXIXIXIXIXIXIXIXIXIXIXIXIXIXIXIXIXIXIXIXIXIXIXIXIXIXIXIXIXIXIXIXIXIXIXIXIXIXIXIXIXIXIXIXIXIXIXIXIXIXIXIXIXIXIXIXIXIXIXIXIXIXIXIXIXIXIXIXIXIXIXIXIXIXIXIXIXIXIXIXIXIXIXIXIXIXIXIXIXIXIXIXIXIXIXIXIXIXIXIXIXIXIXIXIXIXIXIXIXIXIXIXIXIXIXIXIXIXIXIXIXIXIXIXIXIXIXIXIXIXIXIXIXIXIXIXIXIXIXIXIXIXIXIXIXIXIXIXIXIXIXIXIXIXIXIXIXIXIXIXIXIXIXIXIXIXIXIXIXIXIXIXIXIXIXIXIXIXIXIXIXIXIXIXIXIXIXIXIXIXIXIXIXIXIXIXIXIXIXIXIXIXIXIXIXIXIXIXIXIXIXIXIXIXIX",
"IXIXIXIXIXIXIXIXIXIXIXIXIXIXIXIXIXIXIXIXIXIXIXIXIXIXIXIXIXIXIXIXIXIXIXIXIXIXIXIXIXIXIXIXIXIXIXIXIXIXIXIXIXIXIXIXIXIXIXIXIXIXIXIXIXIXIXIXIXIXIXIXIXIXIXIXIXIXIXIXIXIXIXIXIXIXIXIXIXIXIXIXIXIXIXIXIXIXIXIXIXIXIXIXIXIXIXIXIXIXIXIXIXIXIXIXIXIXIXIXIXIXIXIXIXIXIXIXIXIXIXIXIXIXIXIXIXIXIXIXIXIXIXIXIXIXIXIXIXIXIXIXIXIXIXIXIXIXIXIXIXIXIXIXIXIXIXIXIXIXIXIXIXIXIXIXIXIXIXIXIXIXIXIXIXIXIXIXIXIXIXIXIXIXIXIXIXIXIXIXIXIXIXIXIXIXIXIXIXIXIXIXIXIXIXIXIXIXIXIXIXIXIXIXIXIXIXIXIXIXIXIXIXIXIXIXIXIXIXIXIXIXIXIXIXIXIXIXIXIXIXIXIXIXIXIXIXIXIXIXIXIXIXIXIXIXIXIXIXIXIXIXIXIXIXIXIXIXIXIXIXIXIXIXIXIXIXIXIXIXIXIXIXIXIXIXIXIXIXIXIXIXIXIXIXIXIXIXIXIXIXIXIXIXIXIXIXIXIXIXIXIXIXIXIXIXIXIXIXIXIXIXIXIXIXIXIXIXIXIXIXIXIXIXIXIXIXIXIXIXIXIXIXIXIXIXIXIXIXIXIXIXIXIXIXIXIXIXIXIXIXIXIXIXIXIXIXIXIXIXIXIXIXIXIXIXIXIXIXIXIXIXIXIXIXIXIXIXIXIXIXIXIXIXIXIXIXIXIXIXIXIXIXIXIXIXIXIXIXIXIXIXIXIXIXIXIXIXIXIXIXIXIXIXIXIXIXIXIXIXIXIXIXIXIXIXIXIXIXIXIXIXIXIXIXIXIXIXIXIXIXIXIXIXIXIXIXIX"
};
