/* XPM */
static char *result[] = {
/* columns rows colors chars-per-pixel */
"471 297 253 2 ",
"   c #020201",
".  c #0A0500",
"X  c #050904",
"o  c #0C0B03",
"O  c #040609",
"+  c #060A0A",
"@  c #0C0E0B",
"#  c #0A0608",
"$  c #130C01",
"%  c #1A0D00",
"&  c #110E0A",
"*  c #130701",
"=  c #0D1104",
"-  c #0E110D",
";  c #08130C",
":  c #131204",
">  c #1B1301",
",  c #1D1904",
"<  c #12130E",
"1  c #1A150C",
"2  c #16190D",
"3  c #1A1A0D",
"4  c #141A06",
"5  c #0D0E11",
"6  c #0A0D16",
"7  c #120E13",
"8  c #0E1311",
"9  c #0E1715",
"0  c #121514",
"q  c #191613",
"w  c #151915",
"e  c #1A1B15",
"r  c #141619",
"t  c #191719",
"y  c #151A19",
"u  c #1B1D1A",
"i  c #221400",
"p  c #231B02",
"a  c #221C0C",
"s  c #2A1B01",
"d  c #221D13",
"f  c #211E1B",
"g  c #241A17",
"h  c #291600",
"j  c #1D210E",
"k  c #17200F",
"l  c #1D2115",
"z  c #1E211C",
"x  c #17221C",
"c  c #2A2309",
"v  c #362805",
"b  c #222215",
"n  c #22231C",
"m  c #2D2C1C",
"M  c #292717",
"N  c #342C13",
"B  c #352D19",
"V  c #3C341B",
"C  c #393318",
"Z  c #3A320A",
"A  c #1B1D21",
"S  c #161C21",
"D  c #221E23",
"F  c #1D2322",
"G  c #1C2726",
"H  c #232523",
"J  c #252925",
"K  c #292B25",
"L  c #242629",
"P  c #252A2A",
"I  c #2B2D2A",
"U  c #292626",
"Y  c #322E27",
"T  c #2E312D",
"R  c #2A3128",
"E  c #31322E",
"W  c #383627",
"Q  c #2C2E31",
"!  c #2E3231",
"~  c #273232",
"^  c #333532",
"/  c #363935",
"(  c #393A36",
")  c #363A39",
"_  c #3B3D3A",
"`  c #373637",
"'  c #322E35",
"]  c #493703",
"[  c #533B03",
"{  c #553D0B",
"}  c #573C07",
"|  c #44391A",
" . c #4C3509",
".. c #433B24",
"X. c #443D2A",
"o. c #4A3E2B",
"O. c #473B23",
"+. c #413E39",
"@. c #3E413D",
"#. c #3C4336",
"$. c #5C4402",
"%. c #5B430C",
"&. c #584508",
"*. c #5C4413",
"=. c #5A4718",
"-. c #4D4214",
";. c #634B0C",
":. c #634B06",
">. c #695308",
",. c #634B13",
"<. c #634C1B",
"1. c #664B16",
"2. c #6B5314",
"3. c #6B541B",
"4. c #675319",
"5. c #745C1C",
"6. c #745918",
"7. c #72560A",
"8. c #7A611C",
"9. c #7B650F",
"0. c #4B422D",
"q. c #484327",
"w. c #564927",
"e. c #4C4433",
"r. c #42423D",
"t. c #4A4738",
"y. c #544B34",
"u. c #564A36",
"i. c #5C533C",
"p. c #585438",
"a. c #5B512B",
"s. c #634D22",
"d. c #685628",
"f. c #745C26",
"g. c #6B5C34",
"h. c #665838",
"j. c #725E34",
"k. c #796429",
"l. c #6E6139",
"z. c #73643C",
"x. c #796736",
"c. c #796E33",
"v. c #3C3D41",
"b. c #413F42",
"n. c #3D4342",
"m. c #434442",
"M. c #454943",
"N. c #4B4B44",
"B. c #4D4D4A",
"V. c #484746",
"C. c #514E46",
"Z. c #53524C",
"A. c #575547",
"S. c #5B5A53",
"D. c #555552",
"F. c #4E504A",
"G. c #665B42",
"H. c #6A5E4D",
"J. c #6A6447",
"K. c #7B6C44",
"L. c #766847",
"P. c #7E7149",
"I. c #67655A",
"U. c #786F54",
"Y. c #6D6C60",
"T. c #98791A",
"R. c #886E18",
"E. c #846929",
"W. c #836C37",
"Q. c #897439",
"!. c #947B3A",
"~. c #8F7828",
"^. c #926F19",
"/. c #897747",
"(. c #927C48",
"). c #887955",
"_. c #88734A",
"`. c #9A843B",
"'. c #9C8228",
"]. c #A78727",
"[. c #B6972A",
"{. c #B99B35",
"}. c #A88F36",
"|. c #BCA239",
" X c #A9891A",
".X c #CCAA18",
"XX c #D1AD16",
"oX c #D2AE1A",
"OX c #DAAF12",
"+X c #D6B21C",
"@X c #D9B51E",
"#X c #DAB71C",
"$X c #CCAA13",
"%X c #D5B323",
"&X c #DAB621",
"*X c #DDBA24",
"=X c #DDBB2A",
"-X c #D9B62A",
";X c #C7A838",
":X c #DAB936",
">X c #CDAC28",
",X c #E1BD26",
"<X c #E2BE29",
"1X c #E5B828",
"2X c #E2BD32",
"3X c #E2BE3B",
"4X c #D7B021",
"5X c #DFC12B",
"6X c #E5C12C",
"7X c #E9C42E",
"8X c #E6C327",
"9X c #E5C332",
"0X c #EAC631",
"qX c #EDC933",
"wX c #EAC73A",
"eX c #F1CD38",
"rX c #F7D33C",
"tX c #EFD039",
"yX c #98844A",
"uX c #998756",
"iX c #908557",
"pX c #A48C47",
"aX c #AA9349",
"sX c #A38D58",
"dX c #A99458",
"fX c #B39B58",
"gX c #B29B4B",
"hX c #BCA553",
"jX c #998B63",
"kX c #A89666",
"lX c #B39D68",
"zX c #AA986E",
"xX c #B8A369",
"cX c #B7A677",
"vX c #AFA073",
"bX c #C6AA45",
"nX c #D7B846",
"mX c #CBB253",
"MX c #C7B16D",
"NX c #E3BD46",
"BX c #E9C646",
"VX c #F9D747",
"CX c #F9DA55",
"ZX c #ECCD50",
"AX c #FEE254",
"SX c #F3DB6C",
"DX c #FCE576",
"FX c #FDE56A",
"GX c #DBC355",
"HX c #BCAD82",
"JX c #C5B688",
"KX c #F2DF89",
"LX c None",
/* pixels */
"LXLXLXLXLXLXLXLXLXLXLXLXLXLXLXLXLXLXLXLXLXLXLXLXLXLXLXLXLXLXLXLXLXLXLXLXLXLXLXLXLXLXLXLXLXLXLXLXLXLXLXLXLXLXLXLXLXLXLXLXLXLXLXLXLXLXLXLXLXLXLXLXLXLXLXLXLXLXLXLXLXLXLXLXLXLXLXLXLXLXLXLXLXLXLXLXLXLXLXLXLXLXLXLXLXLXLXLXLXLXLXLXLXLXLXLXLXLXLXLXLXLXLXLXLXLXLXLXLXLXLXLXLXLXLXLXLXLXLXLXLXLXLXLXLXLXLXLXLXLXLXLXLXLXLXLXLXLXLXLXLXLXLXLXLXLXLXLXLXLXLXLXLXLXLXLXLXLXLXLXLXLXLXLXLXLXLXLXLXLXLXLXLXLXLXLXLXLXLXLXLXLXLXLXLXLXLXLXLXLXLXLXLXLXLXLXLXLXLXLXLXLXLXLXLXLXLXLXLXLXLXLXLXLXLXLXLXLXLXLXLXLXLXLXLXLXLXLXLXLXLXLXLXLXLXLXLXLXLXLXLXLXLXLXLXLXLXLXLXLXLXLXLXLXLXLXLXLXLXLXLXLXLXLXLXLXLXLXLXLXLXLXLXLXLXLXLXLXLXLXLXLXLXLXLXLXLXLXLXLXLXLXLXLXLXLXLXLXLXLXLXLXLXLXLXLXLXLXLXLXLXLXLXLXLXLXLXLXLXLXLXLXLXLXLXLXLXLXLXLXLXLXLXLXLXLXLXLXLXLXLXLXLXLXLXLXLXLXLXLXLXLXLXLXLXLXLXLXLXLXLXLXLXLXLXLXLXLXLXLXLXLXLXLXLXLXLXLXLXLXLXLXLXLXLXLXLXLXLXLXLXLXLXLXLXLXLXLXLXLXLXLXLXLXLXLXLXLXLXLXLXLXLXLXLXLXLXLXLXLXLXLXLXLXLXLXLXLXLXLXLXLXLXLXLXLXLXLXLXLXLXLXLXLXLXLXLXLXLXLXLX",
"LXLXLXLXLXLXLXLXLXLXLXLXLXLXLXLXLXLXLXLXLXLXLXLXLXLXLXLXLXLXLXLXLXLXLXLXLXLXLXLXLXLXLXLXLXLXLXLXLXLXLXLXLXLXLXLXLXLXLXLXLXLXLXLXLXLXLXLXLXLXLXLXLXLXLXLXLXLXLXLXLXLXLXLXLXLXLXLXLXLXLXLXLXLXLXLXLXLXLXLXLXLXLXLXLXLXLXLXLXLXLXLXLXLXLXLXLXLXLXLXLXLXLXLXLXLXLXLXLXLXLXLXLXLXLXLXLXLXLXLXLXLXLXLXLXLXLXLXLXLXLXLXLXLXLXLXLXLXLXLXLXLXLXLXLXLXLXLXLXLXLXLXLXLXLXLXLXLXLXLXLXLXLXLXLXLXLXLXLXLXLXLXLXLXLXLXLXLXLXLXLXLXLXLXLXLXLXLXLXLXLXLXLXLXLXLXLXLXLXLXLXLXLXLXLXLXLXLXLXLXLXLXLXLXLXLXLXLXLXLXLXLXLXLXLXLXLXLXLXLXLXLXLXLXLXLXLXLXLXLXLXLXLXLXLXLXLXLXLXLXLXLXLXLXLXLXLXLXLXLXLXLXLXLXLXLXLXLXLXLXLXLXLXLXLXLXLXLXLXLXLXLXLXLXLXLXLXLXLXLXLXLXLXLXLXLXLXLXLXLXLXLXLXLXLXLXLXLXLXLXLXLXLXLXLXLXLXLXLXLXLXLXLXLXLXLXLXLXLXLXLXLXLXLXLXLXLXLXLXLXLXLXLXLXLXLXLXLXLXLXLXLXLXLXLXLXLXLXLXLXLXLXLXLXLXLXLXLXLXLXLXLXLXLXLXLXLXLXLXLXLXLXLXLXLXLXLXLXLXLXLXLXLXLXLXLXLXLXLXLXLXLXLXLXLXLXLXLXLXLXLXLXLXLXLXLXLXLXLXLXLXLXLXLXLXLXLXLXLXLXLXLXLXLXLXLXLXLXLXLXLXLXLXLXLXLXLXLXLXLXLX",
"LXLXLXLXLXLXLXLXLXLXLXLXLXLXLXLXLXLXLXLXLXLXLXLXLXLXLXLXLXLXLXLXLXLXLXLXLXLXLXLXLXLXLXLXLXLXLXLXLXLXLX^ ( b.m.m._ m.b._ r.r.m.r.@.@.( _ @._ ( / E ( ( ^ E E E E E K E E I K I K K H K E K K LXLXLXLXLXLXLXLXLXLXLXLXLXLXLXLXLXLXLXLXLXLXLXLXLXLXLXLXLXLXLXLXLXLXLXLXLXLXLXLXLXLXLXLXLXLXLXLXLXLXLXLXLXLXLXLXLXLXLXLXLXLXLXLXLXLXLXLXLXLXLXLXLXLXLXLXLXLXLXLXLXLXLXLXLXLXLXLXLXLXLXLXLXLXLXLXLXLXLXLXLXLXLXLXLXLXLXLXLXLXLXLXLXLXLXLXLXLXLXLXLXLXLXLXLXLXLXLXLXLXLXLXLXLXLXLXLXLXLXLXLXLXLXLXLXLXLXLXLXLXLXLXLXLXLXLXLXLXLXLXLXLXLXLXLXLXLXLXLXLXLXLXLXLXLXLXLXLXLXLXLXLXLXLXLXLXLXLXLXLXLXLXLXLXLXLXLXLXLXLXLXLXLXLXLXLXLXLXLXLXLXLXLXLXLXLXLXLXLXLXLXLXLXLXLXLXLXLXLXLXLXLXLXLXLXLXLXLXLXLXLXLXLXLXLXLXLXLXLXLXLXLXLXLXLXLXLXLXLXLXLXLXLXLXLXLXLXLXLXLXLXLXLXLXLXLXLXLXLXLXLXLXLXLXLXLXLXLXLXL LXLXH L I H H I K U J I U L T T ) ) m._ _ m.m.@.V._ ( _ r.m.r./ m.m.M.E LXLXLXLXLXLXLXLXLXLXLXLXLXLXLXLXLXLXLXLXLXLXLXLXLXLXLXLXLXLXLXLXLXLXLXLXLXLXLXLXLXLXLXLXLXLXLXLXLXLXLX",
"LXLXLXLXLXLXLXLXLXLXLXLXLXLXLXLXLXLXLXLXLXLXLXLXLXLXLXLXLXLXLXLXLXLXLXLXLXLXLXLXLXLXLXLXLXLXLXLXLXLXT N.^ ( +.b._ +._ r._ r.r.r.t.N.r.r.M.r.r.r.r.r.r.r._ _ +.r.N.r.N.m._ _ r.N.t._ _ m.r.r._ _ V.+._ _ m.+.m.V.m.m.m.m.m.m._ r.m.m._ +.+._ +.( ^ ` ` ( _ _ +.( m.m.+.m.V.m._ m.V.+.m.+.V.m.N.V.M.m.n.m.N.V.m._ m.m.@._ _ ( ( _ m.V._ ` _ r.r.m.r.` _ _ +.m.+.V.m.m.m.+.+._ ( v._ _ +.( _ r._ _ N.m.r.r.N.M.r.N.m._ _ r.r.m.r.N.N.B.B.r.r.N.N.m.F.Z.Z.B.N.M.N.B.N.m.N.F.Z.Z.Z.D.Z.Z.Z.Z.D.D.B.Z.B.F.Z.N.F.M.B.Z.N.B.N.N.N.m.M.N.r.m.r._ _ _ r.@.r.@.@.r.m.M.r.r._ ( _ r.( ( _ r._ ( _ +.+._ m.B.N.m._ m.m._ ( +._ ( +.m.( ( m._ ^ ( +.` V._ m.V.V.V.F.Z.B.m.N.B.S.S.B.V.F.F.B.V.F.B.D.Z.D.D.D.D.F.B.B.D.D.D.Z.Z.D.F.D.D.D.D.D.F.D.D.S.Z.D.D.F.D.F.m.B.Z.B.Z.Z.B.F.D.D.Z.D.B.F.F.S.D.B.Z.Z.B.B.V.( B.B.C.D.Z.B.D.Z.V.V.Z.Z.D.D.Z.B.m.m.m.V.D.D.V.Z.F.D.S.Z.Z.D.A.Z.N.F.F.^ LXLXLXLXLXLXLXLXLXLXLXLXLXLXLXLXLXLXLXLXLXLXLXLXLXLXLXLXLXLXLXLXLXLXLXLXLXLXLXLXLXLXLXLXLXLXLXLXLXLX",
"LXLXLXLXLXLXLXLXLXLXLXLXLXLXLXLXLXLXLXLXLXLXLXLXLXLXLXLXLXLXLXLXLXLXLXLXLXLXLXLXLXLXLXLXLXLXLXLXK K n _ E n I I Y T T E I K K E E E E T E R T T K K K T R K K K T n J K n K K K n n K K J n K K ^ I U H K K K I E E Q T T U I E I I I Q T T ^ I I U I T E ` E E I I I T ` T I ` _ Q T T ` T ^ ^ ^ ^ I I T ^ T J E I I I I I I I ^ I I I I T ^ I I U I ` ^ E H E L U I I I Q I K K I I H f U U H H K H n K I J K E K K I I K K I H K H n n K H H H I E K n K K I M n K K T K K T K K K K K K H K K J n n K K K Y H H K K K H K K H n z n J n J J z u z n H H H n n U I I H H U I I U H H H f H H H H K I U H H U U H T ^ H H T T ^ I U u U D U T H U I U U U K I +.` I U L I ` H I U I T ^ ^ I T ' I ^ I I T T ^ ` I I ^ I T T Y T I I U H I U I ` T T ` E E ` I H T Q I I ` ^ I _ ^ Y Q T I I ^ I ^ E T ^ ^ I T ^ I ~ ! ` ^ ) / I P ^ I U ^ ^ ^ T U ( ( I I E E T K J ^ B./ LXLXLXLXLXLXLXLXLXLXLXLXLXLXLXLXLXLXLXLXLXLXLXLXLXLXLXLXLXLXLXLXLXLXLXLXLXLXLXLXLXLXLXLXLXLXLXLXLX",
"LXLXLXLXLXLXLXLXLXLXLXLXLXLXLXLXLXLXLXLXLXLXLXLXLXLXLXLXLXLXLXLXLXLXLXLXLXLXLXLXLXLXLXLXLXLXLXJ K z 0 I N.U ^ ^ ^ ^ ^ ^ E I E E E E E ^ K R E T K I E E ^ E R T K J T E E E ^ E R K T E T ^ ^ E ( ( ` ^ ` _ _ ` ` ( ` Q ^ T ` +.^ I T ( ( ( m.^ ( ^ ( ( ` _ ` ^ E T ` ^ ^ ^ ( ` ( ^ ` ( +.( ^ I ^ ^ ^ I I I I I I I T ^ T ! E I ` I ^ +.+._ _ ( T I K ^ I I H T I Y T I I ^ E ^ Q ^ T U I T I I K ^ E K I E K K n K E I K K K K K I K E Y K K H e K K H n K K K J K K K H n e e n n K n n K n K K n n e n n n J K m K R K K Y K K K H K H u u e J J K K K J n H n U T I H U H U I I U H U K I I f H I U H K Q ^ K U ` ^ I U ` ` r._ ^ ^ E T I I _ ^ K I ^ ( ^ I ` T I ^ U I +.^ ^ I Y I E ` ^ ` T Q I I H U U T E T T ^ Q Q Q ` T I E U I ^ I I ` Q I T I I ^ Y Y E ^ ( ` ` ^ ` T I U I Y I T ^ ^ ( E P T E K T ^ ^ / #.^ ` _ m.^ ^ _ ) ^ ( _ _ v.^ +.r._ r._ _ / E K T ^ r.T LXLXLXLXLXLXLXLXLXLXLXLXLXLXLXLXLXLXLXLXLXLXLXLXLXLXLXLXLXLXLXLXLXLXLXLXLXLXLXLXLXLXLXLXLXLXLXLX",
"LXLXLXLXLXLXLXLXLXLXLXLXLXLXLXLXLXLXLXLXLXLXLXLXLXLXLXLXLXLXLXLXLXLXLXLXLXLXLXLXLXLXLXLXLXLXJ ^ e e 0 l m.^ H I U I I K K K Y K E K E E K R ^ ^ K E E R K T T K K I ^ ^ E T E ^ @.@.( ^ ) _ ^ J I I I I ^ ^ ^ ^ ^ ( ( ^ ^ I ` ( ( ` ( _ ` +.m.m._ ( _ ) _ _ ^ E ` ^ ) ( T E ^ E _ _ _ M.m.V._ ) _ m.@._ / _ ( / ^ ( ^ ^ ^ T I I I I E ^ ` ^ ^ I I E U ^ I ^ ^ ( ^ T E I Y ^ T E I I I I E ^ I I K I I H H H K K H K I K K I T I I I I ! T I H J H I T I K J H H J K K K K K K H T K K J K E J E T T E J K n K T E K T E K K T K H J J T E I T ^ I I E T K H n H H H I I K I E T ^ ^ ^ I I I I I H I I I I E ^ ( ^ ( ( ( E I ^ ( ( E I ^ ^ E I H Q T T I I I T I ( ( ( _ ^ ! ( ^ I E ( ` ` ^ I T T I I K I T I T U U I I I I Y ^ ^ I ^ E E ` ^ T ^ ^ I ^ ` T ` ^ Q T ^ _ ( I I I ^ ^ T T Q T T I T ^ T P T ! R ~ T ! ^ ^ R ^ _ _ ^ ` ^ ^ ( @./ ^ ( ( V.r.( ( W m.r.M I _ I I _ E LXLXLXLXLXLXLXLXLXLXLXLXLXLXLXLXLXLXLXLXLXLXLXLXLXLXLXLXLXLXLXLXLXLXLXLXLXLXLXLXLXLXLXLXLXLXLX",
"LXLXLXLXLXLXLXLXLXLXLXLXLXLXLXLXLXLXLXLXLXLXLXLXLXLXLXLXLXLXLXLXLXLXLXLXLXLXLXLXLXLXLXLXLXK E z u K w q / Z.J I K ^ T H J E ^ T K n E E K K / T K E E J n E E E / ^ T E / ^ E E T _ ^ E ^ ^ ! P Q E ^ E E ^ ^ ^ E E ( ( _ T ^ ( n._ ( ( ` ^ @./ m._ m._ _ V._ ` _ ^ ( ( ^ / +.` m._ ^ ^ ^ _ ( _ ^ ( _ _ _ _ ( ^ I I T ^ ^ ^ T T E _ ( I I ` ^ I H ^ I ^ I ^ I u I U I Q ^ T H L T K I ^ ^ ^ I J K K I I H K I ^ ^ K H I I K H H I H K I K H K T K I I I I H n H I T T I K K I T T K I n H K H T E K H e J H K I ^ K K I J J J H T ^ E I K H I J T E ^ E I J I ^ ` I ! ^ I I I I H I I I I E ^ I I H Q _ _ I K I ^ ^ E I I I E ` _ T H E I ^ ^ T E ^ ` ( ^ ^ E ^ I I I ^ ^ I I I I E ^ ( E I K I ^ U H K ^ m.` E I E ^ ^ ^ I I ^ ^ I ^ I E ( E I ^ ( I ^ ^ I E ^ U _ r./ ^ ^ I H K H U I ^ ` ^ I P ! / ! / ^ T J / ^ ! ! R ^ _ ! ^ ^ E I ^ _ / / ( I ^ ^ _ r.E ( I ^ T ^ / J I m.K LXLXLXLXLXLXLXLXLXLXLXLXLXLXLXLXLXLXLXLXLXLXLXLXLXLXLXLXLXLXLXLXLXLXLXLXLXLXLXLXLXLXLXLXLXLX",
"LXLXLXLXLXLXLXLXLXLXLXLXLXLXLXLXLXLXLXLXLXLXLXLXLXLXLXLXLXLXLXLXLXLXLXLXLXLXLXLXLXLXLXLXLX^ w e H H < 0 e Z.E H ^ ( _ T E T / ^ ! I R _ T n./ ! P R ! _ ^ ! ) @._ ) ) ^ / _ _ ) ^ P P / _ ) #.^ ^ ^ ^ m.m.) ( _ ^ I _ ^ / ^ ^ ^ _ _ ( ) _ / / B.@.T ( m.( ( _ ^ ` +.^ ^ ^ ( ^ I I ! I ^ ! I ( _ _ T ! _ #.^ R ^ ^ I ^ / I E J I ^ I E ^ T K J I K ^ I I I I H H ^ E ^ K H n P ^ z H I E I H I H I J K I J K I I ^ I T I T H H ^ H u H T I I I E H T H H _ ^ H I T T I I I I Q T I I I H P I P H L H L ^ ^ I I I K I Q ^ Q I I I E R I I H H J I E E T ^ ^ F z P I ^ _ ^ z z I I K ^ T I T ^ ^ ^ J I T / ^ ( I T I I ^ E ^ ^ I I ^ I I I I I T ^ ( ^ ^ ( ^ E T / ^ ^ ^ I ^ I ! J ^ ^ I I / ^ ^ ^ ^ I J I ^ ^ I K I ^ ^ ^ ^ ^ I J I H I ^ E I / ^ ^ E I I ^ ( ^ I ` ( I E ^ K H I ^ I I I I _ I T R ! ^ ! #./ P R ^ #.R I / ) ! ! P ! T ^ ^ / _ _ E _ / E ^ W _ Y I / / ^ I J ^ ( m.H LXLXLXLXLXLXLXLXLXLXLXLXLXLXLXLXLXLXLXLXLXLXLXLXLXLXLXLXLXLXLXLXLXLXLXLXLXLXLXLXLXLXLXLXLX",
"LXLXLXLXLXLXLXLXLXLXLXLXLXLXLXLXLXLXLXLXLXLXLXLXLXLXLXLXLXLXLXLXLXLXLXLXLXLXLXLXLXLXLXLXE e e < H H w w < _ M.J I ( E E E K I T / _ T / R T @.@.R ) ) ! ^ ^ ^ / T ) @.#._ / ! R #.@./ ! ^ ^ ) ) ^ / ^ _ @._ _ ) _ ^ ^ ^ I ^ ^ _ / ^ ^ / _ _ _ _ ( ^ ^ / _ @.( T ^ ( _ _ ( ! ^ T I ^ E ^ ^ _ m.@.I ^ / / ! P T ! ^ I E E I J I T T I H H I I I I I I H K I I I E ^ I H U I J I K H H u I z H I I H u z H I I K H J I ^ T ^ E I ( K H H I T I T I E I I T ^ T I / ! ^ ^ ! Q T ^ Q ^ I I v.v.^ J I P I I ! Q ^ ^ P I I T T I T ! ` ^ K J J H I ^ _ ^ ^ T P I I I T ^ I I K J E T I T ^ ^ ^ ^ T I I H H I I ! / ^ / I ( / ) ^ I ^ ^ I I ^ E I I I I I I H I J I I ^ T I E I I K I I E I E I ^ I ^ ( T I I I ^ I I ^ I E I I I H n K ^ I I I I ^ ( I J I ^ ( _ _ ^ H ^ I n I ^ ^ I H / E I I I ( J I ~ J R ! ~ / / ^ ^ ~ ^ T ) #.R ^ ) ! ^ ) _ _ _ _ E / _ r.r._ ( E T _ ^ ^ I J T ^ _ m.T LXLXLXLXLXLXLXLXLXLXLXLXLXLXLXLXLXLXLXLXLXLXLXLXLXLXLXLXLXLXLXLXLXLXLXLXLXLXLXLXLXLXLXLX",
"LXLXLXLXLXLXLXLXLXLXLXLXLXLXLXLXLXLXLXLXLXLXLXLXLXLXLXLXLXLXLXLXLXLXLXLXLXLXLXLXLXLXLXE n u u 0 u n e u - n M.T K r./ r._ ^ E ^ T _ ^ n.^ P ^ ^ ^ @._ ! ^ ^ ^ ^ ) ^ ^ / @.m._ I K _ n.n.M._ m._ _ _ ^ ( ( / ( ^ +._ ( ^ ^ _ ( _ _ _ ( / ( r.m./ / @._ _ n._ ^ ( v.` ^ ^ _ ^ _ _ _ ` ^ ^ ! ` ! ! ! #.#.! ! T ^ ) T P T R P J J T I I T I I I I J H I H I I I J I z H u I I H T T _ / I ( K I T ^ ^ ! I I I I H H E I I H I I T / K H P T E T ^ ^ m.I I ^ / ( _ ^ ) ) ^ Q L Q ! ! ` ! ' m.' ` D H I T Q Q T ) ` P T Q I Q Q L Q ^ I P ! T T R I H T ^ ! R R T R J ^ ^ ^ I E ^ ^ ^ H J I I J I I J I H I ^ E ^ I ^ ^ ^ I ( ^ I ^ _ / ) / ^ E E T I ^ ^ I T I ^ ^ ^ ^ T I ^ I T K T I T ^ J I J I ^ E I I ^ ^ T ^ ^ E T I I I H H I H H K I I ^ ^ K I I I I T E I H K I I ^ I I T I K I I J I ^ H I I J T R P T ! ! R T #.! / n./ ~ ~ / R ! / _ ) / ^ / / ^ _ ^ E / T / ^ ^ ^ I I K ^ ) m.T LXLXLXLXLXLXLXLXLXLXLXLXLXLXLXLXLXLXLXLXLXLXLXLXLXLXLXLXLXLXLXLXLXLXLXLXLXLXLXLXLXLXLX",
"LXLXLXLXLXLXLXLXLXLXLXLXLXLXLXLXLXLXLXLXLXLXLXLXLXLXLXLXLXLXLXLXLXLXLXLXLXLXLXLXLXLX^ z < n e y y u w u n w T t.K ( _ @._ @._ _ ^ ( _ / / / ^ _ @.@.@.@.#./ ) _ ) _ #./ _ @.@._ ^ / ) M._ ) ( ( m.m.( ^ ) ( _ ) ^ ) / ( / _ / / _ _ _ T I ^ ) ( ( n._ m.m.^ ^ @._ ( ) _ n.` ) ^ v.Q T T ^ ` T ^ ) _ ^ I ! / ^ R P H P J T R P z H E ^ ^ T I I I T ^ ! ( ^ E I P E _ / @.! K ^ / ^ ^ I ^ ^ ! ! ^ I E I I T I I ^ ^ I E I ^ / ( ^ I I ^ ( ^ ^ ^ _ ( ^ ( @.^ ^ _ ^ _ v.` ^ ' ) ) ` ) ` ` v.! v.v.) v.` ` ' ` v.v.` ) ' Q ` ' T Q _ R P T ~ P T ! R / ^ T P T T T / I ^ ^ T T T T ) ( ( _ ^ E E ^ I ^ ^ ^ ( ( _ ^ ^ ( H I ^ ^ ^ T _ ( ( ( ^ ^ ^ / ^ ( / ^ ^ E / ^ ^ / ^ I ^ ^ ^ I I ^ ^ ^ I ^ ^ ^ ^ ^ ^ T I T ^ T ^ ^ I I ^ ^ ^ I ^ T I I _ ^ I I T I I I I T ^ ^ E T E ^ ! ^ J ^ I I I ^ ^ I E I I J ^ ) R T P H ^ F J ! ~ T #._ ! ) ) / ! ^ #.n.^ ^ r.r.E ( #.K E ^ ( ^ / ( ^ ^ ^ T ^ ( _ T LXLXLXLXLXLXLXLXLXLXLXLXLXLXLXLXLXLXLXLXLXLXLXLXLXLXLXLXLXLXLXLXLXLXLXLXLXLXLXLXLXLX",
"LXLXLXLXLXLXLXLXLXLXLXLXLXLXLXLXLXLXLXLXLXLXLXLXLXLXLXLXLXLXLXLXLXLXLXLXLXLXLXLXLX^ z < z u n u z n u H J e e B.^ K ( ^ / _ _ ( _ ( ( ^ _ @.@.V.@.( @.N.@.@.m.m.^ @.V.m._ / _ _ F.@._ M.) @.m./ _ @.( ( / ( @._ ^ ( _ / ( ^ ( ) _ m.@.^ ^ ^ ^ n.m.( ^ n.@.^ _ _ _ m._ n.( ^ ^ ^ ) I ! ^ _ ) ^ n.@.#.~ I #.@.! ~ R J P ! ! ) T ~ ^ I I ^ ) _ ( ^ / _ / n._ _ #.( ^ / / _ ^ _ _ _ T ^ ^ / n.( _ _ ^ / ^ ^ m.v._ @._ _ _ ) _ ( _ ^ ( _ m.n._ ^ / _ / _ m.n._ _ m.r.' ` ( _ v.n._ ^ ` ! / _ ) ) @.m.v.v.) ` ) _ _ ^ ) ^ ^ _ ( ^ ` v.#.~ ! ~ P ^ @.@.@.) ^ R T / / ^ I ^ E I / _ T ^ _ ( / ^ ^ ^ ( ! ^ ^ ^ ^ ^ #.) _ ^ E @.E K I T ^ ! ^ ^ ^ ^ _ _ / ^ ^ ^ ^ T ^ ^ E ^ ^ ^ I I ^ ^ I ^ ^ I I ^ ^ ^ I ^ ^ I I K K J J I H I / ( ^ T T ^ I J ` T I I ^ ^ T ^ I T ^ ^ ^ I ! ^ ^ ^ I ^ E I ^ ^ ^ E ^ ! ^ J ^ ^ E / ^ I ^ I I I ( / T _ _ / _ ^ ! ^ / ( T ( r.@.E E E T _ ( ( ^ ^ ^ E ^ _ _ ^ ! ( ^ u LXLXLXLXLXLXLXLXLXLXLXLXLXLXLXLXLXLXLXLXLXLXLXLXLXLXLXLXLXLXLXLXLXLXLXLXLXLXLXLXLX",
"LXLXLXLXLXLXLXLXLXLXLXLXLXLXLXLXLXLXLXLXLXLXLXLXLXLXLXLXLXLXLXLXLXLXLXLXLXLXLXLX@.K w u u e n H H u H H u z 0 / t.R ( _ _ / / ( ^ _ ^ @._ ^ _ ( / ^ _ n./ _ M.( ( _ @.@.@.m._ ! _ #./ n.^ m.n.I T / ( _ _ ( _ ( T @._ ^ ( ^ ^ ^ T / / ^ _ ^ I / _ m.n.+.^ / m._ ) _ ! ^ I ` ) ) _ _ ) ^ ^ ) ` ^ ! / ! ) n.@.#.) #.~ ! @._ #.! _ n.^ ^ ^ @.m._ ^ ( ( ^ _ _ @.m.@.m._ _ _ _ r./ ) ( ( ( ! _ ^ _ ) ( _ ^ ^ ^ ^ ( _ M.B.V.n.( ! _ _ m.m.m.m.@._ _ ) ^ ( ^ E ^ ) ) / ( ) / ( _ ( ( / Q ^ @.^ ^ ^ ( ^ ( _ ( ^ E _ _ ^ / ! / _ _ ^ ) _ @.@.#.^ / ^ ! ^ n.#.) ! ^ @./ G ^ ( ^ T _ @.^ ^ _ ( ^ T T ^ / T E E ^ ^ ! / ^ ^ E ( ^ ^ I H ^ E / ^ ^ ^ ^ ^ / ^ I ^ ^ ( ^ ^ T T ^ ( ( T I ! ^ ^ ^ K I I ^ J J ^ I I I I J H K I I I ^ ^ ^ T I ^ I I H T I T H I ^ I E J J T K P H I I _ ^ ^ ^ ( / / ^ ^ ( ( ( ( I P E ^ ^ _ _ ( / n./ _ _ P _ / ! ! R @.#.T ! ^ T ^ ( E T K K r.! ^ ^ ^ T I I ^ ( I E E H I H LXLXLXLXLXLXLXLXLXLXLXLXLXLXLXLXLXLXLXLXLXLXLXLXLXLXLXLXLXLXLXLXLXLXLXLXLXLXLXLX",
"LXLXLXLXLXLXLXLXLXLXLXLXLXLXLXLXLXLXLXLXLXLXLXLXLXLXLXLXLXLXLXLXLXLXLXLXLXLXLXr.K < z e - 0 w D F u H H e z e z m.#.^ @.m._ ( _ ( _ T _ ^ T ( ) / ^ ( _ ^ ( m.^ _ n._ v._ _ n.v.n.V.m._ ^ @.m.! ^ _ n.m.m._ n._ E @./ ^ / ^ I T ^ _ ( _ @._ _ ( _ M.m.r.^ ^ V._ ! ` ! / ) _ ) I ) n.` ! ^ ` ) ! P T ! / / / / ) / R ^ ) / / ^ / ) ( _ ^ ^ / ^ I _ ( ^ _ ^ / ) / ^ ^ ^ _ _ / ) _ ( _ ) ^ r.) @.m.) _ _ ^ ! ^ v.m._ m.B.B.m.) m.m.n.( _ v._ _ v._ _ n.m._ ) ^ @.n.m._ / / ) / ( _ ! m.m._ ( M.m./ / @._ / ^ #.@.^ _ ( _ _ _ ^ ) _ / ) ^ ! / ^ ! ) _ ! P P ~ v.n.Q I ^ ^ J T _ T I ) / / T T T I J ! ^ / _ _ _ ^ ^ ) I P _ ^ J ^ / #.) ^ T T E E T T ^ ^ / ^ E K K T ^ ^ E ^ ^ ( ( ^ ^ T E ^ I I ^ I E E E T I E ^ ^ I E ^ E ^ ^ ^ I ^ T ^ ^ ^ H u H n I T ^ _ I I I K u E / ( ^ T ^ ^ I J I I J H T K T ^ T ( ( ^ I m.( ^ ^ T ^ T ! ! ! n.n._ / _ K E _ r.r.E Y ^ T / ^ / ^ I I I n T I u J E H y LXLXLXLXLXLXLXLXLXLXLXLXLXLXLXLXLXLXLXLXLXLXLXLXLXLXLXLXLXLXLXLXLXLXLXLXLXLXLX",
"LXLXLXLXLXLXLXLXLXLXLXLXLXLXLXLXLXLXLXLXLXLXLXLXLXLXLXLXLXLXLXLXLXLXLXLXLXLX_ n 2 z z n w 0 H y t D y H J w n 0 E F.E / @.@.@.^ m.( / m./ m.@.r.m._ _ _ @._ _ n.V.M.m.n._ _ _ M.^ M.V.) m._ _ _ ^ / ( @.@._ _ #._ B.( / ) _ ( _ _ _ ( / ^ @.n._ _ m.( ) ) ! _ ^ m.n.n._ v.! T P _ _ ^ _ ) ^ @._ R ^ ) R P P ! ! ) ^ ) R / n.n./ / #.@./ ^ _ _ ! M.@./ _ T ! / ^ @._ ) n.M./ @._ _ ) ) @.m._ _ M.` ! ` ) ) _ ) T n._ @.v.) ^ m.v._ _ v.n._ _ v.m.m.^ ` _ ) ^ _ / ( ! E ^ / T ^ / @.M.^ ^ I / T / _ ^ ) _ ^ ^ _ ) / T E T E T ^ ) ! ) ! ~ n.) ~ ^ ^ ~ ! / ! ` ! I ^ / ! J T @.^ P P ^ / ^ ) / ^ ^ ^ ^ / ^ R / T ^ / J T T P ! / _ ^ ^ ^ ^ ^ T I P ^ T I ) ^ ^ P J I I H I ^ ^ ^ ^ I ^ ^ H I I E K K I T ^ ^ E T K ^ K I I ! ^ ( ^ I ^ I ^ I ^ I ^ I P I I Q ( I ! I H H H ^ H I T I I ^ I ! H I I P ^ ^ I ^ E I ^ H ^ / / @.( / @.) _ ) ) ) @.@.^ _ @.E ^ ( ^ _ E ^ ` ^ ^ T H I ^ ! I I H H H T I w LXLXLXLXLXLXLXLXLXLXLXLXLXLXLXLXLXLXLXLXLXLXLXLXLXLXLXLXLXLXLXLXLXLXLXLXLXLX",
"LXLXLXLXLXLXLXLXLXLXLXLXLXLXLXLXLXLXLXLXLXLXLXLXLXLXLXLXLXLXLXLXLXLXLXLXLX^ u n w u u u y f u r t A A L G y y t U r.( ^ M.M./ / M.#.#.#.M.M.^ M.#.E M.F.m.n._ M.#.) V.@.#./ _ M.) ^ _ ) _ ! _ #._ R ( @.@.) / / M.M.m.#./ M.m.r.m.n.n.n._ ) m.M.m.m.v.) n.n.v._ ^ @.@.^ @.#.T ^ n.n.! T ) #./ / ) ) n.n.! ` v.) n.n._ ^ ) v.! ) ! ) / / #.#./ _ n.M._ ) _ _ ! n.B.n.n.) n.n.) n.n.n.n.M.n.@.) ) ) P ) / n.n.) n.( _ ) ) ^ ) ^ T ` ! ^ #.~ / _ R T P ^ ^ ^ ^ _ T ! T ~ / ^ ^ ! ^ / ~ ! ) ~ / ~ ! T T ~ T ~ T P ) I ! ! ! P ^ ^ R ) ` ~ Q ! Q Q ) L Q v.v.) ! Q ) / ! / ! ^ ) _ ^ T ! ^ ( T / / T ! ) _ ) ! ! ~ R ! R R ! P T ^ ^ ! / / ! ^ R J R T / ) / J R r.) J T ! / P T ^ P ! _ ! I I T ! P T E E ^ E E / E R K ^ E ^ T ( _ ^ Q ` Q I ^ Q ' ^ ` ' I ' I Q ) ^ ^ ^ I ` T I ( H I T I ^ I K _ I I ^ ( _ I ^ ^ ( E _ ^ _ I _ b.` ( v.! n.) ) _ M._ J R E R T E ! ! ! ` I H J I E ( E K T I K K I H LXLXLXLXLXLXLXLXLXLXLXLXLXLXLXLXLXLXLXLXLXLXLXLXLXLXLXLXLXLXLXLXLXLXLXLXLX",
"LXLXLXLXLXLXLXLXLXLXLXLXLXLXLXLXLXLXLXLXLXLXLXLXLXLXLXLXLXLXLXLXLXLXLXLXK u H y w u u t w y f y t U L G G G F e q W Z.` M.#.#.E M.M.@.^ _ M.( ` ( I @.m.( _ m.F.) ) m.m.@._ @.M.E / #._ @.#.@.r.@.n._ r.) #.T #.m.r._ m.@.@.r.r.n.m.N.m.m.^ n.) ^ ( @.@.n.@._ _ ) #.#._ n.#./ ^ @.@.^ ^ ^ / ^ _ ) @.n.n.( v._ ) ) v.m._ m.n.` ) @.@.#.) _ / ( ` _ #.^ ) _ m._ V.F.) @.m.n.n.n.n.n.n.n.V.n.n.n._ n.! / ^ n.) ) ^ I ^ ^ ) ^ ) ` I ! ! / ^ R _ @.R I K / #.#./ / / ! ! ! R ^ ) / ! J I ! ) ^ ) ( P ! ! ) T _ ) ) ^ T ~ ^ T P P T ~ Q T ^ ! Q Q ^ I T ! ) ~ ^ ^ I L T T T E / ! T U T / ) T P T T I J ! ` ' T T ^ #.I ^ @.R T ! _ ` ^ ! ) T R R P G I ^ R T P G ) I P ! ! ! J I P ^ ! ! P ! T P I I T K K E J n K E _ T ! I / ^ _ ^ Q ^ _ ' Q ) ) ` I Q ` Q Q T ` ' _ V._ Q ! ` ( b.` L I E ^ I ` ( _ ^ U _ ` _ ^ r.( ) / ^ n.` ( n.^ _ ) I ) ! ` B.#.#.z T _ K Q E ^ ` ` ^ I I I H P E T T T J M H I H e LXLXLXLXLXLXLXLXLXLXLXLXLXLXLXLXLXLXLXLXLXLXLXLXLXLXLXLXLXLXLXLXLXLXLXLX",
"LXLXLXLXLXLXLXLXLXLXLXLXLXLXLXLXLXLXLXLXLXLXLXLXLXLXLXLXLXLXLXLXLXLXLXT n u 0 n y u u e 0 e H u D n A F G k x l g d ^ Z.) ) #.#.M.r.@.@._ _ _ m._ ( _ _ b.b.V.V._ _ +.b.m._ m.m._ _ +.+.@.E E _ _ B.V.m.+._ ( r.V.V.@.M.r._ ( ( r.( +.r.+.W _ m.+.m.B.+.V.t.Z.Z.#._ _ V.n.@.( v.M.r._ _ #._ ( ( ( +.M.r.( +.+.^ ^ ( ( +.m.+.^ ( +.b._ _ ( ' b._ _ b.^ _ v.b.m.M.n.) b.V.M.n.( +.B.M.B.+.) @.( +.@.^ E _ r.^ ^ K +._ ` ^ I E ^ Y E T T E ^ T I P K E K E R T J T / ^ ^ T ) ! T ^ I F H / _ I T R H H R I E #._ R T T / T I J ^ T ( ^ ` ^ ! ` ( I T E ^ ^ ` ` ` E ! ^ L Q / ` E ' I ` b._ ) ^ Q ' _ ' Q ' ` ^ T ^ ` Q @.) v.L ' ` ! I ^ ' T I ^ ` ` ^ ^ ^ ^ U ^ Q T Q I P ! ) I v.) ) ^ ) ) ~ ^ ^ _ ^ R ! ! P Q ` _ ` ) Q ) ! ) ' ` b.b.v.` _ m.v.) ` v.v.T ` v.` ' ' E _ ) v.^ ` v.I ^ ^ ( ` m.Q v.v.v._ v.D.@.r.` m.( b._ ( v.B.n.) #._ M.T B.S.R M y ) ^ L E Y I I I T I I E I J K n J K H n J K H H y LXLXLXLXLXLXLXLXLXLXLXLXLXLXLXLXLXLXLXLXLXLXLXLXLXLXLXLXLXLXLXLXLXLXLX",
"LXLXLXLXLXLXLXLXLXLXLXLXLXLXLXLXLXLXLXLXLXLXLXLXLXLXLXLXLXLXLXLXLXLXI z z q w H y n H u w t F u M n y F x k l l : n H V.B.M.M.^ M.@.r.n.#.V.+.^ b.V._ m.B.V.` _ v.m.b.( v._ N.( ( ( ( +.( _ _ #.+.N.B.+.V.+.N.B.V.Z.B.n.N.B.V.m.C.V.+.m.' ` ` ( ( +.V.b.V.r.Z.B.V.m.b.B._ ( _ ) M.N.B._ V._ _ ! +.V.B.r.( +.+.b.N.V.r.V.b.+._ +.+._ +.@.m._ Z.b.b.V.b.V.b.m.V.F.B.B.t.V.V.m.V.C.m.v.B.+.( _ ( +.r.( / W ( ( / E E Y E ^ T E W H E M m K ( m Y ^ Y Y n H J M z b J m l l n 4 4 M 3 3 3 4 e 3 l 4 : 4 3 e < l 2 = o 3 e = o 2 3 o d : : 1 2 : 1 3 3 1 q 1 1 1 1 1 1 d % 1 1 1 * i q % 1 a g d % M q 1 1 a 1 * % & % 1 1 = : 1 & 1 1 & & i 1 $ * 1 d 1 1 : $ o 1 a $ o o * 2 : $ 4 o 3 > : & : & # 1 1 o o * o & . $ o < : o o o : & i & 1 < * 1 1 & : 1 : $ 1 1 % g 4 & a a 1 a M B b a g b 3 a g b a b M W b > 4 d B a m d g b d z 2 j > 1 C t.M R k ~ ! I T I E L H H ^ E J H H H K H K n z J K H H H H H LXLXLXLXLXLXLXLXLXLXLXLXLXLXLXLXLXLXLXLXLXLXLXLXLXLXLXLXLXLXLXLXLXLX",
"LXLXLXLXLXLXLXLXLXLXLXLXLXLXLXLXLXLXLXLXLXLXLXLXLXLXLXLXLXLXLXLXLXK n n u e u e u f n u t e u u e U m u u z M k ; 2 e Y E M B m l x M G y z J z I E T I I H J I t H H F P z J x w y k z x R R x R J J z H y P n H K E z n J H J P T L P H E ' L I P ) Q ^ ! / E ` R P ^ ^ ) ^ G H ~ _ P T P ^ P L Q ) Q L I P T ^ ! Q I I I I ! R R R R T R ^ ~ T ^ P R P F G J I n R T u J ^ J H z R E I I n J W R Y m B W W Y Y Y Y m K Y W Y Y C m b m M n M m M m H m n m d c N c c N c N C N N N c N N N N N c N N C C q.V N | C V V q.| N B B V B V N c | C N V c B | V c s  .N | | O.| | O.| | | | q.v | w.q.w.-.-.w.-.| a.h.a.=.a.d.h.d.l.x.d.p.h.z.h.d.l.a.z.K.P.K.s.a.g.l.j.j.d.=.g.s.d.z.d.g.s.g.j.d.l.K.z.j.j.l.x.j.z.z.z.c.l.x.z.x.x.x.z.x.x.j._.W._._./._./.(./.(.(.(.uX(././.uX/.W.(._._._.uX(.(.(./._.Q.sX_.(.W.iXyXuXsX_._.uX).z.c.l.f.W.dXg.= d I ! ` Q Q v.T I ^ T I H J ^ I H I E ^ J e H I z z H I ^ H LXLXLXLXLXLXLXLXLXLXLXLXLXLXLXLXLXLXLXLXLXLXLXLXLXLXLXLXLXLXLXLXLX",
"LXLXLXLXLXLXLXLXLXLXLXLXLXLXLXLXLXLXLXLXLXLXLXLXLXLXLXLXLXLXLXLX^ w n z e u u y u u u u w y u u e n n u l z z - e M d : ..J.J.l.U.J.U.iXU.U.U.U.I.H.J.U.J.I.U.I.A.A.J.I.Y.J.J.A.J.p.p.A.G.J.J.p.A.J.p.J.H.J.U.J.J.I.U.J.J.J.A.G.J.A.u.p.i.p.i.i.p.y.i.p.A.p.h.p.A.y.y.p.p.A.p.p.i.p.p.i.y.e.y.p.y.p.p.y.p.i.p.p.y.y.e.p.u.u.i.p.p.p.p.p.p.p.p.y.p.i.p.G.J.G.J.S.p.i.J.J.G.J.L.J.J.J.L.J.J.J.G.J.l.K.U.U.L.U.J.K.).).).).)._.U.L.P.L.L.L._.P.).).iXU.jXiX).iXzXjXjXkXiXiXjX/.iXuX)./.iXuXkXvXzXcXcXkXkXzXlXjXuXsXjXkXuXzXcXcXvXvXcXHXzXkXHXJXvXcXkXvXHXzXzXvXcXkXsXzXkXkXxXxXlXkXlXxXcXxXxXxXsXdXlXdXsXxXMXJXcXMXMXcXcXxXcXkXxXcXMXJXxXxXMXJXMXMXcXlXMXcXMXJXxXxXMXMXMXMXxXdXMXlXxXMXMXMXxXMXMXMXfXxXfXfXMXlXlXMXfXfXdXlXsXfXfXxXMXfXfXfXaXpXxXdXfXfXfXdXfXxXdXxXfXfXpXfXfXaXfXyX(.pX(.pXQ.fXlXyXyXfXdXyXsXfXlXdXdXfXxXfX!.W.pX!.Q.sXpXhXhXMXJXd.1 E F I v.' ' ~ I ^ ^ T K H E ! H J J I K H E K H H H I ^ T u LXLXLXLXLXLXLXLXLXLXLXLXLXLXLXLXLXLXLXLXLXLXLXLXLXLXLXLXLXLXLXLX",
"LXLXLXLXLXLXLXLXLXLXLXLXLXLXLXLXLXLXLXLXLXLXLXLXLXLXLXLXLXLXLX_ w u 0 n e < u e y w y e w y A u x y u H H t t t k 2 o | HXcXdXfXxXxXyXyXyXdXfXuXpX!.yXuXsXdXyXyXdXuXfXlXxXdXdXdXfXdXuXaXfXdXxXxXdXfXpXlXpXfXsXyXfXfXdXdXdXaXlXfXMXhXhXhXMXmXMXMXfXgXmXMXMXmXMXMXMXMXMXxXhXhXgXMXhXgXhXxXMXmXMXMXmXMXmXhXMXMXmXhXMXMXmXMXMXmXMXhXMXmXMXMXMXMXhXhXhXxXhXhXfXgXfXgXpXhXfXgXhXfXfXmXfXaXfX`.pX}.aXaX`.aXgXgXfXgX`.aXaXaXpX`.pXpXpXaX`.`.`.`.`.`.!.pX`.`.`.`.pXyXpXpXyX`.!.`.aX`.pXyX!.pX`.`.`.aXpX!.`.Q.E.!.~.~.8.E.E.~.k.~.!.Q.`.`.E.f.5.1.k.W.k.W.f.E.(.f.3.f.E.f.;.7.E.E.~.Q.Q.Q.E.~.!.E.E.E.Q.E.E.8.8.~.~.8.8.8.~.~.~.8.8.8.8.2.5.k.:.&.2.>.<.3.>.4.2.4.;.5.4.>.4.5.3.1.4.&.4.%.,.5.1.3.;.3.6.3.6.2.:.2.5.6.7.7.6.6.6.6.7.6.f.R.5.4.5.2.;.$.6.:.2.2.;.;.$.5.;.:.E.7.$.2.5.2.8.2.8.2.:.2.3.;.;.&.;.;.&.2.,.;.7.6.2.2.6.6.;.2.;.;.5.,.2.2.E.7.E.JXL.* K _ G v./ n H I ^ _ ^ H u y I J n H K ! ^ K J H I J H I n w LXLXLXLXLXLXLXLXLXLXLXLXLXLXLXLXLXLXLXLXLXLXLXLXLXLXLXLXLXLXLX",
"LXLXLXLXLXLXLXLXLXLXLXLXLXLXLXLXLXLXLXLXLXLXLXLXLXLXLXLXLXLX@.e u 2 e u u e w t u w e y u z z u x x z L U U L D J 4 c cXcX~.`.E.8.k.5.k.3.4.f.<.4.d.3.=.f.3.%.d.f.4.f.=.=.4.4.4.=.k.W.5.k.k.k.E.5.Q.5.k.f.c.E.k.Q.!.k.k.k.f.!.5.R.!.`.E.R.`.aX}.}.`.`.`.~.E.`.aX}.~.`.}.pX}.`.`.pX`.gXaXgX`.hXaXgXaXpXpXaXaX}.pXaX}.aXgXaXgXgX`.gXgXgXgX`.gX`.aXaXgXaXgX`.`.pX}.!.pXaXfXdXgXfXfXaXpXaX`.aX`.fXpXpXdXyXpXpXyX`.dXpXpXpXyXaXpXpXpX`.yX`.pXyXyX~.Q.`.`.Q.!.yX`.~.Q.!.Q.E.W.(.Q.!.k.!.yXW.k.E.W.k.k.W.W.`.Q./.Q.c./.Q.Q.k.k.k.k.Q.Q.W.W.(._.x.W.x.(.W.x._.Q.W.W._._.W.Q.yX(.(.W.Q.!.W.x.!.W.W.f.Q.Q.Q.Q./.(.yXuX!.c.yXyX/.yXQ.yXQ.x.yXiXyXc.yX(.yXiXc.yXyXyXk.c.(././.yX)._./.c./.yXK.uX/._._.iX(./.uXyXQ./.(._.j.W.yX(.(.Q.(.sXsX/.W.uXuX/.sXuXuXuX(.uX(.uXW.kX(.iXuXsX/.(.yXyXuXiXyXuX/.Q.uX(.(.(.uXx.x.Q./.(.x.W./.yX(.uX(.uX_._._.iX_.Q.!.(.E.Q.JXu.4 T E H / R I ( ^ T J K ^ I I I I I I I ^ H H K I H H I I I H LXLXLXLXLXLXLXLXLXLXLXLXLXLXLXLXLXLXLXLXLXLXLXLXLXLXLXLXLXLX",
"LXLXLXLXLXLXLXLXLXLXLXLXLXLXLXLXLXLXLXLXLXLXLXLXLXLXLXLXLX^ e u n 0 w z e e u w y u u u F u y u x G H D L L D U 4 v sXhX~.E.E.E.i * . . . . . . . . . # . . . . . .   . . . . . . . . . . . . . o . . . . . . * $ . * > % $ > $ . $ > * * $ $ % > > > > > : > , , c , > p p , c p p p > : > > > > > , c c c p , , p p c p p , > > > , , > > > $ > > > > > % % * , > : $ > > > % > $ $ $ * $ $ $ : o : : $ : $ $ $ * o $ % . $ % o * o $ % $ $ * * . . % % > % $ : : : $ > % $ $ > > : : $ $ $ : > : > > > > > 4 4 1 p a a a > $ , p p , > , , c , c p p , c c c c c , , , : : > p p , , j > : > , : p , , p p p a p , > > a c c j m b c M a B a a a a a a p p i c b a M a a m B m M d M a c N m c M N c N N c p B c c N V V V V N C W N B C Y N N M c N m N M c c N N N N N B W C B m m B W B W B B B B N m B m a c m N c m M c m M M C N h././.c.xXl.3 K m R J H ` E / K J E T T I I I T E H H H I I H n H I H z T LXLXLXLXLXLXLXLXLXLXLXLXLXLXLXLXLXLXLXLXLXLXLXLXLXLXLXLXLX",
"LXLXLXLXLXLXLXLXLXLXLXLXLXLXLXLXLXLXLXLXLXLXLXLXLXLXLXLX@.q e e e q e z u e u y u z n u f u y u G y z D S D L 1 c dXhXR.R.R.W. ..   + 0 t r r r r r 7 r 7 7 7 6 r r r r r 6 r r 9 5 6 @ 5 8 @ - 0 - @ - 5 + @ @ @ O O @ + + @ + + < - # @ o & + O # O @ # . # .   X .   .   . X # . X .   X O . .     . X X   . X X . . X X X . . # # o # X o # o + # # + @ + & @ @ + @ @ 5 5 O 8 @ + 5 @ 8 0 0 @ @ + + O O + + @ + + + + # + + + @ @ @ # @ 5 5 7 7 @ 5 7 5 5 @ @ # @ + + + @ @ @ @ # # + @ @ @ o O O + + + # @ @ @ + X O @ + # X X X X   X X X X X X o X X X X     . . o X o = # . o X o X . + ; + @ X X # + X X X X X O # + O X . # # . O O . # # # # # O O O # X O . . . O # .   . . . O O . . . O     X X . # o X   X   X   . # .     O . . # . # . # . . .   X . . .   . o . . .   . .   . # . O     . . . . . . . # . . # . ;         p x.k.W.cXp., E W R I E E ^ H J H I I I ^ I I ^ H I E J u I ^ I I ^ H J I LXLXLXLXLXLXLXLXLXLXLXLXLXLXLXLXLXLXLXLXLXLXLXLXLXLXLXLX",
"LXLXLXLXLXLXLXLXLXLXLXLXLXLXLXLXLXLXLXLXLXLXLXLXLXLXLXE u y w u u e e z e e u u u H f u u z H H n J U ^ L L d a ).MX}.R.R.W.h.* o + 8 9 r 0 t y r r 8 ; r r y r r r 9 r r 0 6 0 0 0 y 0 8 0 0 0 0 0 0 w 0 < - - w @ - 0 0 < 0 0 t t y 0 r 0 7 0 r r 0 e t r t w 0 t q : < q w 2 < q < < 2 0 q q 0 0 @ & < < < 0 < 0 e r 0 t w 0 0 & < < < < 0 0 0 0 0 q 0 0 0 0 < - - < - 2 - - w - - 0 w e e y t t w 0 0 7 0 w t r r t t t t r r r t 0 0 0 w t 0 0 r r 0 0 0 w 0 ; 8 - w ; w w r ; - w y e r - y y w 0 w w x k y y w 0 8 y w y w w w < w w w 2 w ; 9 ; - w 9 - 0 t t t t w 0 0 r r r t y r 0 t t 0 t 0 7 t q 0 t q y y w r y A t 8 y 8 8 r @ r y y u t 0 y t t y t 0 0 t 0 7 & t t t t r t t r 9 9 0 r 9 9 9 6 8 6 0 0 0 9 9 r r q e q 0 q t q q 7 & q 0 q q q w q q w < q w u y t y t r t 7 7 7 r 7 t r q e t 0 0 r & 7 7 0 0 - - + ; 0 .   c ).c.k.uXw.4 R #.J I ^ K H I J K I ^ / I I I K J I H H K ( I H ^ H K ^ ^ LXLXLXLXLXLXLXLXLXLXLXLXLXLXLXLXLXLXLXLXLXLXLXLXLXLXLX",
"LXLXLXLXLXLXLXLXLXLXLXLXLXLXLXLXLXLXLXLXLXLXLXLXLXLX^ 0 < e 2 f n u e u w e u u u H z u H H A H z M n H D t a ).MX!.7.R.E.d.* # w 8 ; @ @ 0 9 ; 8 @ @ + 8 r 0 8 @ 5 5 - 7 < @ + 0 0 0 8 - 0 - 0 < < 0 0 0 0 < 0 w < 0 w 0 0 < 0 w r r 0 0 7 5 9 o 7 5 0 0 5 0 0 2 < < @ & < 0 @ & < 7 @ & < < 0 0 0 0 0 0 < 0 0 - 0 0 @ & 0 0 - 0 & 0 0 @ < < < @ & 0 0 7 @ @ + - - - ; w 9 2 - 2 ; < 0 0 w w ; 8 0 0 8 0 7 9 < r & 7 < t 0 r w r 9 0 0 6 9 0 0 5 8 7 0 r r y y w w 0 w w w r r 8 - ; ; 0 0 - ; 0 0 8 ; 8 0 w 9 0 0 - ; ; - 0 w 9 8 9 9 - r 9 9 w w 8 - 8 9 8 - < 0 r 0 7 7 r 5 @ 7 7 0 t < & 7 0 5 7 0 & 0 0 < 0 < 0 r 0 7 t A y 5 y 8 8 9 6 t r y 0 8 6 0 0 0 t < 7 < 0 0 7 0 r & 0 < & 7 r 0 7 r r r r 6 5 7 0 0 r 7 6 5 8 - & 0 0 0 7 0 < < t 0 0 0 0 & 0 q = - - = < < 0 w & & w 0 & 7 o 5 7 7 & @ @ 7 < & & 7 & @ & & r 0 < o 0 8 7 t < . s c.Q.E.xXp.2 M R I E J I ^ I I E ^ ^ I H J H H H H I J I ! u I H H H ^ ( LXLXLXLXLXLXLXLXLXLXLXLXLXLXLXLXLXLXLXLXLXLXLXLXLXLX",
"LXLXLXLXLXLXLXLXLXLXLXLXLXLXLXLXLXLXLXLXLXLXLXLXLX_ y < z w u t e e 0 w e u z H z H z u H n A u n n n Y 1 i iXlX!.R.7.Q.s.* # 7 0 0 @ @ 0 w 0 < 8 < 8 @ < 0 0 < - 9 - - - - - - - - r - - - ; 0 - - - < - - - < @ - - - w ; - - @ 0 - - 0 ; @ 8 7 0 - 8 0 ; 0 5 5 6 7 @ @ 6 r 7 r r 7 0 7 5 r 0 - 8 0 0 0 w - - - < 0 ; @ < 0 ; 5 5 5 9 5 9 t 9 r r 7 6 6 9 r r 5 5 @ 5 9 8 8 ; @ @ 5 8 @ 8 y 0 8 9 9 ; 9 9 9 ; 8 - 9 0 0 8 0 0 5 - ; 5 8 8 9 ; 8 ; 8 ; 8 8 9 0 9 ; ; 9 ; ; ; ; 9 - ; 9 9 2 ; ; ; 9 ; ; ; w 9 < 9 ; ; 9 w w 9 2 - 8 9 ; ; 9 9 8 ; ; ; 8 8 9 8 9 - < < < 0 2 < 2 < w 0 2 w < < 0 t 0 0 r 7 0 t 0 0 0 0 e w 7 7 t 0 @ 0 r 0 & < w 5 0 r @ & 0 0 < - : ; < < < < 2 2 < 2 2 < 2 w 0 r 7 7 1 & q q g t t t t t t 7 & 0 < < 2 2 w - @ 2 ; < = - ; < ; ; ; - - 2 < < w - - 2 2 ; - - - < 0 0 - - ; ; 4 @ = = + ; < - - = o 1 o 7 7 t < * i /.Q.Q.dXV j Y K n J ^ I J ^ I J I I L A L T I I ^ I J I J J n n K K I E LXLXLXLXLXLXLXLXLXLXLXLXLXLXLXLXLXLXLXLXLXLXLXLXLX",
"LXLXLXLXLXLXLXLXLXLXLXLXLXLXLXLXLXLXLXLXLXLXLXLXr.< e n y n n u q q w w u n u u u z u F H H H H u H n 4 i _.JX!.R.6.sXg.* & r r 0 0 7 & & 2 0 0 8 < 0 < < < < < ; - 2 - - - ; - 0 8 y 2 8 < 8 0 0 < 0 - - ; 8 < - - - - w < < 0 - 0 0 9 0 - ; w 8 0 - < 8 - 0 - 5 7 0 0 7 r r r 6 r r 7 5 6 0 t @ - - ; - < 8 - - w 0 - 0 0 0 0 ; ; 5 8 5 5 9 - 7 9 r 0 r 0 6 0 9 9 0 9 8 8 9 0 8 9 r 9 8 9 r 0 9 ; - ; ; ; - 9 8 ; ; - 8 ; < 0 8 8 - 0 8 w w - 8 0 - - 8 8 - - ; - 2 - ; w ; 2 - < ; 2 ; ; < < 2 9 w 2 - < < ; < - 2 8 ; 2 9 ; - 0 8 - ; - 8 < 9 - ; - - < - - 2 w < < < < < 0 < < < 2 0 2 < w r r 7 0 0 @ 0 < 0 q 0 0 0 0 0 w 5 0 - w t & 0 0 7 0 0 < & 0 0 0 < - 2 < : < < < < - < ; - = - o < & & q 0 2 q t & o & < & q q 0 < ; ; ; - ; - ; w w ; 2 0 0 < ; ; w - 8 0 - ; ; - @ ; - ; ; = - 2 - - - ; < 9 < - < - - ; 2 0 + : o & @ A 6 6 9 o * > x.k.yXuXv 4 J T T E K I ^ I I I T I H ^ ) ^ J I E T J I T K K T K H E ^ LXLXLXLXLXLXLXLXLXLXLXLXLXLXLXLXLXLXLXLXLXLXLXLX",
"LXLXLXLXLXLXLXLXLXLXLXLXLXLXLXLXLXLXLXLXLXLXLX_ e 2 w n H y u H e e e u n z u u u z u z H H P U F J n $ L.JX!.!.5.x.L.o   r @ w 0 9 7 @ + + 5 0 0 8 < w 0 0 w 2 2 0 8 - - 8 w 2 0 8 9 8 9 0 5 8 0 0 w 0 < - 8 0 8 0 - @ - - 8 0 - 2 - - 8 - ; - - < - ; 8 - w 0 & 0 @ @ 0 5 o 0 < & < 0 < 0 < w < ; - ; @ - 2 < ; - ; 2 ; - - ; w - < 2 - 0 - ; 0 0 9 w w w 0 @ 0 7 8 0 7 0 0 7 0 - 0 0 @ 5 0 7 < w 0 0 < - 0 w w 0 0 0 0 2 0 0 < < - < < < 0 < 0 < < 0 0 < 0 0 2 0 7 < 7 & 0 2 0 < < 0 0 < r 0 < 0 < < < 0 0 @ ; < & & < < w 2 0 0 r r 0 0 0 7 0 7 0 - 0 t 0 0 8 ; 5 9 0 9 0 y 8 8 8 8 0 - 8 0 w r @ 0 0 @ 2 @ & < @ @ + & 0 0 @ < - < 0 - 0 < < < - < @ - 0 0 < - 7 @ 7 @ - 0 & 0 r w 0 < 0 @ - 8 - 0 9 w 8 9 0 0 8 9 0 0 7 8 9 8 5 9 9 8 r 9 y 9 r 0 r 0 r r < 0 9 7 r 0 0 y r 9 0 8 0 0 5 5 9 r 9 9 0 0 0 w 8 0 8 9 0 r 8 + 9 5 0 ; r ; 9 9 o 2 . . J.(.Q.sXV H ^ E K K E E ^ T I ^ I L ^ Q ^ I H I E K K T I T E K K K R / F LXLXLXLXLXLXLXLXLXLXLXLXLXLXLXLXLXLXLXLXLXLX",
"LXLXLXLXLXLXLXLXLXLXLXLXLXLXLXLXLXLXLXLXLXLX( < - w n H u w w y r z u u n n u H H H u u H H H P Q z o h.MXE.R.;.E._.: ; ; r y 0 8 - 5 9 5 5 ; - 0 8 - - - ; ; 9 - - 0 - ; 8 8 ; 8 5 8 8 0 0 5 @ 0 0 0 @ - - - 0 @ 0 0 @ 0 0 - 0 8 r 9 - 8 < 8 < 8 r - 9 - - 8 ; 0 0 @ @ 0 < + & 0 0 @ @ < 0 0 - < - < - ; ; 8 - < ; - w y < < < < - < ; - - 0 2 < - - - 2 0 0 0 0 0 @ @ 0 0 0 0 7 0 @ 8 5 0 w 0 @ 8 0 w 0 < 0 w 0 < & 0 0 0 < 0 < 0 0 0 0 - 0 0 0 0 7 < - - < < 0 0 0 & < 0 & 0 & 7 & < 0 < & @ 0 < - 0 7 0 & < < < 0 0 0 0 < - 7 & 0 & 0 < 0 @ 7 0 & 5 & 0 7 r r 9 8 r 0 5 8 t 5 9 8 5 8 8 5 0 0 0 & w 0 @ w < @ 2 t 0 0 0 7 - 0 < 0 - 8 < 0 < - - 8 - 8 - - 0 w 0 0 7 0 0 0 0 7 r r 0 0 0 t ; y 8 ; @ ; 8 9 9 8 8 8 9 9 9 9 9 r r r 0 9 8 8 r y r r 0 9 9 9 r 8 r r 9 9 6 9 0 r 6 9 8 r w 6 + r 0 9 + @ @ 8 ; 8 8 8 8 r y r + 7 r r 6 9 9 ; ; 8 X w o $ P.yXuXjXN M K I T I T ^ I I I I I ^ H H ( I J I T I J z K E K T E H E m.LXLXLXLXLXLXLXLXLXLXLXLXLXLXLXLXLXLXLXLXLXLX",
"LXLXLXLXLXLXLXLXLXLXLXLXLXLXLXLXLXLXLXLXLX^ 0 & e u z u u A A u 9 x A u u e z z J x n H L U L ! n o z.cX7.R.E.3.L.g X ; k ; y 9 @ w 0 0 w 0 + o t 0 < < 7 5 5 7 @ @ - - 0 0 0 @ < @ 0 0 7 < 7 8 8 - 8 - 8 8 8 8 8 - ; 8 8 8 9 0 0 0 8 8 8 8 8 5 8 8 9 5 5 0 0 9 0 9 5 5 5 8 8 0 0 0 8 8 8 0 0 5 8 < 8 9 8 - @ - 0 8 8 - 8 - 8 8 - @ & w 0 @ 0 e 0 0 0 0 0 0 0 @ 9 8 8 0 8 9 9 0 9 0 0 0 y 0 9 w w 0 w - - 8 0 0 w 0 0 - 0 0 0 - 0 0 0 0 w 0 0 8 w 0 w r w 0 0 0 < 0 0 8 0 0 0 0 w 0 w r r < 8 8 0 t 0 8 5 0 0 5 8 0 0 w t 0 9 0 w 0 8 0 0 5 - 0 0 0 5 0 9 8 @ 0 w 0 9 5 0 0 0 t y 0 0 0 0 0 0 8 9 0 9 0 0 w r 0 0 9 0 0 0 0 r y 0 0 r - 8 9 0 0 r 9 0 0 0 0 9 8 y 0 0 9 0 0 0 0 0 0 0 8 0 w t 0 0 0 r 9 9 r 0 9 r r 9 r 0 r r r y r 0 r t 8 9 0 r 0 r 0 r 9 0 r 9 0 9 0 r r 0 r y 9 6 0 r 9 9 9 0 0 & 0 < < w w < @ 7 t t 0 @ @ @ 0 ; 8 9 9 6 8 8 - < q . . U.).!.iXc e ^ ^ J W ( R K J ) P Q n U ^ ^ I E E I ^ ^ I I H E I ^ I U r.LXLXLXLXLXLXLXLXLXLXLXLXLXLXLXLXLXLXLXLXLX",
"LXLXLXLXLXLXLXLXLXLXLXLXLXLXLXLXLXLXLXLXE o 0 u u y y t w y t t x x H H D n G J x J n H Q I P u . w.MX`.E.~.j.h.% * ; x 9 9 0 0 w u e 0 & 0 @ O w 0 0 0 0 6 5 5 @ - - - @ < < - 0 5 & 0 0 @ - & 0 8 0 8 0 - 8 @ 0 - 5 @ @ @ @ @ 8 8 5 5 5 5 5 @ 5 5 5 5 + + 5 5 @ @ + @ + 5 + 6 5 5 + + + 5 5 @ + + @ @ @ @ 5 ; 8 @ 5 @ 8 @ 0 @ 8 @ @ 5 ; @ @ 0 5 o @ + O X @ @ + @ @ 5 @ + @ 5 @ + + + @ + + 5 - X ; @ o @ o + - - @ @ @ - @ @ + X + + @ @ + + @ + @ + + + @ + @ + @ + + @ 5 + + + + @ @ @ @ 8 8 8 5 @ @ @ @ @ @ @ @ @ @ @ @ @ - @ @ @ @ 5 ; @ @ 5 @ @ 8 @ 5 < 5 + @ 5 @ @ @ @ @ @ + + + o + + @ @ + @ 5 ; 8 @ 8 @ 5 5 @ + + @ @ @ ; + + @ @ + ; @ @ @ @ @ @ @ @ + + + @ + O + + + @ + + + + + @ + @ @ @ ; @ + @ @ - ; 8 @ - ; 8 - ; 8 8 8 8 @ 8 8 - 8 8 - 0 8 8 5 @ 5 - 5 8 @ 0 8 8 @ @ @ + o < @ @ @ 0 7 & 5 < @ + + + @ 5 @ & < @ @ r r 6 8 0 & < * 1 . > ).Q.`._.V d I ^ ^ ^ E / ^ _ I I I K I J I ^ ^ H I ^ E I H K H K J ^ K _ LXLXLXLXLXLXLXLXLXLXLXLXLXLXLXLXLXLXLXLX",
"LXLXLXLXLXLXLXLXLXLXLXLXLXLXLXLXLXLXLX/ q 0 e f u u u F u A A u k z F F F F J J I H H u L U K o w.sXdXk.E.(._.p * 0 w ; ; - 0 7 u w w < @ 5 @           O O O O O O         O .         .       .                               O         O       O     O                                                                                             X X   O       .   O       O O O   .     O .         O                     .                       .   .   .                       .     .                                         O   .       .     .                     O O           O           O                               . .                       .                       .                                                       .                               O               O O   O       O       O O   + < ; - 8 6 8 r 0 @ 0 & * 1 . % L.x.uX/.s b / T E E ( K I ~ J ^ P K I ^ ^ I I ^ I H J I T U P I E Y T m.LXLXLXLXLXLXLXLXLXLXLXLXLXLXLXLXLXLXLX",
"LXLXLXLXLXLXLXLXLXLXLXLXLXLXLXLXLXLX/ q @ f K 0 w y t u u u u u n n u F F G z J I H H F U K . a.xXfX~.k.c.P., X q w 2 ; 2 < & 0 w @ @ w 5 O O O O .                                                   .       .                                         . O       O                 O .           .                             X X X   X X X       X X X               .             . O                           .                                           O .   .   . O .                               .                       . .     O                 .                                 O                   O       .                                                                                                                                                               . O O   O O   O       O O           o r 8 6 @ 5 0 7 r & t o : & . % h.yXdXiXc n ) ^ ( ^ I T ^ I T I I I ^ ! I J ^ I J H ^ ^ T K H K U T ` _ LXLXLXLXLXLXLXLXLXLXLXLXLXLXLXLXLXLX",
"LXLXLXLXLXLXLXLXLXLXLXLXLXLXLXLXLXE e 2 u e t u y u u t y u u u n n z z F F H H L S L ` R 4 -.cX~.6.Q.W._., X k 8 y 8 < w ; ; e e ; < w 6     O             O                   O .                 O       O O           O       .           .   .     .     .             .         .             .     . .                                               X   .       .           .   .       .         .                       .     .       .                 .       .         .     .   . .     .     .         .   .         .                       .     .       .   .   . . .   . .   .         .   . .                 .     .       .       .     .   . .       .   .     .     .   .         . .             . .       .                       .   .     . .     .                                               X   O @ 0 8 - 8 ; 8 - 0 < & & < e   j P.k.!.c.N n ' b.` ^ T R T T E I I I T T K I ^ I P I ^ ^ I I U U E I I r.I LXLXLXLXLXLXLXLXLXLXLXLXLXLXLXLX",
"LXLXLXLXLXLXLXLXLXLXLXLXLXLXLXE E e q t u e < H n H L u t H H u g z z G J P L L L A Q I 4 v vXfXR.7.pX).v X k ; y u 0 < 2 w ; 9 ; r y 0 O       + - q 0 w t t t r w r y 0 0 0 0 0 0 0 0 0 7 0 0 0 0 7 r w y r r r r r 7 0 w r 7 0 0 0 0 q 0 0 < 0 < & 0 0 0 & 0 & 0 0 & & 0 0 w < < 7 @ & 0 0 0 & 0 0 0 0 < 5 0 0 0 t t q 0 q r w w w w 0 w 0 7 < @ 0 r - 0 w - 0 0 0 0 0 q 0 0 0 0 0 0 0 0 w e 0 0 t 0 0 w w w u u y e e e w t 0 0 r w w y w t w w 0 t w t t q t u y u e y u y w w t w 0 0 0 0 w w w 0 0 r r 0 & 0 0 w 0 q 0 0 0 u y - @ 0 w 8 0 @ @ - < 0 0 0 @ & 0 0 0 0 0 & 0 w 0 0 0 w 0 0 5 0 & 0 0 0 0 0 0 0 0 & < 0 0 < w 0 0 0 r w 0 0 0 0 q 0 w e t t 0 0 0 0 0 0 0 0 w w 0 0 0 7 0 0 w w 0 0 0 r w w 0 & 7 < & 0 0 w < 0 0 w 0 0 w w q 0 r 0 0 & & 0 w 0 & 0 0 0 0 w q 0 & 0 & 0 0 0 0 5 @ 0 0 0 - - 8 ; - w e ; ; ;     O @ - r 8 + 0 @ w - o 0 q . 0 X c d.c.pX_.v g ` ` U H J #.R I I E E E ^ I J I E I I I ^ E T I T I E I ( V.J LXLXLXLXLXLXLXLXLXLXLXLXLXLXLX",
"LXLXLXLXLXLXLXLXLXLXLXLXLXLXK / e u 2 u e w H e y u H n A n F u L H z z J K U L A ' R k c uXyXE.E.E._.| = X 9 ; ; - - 0 y y 9 ; 8 0 9 O     O # u U K K D f D u z z z z z z t u w e u u w t e u 2 0 w w e e e e u e t e e z u y u t e u u y u u u u u u u u y u t y u e y y u u t e e e u u f u y t A u t w t u 0 r r w w w t w y y t t t t w t w r t f u t w 0 y y y t y y y 0 t u y y y u u F y e u u u u u u z u u t e u z y y u u u u u u A u u u u u z A F u y t t y y y u H H H A y u u z y t A u u u u t t y y y u t u u u F F y t y u u y w t w y y t F w y y x y y t y y y y y y y y y u t u u y y t u A u y y u F u F u y t u t u t t y y t u y t u y t y y y u u t w y u u y y t y t t y t y y y u y t y w w t y u u y t u t u u A u D z u t u u y t u t y y y y y u D u y u u u u z u t y u u t y y y y F J F y 8 5 +     O ; - 0 ; ; r @ - y + 8 t 5 t X j c.`.pXuXN Y v.' ! ^ #.G T T / ^ ^ ^ E I T ^ ^ E I E I H E I ^ I I ^ T m.LXLXLXLXLXLXLXLXLXLXLXLXLXLXLX",
"LXLXLXLXLXLXLXLXLXLXLXLXLXE / 0 e e u e u u w e 0 e y u A u H I ! H l l b m L D P H k N jXfXR.:.E.sXO.. o w ; = = - < r t 8 8 9 8 5 O   O   + y u n K H n H U K J J G J J F H F y J K J F z H P J J H H n G z z F n z u z z z z z z F f F z H H F u F H F F z z u H F z f H H u u z F F L H H H u F H H A F F P H H H H L H L P U U U I U U U L U D D L U L U H H H P P P H F x F H H F H L L F H F P J H F J P P H F z F G J J H H H F F F L F F z F u F F F H P H F u H F F H F F F z A u F G u H H u A H H A A u A u A A H u F F u J F y x P P z A G H u F F F G G G F x F F G x F x F G G z F z A F F F F F H F H u A G F z H A u H F F F H H H L H L H H G A F H J H P P F L P P H G H P H F F F F H H G F F F F A F F F L H F F F H L H F L F F F F F F F P F H F H F F J P F F J P L L P I H H f H H H H F P P J F A y r 5 O       X 0 - - - - - 7 r 0 6 7 5 = X k d.`.yXz.V I T / R ^ R ^ R I I T ^ ! K T T I I I ^ ^ T H ^ ^ I I H I I N.LXLXLXLXLXLXLXLXLXLXLXLXLXLX",
"LXLXLXLXLXLXLXLXLXLXLXLXE ^ e w w e z y w u u w u u e e u H H P L u z n l R J R I 1 p uXsXE.9.2./.C o o < w w < 4 - 7 t 7 7 t 5 - X O     + t y w K I K U U T Y T P P R J G F ~ F J J P D U P P F P P P G P G G ~ P G P G G H A ~ P F F F y F F F F F F F x F J P J L H G z F J G G P P F G G P G ~ P G G P H F G P G F G G G P F L L G G L F F L L P L F A F F F G G G G G G G G G G G G G P G G G G G G F G F F G G x G G G G G G G G G G G R G G G G G x G F G F F G G G G F F G x x G F F G G x F A G G G u G G F F S G F G L G G G ~ G G G ~ G G F G G G G G F F F A x A P G P F F F u G F F S F G G G G G G G G F G x F x G F F G G G G ~ P F F G G G G P G G G G G G G J G F G F ~ x G G G G F G G G G G F G G G 9 F x G F G G G G G G G ~ G G G P F F G F G G G F G G G G G G G P G G G Y n l R E K K T Y T I H L U D A D 0 O     X @ ; 0 - 8 8 0 y 9 8 r 5 5 2 . p c.c.pX/.c m Y H ^ ) ^ ^ I H ^ ^ I _ _ ^ I ^ ^ T I I ^ I H ^ / ^ I ^ ^ m.LXLXLXLXLXLXLXLXLXLXLXLXLX",
"LXLXLXLXLXLXLXLXLXLXLX+.K @ u e u u l z u z z e u H H u u u H H L F R R j R G E 4 s _.kXQ.;.2.c.V $ & y 9 - w o 2 < t t S S t 0 O       O 7 u u n K Y W K f f n z e x z n q l b l l e w q a q 2 w z z e u u u y e w w e r w 0 < e w e f n e y k u e 0 e w w t f w 0 w t w w y e n u e g e w w < 0 0 w < x z e 0 r w u e z y u H u n z z A u u z u n z u y u u y w w y x w x z z x z G z x z G z k y z z x k x 9 z z x x x z x y w x z z x y y 9 J z z x x x z n z x k x z z x x G z x x z w 9 x u y z u r z J n u z u t y z k y n n y z x x z z G k x y z z F z z y u n H z y e n H z F n u H H z x F J x k y x n n z z x x G z H F z u u z z z n f y z z z u u G z J e z z F z y y z F J G z x n u y z x 9 z y u x z y x z y y y x F z x z y l y z F H P G J G z z x x x x F H z z G F P J J z 3 q M R m b M E K K H U I H g U u r @ O       X ; 0 0 8 5 r 6 6 O y r 7 @ . c k.k.dXuXc M _ v.` ( ( ^ / / ^ I ^ ^ ( ( ^ ^ ^ ^ ^ _ ^ ^ ^ ^ ^ I I / ^ _ I LXLXLXLXLXLXLXLXLXLXLX",
"LXLXLXLXLXLXLXLXLXLX^ K - e z w u r y z u k y r u H K n z H I H J T l R z G R b i _.pX!.R.5.c.V o 4 r y t r & t < 7 t S A u 0 o X     @ r y D H e n K ( e.+.C.D.i.p.p.i.i.u.e.w.o.o.y.y.u.i.i.h.i.i.i.y.y.y.w.e.y.y.y.y.y.y.w.y.u.e.e.y.u.y.y.y.u.u.u.i.u.y.u.i.y.e.o.u.y.y.y.0.y.o.o.o.u.u.u.y.y.y.e.0.e.u.u.o.y.e.y.e.0.o.0.q.X.X.t.0.X.o.q.0.X.X.X.X.X.0.o.o.0.0.0.0...q.X...q.X.X.X.q.0.0.o.0.X.e.e.0.e.e.0.e.0.0.0.e.e.0.O.X.O.X.o.X.O.q.W o.o.....W ..X...e.e.e.e.0...O.q.o...X.q.X.....W X.o.o...W ..o.o...X...| W 0.e.X.V W W ....V ....X.O.X.X.t.q.X.X.e.0.X.0.q.e.o...W X.X.X.X.W X.X.q.X.X.X.X.X.W W X.X.X.o.0.0.e.e.0.o.0.O.o.0.e.0.e.0.e.y.e.0.0.0.0.e.e.X.t.q.e.e.q.e.X.u.y.y.q.e.t.o.o.y.e.0.e.e.0.0.e.e.t.e.e.e.e.e.y.e.e.e.e.e.e.y.p.e.X.X.W q.X.o.o.o.X.e.e.0.e.e.0.X.q.t.0.0.e.t.q.t.t.e.t.t.t.E n m Y Y n H f u y @         X - 0 8 5 @ 8 8 @ - 5 7 t & . p 4.pXxXW.c g ( ' I ^ ^ ^ I E ^ ^ E ^ ( / ^ T ^ ^ ! ^ ` T I I T ! E ^ ^ m.K LXLXLXLXLXLXLXLXLXLX",
"LXLXLXLXLXLXLXLXLXE K 0 2 u H w z w y z G z z y u u F F H I I K n n z R G R K > _.sXE.7.6.c.h.= = ; r r 7 6 r w 0 7 r t r 0 o X       0 r t w u K M b K 0.Z.I.I.H.G.G.h.G.h.u.p.h.i.i.a.i.G.G.G.h.G.h.i.h.A.h.h.G.G.h.h.G.h.i.H.G.G.h.A.i.i.i.A.i.i.i.i.h.i.i.A.h.i.i.i.i.p.p.u.i.A.h.A.h.A.G.G.h.i.i.y.y.p.i.e.p.u.u.y.y.y.u.y.0.e.y.y.e.e.e.y.e.y.e.e.0.e.e.0.e.0.e.y.e.0.e.0.e.0.0.0.X.0.0.O.o.X.o.0.o.0.e.q.o.0.e.0.e.0.0.0.y.0.e.q.e.y.p.y.0.y.u.0.q.q.0.y.u.u.y.y.0.o.0.0.o...o.0.0.y.u.w.y.y.y.e.e.w.y.e.o.o.X.O.O.0.0.O...q.0.y.y.0.e.o.e.e.w.0.0.0.o.q.q.....W W X...q...X.....X...X...0.X.X.X.e.0.q.q.X.X.X.X.X.o.X.0.0.y.y.o.o.0.e.O.o.q.q.0.0.0.0.y.0.0.y.0.e.0.e.y.0.0.X.0.X.e.0.e.e.o.o.0.e.0.0.0.X.0.y.0.0.0.e.0.X.0.X.o.o.0.o.o.W O.o.X.....o.0.X.X.....X.o.X.O.0.0.0.X.o.q.o.o.t.t.W W W #.W Y +.C.W n Y E Y U D H H t X     X   + 9 0 8 6 8 8 - @ 7 5 5 r o . Z c.c.xX_.B D L ! ) ^ ( T / @.( ( / ( ) ^ E ^ ^ Q T ` ^ ^ T ^ ` I I K E _ U LXLXLXLXLXLXLXLXLX",
"LXLXLXLXLXLXLXLX^ I e e u y u u x w z G z y y z y y u H J H K K J l f I E e % g.MX(.2.2.k.O.. X ; ; 9 9 6 7 t r 7 0 t t 7 +         ; y F u u M M n M W ^ M : . . . .   o   o . * . o   .   .     .       .       .     .     . X X .   . .     X     X X X .   . X o . X o . X   . . . .   .   = X X X   X o X .   X X   X o X   X X X X X X X X X X     X X X .   X o   . o o o o o o o o = X o o : & o o @ o o o o o o o o o o = o o o o o o o o o o X o o = o o o o o o & o < o o : o = < o & = < = 2 4 < = < 4 < 4 1 4 < = = 4 = : = o 4 = = = o = = = = 4 o o < & & $ & & < & < & & > < 1 & < : 2 1 o < 1 < & : : < 4 < : : : < 4 : : - = = o o = : = o < 2 o < 4 q : 2 2 - : o & < < < 3 < 2 & 2 2 = & : ; 2 < 2 o < o : < < < : < : < < 2 < < < @ & o : < : < : @ 4 < : = = = o o o @ o o < < @ ; < & o - E N.( f K / M z J H n 0 +       O + < 0 w 0 & - w - @ 6 7 t & X c c.yXlX_.s K N.m.I E / ( _ m.( n.m./ ^ _ m.( _ ) _ ) _ ^ _ ( ^ I I H I _ I LXLXLXLXLXLXLXLX",
"LXLXLXLXLXLXLXE Y u H t w F u A y y u z y w w y z u n J H n H I K M L T n p o.lXE.E.E.W.g.p & t y x 9 5 S r + t 0 r 0 - @ .     X w y y u H J K H K W #.W 4 : : r y x y l y y y w t y y w u u u r y y y w 0 0 0 0 t 0 y y 0 9 y w r 8 8 0 r w 0 y w - w w w r 0 9 y r 8 ; w r w 9 0 9 w y u u y 9 w e w w k y w r w w 2 9 - 2 8 r 9 9 2 8 8 ; 9 ; ; ; 8 9 9 9 y y y w y w 0 w 0 8 - w w r 0 0 - - 8 0 8 @ ; - < 0 0 8 w w 8 w 0 - < < < - - ; = w < - ; < w w - 0 ; - @ - < 0 - w ; - - - - - - - 2 < ; - ; - 2 ; ; - w w 8 8 2 9 2 - ; ; ; r - < w - ; 9 2 w y 0 0 w 0 t e 0 0 < < w 8 0 w w w - @ 8 @ o @ @ - 0 8 ; - 0 r 8 8 ; - ; - 0 - - w - ; - w 8 - - 8 0 o ; - y 8 - 8 < 0 w - w 8 w < 0 w 0 0 y 8 0 w 0 r 0 0 8 0 8 - - - - ; - - 8 0 0 - 0 t y 0 8 w @ < 0 0 0 0 w r y y y e w w w y 0 y u y u y t w < o Y r.Y m E z z H K H u 0 X       O + 0 w 0 @ ; w @ ; t r 7 # = X c =.yXlX).v Y I I P ^ _ ) _ _ _ r._ ^ ^ m._ n.) ) ^ _ ) ) ^ ^ ( ^ T K I r.U LXLXLXLXLXLXLX",
"LXLXLXLXLXLXK r.e f 0 n F w G z z z n z k y z z z F H I I H H K J M ! U % h.lX!.~.1./.g.p . A 7 t & 0 r ; ; r ; 0 0 @ .       + 8 y y y u H z n M ( r.W b : 1 e y x 9 9 9 8 0 8 0 9 8 8 8 9 9 5 8 9 r r r t r y 0 9 r r r y y 9 w y 0 8 9 y y 0 y r 8 w r w y y r y r 9 0 r r w r w 0 9 9 y y r y w r 9 r w 8 - w 9 8 w y r 0 t w w y 9 5 0 t w u w r 0 0 0 w r @ @ 0 w 0 0 0 0 t w w y 0 0 0 - y y t 0 0 0 w w y w w y y w w t u e y t w 0 w t y w 0 0 0 w 0 8 z u u w w w w 0 e y y q e y y u y z y w y r 0 u e w y 0 r - r y r y y y y e z x y y y e y y y u u 9 0 0 e y w r y y u r 0 u w 0 e w r w y t y w w 0 0 w e y t 0 u u u x r - w y r w y k z r 0 0 y r t w A w y y w y t 0 w 0 8 0 0 y r r t y t y t y w r r t t y t t y y t t t y w 0 r w t 0 0 0 0 0 0 w 0 0 e t y y w w 0 w w y 0 r 0 9 0 w < - l q o b N.( , m n n J H H u r +         # < q < o ; y w 6 7 7 # w 1 . c d.yXgXW.B F ( / m.m.( ^ m._ #.n./ / _ _ / ) ! ^ ` _ ( ^ ^ ^ +.I E Y T r.LXLXLXLXLXLXLX",
"LXLXLXLXLXE E q H r f H A H z J G z x x y y z G u H n H K K H H P J J 1 u.zXW.R.R.3.d.i   A t 7 t r 0 0 y y ; w w 2 X       O 9 y r 0 u H u e l B t.W b : : q @ y 9 9 ; 9 9 y 9 r y y 9 0 y 9 9 0 y y y r 9 9 r 9 5 9 r 9 y y 8 8 0 r 0 y u 0 8 - 8 9 w r r y y y y w w w y x w r y w 9 9 y u z y y w - y y 8 8 w y r y u 0 8 w 0 r w w 0 9 t y t 0 0 w y < 0 y w 0 0 0 0 8 0 w 0 0 w w 0 0 w w w w 0 0 0 w w 0 0 w t u w 0 w y 0 w w r w 0 0 - < t y w 0 0 w u 0 0 w 0 8 0 y w 0 y e r w w w y 8 r 0 8 y t 9 0 8 8 y ; w 0 y w 8 r 0 0 8 0 y y - 0 8 9 r r 0 u y 8 0 y y y 0 0 w w u 0 0 t r 0 w w y w 0 0 0 y 8 @ 7 w y w 0 0 8 9 y w 9 8 8 w 0 8 9 y y r 0 0 t 0 w 0 w 0 e 0 w u w 0 0 0 0 0 7 u t 0 r 0 0 6 0 0 t 7 0 8 y t t r w r r r t w r r 7 9 0 9 t t 0 r 0 0 w w t y y w w - 0 w y y y y y 9 0 w e z ; 2 < 4 m e.#.b n m U H H L D u O       . @ < < w X 0 - 6 t 5 r ; u 0 . c c.!.dX).N K E n.) ^ _ V.m.n.@.@.V.B._ ~ ) n._ ) m.v._ ` b._ I ` E #.#.N.LXLXLXLXLXLX",
"LXLXLXLXLXK n u e u A F H F F u f K J z J R H U A U D U M P z K K Y g o.kX(.R.7.E./.j - 6 9 0 < 7 7 0 r w 0 w y f @       O @ y 9 F x z l < l 3 X.W n o @ w 0 y 9 r t 9 0 0 0 9 w r 9 8 8 9 r 0 0 9 8 0 - w 8 8 8 r y - r w - 8 y r 0 8 r w 0 8 8 9 0 0 0 0 r y y w w r w w 9 r 8 r r r w y y r y y w 0 0 w t 0 @ 0 e e e w 0 < 0 w y 9 < w w y w ; 8 w w 8 w w y y r 9 r r r 9 y y y 8 8 r 9 w 8 0 0 0 8 w 8 8 r 9 9 y w w 8 9 9 0 8 8 r w r - r 9 w 8 y u y 8 0 0 w w w w e n e 0 q t 0 0 t u w - w 0 0 e < & @ y 0 < e w 7 w w w w 0 & 0 e w 0 y y q e 0 0 w w 9 ; w w ; ; 9 e y x 8 ; w 8 y 5 r r w y k y w - ; r y k y y y e w 0 w 0 w w t w 0 0 t y y r & - w y 9 ; w w w z w ; 0 y 9 9 0 0 r 0 9 0 0 y 9 y 8 8 0 0 9 0 y 8 8 @ @ 9 0 9 0 0 t y y y 0 8 r y r r y w 8 - 8 y t y 0 0 r y r r r r r w 0 t t 8 - 3 o o K t.t.m W m f I H u F y O         5 r 0 0 w @ @ w @ 0 r & q : o v l./.pXf.O.K #.n.n.n.v.v.n.#.#.n.n.n.m.#.) / #.~ _ v.n.~ ` T T ^ E K e.r.LXLXLXLXLX",
"LXLXLXLXE u q q u A A u F H F f L U x x x R H U U U H I P H I K m a | ).(.E.:.Q.c.c   y r 5 < < 0 r r r y y t y @ O     O - y 9 x y x y l M M q.0.1 1 n - 5 y r 8 8 r y y y r 0 ; 8 0 8 0 r 0 0 9 0 0 0 r 9 w 8 ; y y 9 w 9 9 8 0 0 r r w r 8 @ - 8 0 0 0 0 9 8 y w r r 9 - 8 w w w 9 w 0 9 w r w w 0 w 0 7 0 0 < t w 0 0 r < q - 0 w w w ; w < w w w - 9 w e y r y y k z y r w 0 y u r 9 r y y 0 y y y w 9 r w w 0 9 y r w w r y y y w 9 8 8 - r w 8 8 r y w w 0 w w e t e w e u 0 < 0 < < 0 w 0 < e 0 w y 0 0 0 u e 0 y e 0 u e w w r w e e 0 w u u e 0 < < q w 2 w 9 w w e w w w r 2 w y w y w u y 2 ; y w r w y y k u 9 w y 0 2 < e 0 t w e w 0 w e e 0 0 0 - 0 e r e y y ; ; - 8 0 0 0 0 0 y 0 t y y t y 0 9 8 0 0 0 8 8 5 8 0 9 0 0 r 9 0 9 8 8 0 0 9 0 r y r y y w 8 8 9 0 0 9 y y y y 0 9 0 9 9 6 9 9 9 y w 0 0 < : K t.X.c Y K f T P A F 8 O O     O # e < < @ 0 7 @ 0 0 @ o & o . c x.Q.E.K.N G @.n.v.Q / n.n.F.n.n.D.+._ / ^ / _ m.@.v.v.n.^ T R R t.p.y.W LXLXLXLX",
"LXLXLXLXn d e 2 y y u u n z u u L L J R R R x z L H I G G P H K , q.kXQ.2.E.2.x.C o 2 8 8 5 7 7 r 0 9 t y w 0 8 .     O ; r y 9 J z z M l n r.( M : < e w 9 9 8 8 8 0 y y 0 0 0 8 0 8 w r r 0 9 0 r t r r w w 8 @ r r r r w 0 r r y 0 0 9 9 8 ; 0 0 9 8 8 y 0 9 y w 8 8 8 8 8 9 r 0 9 r 0 8 9 w w 0 w y w 0 @ w 0 0 0 2 < 0 0 0 - w w w w e y 9 y w 9 w w w 9 y y y r w w w 2 9 0 w w < - w w w ; y y w 9 - 2 y 9 e w w w w w 9 y y w w w - 9 - y y w ; - ; w < t 0 t e y y t 0 u 0 0 0 0 < 0 2 w w w 0 0 e q 0 0 u y t e 0 < w q w 0 0 0 t q < 0 0 q w 0 < 0 e 9 2 9 w w w y w w 9 w ; w y w k y y w ; - w w ; - w r y w w ; y 0 q w e 0 w w 0 w q y u w 7 w w w 9 < 8 w y y e ; e y y r y w 0 y 0 0 y y 0 0 r 0 0 y y 0 0 0 8 0 0 r 0 r 0 5 @ 8 8 5 9 0 9 0 r w r y y r 8 w r w ; - y u y y 0 w w 0 0 0 r 0 r r y w 2 e o ; M p.+.m n m n u H y z 8 X     O   0 < 8 0 @ @ 0 & 7 q & 1 3 o o q.iXuXyXP.c K v.) ' ) n.n.n.~ #.#.` ` b.b._ _ / ( v._ v.H R p.J.p.W X.W LXLXLXLX",
"LXLXLX_ 3 n E E t e f n n u n K A L P I R R m P I z ~ P J I I d | (.(.2.;.E./.| o 4 e ; y - 5 7 7 9 9 r t 8 # .       8 y y w y z F z K n W q.< & e < # y S 6 r 9 8 0 y w 9 8 0 y y r w 8 w r t 0 0 0 9 9 w r r 8 r w - y y r w 0 r 0 9 8 w r w t 0 8 8 9 t y y r 9 8 w r 8 8 w 9 - w y r - - r w w y t t w 0 t < q 0 0 t 0 2 0 y y ; w y y y e w ; w e e w w ; k z y 9 - ; w y w 0 ; ; 2 y 9 - w w r w w 8 w y y y w w 9 w 8 2 2 w 9 w - w w ; w e y w 9 - - ; 0 q 2 0 0 t 0 0 0 0 w e 0 < 0 0 e y e < < q 0 0 < e y e e 0 < 0 t 0 0 0 < r w 0 < < 2 w < 2 e w w r w w w y w w k w 9 w w w - y 2 ; w y w w w 9 ; w 2 w 9 ; w e 0 e y e & w 0 < 0 t u y r 0 0 t y w 9 2 9 w r k w y y y y y y y 0 9 9 0 0 8 8 8 r 0 y 0 9 0 y r 0 9 y y 0 0 8 8 0 0 0 0 0 r 0 0 9 w y w w w 9 r x r 8 r 0 0 y 9 0 r 0 6 9 9 0 0 8 y 0 ; u e o o 1 C.t.M n n H H u J F 6   O     . 0 0 t @ @ y 5 # 0 0 o < : * o V iX`.dX).c ^ M.n.V.F.v.n.#.#.n.b.b.b.b.^ ( / _ T M _ t.S.J.t.b > W W LXLXLXLX",
"LXLXLXr.2 o n ( t.^ n n H n n K I I I F u n K K H F ~ G #.P = o.jX(.E.7.E./.| . q t 9 8 w < r 7 6 8 0 w t @ O       @ e e e u F e l e b ( ( 2 . 3 2 w w 0 0 y r 0 r r r r 8 8 9 y y r 0 9 0 0 0 y 9 8 8 8 0 r r 9 r w 8 w y r y 0 0 9 5 9 0 0 r y 9 8 0 y 0 0 y w 0 8 w r w 9 w w 8 r y y 9 9 0 w u y e w t 0 0 < 0 w 0 e t 0 2 y w 0 0 2 w 9 ; 0 0 w w r w 0 0 9 w y w y w k y u r ; 9 w y r - w w w y e w y u z k y 2 w w w w - 9 - ; 9 w r w ; ; r w 9 - < y 2 0 < 0 0 < < 0 < 0 w e 0 2 w w w y t 0 < 0 w 0 0 q 0 0 t w t e w w t w - 0 w w e 0 w e w w e < w y w w w r w 9 y w w w y 2 - < r w y y e y w w w w w y y y y l < 2 0 q 0 w w w 0 q 0 t 2 < 0 w w w 2 9 ; 2 9 w ; - 8 w y 0 w r 0 r 0 0 9 0 9 8 0 0 0 9 8 r u y 0 0 y y 0 0 y 0 t 0 y y y y 0 y w w y r 9 8 r y t y r 8 5 0 y t 0 & 8 0 0 r w w y 0 w e 0 < < q o d C.t.b b H m P P H S 6 O       5 6 w 7 - y @ r r t 0 @ < 1 $ . v (.yX(.z.N / n.D.B.~ ~ #.#.n.V.B.b.v.' m.#.R W a.J.p.p.x 0 g d ( W LXLXLXLX",
"LXLXLXW <   o 2 I / +._ E b l b n H I H n H U D F G G x R k N iXsX6.6.6.c.=.o < t y y r @ q q t 7 0 0 0 @ +       @ w w w u z n e l n E W q X ; w @ w x - 0 u 9 0 0 w r 0 0 0 0 0 y r 0 0 9 0 5 0 0 8 8 9 0 0 8 w y y r 8 8 r x 9 0 0 0 0 r 0 0 8 5 9 y r 8 @ 9 r 9 r r r w 8 - r r 8 w y t 0 y t u y t 0 0 0 @ < t 0 0 w w w w ; - 0 w 9 9 2 w w w r w 2 w 0 0 ; w e < 2 r y y 0 0 l y e w w 0 w w y w 9 w w w y y y w ; y w w 9 2 w w w w w w w w y k w w 9 w 0 0 e t 0 < 0 < t 2 0 0 0 0 t < 0 e w t w 0 t w u t 0 0 0 e y y w e u e < 0 e e e 0 w e e e e 0 ; w w ; w w w 2 9 y ; y y 0 8 9 k w w w y w w e k w w y k y y y 0 2 < t 0 u e q e 0 < 0 0 r t y w 9 w w y w w ; y - 8 r 0 8 ; 9 0 y 0 9 0 y t 8 0 8 0 r 9 y y 0 9 8 0 y 9 0 y r 8 9 9 0 0 0 9 0 w r y r w w y r 9 0 y 8 @ 9 y r w w 8 w r y y y y 5 w y < < t y u o b p.t.M 3 Y K K D A S r         O 0 w 2 w 0 < r & @ 0 @ - < o   Z W.Q.(.z.c ~ n.n.~ ~ v.~ #.` ` ' +.` ^ t.t.U.h.| c j z U H M X.W LXLXLXLX",
"LXLXLXE 4 o < = o < e ^ M.t.m 2 3 2 d H E ^ E U ~ ~ u T 4 Z iXuXE.6.6.W.a.o . y y 6 9 9 w y @ e w 0 0 @ O       < e u e e e z z m K m / l   e 2 - w 8 8 8 y y 0 8 - 8 8 8 9 0 8 8 r r r 0 0 0 ; 0 0 8 8 0 y y 5 8 y r 8 9 8 0 y 9 0 r 0 9 0 9 0 8 8 0 0 0 8 8 8 r 9 0 w r r 8 8 y 0 8 8 w y 0 y w t y y t w 0 & 0 0 0 0 0 0 0 q 0 < 0 e w w w u e u y w 0 w w w e z e w 2 y l y < 2 y k e w 2 w 2 y e < < w w < y y e w w w w 2 w w w w w w 0 - w w y y w w 9 9 0 e u e 0 0 0 0 q 0 0 0 0 q q 0 & w r e e < w w u e w w 0 w e w w t y e 0 0 q w u q 0 2 e u w w < < 2 w w e w w - e e e w < w w y w 2 w e 0 w q y y 2 q e w y e e 0 < e 2 e w w e w w 0 0 e e u 9 w w w r y w 0 y y y y y 0 8 w 0 0 0 9 0 0 0 9 t 9 9 y 0 y y 0 8 5 y y 8 8 y 9 8 8 9 0 8 5 5 8 r y r 0 w r w 9 8 8 0 9 8 8 0 0 0 - 0 0 9 9 8 8 0 8 8 0 0 0 0 < o q o n t.q.Y b n U L t r u 0 O O     O 0 0 - 8 @ 6 5 5 r r @ 0 - : . h !.`.Q.c.W #.@.^ ) @.n.@._ v.^ t.y.y.J.U.p.j = 0 l G T H g X.W LXLXLXLX",
"LXLXLX( < . : 0 e < o o e T t.N.r.M 3 1 U Y ' H P P T 4 c iXsX8.:.6.j.j.$ o 2 9 9 r r 9 @ 0 e 9 0 8 + O       - u t e e z z z J R W E e o w y - w r 8 8 0 y y 0 ; w r 9 0 0 8 ; w 9 w w 0 0 9 8 r 9 8 @ 0 y y 8 y w - - w r 8 - 0 0 0 8 8 0 0 0 8 0 y 8 8 y 0 8 r - - 9 8 0 0 9 r 0 8 0 r y r 8 w 0 w u u w 0 0 @ 2 t 2 w q 2 w w e u y w < w u 0 y e w w w e w < w w w w e y < w w w e w e w e 8 e z w ; 2 w 2 2 e e q w w r 2 ; 9 w w x w 0 5 ; - 2 r w ; 2 w 0 t 0 0 & < 0 q 0 0 u e 0 0 w e 0 w < w 0 @ 0 e e 0 e e t e u y < 0 e e 0 0 w 0 u n q < e e w e w w w w w e e < < y w 2 2 < y w z y e u e 2 ; w 2 w w w w w e e e 0 0 u e y e q e 0 0 0 0 q w y w w ; - 9 u k w - 0 y y 0 0 y r 0 9 8 r y 0 8 0 y 0 9 0 y 0 0 0 0 0 y y 8 8 w 0 0 0 w 0 8 8 8 t r 9 0 ; 8 8 0 - 0 9 t y 0 8 0 0 0 0 0 w w 2 8 ; 0 8 0 w w 0 0 0 0 < w X = t.C.m d f U H w 0 y 9     O   X 2 ; 0 8 @ 9 r 0 5 5 5 - < 0 * Z yXfXuXl.y.#.J ~ ) ) ` ^ t.r.#.p.p.p.c X ; z S J z H u b X.+.LXLXLXLX",
"LXLXLX( q o < < < & 0 q o . 2 Y t.A.p.W K Y H Y K m N c jXlX6.7.2.f._.a . 0 0 8 < 0 0 r r r 2 2 0 - O       @ u 0 u n e n n e n ( Y a = @ 0 r 9 9 8 ; 9 0 r < - 0 r 0 9 r y r 0 y r 0 9 0 r w ; 0 9 r y 9 0 0 ; - y y 0 0 y 9 0 r y y y r ; 9 0 0 0 0 0 0 8 - ; w 9 w 8 r y w 9 - ; 8 y y y 0 0 w 0 0 0 0 2 0 2 0 < < 2 w e 0 < w e w < 0 0 e e w w w 0 0 1 w w < < q w 0 w < < w e e e e w w q e e e w w 0 w < w w e y w w y 2 < w w e w 0 w e w w w q w q w 0 0 q 0 2 0 q e 0 @ 0 e w 0 0 t 0 e 0 0 2 0 0 0 < 0 e y e w 0 q w w w u u e e 2 < e u w < y l e 2 w 2 e e 2 y l 2 e 2 y w - e 2 l w e y 2 w < 2 2 e < < w 2 2 w l e y e y w q w 0 e y u e w e 0 q w y y w y k y k y y r 9 8 9 0 w y 0 0 r 9 8 0 y y r 9 0 8 r 8 ; 0 9 0 8 0 y y y 8 0 y y 8 5 ; 9 ; - 8 y r 8 8 0 0 y 0 9 9 0 9 9 e y y 9 w w w w 0 y r 8 9 8 r y l = w 0 . n A.t.K K J n J y A A r O       X ; e - 9 8 8 8 9 9 9 @ @ w = . C yXyXuX=.V M E E E r./ #.y.J.p.k 2 < w u A S S A F K b o.( LXLXLXLX",
"LXLXLX` < o t 0 0 & 7 w t < o o = 3 r.I.I.+.d m B p i _.sX~.7.} _.K.> & 0 y 8 x < 0 r 0 r 0 2 - @ O       0 w e e e K n e n K ( E l : 0 q w 0 9 9 8 8 8 - 0 0 0 8 r 8 8 0 w r 8 r 0 0 0 r y r 8 0 0 0 0 0 0 0 8 9 r 0 8 0 r 0 0 y r w - - ; 8 0 y 0 9 9 9 w r r r w 8 w w y y w y r 8 8 8 9 0 0 0 0 0 q 0 0 t 0 0 t e y e e 0 < - < w e e e e e w q w 1 2 w w e e w e < 2 y w < e e u z e w 2 0 w 2 w w < 2 e w < e e w e e w < e y w w 0 0 y n y w e 0 0 0 0 w w 0 0 0 0 t 0 0 < < w 0 < 0 0 0 0 0 < 0 q q 0 q @ 0 e w w y e u e u u u e w q 0 - 2 w w l l y y e e y l 2 e z w e w e 2 2 e w l < 2 e y w 2 w e e e e e e w w w w e e e y l e e 0 e u 0 0 q 0 0 - w 2 9 8 w r y w 8 w w r w 0 8 9 0 0 0 0 r y w 0 0 0 0 w 9 8 - r 0 8 8 8 0 8 0 8 0 r y 0 8 0 0 w 0 r r 0 0 8 @ 8 0 9 5 0 0 0 8 ; ; w - - 9 - ; 0 r w 8 w 0 r w ; y 0 - 2 & t t.C.M m m l H F F A 5         o 4 e w 8 8 @ + @ 9 r 9 - 2 = . v uXuX/.l.| C e.C.+.p.A.t.C 4 ; t u y u u u S A F H d X.W LXLXLXLX",
"LXLXLX^ < @ t 2 t t 7 @ < 0 < - 2 = . : o.I.H.#., , x.dXE.R.E.3._.m   y 8 r F @ < 0 < - < w 0 ; X       - u e q e z H K f n ( W e & @ e e < 8 0 r 9 y 9 r 8 9 w 8 9 8 - 8 w 8 w 0 0 9 0 r r w 8 r y 0 0 8 8 - r 8 8 0 9 8 y y r r w w w 8 8 8 y 0 9 0 0 0 8 r y r 9 8 r w r w r y y w r 9 0 0 8 0 w e w w w u w e q e 0 2 0 0 2 < 0 q u y q 2 0 q 0 w 2 0 q w w l e e 2 2 e 2 w e w y l e w w w u w e e e 2 w e e e e e 2 w 2 < w q 0 < < < 0 2 0 q 2 w 0 q q e e 0 0 e t 2 < 0 w 0 0 0 0 q w & 0 0 0 q 0 w 0 t t e y t 0 0 0 0 w e e q w e u u < 2 y l w e e e e e l y w l z e k e y 2 w y e e 2 y l z e 2 w e l z l w 2 e e e < e w w e e w w < q n 0 0 e 0 0 w ; 9 ; 2 8 9 w 2 9 r w r w r 8 8 0 9 0 0 y y 0 - 9 r r w 8 8 9 y y 0 0 0 9 0 0 8 9 8 0 9 0 9 0 8 0 w 8 9 9 8 @ 9 0 0 8 0 0 8 8 0 r r w 8 w 8 w w w 8 8 y y 9 w ; k k w u t # u y.t.M m R n u H u y 0       X X < < 0 7 5 @ ; r 8 r k - r ; . Z yXdXsX/.w.| X.N.t.C 4 # 9 z F y F A y y A F A A M X.( LXLXLXLX",
"LXLXLX/ < - 0 - 0 y u t 0 0 w w t w 1 : $ 3 E H.J.).sX6.$.1.(._.b   u 0 r r 9 5 0 2 < < < 0 - X     O < w 0 w z z u n K K ( W n o @ 2 0 < < 8 8 S y 9 r y y w - 0 w 0 8 9 r 8 8 0 0 8 8 w r w 8 8 y 0 9 0 8 8 r w ; 0 0 8 w y r 9 w r y 0 0 8 0 0 8 0 y y 8 8 r y w w r r 9 8 w 8 w y r t y 0 8 t e t w 0 w e w e t 0 2 < 0 w e w w e e w < < 2 q w e 0 0 0 e e e y e w < w e z l w 2 w w 2 w l e e l n z w e q l u y 2 2 w 2 0 w q e w 0 3 < @ < 2 w w e q 0 2 w 0 0 q 0 0 < 0 q 0 t w < 0 w 0 e q 0 w 0 < 0 0 0 w e w t w q 0 < w w w 0 e e u y e l y 2 2 l y e e l y e y z l e e e e e k y e e l l y w 2 e y y l y 2 - e y 2 < e w < e w - 2 w 0 u y e e 0 0 w w e y w ; w y y w r 8 9 8 w w r 0 9 0 y y 0 8 - 8 r r w r w y y 0 0 r r r y y 0 0 0 9 0 0 y y 8 w 9 8 8 0 0 9 0 r 0 8 9 8 8 8 w r 8 w 0 9 w w 0 r 8 9 x y 9 9 y w y w w D w . 4 A.A.m q E K z y H u @ X       # 7 0 0 8 8 8 - ; w ; 2 - 0 t . V W.!.Q.j.w.a Y l : w u y r 9 F F A y y z F G u d X.W LXLXLXLX",
"LXLXLX_ - = < @ 0 0 r y 0 0 8 - w 0 & : 2 o .   w.jXdXE.2.!._.p X r u @ r r 5 t w - - e w 5 O       @ y u r w n M q K n W r.1 : 0 w w 0 0 0 0 + 0 0 0 r r r ; ; 9 r 0 r r w 8 8 y y 9 8 9 y y y ; t 0 r y r 0 y r < r y 8 w r - y w 8 9 0 9 r r 0 0 r u u 9 9 0 y w r r 9 - - 9 8 w 0 5 8 y y y e w 0 0 0 t q < w q e u e e q q 2 0 3 w 0 0 w e e e e e e e e e 2 - q 2 0 e e l z w w e e 2 e l 2 < e z e e e e e 2 w 2 0 e l l < 0 e e e e w - < 0 q e w 0 2 < < < 0 q q w w 0 < 0 t w 0 2 0 0 y y t w e w 0 0 0 w 0 w q e y e w e e w 0 2 w 2 u e e e 2 w l u 2 e e l e e w e e e y e e e e q e e z w w l e e < 2 e e k e 2 < e z e 2 z u 2 w q < w e u e 0 0 w w y y w ; w e w w 8 8 8 8 - 9 y 0 0 0 y r 0 9 r w 0 0 r r w r 0 9 8 0 r 0 0 t y y 0 y y y 0 r y r 0 0 0 0 y y 8 0 8 8 0 y 0 y r 9 0 r w r < - < ; 8 ; 9 9 9 9 y y 9 2 0 9 0 w = j A.p.b b Y n F S z u ;         5 r r 0 < ; # ; - X 2 w ; r 0 . ] Q.R.Q.i.* 1 0 & u u A u 0 e z l x e F F F z b X.W LXLXLXLX",
"LXLXLX+.- - - < 0 9 8 9 8 8 < r w w 2 3 2 ; 9 @ o p k.pX!./.| o e r w < 8 9 0 r r 8 ; e 0 O O O   @ t y u u z z z J n I ^ d & : w 0 0 0 0 0 < < 8 w y y r 0 w 8 0 r 0 0 y w 8 8 t w 8 8 0 y 0 0 8 0 y 0 y 0 8 8 w 9 y y r r r r r 8 8 r r w r r 0 9 r u u r 9 t y 8 8 8 8 0 w r w r 0 8 8 0 0 9 w < 0 w 0 q w 2 e y e e w w w 0 2 0 w q q q w e w e u e e w t e y 2 < < w z q w w 2 e e y e y l y e l e 0 2 e w e w w e q e y y 2 w 0 q e e e w 0 e q w q 0 0 q w 0 0 0 w w w < < 0 e e 0 0 e 0 u e w e y e w w u e q q w w w < u u u e q w 0 < q w w e y l e e w l y e l e 2 w e e e e e e e w l z l e w z l e z e e l z y w e e z e w e u e y w < w e e e 0 e k y y k e w ; 9 ; 9 9 w r w w 9 r 0 9 0 y 0 0 r y r 9 w w r r w 0 8 9 0 0 0 9 8 0 0 r y y 0 8 @ r 8 8 0 0 9 8 0 0 0 0 9 y 0 0 t y 9 9 9 y y w - - 9 r 8 8 9 9 y y u ; y u - 0 e e = 3 B.I.M a M H F u y e 8       O + 7 w < < < - - < < < r + 6 * $ !.!.pXz.. 0 0 r u u y u w u w l z z H G A A b 0.+.LXLXLXLX",
"LXLXLXr.< = ; 0 @ 8 y 9 w 9 8 9 o - = < @ 9 S r . % 3.5.Q.s.: < w < q < e q @ 0 8 ; 8 ; +     O @ y u u u z n l z T m Y M o 1 < 8 9 0 r 7 @ < t 0 q u y r ; 9 w 8 r 0 0 y 8 ; 0 0 8 9 8 0 0 8 8 0 0 9 0 8 8 8 ; ; 0 8 r w w w y 8 w r y y w 0 0 r 0 9 0 y 0 0 0 y w 8 0 r 8 8 r r 0 0 0 0 0 8 8 0 & 0 e w 0 q w e w < < 0 0 2 0 e e e 0 q e e w w 0 q e e e e e e w 2 2 2 l q 2 < 2 q q l u e e e u z e < 2 2 < l e q e q w 2 2 e e e e z u e z 2 w y w e e e y u t 0 e e t 0 < w 0 w w t e u w q q 0 t w w q e 0 w 0 0 t u y e e e w w e e y w e e 2 l l y e e e l e e z l e e e l e e k w e q l l e e e 3 q e z e q e e q 2 e e e w w w e e z e q e w w e w z u y w y y w ; w e w w r y r r y 0 0 0 9 0 0 0 0 r w 8 8 9 r w 0 9 0 r 0 9 0 0 8 8 9 8 0 0 0 8 8 y w ; 0 0 8 0 0 y y y r y 0 8 9 r 9 9 t y y w 8 y k y 9 9 9 9 x 9 r 9 y 0 2 2 o e y < 1 A.G.c 3 n P H A t A 0   O     @ 0 < 2 0 t 5 q & . @ 9 y = $ sX!.Q.l.. f u t w e n e 0 q y u F A A u z u a q.( LXLXLXLX",
"LXLXLXN.w o o ; - 8 8 8 8 r ; = ; < - w 8 5 S t 0 * k.k.4.v . 2 - y w w & 0 0 9 8 9 8 O     O O 7 y z H l z J R J z ` n & q & < 0 r 9 r w w 0 @ < 0 0 0 w r 8 9 8 w 0 9 0 8 8 8 0 5 9 0 0 y 9 8 y 8 r 0 0 w y r r y r 0 y 0 ; 9 8 0 r 8 - ; 8 r 0 9 0 0 0 r 0 0 r ; 8 w y w 8 8 8 ; ; 9 y y y y w 0 w y w - < w e w < w e e e w e u q 0 w e e e 0 2 e e y u u e e e e 0 w q w e e e e q e l z q 2 2 e w 0 e e w e w 2 w q e e q w w e z z y e q w e e e y e t e y 2 0 y u y w e y 0 < 0 e u u < w 0 0 0 0 < < 0 0 0 q 0 0 y u u e w 0 2 2 y e 2 w e e y l e e z e e e q n l e e q e e b z 2 e 2 e < < l q 2 2 l e 2 0 2 3 2 < 2 l l l e 2 2 l z e e z < - w e z y 9 9 w y w w w w 9 8 8 8 w w r 0 y y r 9 8 8 8 - 9 8 w w 8 9 8 0 0 0 8 9 w t 9 0 0 8 8 9 0 0 r y y 8 ; 5 r y y r y w 0 y 0 8 8 8 5 8 r y r 0 w y u 9 ; 9 9 9 y y 9 y r w ; < w w t & & 1 A.A.b e H I I H D t 6 O     O @ 0 0 @ 7 w . o & 0 F z 1 > uXE.!._.. u y e e q q q u n u t A y y t u z d X.o.LXLXLXLX",
"LXLXLXr.< o - - < 0 7 8 0 8 - - 0 < 0 0 8 8 9 - < % /.yXP.|   0 & 0 0 0 q w 0 & 0 y +       5 r S t u H f e e b M ^ J = @ w 0 0 u 0 5 9 0 0 9 0 t y 9 0 0 0 0 0 9 0 0 0 0 9 0 0 8 0 r 8 8 @ @ 8 @ 9 0 0 0 y y y r w y 9 - 8 8 y 9 w 9 ; 8 0 8 - 9 8 8 0 0 9 9 0 0 5 & r w 0 r w @ @ & < 0 w 0 0 w e w 9 ; x w 2 e e e 1 e w y S e y e w w e e 2 z e w < r u e e q 0 w z z e e e z e e q w 2 e u e e q q e u u n w q w 0 q e e e w < q u e 0 q e e q e w 8 9 r r y w 0 < 0 e u e 0 0 & < w w q u 0 q w w 0 0 q e < e z e w q w e w w w k l 2 j k 0 w y w z w l e l y e u u l y w u e y w w 2 e z 2 e 2 3 2 2 2 3 < q e n e n u e 3 d b e 4 2 l e l l 4 4 2 w e z 2 < < e u 0 0 e t 0 < 0 0 0 0 0 0 0 8 9 9 0 0 w 0 r 8 @ 8 w w ; ; - 8 w 8 8 y r 8 9 8 8 8 8 8 w y r r 9 r w r r y 8 - r y x y 8 r 9 r 0 t y y 9 w r w r y x x 9 y r r ; 8 r y ; 0 y w e o < t.A.M z R z n F D A 5 O     O   @ q - + o 7 q e y r q > (.8.yXL.. u w u w t e e u u u u t t y t A e d o.t.LXLXLXLX",
"LXLXLXM.2 & < < 0 5 5 0 0 < < - ; < w w 0 - 8 w & . g.c.z.| o 0 7 + + 0 0 0 0 0 5 @     O o t t t A f e q m Y n Y e < < w 0 0 y w 7 8 0 0 0 0 r w 9 8 0 0 9 0 9 0 9 8 5 y y r 8 8 0 0 9 w 9 8 9 y y y 0 9 9 y 0 y r 0 8 8 - r r 0 8 8 - 0 r 9 0 0 0 0 0 t 0 0 0 0 0 0 w t 0 0 e 0 0 0 0 2 0 q 0 e y w 2 w y ; ; w e w w q w t y 0 4 2 e l l e < w e e e e e u q w < 2 w e w e z e e w 0 2 w y l e u e e e e e n e e z l e e e e 2 3 e e t e u u 3 q e e w w r w w w y e t 0 w e e y w w 0 @ < 0 0 0 w 0 0 2 0 q 0 e e q e w w e < w e 2 2 k k l y w w ; e e l 3 w e e l e e e e e l l e e w 2 w e l e l e q e e 0 3 e q e u m n q : 2 3 2 w y k n n b e e e q e 0 0 0 0 t w 0 y q 0 0 0 0 r q r 9 8 0 y y y y y 9 0 0 9 0 y y y w y r 9 8 8 w w y w r r 0 8 8 w 9 w 0 8 8 w ; 8 y 0 0 0 0 r y - y y 0 0 r y y y r 9 8 - 8 r r 8 9 w 9 w r y r ; y 0 w n 2 X l r.A.C , M K H r t r O         # # - - < 0 e t y w & % yXQ.uX_.. w w y w e w w u y e 0 0 y A F H q : W X.LXLXLXLX",
"LXLXLXm.2 < 0 < < 8 6 0 0 < 0 < < ; r 7 0 8 9 w 1 % a./.K.| & f w + + & o 7 w r +       @ r D u D D U n n m W E H & o 0 r 0 t 0 8 8 8 0 0 0 0 0 y 0 9 t y t 9 0 7 9 0 9 y y y 8 8 0 y y t 0 8 9 y t 0 9 0 0 r 0 u y 0 8 8 r 0 8 r w 8 r y 0 8 0 0 9 9 0 r y 0 y 0 7 < w w 0 q e q 0 0 q 0 0 w w z w w - w 9 w w 0 e q q e w t w w 4 3 l l l e e 2 e l l l y e e e l e 3 2 w q e e 2 0 2 2 w q 2 e l e e l l l e e l l l 2 e e e e b n u u A u u 0 w w e y e q q w e y y t 0 r 0 e u u y y 0 0 u 0 w q w 0 0 0 w 0 0 q w q w w e e e 3 q w q q q q w 3 0 l l b 3 2 e l l l l l z 3 e l n z b n l e d e e b e e w e e n 2 e 1 e e e 2 z n x x 2 0 w l z e e w w ; e e 0 0 0 q e e e w 0 0 0 t w r 5 8 8 0 0 0 8 0 5 0 0 8 ; 8 w r u u w 8 - 8 9 - r w 8 w 8 r w 9 w 0 w 8 9 r 8 8 y y y 9 - 8 w 9 9 0 0 0 8 0 y 0 w 8 8 8 9 w w w w ; y y r y y 8 0 0 y < e 2 X j C.A.m b g H I A A y 5 O     .   o - 0 q w w 9 9 & % (.k./.U.. y y u y t w 0 u e n D u F A F H y 1 W +.LXLXLXLX",
"LXLXLXm.< < 0 2 7 0 r 7 0 7 0 < < @ 7 r r e - 8 & % d.yXK.| o H u w w + O 0 w + O     @ w t f y t u n n M K R l 2 & 0 0 @ r y & @ 8 0 8 9 0 r 9 r 0 y y y y y 0 9 0 0 w 0 0 0 0 9 t y 0 0 9 @ 0 8 8 7 0 0 t 0 9 y 0 0 0 r r 0 ; y w 8 y y 8 8 0 0 0 8 8 0 9 r y 0 0 0 t 0 r 0 0 0 < 0 0 < 0 e u u w 2 ; w w x y 0 0 0 0 q w e e q e q w 2 2 e b e 3 e e 2 2 3 e 3 3 2 2 < 4 4 3 e l l l b b b 3 4 e e 2 2 3 e e e e e 3 2 2 3 l 2 e e q e u u u e w e w 2 e q q e w w w w e q 0 < 0 t w t 0 q u w w q w w w q q w 2 < w e w 0 e n z q 0 e n u q w q e 3 e 3 l 3 4 e 2 e e e l 3 l e l e 3 e l 2 e u e e e q e 2 q e e q u < 0 u n w l 0 2 n y k < y z e q x u e t e w < 0 q 0 0 0 0 0 @ @ & 0 @ 0 0 y t 0 9 9 8 y y y 0 8 8 r y y y r 8 8 r r 8 9 - - - 9 r y y r w y r w w w w 0 y y 0 - 0 r 8 8 9 9 + 5 9 0 0 y r 8 8 w r r r w 9 w 9 9 r y y 8 0 y @ 2 z = = 4 0.S.W q Y H U H F F 9         X < t q w e 9 e & % yX8.(.).  w y u y e 0 0 e t y u u u t t D u d X.r.LXLXLXLX",
"LXLXLXM.@ @ 0 2 7 0 0 0 0 - @ < < < 0 r t 9 - 2 & * l.yXz.V . H e y y @ # + +       o r t u n u n n H I ^ ( H o ; < 0 w 9 - < w 9 0 0 9 8 9 0 9 8 9 0 0 0 y 0 0 0 0 0 y r ; 5 9 9 y 0 0 0 9 0 t 9 9 0 0 0 0 8 8 8 8 0 r y y t r 0 8 5 0 y 0 0 y 8 0 0 0 9 8 9 t e t t w y w w 0 0 0 w t 0 < e q w 0 0 0 w w k k 0 w w < t e q e 2 q q e e 3 q e e q e 3 2 3 q e 2 3 3 1 2 e 3 3 4 e 3 3 3 b 3 3 3 e b e q e b e q e e e e e e 3 t g t 0 w w w u l l k 2 2 0 r r e 0 0 0 0 q e w 0 0 q w e 0 w w q w e w w w q 0 q w < w e w 2 r 9 9 0 0 S D u t u n l 3 2 2 3 e 3 3 3 2 3 e 3 a e l 3 3 1 3 3 2 3 e 3 e d e d e e e 2 l d q q K n 3 e 4 q n e 2 q z D y e u x y 0 e e 0 w w 0 0 e y e w 0 e w 0 0 r y r w w 9 y t r 0 8 9 w y y 9 y r 9 r y y r r e r w w w r r r y w 9 9 r y r 9 y y 0 w r y 8 ; 8 w - 8 r y u 8 r 9 w y 0 0 r w ; 9 w - 8 y y r 9 w 9 w w 2 2 o = t.A.E M k R I J J G X   O   # 0 t q q e x u < % (.2.W.L.  u u F e y e u u u y y t u t A H u 3 W X.LXLXLXLX",
"LXLXLXr.o o 0 < 0 0 0 7 0 < 0 @ ; ; t t 0 - - w & : z.Q.g.O.& f t y y t 0 +       O w t q u f n m q d Y T n 0 @ 0 w 0 - r w ; y 0 w y 0 0 t 0 0 8 0 0 0 y 0 r 0 t 8 8 r y 0 8 9 0 y 0 0 9 0 0 y t 0 0 9 9 8 0 9 9 r 0 0 0 y r w 8 9 8 0 0 9 0 y 9 0 r y w 0 8 9 t w 0 y t t 0 0 0 2 q 0 0 0 t 0 w 2 w q w e r y < y 0 w t e 3 d e d d e q a 3 1 3 3 1 3 1 3 3 q 3 3 3 3 3 c b 3 a 3 3 a 3 3 b b 3 e a e e 3 3 3 b e a 3 3 q d d g g q g e w 0 w e 2 2 e w w w w 0 0 e w 0 0 0 w y e e e u u w e 0 w 0 t q 0 0 2 e e w w e e 2 w x x G z t f q q d e e 3 j b q : 3 3 l c 3 4 3 b 4 , a 3 q a 3 4 3 d 3 3 d a l 3 b M 3 M d d a b q 2 b d 3 3 3 b 3 e t r 0 0 y ; w e l q y e w < < 0 0 w q 0 r 0 0 y r 8 - 9 0 0 8 8 8 8 w w y r 0 0 r 0 w y w ; 8 r y y r 9 9 w w r r 8 0 0 r r 0 0 r 0 8 r y y 0 y r r 0 y y y w 8 w r r y 0 0 - w w 8 8 r r 9 y r 8 z w 0 z e q : 4 ( S.W R m K u z F -       # < t < e e y x 1 % sXk.Q.L.  z t t e e u u H n H H u H F t H g a W +.LXLXLXLX",
"LXLXLXr.- o < < 0 0 r 0 0 & 0 < < < w t r 8 8 w & % j.x.g.V & e t e u y y @       @ y t e f u n K M Y W H & < y w y 8 ; w r 9 9 0 0 r y y t 0 8 0 y y r 9 0 0 0 0 0 9 9 0 0 0 0 y y 0 8 9 y r y 0 0 0 0 0 0 y y u y 0 9 9 9 0 0 8 0 0 9 0 9 0 r 0 r 9 y t 0 0 0 0 0 0 0 w w 0 < 0 < 0 e 0 w t w 0 0 q e e w r y 0 w w w q q , , $ 4 > $ $ $ : o = o $ $ $ o * % $ = > $ o o $ = : o . $ $ o o $ o $ : : : o o = , : : $ : : : 1 & 7 a q g t u t ; 2 2 2 e e e e 0 < w e w < 0 q 0 w 2 w e e w q w 0 0 2 w w 2 0 y e e 2 u k e y ; y w < & > % $ * $ % > : i % * : $ : : : o $ > : : : : : : o X * = o X $ X o X . . X = o = $ . % % % > % % , p 1 q u u u y y k e u u w e u w w 0 0 t t e t w e y w y w w r r w w r r r r 9 w 9 r r 0 9 8 r w 8 8 0 9 - w r r 8 r 9 w 9 0 y r 0 0 9 0 0 9 w y r y y r 8 8 9 r 8 8 8 w y r 8 0 0 w 2 9 w 8 r r 8 z y 9 e w y y < 1 q 2 2 t.S.R b K k z z @   O   X 2 t < 0 w 9 y q > yXf.j.L.  z y y 0 t u F H u t e y F A u L n a W +.LXLXLXLX",
"LXLXLX@.o & < @ 7 0 0 7 0 8 < < 2 - 8 0 t y y e < $ g.c.z.v & f u L u w y <       @ u u f I H U d W W n & 7 w r r r r w w 9 r - 5 9 0 y y 0 9 8 9 0 0 8 8 8 8 8 8 y t 0 9 t u y t 0 5 ; r u y y 5 9 0 0 0 9 0 y y 9 0 0 0 0 9 5 @ 0 9 0 0 0 0 y y 0 8 8 0 r 0 0 7 0 0 0 w y e q 0 0 0 0 < < 0 < 2 < w e e 2 w w r y e e y 3 : 4 v v ] Z v Z ] Z ] ] ] ] v v ] ] ] ] &.-.-.] ] -.&.] Z ] ] Z ] Z Z v Z ] ] ] v v v v Z Z ] v v v v  .s i % > d y e y w k q q w q q 0 < 2 w e e q 1 0 0 0 u w w e e w q w q w 0 2 e e w w w k e w x r = $ > v v v ] Z v v v v ] ] ] ] Z ] ] ] ] -.-.] &.-. .&.&.-.] &.&.-.&.] &.&.&.&.&.] -.&.&.] v v ]  .{  .v , i > q f z u e w e e e w e e q q q 0 2 0 0 0 w e ; - 9 r r y w 9 8 r u x r - 8 r y w r 0 8 w r r y r 8 ; - r r 0 w w w 0 0 y 0 8 0 8 9 y 8 8 - 8 r y 0 8 8 8 0 w 8 - 9 r r 8 9 0 y w k 9 8 y y 8 9 9 9 w w w - w 0 2 u o : t.#.m W R T J o       O < 0 0 q w ; y q % yXQ.W.).. u y y 0 e u f n y f u w A D H L u 1 X.+.LXLXLXLX",
"LXLXLXr.< < < @ 0 8 7 0 0 0 @ @ < 0 0 0 r e y w * % z./.g.v = z A z u u u w       @ 0 w e e z K t.X.1 o 0 w 7 6 t r 0 9 r r w ; 0 r y r 0 9 0 r y 0 9 0 0 0 9 5 0 y y r y y 0 5 9 0 0 0 0 0 r 0 r w 8 8 8 8 0 0 9 w - 0 u y 8 0 9 0 r y y y r r r 9 - w r w w 0 0 0 & y r 0 < q 0 t 0 u 0 e 0 t e e q q q e e r x w e u t 1 : ] '.[.;XbX;X[.bX;X[.;X[.;X[.;X[.;X{.>X;X;X>X;X;X>X:X;X;X;X;X>X>X;X[.].[.;X;X{.;X|.[.{.|.;X X[.[.[.{. XmXR.c 4 , q y e e ; 2 w e e 2 0 q 2 w w 2 q q w 2 w e u e e < y q w 2 w e q w e l z e e 2 r t w a % &.mX;X[.[.;X;XbXbX:X3XNXnX:X;X;X>X;X;X:XnX;X[.[. X>X|.:X;X>X[.:X>X;X:XBXnXZXZX3X:X3XZXZX3XnXnXnXmXhXbX`.] > p q z w e y e u w u e 0 w 2 0 t e e w 0 0 0 0 0 0 0 y y 8 8 9 r r w 8 8 8 8 8 y r r w k u y 8 8 w w 8 w w ; r 8 8 8 0 r r 8 y y 0 y r 0 - 8 r r ; 0 9 @ 9 0 0 t y 0 - ; 0 y y - w w 0 9 y 0 y y 8 0 w 0 8 w w - 0 q $ W t.C E I F z +   O O # w e q e e y z < * yXk.W.K.. F t H u e y e e H e u H H t F A u d X.r.LXLXLXLX",
"LXLXLXr.o < < < < - 5 0 0 < @ < < 8 7 5 8 9 - 2 q % x./.z.q.: H u n y u y w       < t q 0 < 2 M A.M : & 0 7 r r y r y 0 8 8 r r 8 0 r 8 8 8 0 8 0 0 9 0 8 0 0 8 0 y y 0 0 0 9 ; 0 8 8 9 9 0 0 0 - 9 w 8 8 8 9 0 y r r r y 0 @ 5 + 0 y 0 0 y r 8 r w 8 8 8 9 ; ; w t r u 0 t < 0 e 0 e u w e w u u e e q 2 w 0 w - e - < D % c aXCXVXVXVXVXVXCXVXrXVXrXrXVXVXVXVXVXrXrXrXrXVXrXVXrXrXVXVXVXVXVXVXAXVXVXVXVXVXVXVXVXVXAXAXVXAXAXVXAXVXAXCX}.c > q e u y w 0 e e e 2 0 0 w w q w 0 z e 2 w 0 0 0 q 2 e q w w q 0 - 2 e e e l y 2 w A < % ] GXDXZXVXVXCXVXVXVXVXrXrXrXVXVXrXrXVXVXrXVXrXVXVXVXVXrXVXVXVXrXAXrXrXrXrXrXqXeXVXrXrXrXrXAXVXrXAXAXVXSXDXhXs % 1 < k y r w w < e u e u e e y y e 0 r 0 0 0 y y y y y 0 0 w r w w r r 8 w w r w r 9 r 0 8 r 8 r 9 0 9 y 8 0 9 8 8 8 0 w 8 y 0 9 0 0 0 9 - w y 0 0 0 0 y 8 9 8 8 9 0 9 y u y r w y 0 y r 0 y 0 9 w 9 r y r e w t e = B q.j Y J F z o       X < e t u e y y 2 * dXk.x.L.. F u u n y q 0 y u y u u A A F A e 1 W o.LXLXLXLX",
"LXLXLXr.= @ < < 0 @ 7 0 0 @ & < - w 0 0 0 - 9 w & * z.c.g.O.< u u u y e u y O     5 f y q < & e I.: & 1 r 9 S r y r 9 ; 5 8 6 r - w r - @ 0 9 5 y 0 t 0 9 5 8 8 8 9 0 0 9 5 8 0 0 8 5 8 9 0 9 0 w r y 9 9 - 8 8 y r r r 9 0 9 9 5 0 y 0 0 y y 8 0 0 8 8 r w r - 0 y y u t y 0 0 e 0 0 e y 0 w u e e e 0 : 2 0 w ; y w e D * ] MXFX0X0X1X<XqX7XeX<X7XqXeXeX<XqX7XtX7X6X6XqX7X6X7X<X6X7X7XqX7X7XqXqXqXqX6X0X7X0X0XqX7X7X7X7X6X8XqX7XtXtXFXmXv k d y y w w w w q 2 0 q e e u w w < e w 0 q e e w w w q e e e n e 0 w e w e z e w w u e : 2.KXBX%XrX1X0XwX2X1X<X#X1XeXqX8XqXqXqX7X7X8X8X8X8X6X8XqX0X8X8X<X0X5X6X7X7X5X8X#X6X,XtX7X5X8X8XOXOX5X=X-XZXKX:.% d e 2 e y e l w e u e w 0 e e 0 < 0 0 0 0 0 y y y y y 0 y 8 0 8 r 9 w 0 w 9 r 9 8 9 y y 8 w 8 r 8 8 0 y r - 9 0 8 8 - 8 r y 0 9 0 y r r y w y r r y y y 8 0 9 8 8 8 8 r w y e w y y y 0 0 0 r r w r w r w r r r u = W y.k n z u u o       # < r < w w 9 x & % MXE./._.  z u t u u q w n u u u f A H D D u q X.r.LXLXLXLX",
"LXLXLXr.@ @ < 2 & 0 r 6 8 @ 0 0 - ; 7 8 0 8 - w o % z.4.w.V 1 f u f u y t y #     @ u e e e 2 l I.o 1 w r r S r 9 9 8 8 8 5 9 r r y y r 9 0 8 8 y y r 0 0 9 8 8 8 8 8 0 0 0 8 t 0 8 @ 9 r 0 0 r 8 w y y 0 8 8 8 r - 0 0 5 9 y 0 0 0 0 r y 0 0 r 8 ; - r y z y r + w r 0 < w 0 < t < < 0 u < 0 e t q t 0 2 2 w w w 2 < w & * &.GX3XoX&X&X1X<X@X6X$X<X1X+X$XOX@X$X8X*X+X#X,X*X+X#X@X#X1X@X#X#X#X*X#X#X,XXX&XXX*X&X*X#X*XoX*XXX#X#X&X*X5XZXhXZ : 3 q y y w y w q q q e u u e w 2 < 0 2 0 e e y e e < w w q 0 e e e e q e e e e e q 9 4 : k.SX-X$XOXOX@X1X1X2X1X#X#X8X+XXX#X+XXXXX+X#X#X#X#X@X+X@X+X8X*X&X&XoX&X&X*X#X#X+X#X$X%X#X#X#X,XOXOX@X=X.XBXSX8.> 1 d e w e e q w w u e e q e 0 2 < < t 2 & r y 0 9 r 0 0 y 8 8 8 8 w 9 8 r w w 0 - 0 y 0 9 8 8 8 8 8 0 y r 0 0 0 8 w 9 y r r 0 0 0 0 r r y 9 8 - r y 0 0 r t 0 8 0 r 0 8 ; w y 0 0 r 0 8 0 r 0 r r r w r ; u t t y o B y.4 n u u u -       o 0 t & 0 w y x & $ kXE./.J.. u u w e D y y u n H u H y A H H f & ..o.LXLXLXLX",
"LXLXLX_ < o < 0 @ 0 r 0 7 @ < 2 < < 0 8 0 r 8 - & % x.c.K.| & f n n u y u t O     @ e 0 e n 2 3 Y.4 3 @ t r r 6 r 8 2 9 k y r 7 y r 0 t 0 9 8 0 9 0 0 0 y r 0 0 t 0 0 y 0 8 8 8 0 5 8 9 r y 9 0 - w r r 8 9 y y w ; 0 0 8 8 0 0 y 9 8 0 9 8 9 w y 0 9 w r y r 9 @ 0 0 r 5 t 0 < u 0 0 0 y - w w w 0 0 2 2 2 t w y 2 2 q # > >.mX:X<X&X6X@X1X&X<X,X<X+X7X&X-X*X+X+X+X+X+X,X1X*X&X&X&X4X&X&X&X&X&X6X*X7X<XwX*X<X&X*X*X<X&X6X<X<X&X7X&X*XCXmX] * g d e e k u u u e e w q e e w 2 w 0 2 w q e w w 2 2 e e 0 0 q 2 3 e e e q q w q l y < : 5.GX3X1X1X1X,X*X=X-X-X+X$X#X@X*X*X,X,X,X*X*X<X*X7X<X*X*X+X*X*X*X-X*X1X-X&X=X<X9X6X#X-X=X<X&X+X#X8X1X1XOXBXGX:.4 : $ n e q 2 w w e e u w < w 2 0 2 2 0 0 < y y 0 8 r r w y w 8 9 0 0 9 w w 0 0 0 8 0 t 0 9 r 8 r 2 - w y y w w r 8 w y y r 0 0 0 0 0 9 0 8 w - 0 0 0 9 9 0 0 8 8 9 y y r w 0 t r 0 w 0 5 y r 8 w w 9 9 8 8 r y t t X W y.o u A t A =         0 t t e e y y & % sX8./.P.. G A u e w y t 0 u n u F t H A L H a ..+.LXLXLXLX",
"LXLXLXr.< < < < + 5 r 7 0 0 0 < e ; w 0 w r w 2 : $ z.iX).| $ y u n u u A r O     + u 0 0 e & 3 Y.: 2 - r 8 ; y y w < 9 r 0 r r y ; 8 0 0 8 8 t r 0 9 0 w r 0 8 9 8 0 0 t 9 8 9 0 0 9 0 0 0 9 @ 9 w w 8 w w r y 9 w r r 9 r y 0 0 y r 5 - 0 r 0 y r r r w w 8 8 0 t r w 0 y e e u w 0 0 y 0 2 w w 0 0 w 1 3 u w w k k u q : &.|.wX0X&X*X@X,X-X*X=X=X*X-X1X1X<X=X-X=X*X%X&X<X<X=X-X&X&X-X1X<X-X=X<X%X4X,X<X6X*XoX&X=X&X*X&X6X&X4X*X*XXXVXGX&.* d e e k y y u e u w 2 w w e w w e e e y w < 2 w w u e e e e u q w e e e q w 3 e e A 3 i >.mX-X#X#XOX1X+X-X%X5X0X5X+X@X&X*X*X,X<X=X<X,X&X6X&X<X<X6X<X=X<X1X6X=X%X4X-X2X<X=X=X6X2X1X9X6X,X1X1XeX8XrXZX>.% a & e e t z l z e e e < < < w w w 0 e w w y y r 8 r r w 9 r 2 8 0 8 w r r 0 0 9 8 9 8 8 8 r r r 9 8 9 y y y y r 8 8 r w 9 0 r y 9 8 0 8 8 8 r u 8 5 0 0 y 0 9 8 0 r y r y 0 0 0 r 0 0 0 y ; 8 8 8 ; w 9 w 8 r r A = W p.: D A S u =       X 0 t q u e 9 y < * sX6./.).. u y F q 0 u w 0 u u u H u A A H f a +.+.LXLXLXLX",
"LXLXLX_ o - < < 0 0 r 0 & 0 0 < < @ 7 8 0 8 - < t % d.k.g.V & n e u y u u y       @ f 0 2 e o 3 ).4 8 0 S r 6 r 9 ; 2 2 0 9 7 r 0 8 8 9 9 8 0 0 y r 0 0 8 8 8 8 8 8 0 r 0 0 0 y 8 0 0 0 0 y 0 8 r r r 9 8 8 8 8 8 w r w t y y 0 0 y 0 8 8 0 y 0 r 9 w 8 8 9 0 8 0 0 @ 0 8 t 0 0 e w < 0 0 q w w 2 9 w w 3 3 e w 2 k & & 1 i $.;XwX-X&X&X*X*X7X,X5X*X*X=X6X*X-X0X0X<X<X-X%X1X0X=X0X<X<X<X2X9X2X6X6X6X&X&X+X6X0X9X<X<X*X6X&X,X-X&X8X0X#XtXGX&.% < k 2 2 k t q 3 q q w 2 e e w w y e e u e w 2 e l e < < 0 q e w w w e e q e q e l t $ i 2.SXNX1X#X8X,X*X5X5XwX5X+X,X*X&X%X&X%X*X6X&X+X*X6X=X6X=X*X*X#X*X*X8X8X*X7X0X<X*X8X9X*X*X9X:X=X&XOX1XqX8XVXGX9.% q n 1 t u w e l y e z e u w e q q e e w 0 r y 9 w r w - 9 y 9 - 9 8 r w 9 r 0 0 9 8 9 8 0 0 0 y 0 ; 0 y r 9 r r w 8 8 8 w 0 0 0 0 8 0 w r 8 0 y 8 8 0 0 0 t 0 9 r 0 0 r w r r r r r r r r 0 8 w 8 w ; r y y y A y : W 0.: D A A A o       o e t 0 q q r k q % kX;.W._.  w y y t w e u u u y u u u t t t e % W X.LXLXLXLX",
"LXLXLX_ o - < - 0 0 0 & 8 @ @ @ - 0 0 0 0 - 0 0 & % g.x.g.| . n w e y u u y       o n q w b o : Y.; < w r r r 6 ; < w w - @ 5 r y y 0 8 8 0 0 9 8 8 8 8 8 ; 8 0 8 r y r 0 8 9 0 8 r y 0 r y y 0 0 w 8 8 w r w r - r 9 - 0 0 ; 5 9 8 8 0 8 8 9 w r w 8 w 8 r w w t w 0 w 0 e 0 0 w w - w < z y r 2 w y e 3 q e w e e 1 g q h :.;XBX5X7X*X7X*X6X&X-X*X*X+X=X0X&X*X<X<X7XwX=X9X0X&X9X<X=X*X=X*X<X<X$X*X6X*X+X*X*X*X6X&X6X,X*X&X<X,X9X+X5XVXhX&.o q y e 2 y e e 3 3 e e w e e 2 2 e w e e q 2 w w e t 0 q 2 2 2 q e e q e e l l n e g % h E.bX:X1X1X*X+X5X:XoX%X%X<X,X6X<X*X&X<X6X=X6X*X6X-X<X*X*X*X7X8X7X*X5X5X+X*X*X0X5X6X*X6X@X%X=XwX,X,X1X1X#XAXGX>.% * e n q y e w z 2 w e 2 y e e y 0 q 0 w < ; w w y y r w r y r r - w r r w y y y t 0 0 0 y 0 9 y 0 8 0 y y - w r 8 - 9 8 w 5 9 0 8 9 0 y y 9 ; 0 0 8 9 5 0 y 0 0 0 8 8 r y t 0 7 r 0 w w 8 y y r 9 w 9 9 y 0 0 r 8 = W X.1 L A A A @       X w y q q 0 9 w : % lXk.uXK.O w H w e y w u H u u u u u t A u y > W +.LXLXLXLX",
"LXLXLXr.< @ < 0 < 0 < 0 < & 0 @ < @ @ 0 r ; w w < * _._.g.| o w d u t S z r   .   o y w y y < 1 I.o < e y 9 9 8 9 w w < 8 y y r 8 0 r 0 9 0 0 0 ; @ + 8 0 8 9 0 r r 9 - 8 y r r 8 r 8 8 8 y y w 9 0 r 9 8 0 w 0 9 5 w t 8 8 0 0 w r 8 8 y r - r y 8 8 y y 0 8 9 w 0 0 0 - - 9 w w w e < w 0 q < r w 2 2 w e e e e e l e & p 6.{.VX*XXX*X<X<X*X4X<X6X<X<X,X*X7X<X<X,X<X*XoX+X,X<X*X,X&X&X,X,X*X*X*X0X&X&XwX<X+X&X,X<X6X,X,XqX6X<X-X<X#XVXbX&.o 2 3 b l u q e b b < 2 3 x y 2 2 w e w w e q 0 < 2 2 2 w w 2 e e e 2 w e 3 e 3 2 0 8 3 i 6.bX2X1X1X=X@X=X0X1X<X0X<X,X,X,X<X6X,X,X@X,XqX6X<X<X+X#X,X*X5X6X#X#X#X=X+X+XXX,X@X7X7X,X,X=X&X1X8X2X=X+XVXBX>.4 q e z u e l e q w w e e e < y q w 2 0 q e k y y w w 2 w 8 r y y r r w 9 r 8 0 y r r r w r w y r 8 8 y y 8 0 y y 0 0 9 9 0 t r 9 0 w w 8 ; 9 0 5 9 u y 8 8 y 0 9 0 9 @ 8 0 t 8 8 u u 0 r u y 9 0 9 5 0 y 0 ; - 9 y # W 0.o t S F z &         0 t 2 e 2 ; w & % lXQ.(.K.o y u u u u e u u f u u u y u H f e & W +.LXLXLXLX",
"LXLXLXr.@ @ - & @ & 0 0 0 0 0 & 0 < 0 0 8 w - 2 & % K.W.g.O.o u e d A y y 9       + u w A u & 1 I.o < e e r 9 r 8 0 e 0 r y y y @ 9 0 9 0 0 y 0 0 8 0 8 8 9 8 8 - 9 8 - 8 0 8 8 8 w w 8 8 r 8 9 9 y 0 0 8 0 9 0 0 5 0 0 8 0 y 9 9 r 8 - r 8 8 r 8 8 9 0 0 9 0 0 0 0 0 0 0 ; w y w w < 2 < w e w z e 2 2 e e z n u q e e & * :.{.BX6X*X%X&X-X<X<X<X<X,X*X&X*X,X,X7X,X#X*X<X0X<X+X,X,X,X*X<X<X,X,X=X0X<X*X,X*X=X*X<X&X,X,X,X*X+X<X2X<X8XAXbX] . e 4 j e e 0 w e l 2 2 e e e w 2 e e w 2 e e e 0 w q e e q e y l z e e e 3 e e e e y * % 8.NX2X4X&X&X%X=X<X-X&X<X&X+X*X,X6X,X,X@X,X#X+XXX@X7X<X,X6X5X*X6X,X,X<X6X,X,X6X<X+X+X,X6X+X9X<X,X7X9X%XXXeXGX>.= k n e e 2 e z e e q e e w < 2 0 0 < 0 w w y w 9 9 9 9 2 9 r w 9 w w y w 8 8 0 0 9 8 0 9 - w y y w r w w 8 8 0 9 8 0 0 0 0 y 0 0 0 r 9 9 - 9 0 0 y y w 8 5 9 8 0 0 8 9 0 9 u r 8 9 8 8 9 y 0 0 0 0 0 0 r 0 w - 9 r o Y t.& u u u z o       + 0 t q e x y w 1 % sXf.k.z.  w w e t w w y u u u u u y t u t t 2 W _ LXLXLXLX",
"LXLXLX+.o < 0 < @ - 0 q - 0 r < < 0 7 r r ; 8 - * i K.k.l.q.o n e e y S x 9       o y w A t : 1 Y.3 4 w w 9 r 9 0 0 w w 9 r r 9 8 0 0 0 0 y y 9 9 0 r 8 8 t y 8 8 w r w 0 0 0 ; w r w y r 8 8 8 0 0 0 0 0 9 0 9 0 8 9 0 0 y y 0 8 w 8 8 9 - 8 y 8 0 y 0 0 0 0 y 0 0 0 w 9 2 r k w e 0 w < 0 < w y e 2 4 w e e e q 2 2 e q i ;.[.wX=X&X*X*X<X9X0X=X<X,X&X,X7X<X<X6X,X*X@X*X<X0X7X0X7X7X&X&X*X*X<X6X&X+X<X*X*X0X0X0X*X,X*X,X#X,X0XwX&X&XBXbX&.$ q 3 b e t q e l l e e e 2 e e y e l w 2 w e e q w e e e 2 2 e l l e e e e e e e e H 3 % E.NXwX-X1X5X5X6X*X4X4X,X<X@X,X@X,X*X<X,X@X<X7X&X&X6X6X<X6X$X+XqX7X<X*X<X7X6X,X@X6X,X$X,X6XoX*X&X@X=X9X7XrXZX7.* q q < z n e e e e e e w < e w e w 0 0 2 < w w w ; < 9 2 ; y w w r y y y r r 0 8 0 w 9 0 0 - 0 y y 9 8 ; 0 8 0 0 8 8 0 8 0 0 0 9 0 w w r 8 @ 8 0 u y r 9 8 0 0 y 9 0 0 y 8 w 0 9 @ ; 8 y 0 0 5 0 0 8 8 0 8 w - 6 r o R e.< A F z z <   O   + 0 y q y e y x : % uXW.W.).. F y y u e w y e u r t y y y A u e 3 W X.LXLXLXLX",
"LXLXLX_ < < 0 0 @ 0 0 0 < 0 0 0 0 0 0 r r 9 w 2 # i z.f.g...: n e u S y x 9       @ w - t u & 1 Y.2 < e w 9 9 r 0 8 - 0 8 8 9 9 0 0 0 9 r 0 0 - 8 r 0 8 8 y y r r y r y r 0 0 8 9 8 8 y y w 8 r y 0 0 y y 0 8 t t 8 9 0 0 r y 9 w r w r 8 w 0 r r y r 0 0 r 0 9 0 9 8 w y e y y < w w e 0 e 2 0 y e q e e e e w < u z 2 0 i 5.bXZX6X*X<X<X<X*X<X<X<X7X*X,X7X,X,XoX,X7X<X#X&X<X6X*X*X0X,X7X<X&X,X=X+X=XqX9X=X&XoX#X&X<X,X<X<X,X&X=X&X7XwX|.[ $ e j e d u e l e e 2 e l e y l k w l e w w u e w w e w 2 w e y y e 3 e e e e e e l u 1 % 7.nX2X-X-X6X*X+X&X0X0X6X7X8X6X6X<X<X,X6X7X&X0X6X,X,X,X<X,X7X8X,X*X*X#X*X&X+X,X6X6X*X*X7X,X9X6X,X7X9X=X#XVXnX7.$ b f < l u q q e e e q w 2 w e e e q e w < w r 2 9 w w r w y y y y y y y r 0 9 0 0 r 8 r y 9 - r 9 8 8 8 0 0 y r 9 9 5 8 8 8 5 9 0 r r w 0 0 5 0 y 9 0 t w 0 t t t 9 0 0 8 5 8 9 8 8 r y y 0 9 9 8 ; 8 w r 8 9 r r o B t.1 z x y l @   O   + y e w y k 9 x o % zXE.c.P.X y e u u u u u t u 2 0 w w y u u u 2 W _ LXLXLXLX",
"LXLXLXr.@ o - @ < 0 < 0 < 0 0 @ 0 2 r 0 0 0 w w $ % z.d.s.V 4 u b n u S u -       @ e 9 y z : d Y.$ : q w 9 9 9 0 9 5 < 8 8 9 r r 9 0 9 0 8 8 ; w 0 r 0 0 y 0 0 w r w 8 r 8 0 - r 9 w y y 0 0 y t 8 8 y t 0 9 y 9 0 8 0 0 0 0 0 9 w r 9 0 9 0 0 r 0 r r 0 9 8 r r 8 2 w y y y ; - 0 e e n e e e y e l e l u e e q f w 4 e i ;.[.BX*X%X,X<X*X&X*X,X,X6X&X&X6X*X#X6X7X7X6X,X<X*X+X+X#X<X&X<X,X+X#X%X<X6X&XoX*X<X9X<X7X,X,X*X0X<X*X-X<XrXVXhX] o e j j e q e e q 4 < e l e w e e 2 e e 2 y q w 2 e - 2 < e e y y l q 3 3 e l b e l u 1 p E.NX2X-X1X#X&X&X=X0X=X%X&X&X+X<X@X,XXX&X,X,X<X<X6X6X,X,X,X,X@X&X6X7X<X<X<X,X,X0X,XoX7X7X#X%X6X,X,X=X5X7XVX;X>.4 e e 2 l e e q e e e q w q < 2 w w e e e w r w w r w w e y y y r 8 8 r 0 8 9 8 w r 8 - w w 8 9 8 8 0 0 r 0 8 y y 0 w r r w 8 0 w w r 9 9 8 y 9 0 0 8 8 0 9 0 9 9 0 r y y y 9 5 8 0 0 y y 0 0 8 w 8 8 0 r w 0 w y r # B +.q H A z l -       + r e 0 e w 9 w < p lX3.4.K.X y e u y e y e y u t y t w w w y e 2 W X.LXLXLXLX",
"LXLXLXr.< o < 0 - @ 0 < 0 0 w < < < 6 0 0 8 9 w & % j.f.h.N & e e e A r x 8       + e y S z 1 1 Y.& < w r r 9 8 0 0 0 0 0 0 0 9 0 r 0 0 r r r w y 0 8 y r 0 9 0 r ; 9 - 8 8 9 y w 8 8 r w ; 8 0 y 9 9 0 0 8 0 0 9 0 9 8 0 0 8 8 8 8 8 w 8 0 r 0 0 8 y y y 8 0 u 8 - - 9 w y e 9 w 0 e q e 0 e e 0 0 3 3 w w e e q u 2 w 1 > 8.bX9X<X<X<X<X0XwX0X+X&X,X,X,X<X<X<X<X,X&X&X*X,X,X*X0X7X6X&X<X&X7X7X&X6X0X<X<X<X*X&X6X6X+X*X+X,X,X<X<X=X7XVXbX&.o e 4 3 e u e e e 3 2 l l w 2 w e w e w e e w 0 w e - 2 w w e e e l 3 e q e e e e e w 2 i 5.nXwX-X&X5X5X<X6X-XoXoX*X7X,X,X@X<X,X<X,X<X6X,X,X@X*X<X*X6X<X6X6X#X&X,X<X6X+X,X6X,X,X+X<X&X#X@X<X:X&X#XVXNX>.4 4 0 w z z z l e e q w q 0 < w q w q w w < e y y k y w w w 8 w w 8 ; 8 0 0 8 0 r r 9 8 ; r 0 0 0 9 0 y r 8 ; w 0 0 9 r 0 r r t r 9 w 8 8 w 0 0 0 0 0 9 9 0 r 8 8 0 0 0 y y y 0 5 0 y y 0 r 0 ; w y 0 y y r 0 w r 9 o Y X.1 H F z z @       + 9 e 0 e e 9 y : > sXf.f.P.o J u y t t w e u u e e t w t y y e 3 ( r.LXLXLXLX",
"LXLXLX_ @ & w w - @ & 0 - 0 r 0 < < 0 9 r 8 8 < & i j.x.l.C o e 2 q S y F 9       # w w y u @ 1 Y.& 2 0 0 0 9 r 0 w 0 0 8 r r 9 r r t r 0 r r t 0 8 8 0 y 0 0 0 w 0 8 w w 8 8 r 8 w 0 r 9 8 8 8 y 0 8 8 9 8 9 0 8 0 0 9 r 0 8 8 9 8 0 w 8 0 w 0 r 0 w r r 9 y y ; 9 0 8 ; w y w u w 2 0 q 0 0 0 0 2 2 2 w q e l e e < 2 q % 2.[.:X*X*X=X*X*X*X*X<X<X<X,X,X*X,X*X$XXX&X,X#X#X*X&XoX#X&X&X6X#X7X7X&X%X1X=X<X<X<X<X&X,X<X0X0X,X<X6X-X=X,XVX|.Z * n j j u e y l e e e e e 2 e e e e 2 w 2 w 2 < w e w 2 w 2 4 2 w y e q 3 e e e e l w 1 h 6.nX2X-X-X7X5X+X%X<X0X<X<X<X6X6X*X@X,X<X6X#X<X,X+XXX,X7X,X,X&X&X7X<X6X*X&X&X,X,X<X&X<X,X8X%X&X8X*X=X9X#XVXZX>.> e f n q e z l e e e e w w y e e e w 0 < < 0 w y k w 9 9 ; r w 8 8 8 w 8 8 0 y y r 0 9 w r 0 t y y y 0 8 8 - r 0 0 8 - ; 8 r r r w 8 8 r r 9 9 9 0 y 0 0 y y y 0 0 0 y y 0 y 0 0 0 0 r 0 0 8 8 r y w y y 2 < w 9 9 o m W & u u y e o       + 0 q q e y r e 1 % sXW.W.K.  u u e q w 0 e e u 0 w w t y y u f 4 W +.LXLXLXLX",
"LXLXLX_ o @ 0 < 0 < 0 0 @ & < 0 < - 0 r t 9 w < * % j.k.K.V   n w y F F F r     . + w - r y : q Y.: & 2 ; 8 r y 0 w 0 @ 8 9 r 9 w 0 0 9 0 8 9 w 9 8 9 y 0 0 9 8 w 9 r r 8 8 8 8 8 8 r 0 0 8 8 8 0 8 8 5 8 8 0 0 t y r 0 y y 8 8 w 8 r 0 9 0 y ; y 8 @ ; y u 0 @ @ 0 r w ; < - w 0 0 - q 0 e 2 0 0 0 4 3 w e e q q f q e & % 5.{.BX=X&X<X<X=X&X*X<X<X&X,X*X&X,X*XeX<X*X<X<X6X6X<X&X7X<X<X7XXX<X<X*X&X0X<X&X-X*X*X*X6X7X,X,X+X6X0X&X=X+XVX|.] * 2 3 j e w e e e e 2 e 2 e e l w - w 2 w 2 0 < 0 e w e e 2 - w w l l l e e e e e z y 1 i E.nX-X4X-X5X8X8X*X1X<X*XoX<X7X<X<X@XqX6X@X&X<X6X7X6X<X<X@X<X<X,X7X,X<X,X,X,XqX<X,X+X&X<X<X=X&X7X6X=X9X+XtXZX>.$ : q u q n q q w e l e e w 2 w q w < < 2 w ; ; 9 w w w - - 9 w 8 8 8 r r ; 0 r 0 0 8 r w r r r y u 0 @ ; r - 9 r - 9 r 8 w 8 w 9 w 8 8 8 w 0 t 0 0 t 0 9 y y u y r 9 t u 9 0 8 8 9 0 0 0 9 0 8 - 9 9 r r 8 0 0 r 9 : Y X.1 y y x u @     O X 0 t q y l y y & % zXW.W.l.o u w 0 0 w t u y e 0 w y y A u u n : W ( LXLXLXLX",
"LXLXLX/ & & < < < < @ @ 0 0 0 & 0 & 7 r y e w w & % z.x.K.V & f 3 e t S y y   .   X y 8 r 0 1 a I.o < 2 - ; 0 y 0 0 0 0 8 0 y 9 8 8 8 9 ; 8 0 0 y r 8 ; 8 0 0 8 8 8 9 r 8 8 8 y 0 8 - 8 - 8 0 0 r 9 - ; - 8 8 0 - r y r 0 y y ; r w - 9 - - ; 0 y 0 r 8 8 r - 8 w r w y w w ; 9 u e w w q w q e y w 4 2 2 e e z e e 2 2 q i ;.[.:X1X+XoX<X<X9X<X&X9X6X<X6X*X7X,X<X6X7X7X6X,X*X<X<X@X7X7X7X,X7X<X<X0X<X&X*X=X<X<X<X*X+X<X&X,X&X<X=X<X*XAXmX[ $ u 4 j e e w l l 3 < 2 k y e y e e y e k l w - < w 2 w ; w w 2 w F e 2 b e e e e 2 u : % 8.nX<X4X&X+X@X0X2X<X<X,X<X<X#X+X6X,X,X@X6X6X@X*X,XqX&X6X*X*X,XqX<X7X+X1X,X*X+X*X6X6X6X,X*X0X<X,X,XwX=X@XVXZX$.o = y e < e e e e e q 0 w e w e w < < 0 e e w - 9 9 w w ; w 0 y 0 y y y y 0 8 9 0 r y 9 @ @ 8 r w 9 8 w r - 8 0 r w 8 8 r y 0 0 0 8 ; @ ; r 9 r 0 9 8 0 y 8 8 ; 8 0 y 9 8 0 8 9 w 9 r y 0 8 @ 9 r 0 0 y y 0 q 2 y r - Y +.o u u w z +       + y t 1 e e 9 y 2 % _.k./._.. F e w e w w e u f e y u u y t u u 3 W / LXLXLXLX",
"LXLXLX( < < < - 0 0 0 < 0 0 0 0 < @ 0 0 9 ; - w 7 i K.k.K.| 1 u 2 q r r 9 9     . o x w r 0 & 1 I.$ & 2 8 8 r y w 0 0 w 0 w y r y r w - @ 8 8 8 w y y w 8 0 r 0 r 0 0 0 8 8 8 y 0 8 9 - ; 8 0 0 y r y w 0 8 8 0 8 - w 9 9 y u w r 8 9 w 0 8 0 r r 0 r - 8 y 0 ; r w ; 8 ; e y w e y e q w e e w y l e 2 e e e e t e w 2 & % ;.{.ZX<X*X&XoX&X,X7X*X<X,X&X,X*X7X6X,X@X*X,X<X<X*X#X,X#X@X<XoX&X#X+X.X<X<X=X0X<XoX*X<X7X7X7X<X6X<X,X9X2X*XVX|.v o l j 3 e t e 2 w 3 2 l l 2 e l e e 2 w y e q w e e 2 2 e l l e w k 2 < l e e e l q A : % 6.nXwX:X1X+X*X&X&X1X2X<X+X<X<X,X,X@X@X,X6X*X8X6X+X+X@X6X,X+XXXoX#X8X<X,X,X,X,X*X*X*X0X,X6X%X%X+X,X9X=X+XtXGX>.> l m u f u u u n e e e u e w e q 0 < q e w 9 2 2 r y e y w r 0 0 8 0 0 9 8 t 0 8 0 0 9 9 8 0 9 r r w 9 w r 9 0 r r y w w r y 0 8 9 0 0 8 - 0 t y y r y y r r 8 0 0 0 0 9 y 0 8 w w r r 0 8 9 0 0 0 0 r y w 0 ; r 8 = W e.& A y 2 z o       + 0 t < q w ; w > % uXf.W.z.. F u y y e y u u u u t y y u u u u 3 E X.LXLXLXLX",
"LXLXLX/ @ < - 0 0 @ @ 0 < 0 0 @ - < 0 9 8 ; 8 w * % _.W.g.v : z 3 z u A F y X     + z 8 r w < 1 Y.: & < 8 9 9 9 0 0 w t 0 0 r 9 y w 0 8 9 9 0 0 r y y y 8 9 0 y r 0 0 9 8 8 0 y y w 8 9 8 9 y y r w w r 9 8 8 8 r - 8 r 0 r r r 8 8 r r 0 0 0 u 0 9 0 8 9 y w w y w < w w y w w 0 0 q 0 < e w < - w 3 2 0 t w e e f e e q i ;.[.BX*X&X2X&X<X-X<X0X2X0X<X,X&X,X,X*X,X,X,X+X#X6XeX<X&X&X<X&X6X6X,X*X*X<X<X*X<X0X<X6X<X&XoX,X7X7X*X%X*X,XCXbX] $ n b b f u z e e b w 3 l e e z l k w 2 e y e w e e e w e e w q e e q q l e e e n e y 2 s 7.nX2X2X1X6X5X%X*X1XoX<X<X<X8X6X<X,X,X6X7X,X@X<X<X,X,X,X6X6X6X*X6X6XqX<X6X*X7X8X&XXX<X+X+XqX7X@X1X%X=X#XVXZX>.$ 2 f u z w q e e 2 2 q e 0 e e w 2 2 w 0 - w 9 0 9 w k y e y r 9 8 0 0 8 5 r 8 8 0 0 0 y t 8 8 8 r 9 - - y 0 r y y y w 0 8 r 9 0 y y y 9 8 0 9 0 0 0 0 0 8 w 8 9 y y 0 0 y y y r r 8 w 0 9 0 0 9 9 r r 0 0 w w r 6 = C r.< u y w u o       + 9 y q e e x y g % kXf.W.z.. 8 u u t w e u y y y e u t u F H u 3 W ( LXLXLXLX",
"LXLXLX^ o @ @ 0 & @ 0 < < & 0 0 < < 7 9 9 8 w q g * j.W.K.N < u q z S S x 9       # y 8 r t 1 1 Y.& : 0 r 9 r r 0 0 0 0 0 9 r 9 8 9 8 r w y 0 r 8 9 r 0 8 8 0 0 8 0 0 0 0 8 8 0 y r r r 0 r y 0 8 8 w 8 8 8 8 0 y 9 w r 8 w w w 9 w r w 9 8 9 y 0 8 r 9 - r 8 y w 9 9 2 9 w w 9 & 0 0 2 w w w < w e e w e e e n q q w q 1 > ,.[.BX#XoX<X<X0X0X0X*XoX+X+X*X6X&X@X7X<X@X&X#X1X&X&X7X6X6X<X<X<X6X&X<X<X0X<X<X<X2X7X+X&X,X,X<X&X,X<X9X0X,XVX;X] $ q , 1 e u e e e e q e e e l z z y 2 e e 2 e w w w e w q 2 ; e z e 2 q e e q 2 3 w e 1 s 6.:X-X-X4X5X5X<X<X0X2X<X+X<X@X&X&X<X,X<X6X,X<X7X<X,X7X<X,X#X6X<X6X@X@X+X@X7X&X+X0X6X0X&X,X<X,X@X,X9X6X#XVXZX>.* < u e l w q e e q q u e 0 w e w 0 2 w < < - w 8 2 9 w y 9 r r y r y 0 0 9 0 ; 0 y 5 9 w 9 8 - 8 0 0 - 9 r 0 0 y 0 r 9 8 8 @ 8 0 y r 0 w w y 0 0 t r 9 8 0 8 8 w y y 8 0 0 y u y 0 8 8 y y 0 8 8 0 r 0 8 8 0 r r r < Y e.& u F e u + .     + y y e e y r x & * sX2.c._.o y n u u u u u u u e y F z u t u f 3 Y _ LXLXLXLX",
"LXLXLXE o o < 0 - 0 0 < 0 < r 0 < < 0 8 0 0 r 0 1 * z.W.L.C & e 3 u t S y r       # l 8 r y < 1 I.o < q w r 9 8 0 0 w r 5 9 y 9 9 9 0 0 0 0 8 @ 8 0 0 8 8 8 w - r 9 r w r 9 - ; y 8 8 w 0 9 0 9 9 8 r 0 0 8 w 9 y w 8 y r w 9 9 9 y 0 y 0 5 0 0 r 8 0 r 0 8 ; e ; 8 0 0 ; w - 2 q 0 2 e w < < w w e 2 2 e w w q 0 q q 2 : % 5.{.wX*XoX+X<X*X<X&X0X<X0X,X*X7X,X6X<X<X<X6X6X6X7X7X+X+X,X@X,X,X7X<X0X2X-X*X&X*X-X7X,X,X7X<X6X&X,X*X2X<X#XBX;X] : n 4 j d y e e q 4 e e e e e l e 2 w e e e w 0 2 w w 0 e e 2 l z 2 3 e e e e e e b F : i 2.nX3X1X*X#X@X*X5X3X0X,X&X&X+X,X7XqX,X@X+X6X<X7X<X@X,X,X<X+X<X<X<X<X,X,X,X6X6X7X<XoXeXqX*X2X<X<X6X0X=X+XeXGX>., e e q < l e q e z n z e e w e q 0 0 e y e w w ; w 9 - ; w w 8 r w 0 r 0 0 y 8 y y 8 ; 0 8 w w 0 0 0 y r r 9 0 r 8 8 8 9 0 8 9 0 0 0 8 r r y r 0 r 0 8 8 0 9 - r r r 8 - 9 y y r 8 9 0 y y 0 ; - r w 8 8 - ; w 9 9 & Y t.& u y y z #       + t e t e y 9 w 1 . uX3.k.P.. u z u D u u y u u w w u D u t u n 3 W ( LXLXLXLX",
"LXLXLX/ @ @ - @ @ - < 0 & < 0 0 0 - 5 9 0 0 9 < . % _.x.g.c : n 3 n A S x y .     # l 8 r w & > I.o : 0 ; w 9 9 t 0 0 0 8 9 9 r 0 0 0 9 9 5 0 9 9 8 0 0 r r 8 w r w 8 w 8 w 8 w r 8 w r 0 0 0 5 - w w 9 8 8 w w y 8 9 y y w r w 0 0 y y 0 9 8 9 0 5 0 0 9 0 ; r 8 8 w - - - y y e 0 0 y e < 2 q w 2 < 4 3 w 2 q e f l l q i 5.[.:X<X<X=X0X<X<X=X&X,X0X<X@X6X,X7X0X<X#X@X<X<X,X@X,X6X6X<X+X#X+X,X<X+X<X0X<X*X<XoX7X,X*X#X<X6X<X+X-X<X6XAX{.] * e k b H n u n b e e k e e z y e w 2 w e w 2 w q w 2 2 e e e y w < e b l e l n l z F o i 6.NX2X:X6X7X#X6X-X&X*X*XqX7X7X<X@X@X,X8X<X7X+X#X<X6X@X#X7X,X,X&X+X<X<X<X&X0X#X<X0X+X+X&X*X9X=X,X+X=X-X,XAXnX$., q e q : e q 2 q e f e 0 2 2 q w 2 < q q 0 ; w y w y w e y y w 9 8 0 0 0 y 0 0 t y 8 - 0 r r y r 8 0 y w ; 8 0 0 8 ; 8 0 w y 0 0 9 8 r r 8 y r 8 8 8 ; 8 8 w r 8 - - 8 w r 8 0 r r 0 y t 0 0 w 9 8 9 w 9 w e r 9 r o Y u.& y S y z #       O w u e y k 9 w 3 % uXf.k.K.  A u u u u y q w e w 0 y u A n F e 3 W r.LXLXLXLX",
"LXLXLX/ @ & < < @ - 0 < 0 @ 0 & < 0 0 6 9 0 0 & & % z.k.L.V 3 z e u r r 9 y .     X y 8 y t : 1 Y.$ = 0 9 9 y y w 9 0 0 8 0 r 9 0 0 0 0 r 0 0 t 0 w w r w 9 r 9 r 0 8 8 w r y r r 9 r y y 0 0 @ 8 r r 8 8 r r 9 r 8 0 r r y r 8 r 0 0 y 0 0 8 8 0 0 r 0 0 0 9 8 0 9 w 9 w 0 w y 0 0 < w w 2 w w y e 2 e u z z n z e w e q % 6.].:X=X&XoX+X*X2X<X<X<X*X*X,X6X+XXX#X,X6X7X<X*X,X6X&X<X,X<X,X,X*X<X&X<X&XoX<X-X+X0X&X,X<X<X<X<X<X,X-X=X,XVXgX] $ J 4 j n f e e b e e e y l u k y l e 2 w w e e e w w 2 w < w e w e q l 2 w q l 2 e u < h 5.:X:X-X9X5X5X=X*X1X0X<X+XXX,X<X<X<X<X,X+X,X,X@X<X<X0X6X,X7X<X,X+X<X<X<X@X<X+X#X*X6X7X,X+X6X<X<X*X=X%XoXrXZX>.j 3 e n q e e e l e e e e q w w w 0 2 w 0 < 9 - 2 w e y y ; y w r w 9 8 0 0 8 8 9 0 w 0 y y w 9 w 8 8 r 8 8 9 0 0 8 8 0 r w y r 0 5 8 0 0 0 z y y r y 0 0 r w r 8 9 8 9 8 r - 9 y w 0 r 9 8 0 0 r 8 8 0 w - e y r y o m t.: u A k z @ .     + 8 e q u k x y q > uXf.x.).. P z u y n u y t e e w t t u F z u 3 W r.LXLXLXLX",
"LXLXLX^ o @ 0 0 - 0 & < 0 0 0 & < < r 0 9 8 8 1 & * g.k.K.| < n n z S y 9 x     . X w 9 y 0 & : I.o = w w y y y w w 0 w w y t 9 0 0 r 0 y 0 0 9 8 0 9 8 8 w 8 8 8 8 8 8 8 w 9 8 r 2 r y r r 9 @ 8 9 w 8 w r w - r w 8 0 8 r 0 8 r 0 0 0 r 0 8 5 ; 0 y 5 0 y r - 0 w - w w ; - < 0 w e q w q w w y e q 3 e e e e e e e e 2 $ 6.].BX<X<X<X&X9X<X<X&X&X#X,X#X*X*X7X,X,X@X@X*X,X<X<X,X#X<X<XqX6X<X<X%X&X*X<X<X<X*X<X6X&XoX*X@X@X@X7X2X6X,XVX|.] . e j 3 e u e w 2 q n l l l u e e e z e q e e u e 0 2 w 2 w l e 2 e q e < 3 e n q u t : i 5.:X2X&X*X+X*X*X=X<X,X<X@X,X,X#X<X,X<X,X,X<X6X@XqX6X<X<X6X+X,X,X#X*X<X8X6X+X,X6X+X,X,X#X&X*X<X*X6X:X5X+XtXnX>.4 4 e q z w e z e w 0 e e 0 2 w q w e e w < w 9 ; w w y w - - 8 9 r t 8 9 8 0 0 9 0 y w 9 r 8 8 9 r r 8 8 0 0 0 r 0 9 t 9 w r y t 8 8 0 y y w r 0 0 9 0 8 8 r 0 0 8 w w w w y y r 8 0 0 9 8 8 0 r 8 8 0 0 ; w 8 r y o m C.o y x y z +       @ 0 0 < w 2 9 9 > * _.3.c.P.. F u y e u f y w e u u F H u u H n : Y r.LXLXLXLX",
"LXLXLXE + < 0 5 0 < 0 w w 0 0 @ < - 0 t y r w - & * ).k.g.N < z q z y y y u +   O + w < w t & 3 I.o o < 0 0 r 9 8 0 0 0 0 r y 9 8 8 8 9 8 8 8 0 9 0 8 8 8 - 8 0 8 8 r r ; 8 8 w 8 9 0 8 8 r r w ; 9 0 0 8 8 r y w 0 8 0 r ; w 0 8 0 0 0 9 0 0 8 - 9 0 8 8 r w w 0 0 0 e y e y 0 < e e < < 0 w < y w 2 w e e w w 2 2 e e b % 2.{.BX<X&X1X=X9X6X<X<X7X,X,X<X<X9X<X<X<X#X*X<X<X#X&X6X&X7X&X&X+X+X7X7XqX6X6X*X,X@X6X,X@X7X*X<XqX0X&X-X+X<XeXbX] $ d j 3 f u e l e e l l l e q e 3 2 e 2 0 e e q e e e w w e 2 - w e e z e e l l 3 z z 2 % 6.NXeXwX,X,X@X*X%X+X-X&X7X&X&X<X@X7X#X,X,X<X7X8X&X*X,X@X<X,X,X,X<X,XXX,X7XqX<X<X<X6X<X+X,X<X<X@X,X9X=X*XVX;X:.> 1 u q w n b q q e e q l e w e w 0 w u e 0 0 - 0 - ; w e ; y w w y 9 - r w 8 9 0 9 < 8 8 0 8 r r w 0 8 8 - w 8 0 y y r 9 - ; y 0 - r - ; 8 w w 9 w y r 9 r w 8 9 0 y y 0 9 0 0 y y y 9 0 9 8 0 w y w 8 0 r e 8 r y X m t.o u u y F +       + 9 q 0 < 0 x y 2 % sXx.c._.. y e u 0 q u u e u w y u f n u u n 2 Y r.LXLXLXLX",
"LXLXLX^ @ & & @ < - 7 0 0 7 0 < ; - 0 0 r 9 9 < : % K.c.l.V : e e z t t e e O     + q & w 0 < 3 I.o < 2 0 0 9 9 0 0 0 < 9 0 9 9 r 0 0 0 t w 9 8 0 0 r 0 9 8 9 0 8 8 w 8 0 0 0 9 - 8 0 8 8 w w 9 w 0 0 9 8 8 9 w 9 8 8 w r r w y 5 0 0 9 9 0 8 8 0 r 0 8 - 9 9 8 0 0 & 0 t 0 e e 0 w 0 < < q q q e 2 w 3 2 e e e q : w w 2 % f.[.ZX&XoX0X0X*X+X,X6X+X,X,X<X6X&X*X0X7X6X0X<X7X<X<X,X,X,X&X&X7X<X,X*X*X+X,X<X6X<X<X6X&X6XqX&X&X+X<X<X&X8XCXmX[ o q b b n u u l d e e e e e e e e w q w q q e e 1 0 u e e l e e e 2 e e e q 3 l j e z 1 i 5.nX2X3X1X<X*X6X6X0X0X1X,X7X7X<X<X0X<X6X<X0X6XoX#X&XXX@X7X6X@X,X,X,X,X,X+X#X*X,X+X&X<X,X*X0X6X8XqXwX=X+XVX:X$.: e n b 2 3 < < 3 e e e e - w e w 2 0 e u y w w w w 9 w y w w w y r 0 w r 8 r r r r r 8 9 0 8 r 9 w w 9 r r y r 0 r r 8 8 0 w y r 8 y y - 0 9 r r 8 w r y w - 9 0 8 0 t r t 9 y y 0 0 r y 0 5 8 0 0 9 w r z 2 ; 9 y = m e.o A A u u + .     X w e e e y x r & > lXW.W.z.  F y y e y u y e t e u u u u u u u 3 Y t.LXLXLXLX",
"LXLXLX^ @ 7 0 @ - & 0 0 0 5 5 @ < w 0 0 0 0 - < @ % g.c.K.| o w u u y y t w O     + u < w q < 2 I.: 2 q w 0 9 r r w 0 < 8 0 0 6 0 8 8 9 9 8 8 8 t r w r r y 0 0 w 8 r y r w w w 8 8 0 8 8 r 9 r 0 0 0 0 w 8 0 y 8 0 r 9 0 0 r w 9 0 r 0 7 5 8 5 0 r 0 9 - r r w 0 e 0 0 0 < w 0 q 0 ; w w w 0 0 w w w 3 3 e e n e 3 z z & > 5.].:X=X%X&X&X6X,X+X0X<X*X6X9X6X<X<X&X#X&X<X#X,X6X<X7X7X,X6X<XqX6X,X,X<X6X6X,X#X+X,X*X+X*X6X+X*X&X<X0X1X,XrX{.] : n 3 j n e e e 3 d e e l q e q q 0 2 q e q e e e w y l l w w e e 2 e w l l 2 e b e F 3 i R.nX2X-X<X*X#X&X=X<X2X*X,X<X,X*X,X,X,X<X,X+X6X,X6XqX<X7X<X<X,XqX<X@X6XqX6X<X<X,X7X7X*X&X<X=X&X*X,X:X5X*XVXGX>.: : e e q l 2 3 q w w e e ; e u e w 0 0 e y w w 0 8 w y w r w w w 9 - y y 8 y r 0 y w 0 8 8 8 w w r r - - y 9 8 ; 8 8 9 w u w r r w r y r 0 9 w 8 - - y y 8 ; 0 0 ; ; 9 r r 8 0 t 8 8 0 y 0 r 9 0 0 8 r w e r 9 r y o B e.: y S u z #       X w q t t w u 9 & % kXf./.).. u n u y u e w e e w w y u u y u u q Y r.LXLXLXLX",
"LXLXLX^ o 0 < & 0 0 0 8 @ 0 0 < 0 8 7 7 9 w w < & % g.x.L.| o e e w r t w 0   O   + u & 0 0 < 2 I.o 2 w w 0 0 r r w w 0 8 y r 9 8 9 t 0 8 8 0 y r 9 0 0 r 0 y 0 0 9 w r r r 9 r 0 0 9 0 8 w 0 8 8 5 9 0 r r y 0 0 r r w 9 8 8 ; 9 0 0 0 0 9 0 0 9 0 0 8 8 w y r y y w w 0 < t 0 0 0 2 q e w 3 0 y e q q e e e e d 3 l n : i 5.].BX1X<X<X*X9X<X&X&X<X+X#X&X+X=X%X&X*X,X<X&X*X,X*X<X,X#X,X*X#X+X*X@X,X@X,X<X6X<X,X7X<X6X*X,X7X0X,X%X2X8XAXbX] > e , j n u e l e e e e b e e e e q 0 e e e y e e e e e e - 2 y e w w q b z 4 2 j e w : i 6.;X0X1X>X+X@X<X9X0X<X&X+X,X,X&X6X,X,X,X<XXXqX7X@X,X&X<XoX@X@X6X6X6XqX&XoX6X7X&X+X+X#X6X6X=X<X6X#X>X=X+XBXNX>.> 1 u d b b e e e 3 2 e l e w e u e 0 q e w 9 y w - 2 9 - w y 9 y w w r r ; 0 0 0 0 9 - 8 w r 9 - r w 9 8 9 w w 0 0 0 8 8 9 9 w y r - 8 9 9 0 r 8 8 w y r 8 8 0 y 8 - 8 w r 8 0 0 8 8 9 y y y t 0 9 8 8 9 9 w y r F = Y e.: t S y z +       X w t 0 0 0 9 y : * sX2.c.P.. H H u y e 0 0 t t w 0 u u u u n n 2 B r.LXLXLXLX",
"LXLXLX( & & 0 < @ @ @ 7 7 0 8 < - - 0 9 8 w 0 2 & % l.4.l.O.o e e e r t w 0   O O + e & r 0 & : I.X : 0 9 8 9 r 0 t 0 < 0 0 r 0 r y y 0 8 8 0 y w 9 8 8 8 0 r 0 8 0 0 8 8 8 9 w y 9 9 0 w r w - 0 0 8 9 w r 9 8 9 y r r 0 0 0 0 r 0 0 0 0 0 9 y 0 0 r w 8 9 8 0 w y w e 0 0 q w y e t e w w w e y e q q e l e u 3 l w e q > 6.[.BX<X<X2X*X*XoX#X*X*X7X*X&X<X&X1X,X7X<X,X<X<X*X,X6X6X6X<X<X,X0X<X&X,X,X#X,X6X<X,X+X+X,X<X6X&X,X,X<X=X@XVX;X] . e j j b e n n e 3 e d l q e e z e q e e 2 0 e q 0 e l e 2 w 2 w l q z l q e 3 3 l u 3 h 8.nXVX3X-X5X5X*X-X%X*X*X=X<X<X+X8X<X7X<X*X,X&X6X,X<X<X6X7X6X<X*X@X#X6XoX6X+X<X,X6X0X7X6X&X&X<X<X,X:X9X*XtXnX:.4 4 q e e e 2 3 d e e u e 2 2 q e e q w q 0 w y w - w - 8 w w w 8 w r r 9 8 0 9 0 0 0 9 8 9 y w 5 8 9 8 - r r 0 0 0 0 0 8 @ y w y y r 0 w r 8 - 9 w r w 9 8 0 0 0 y 0 0 0 0 r 0 0 9 9 0 0 y 0 0 9 0 8 w w - - y r 9 o m r.$ r y y u o O .   + z u w w r y y & p lXf./._.  H u u u u w w e w e e e u u H H n 4 K r.LXLXLXLX",
"LXLXLXE & 0 < 0 0 @ 0 0 0 < 0 @ - < 0 8 8 8 w < 1 * _.l.P.V o z u u y y q t O     @ e < t q & 2 I.o o < 8 8 8 r 0 0 0 < 8 0 9 9 0 0 0 9 9 0 8 8 0 8 w 8 9 w 9 r 8 9 r 0 8 - 8 r 0 8 8 r r t r 8 y r r 8 8 w y y 0 0 0 0 0 9 0 9 0 0 0 9 8 8 8 0 0 0 r 9 w 0 9 8 r w 0 w q 0 0 0 e t 0 q 2 < < q w 2 < 2 3 e u e d e 2 e q % ;.}.BX2X<X<X&X6X<X6X6X,X<X<X*X&X=X0X#X<X,X,X<X<X&X,X<X@X,X,X7X,X,X,X*X6X0X,X,X,X,X@X,X,X+X8X&X,X6XrX2X<X,XCXmX&.* e j k f e u z e 3 q e e 2 q l l q 2 q e w q e e e w k y e l w 2 y z n e 2 n n e l u & % 6.;X2X4X-X*X*X&X=X=X*X*X&X+X6X6X6X&X+X+X6X6X+X<X,X7X,X+X,X@X<X6X7X<X<X+X0X<X,X@X,X<X&X#X*X9X6X,X7XwX5X@XtXNX:.: 2 e q b 3 q e e e e e e 0 w w w < 0 0 0 0 w w ; - 9 - ; 2 w ; 8 y w 8 w w 0 r r y t 0 0 0 y 8 @ 8 8 0 r y 0 0 5 9 0 y y r y r w r y w 9 8 8 8 8 y y 8 - r 0 8 9 0 y 0 9 0 y 0 9 0 8 8 9 r 0 0 r 8 w r r w w w r y X m 0.o A u r u # O     + u u e e r 9 x 1 p vXf./._.  F t u z n u u y w y u y e u f z H 3 Y r.LXLXLXLX",
"LXLXLX^ @ 7 0 0 0 < 0 w w 0 + & - 8 0 8 8 8 y 2 q * z.c._.C X H z z t A e e O   O # q 2 y t < 2 I.o & < 8 8 8 9 w 0 < < 8 8 9 9 0 9 8 0 0 w 0 8 8 0 w 9 w r 0 0 8 0 w r w 8 r w 8 0 9 0 r r 8 9 0 0 r 8 w y y k 0 0 0 0 9 8 5 8 9 8 8 0 8 8 8 0 0 8 0 w 8 r w r 0 w 0 q t < < @ w w 2 0 < 0 2 w r w 2 2 3 w e u e 3 u z q % ;.].BX*X%X&X%X<X*X7X7X7X#X<X<X&X0X0X,X7X6X<X,X,X*X&X6X+X&X,X6X,X+X,X&X&X,X,XqX7X7X6XoX,X,X7X6X<X+XoXoX1X8XVXmX$.$ e j , e q e l q 1 l e e 2 0 e e 0 q w w e e e e u w z e w y e 2 e n n e e b n b l H 2 i 6.;X1X4X4X5X5X*X*X*X<X0X6X6X7X+X@X7X7X,X,X6X@X6X&X6X8X7X7X7X,X,X,X,X&X&X&X,X7X7X,X,X0X6X,X<X,XXX<X9X-X8XVX:X$.> e n n n e n l e e w e e w w w 0 2 0 0 0 e w 9 9 9 ; - 8 9 - ; w r 0 9 r 8 0 w y y y 0 0 r w 8 8 8 0 r y y y y 0 0 9 0 9 8 0 r - 9 y r 8 r 8 8 8 r r 9 < 8 0 9 8 9 r w 0 8 9 0 0 9 0 0 0 0 y t y r 9 r w ; e y 9 u = Y t.o A S 0 u #       X y w w u w 9 x $ > sX2.f.K.. F y u H u H u y e y H y t n u y H e Y +.LXLXLXLX",
"LXLXLX^ & 0 < 0 < # + 0 t 0 5 - - < 9 @ 9 r y e q i z.k.z.N : n e z u t e z O     O 0 & u w o 2 I.o < w w 0 9 9 w 7 @ 0 0 8 5 9 0 r 0 8 5 5 8 8 8 9 r r 8 8 8 - 8 - 8 8 9 8 8 - 8 8 0 w 0 8 8 w 0 y y r r r y r w 9 9 0 0 0 0 0 8 @ 8 9 0 8 8 0 r r r r 0 8 8 8 & 0 < 0 w 0 0 < w e 0 w e e w w x l e 0 2 2 w e e 2 e u 1 % f.[.BX<X-X<X<X6X+X&X,X&X<X*X<X<X*X&X,X,X<X6X&X6X7X<X<X,X7X,X,X0X<X7X<X,X7X<X7X@X,X6X<X6X,XoX&X&X6X<X%X@X,XVXmX] . n l j f u z n l b e l q 2 q l z q e e q e q < 2 w w z e = 2 z e z l q l l 2 3 l e u 1 h 6.nXVX2X&X*X8X7X6X=X+X,X1X,XqX*X@X6X<X<XqX6X,X7X&X,XXX,X<X@XXX<X6X<X+X7X+X7X<X<X#X#X&X+X6X<X6X+X7X9X%X#XBXnX>.p b q 2 l n e q e l e e e e e q q w q w t y 2 ; w e w 2 y w - w y r - 9 r - 8 8 9 9 y 0 0 r ; 0 y 0 r r w 8 9 0 0 9 0 0 0 8 ; r w 8 y - - y r 8 8 - 8 r w 8 r 0 0 8 0 y r 8 0 t y 0 y t y 0 9 y y r w r y w y w y x o C y.o t S w u #       X y & < u y 9 x & % uXf.W.).. u u H u t y e w t 0 f y w n f 0 n q B ( LXLXLXLX",
"LXLXLXT 0 < < 0 - - 0 5 0 7 8 < - ; < @ 5 8 0 < & $ l.f.z.V < e u u t r t w O     + q < t t o 3 I.: < < e r r y 0 t 0 0 8 8 r 9 0 9 ; 5 8 5 9 r 0 0 ; w w r 8 8 8 8 r 0 r y r 9 8 r u y 0 8 8 0 9 0 0 r 8 8 8 8 9 0 y 8 8 r 9 y y 8 8 r y r 8 8 y 0 0 0 0 0 r t w 0 8 - 0 u u u 0 w e w q w 2 q 0 e f l e e u z 3 3 e e e > E.].BX<X9X0X0X1X*X+X6X,X#X&X0X<X7X2X&XXX+X6X,X#X+X#X<X<X,X+XXX+X#XXX6X<X7X6X<X6X<X6X,X+XeX<X6X<X*X<X0X1X8XrX{.] * e 4 j b u n l e 3 e e e e n u q 0 2 q q e q w e q 2 w 2 e w w e z e w 3 2 q e 3 < w 4 % 5.;X0X-X<X6X*X+X%X2X*X<X+X6X,X6X7X,X0X+X$X@X7X@X6X7X7X<X6XqX,X,XqX,X<X0X<X,X&X*X,X*X*X<X<X*X*X<X+X<XtX6X0XGX>.: e 1 2 m b 2 q e e e e l e e u w 2 t u e < w y w ; w ; y z y w r w r y 9 - 9 t 9 8 8 8 5 0 8 8 9 r 0 0 0 5 5 8 8 8 8 9 0 8 0 y t 8 8 0 r 9 8 9 9 0 0 9 8 9 t r 0 y r y ; 0 8 w y w y y w 8 w 8 r 8 ; 8 y w - r r y o C e.o r y u y +   .   + y e w y t F y & % uX2.x._.  u u y n H e < 0 0 0 t t e u y u 2 2 W _ LXLXLXLX",
"LXLXLXT & @ @ @ - @ @ 8 < 0 0 0 < < w r r 0 w w & : z.Q.K.| o n w w t w 0 w O O O + e 0 t e - q I.- < 2 w 0 8 9 0 0 0 < ; 8 9 r r 0 0 0 0 0 9 0 r y y r 8 8 8 w r 0 9 w 8 w w r 9 0 y y 0 0 8 9 t r 0 8 8 5 0 r t r t 0 0 u 0 9 r 8 8 w r - ; 8 y 0 9 r y 0 9 0 t t 0 0 0 e q < < w 0 < 0 0 w u u 0 2 e e 2 w e e q e e e % 6. XBX&X*X*X4X%X7X0X&X6X<X9X<X+X&X*X,X,X*X&X<X7X7X<X,X,X7X7X,X*X,X,X,X@X@X+X+X*X*X<X,X+X@X+X@X6X,X<X%XoX,XCXbX] $ : j j 3 e z e q 3 q l b e q 2 2 2 e t 3 w q q 2 0 e e e y l w 2 2 2 q e e l b l e w 1 i 5.nX2X4X=X$X*XoX<X<X1X<X<X6X,X<X<X+X+X&XqXqX<X+X&X+X,X<X&X,X,X#X*X&X,X,X<X*X6X6X,X*X,X*X+X0X<X#X6X%X-XoXVXZX9.: 3 d e e 4 l e e e w 2 < w w e w 0 w w w 0 w y w w e w w - 0 ; 8 8 9 - 8 - 8 0 0 8 0 8 0 0 0 0 0 y r 0 8 0 8 0 8 y y 0 y 0 9 0 0 8 r t 8 8 @ @ 9 t t 0 0 t y y 8 9 8 r 0 0 8 8 y r 0 0 9 0 r 8 8 w 8 - 9 - 8 9 9 y . m t.& A F u y #       X u u e y u F y & % kXW.W.P.. H u u u u w < 0 e 0 w w u H u H e 1 Y ( LXLXLXLX",
"LXLXLXI 7 @ @ @ - - @ - @ 0 0 0 - ; r r r 0 0 < : > l./.K.... u z u A t e q O     5 y 2 y e < 3 I.: < 2 0 0 0 9 0 0 r 0 9 8 r r 0 0 0 r 0 0 0 0 r y r r 8 w r y 0 0 8 2 8 8 8 8 8 0 9 0 y r r 0 y 9 9 @ @ 8 9 w 0 0 0 9 y y r 0 0 8 8 0 ; 8 8 w 0 0 0 0 r 0 9 0 w r < 0 0 w 0 @ w w < < < 2 w l z w 3 e b l e z d 3 2 0 1 % k.].BX$X%X=X&X-X6X&X*X6X*X<X*X*X*X<X,X0X6X#X*X@X&X7X<X*X&X,X6X6X<X,X7X7X6X<X,X*X<X8X<X8X,X<X+X@X@X,X9X-X,XVX{.] > n b b e e u l e e 3 e e e e 0 2 e 0 < < 2 t u e e e w 2 w w 2 w e q e z e l l j e u : i R.>X2X2X1X+X*X1X9X1X%X4X,X@X,X7XqX6X<X,X*X,X*X7XqX,X<X,X,X,X6X6X,X,X<X,X6X,X*X*X6X7X6X6X7X&X*X*X,X*X%X&XBXnX9.> 4 n e e n d 3 3 3 w q e z 2 0 2 0 w w t 0 w w w w y 9 9 ; - 2 9 w 8 w 0 8 8 0 0 9 9 8 0 0 y y r 0 0 0 8 9 0 0 0 y y y y 8 0 8 8 0 y 0 @ 5 0 0 9 0 9 0 0 y y y 8 w w r 8 8 ; 8 r y 9 8 8 0 y 9 8 r 0 0 8 - w w r 9 X m t.* A S u y #       X y f u e y z y & > kXW././.  F y u u u w 0 t e e 0 2 u n f u u 1 K ( LXLXLXLX",
"LXLXLXI < & 0 < < @ 0 7 0 - 8 & @ - 5 0 9 0 - < * % g.c.l.q.$ z n n F u u e O     + t 2 t w - 3 I.o : q 0 0 y r 0 0 w w 0 0 0 9 9 8 8 9 0 0 0 0 - 8 w 8 8 - 9 y 8 8 9 9 8 8 8 8 0 8 8 8 0 y 0 r r 0 0 0 9 0 0 0 9 8 t 0 w r 8 r r 8 8 8 w 8 0 r 0 9 9 0 y y r 0 w w 0 < w q t < 0 q 0 0 w < 0 q - w e e e l e w b e z l u % 8.].ZX&X<X6X<X6X6X*X7X7X&X*X1X<X<X=X7X<X<X<XqX7X<X6X<X6X<X*X,X,X<X,X,X<X,X6X<X,X<X,X6X6X@X7X,X7X7X<X-X<X,XVXbX] . e l M n z n e d n e e e 3 u e e l e q 2 0 e e e t e e w w 2 e e l e e e b l l j e u & p 6.[.2XwX1X5X5X0X9X<X+X<X<X1X,X+X#X&X<X6X,X,X*X,X,X<X7X&X7X*X@X6X,X#X@X<X<X,X*X*X<X6X*X#X<X*X*X*X8XwX,X8XVXnX7.> = e n b 3 n e 0 2 2 w w e 0 2 0 q e e 0 w ; w e y w ; w w y y y r r r y r 8 y 0 8 0 0 9 0 y 0 0 0 0 9 0 0 8 9 0 0 0 0 y 8 8 9 8 9 r 0 0 9 y r 0 0 0 8 9 0 8 r w r w y r 8 8 w y y y 8 8 y y 8 8 r w r 9 w w y y y = B t.o u y y y +         w u t t y F y $ % uX3.(.iX  y t u y e y t 0 e w 0 & y u y u e 1 m ( LXLXLXLX",
"LXLXLXT 0 @ 0 0 - & 7 0 5 @ 7 < ; < 0 5 9 w 0 < # % z.x.z.C o z w q u y u q +     @ t < 0 q & 3 I.o 2 0 0 9 y 9 0 0 0 0 0 8 9 5 5 8 8 8 9 9 0 0 9 0 0 8 8 8 8 r 8 r w r 0 8 @ ; y 0 0 0 0 9 0 0 w y r y y r 0 9 y y y y 9 r - w w 8 ; 8 - w 9 r r r 0 r 0 0 0 0 t w 0 < 0 0 0 0 < 0 0 q e w w e - w l q 2 e e w b b z e q % 5.].wX-X<X-X*X&X*X,XoX#X+X&X<X,X<X<X&X*X6X#XoXoX<X6X,X<X<X,X,X<X,X,X+X,X#X*X*X+X#X+X<X7X6X<XoXoX*X*X*X7X+XwXhX] * n 3 c z u e e e b n e 3 w e e w q e e e e e w e e w k z z e e e e e e e e l b l e u 3 > 6.;X2X4X<X7X#X&X%X0X<X<X<X#X*X,X6X7X*X&X*X,X@X,X@X6X6X&X,X6X,X7X6X6X<X6X<X<X6X*X#X*X*X*X<X7X7X#X7X=X5X6XVXnX>.j 4 e e e 2 u l e 2 q e e 2 e 0 w q e w 0 < ; w w k w ; w y e w r r w y r 9 0 y 0 8 9 0 9 8 0 9 0 0 0 9 9 0 5 8 9 0 0 0 y 8 5 0 0 8 8 0 0 0 8 0 0 y y r 8 ; ; 8 w r r y w 9 9 0 r y r 8 9 r - 9 0 - 8 r 9 - w w 9 y o C t.: F A u u &       X 9 w w 0 y x r o % (.3./.iX. 0 e u e y u u 0 0 0 0 0 u u y n H d M E LXLXLXLX",
"LXLXLXT & @ & 0 @ @ 0 0 0 0 0 - w w 0 0 0 0 - < 1 % x./.P.C o u e 0 t t e 0 O     + q < t 0 = e I.o : 0 0 9 9 8 & 7 < 0 0 9 9 9 8 0 0 0 0 0 5 0 0 0 0 8 8 8 9 r 8 r r y t 0 9 9 y y r 9 8 9 0 0 y 0 w r 0 0 8 0 u 0 0 0 w y 8 8 r 8 0 8 w r w w y y r 0 8 0 0 9 t w 0 & 0 q 0 0 2 0 2 2 e 0 < q w w e e 3 2 e H d e w 2 1 % k.[.NX<X<X1X9X*X#X,X6X7X7X<X2X*X<X<X,XoX,X<X0X<X<X+X<X&X+X@X<X,X&X7X+X&X@X,X,X<XqXqX<X,X+X*X7X<X0X*X4X0X,XVXmX[ o e j j e e n b q e e e e q e e q e e e e e q t e e < 2 e e e w e y e e e e l n b l z q i 6.:X:X4X6X+X#X6X5X4X&X&X0X6X6X<X#X&X+X#X,XqX*X<X,XXX@X7X7X<X&X,X#X7X<X+X,XXX*X,X0XqX7X*X*X*X,X#X,X=X=X5XwX:X:.c k q 3 l 3 2 q q 2 3 z z w w q w q y e e 0 y w 9 y y w - - w w 9 0 9 y y < 8 0 r 8 0 t 0 9 r 0 0 0 0 8 5 8 9 0 0 0 r 0 y 8 8 0 0 8 9 0 9 0 9 0 r 0 r 0 w - 8 8 8 8 r y y y w r w 8 9 w < 8 - r r 8 8 w 0 - w w r y o C t.q H S u y #         w 2 & 0 y y 8 $ > kXf.W.U.. y t u w w u u e 0 q e t u u u u f q n ^ LXLXLXLX",
"LXLXLXT & 5 < - @ - 0 w 0 7 8 0 < - 0 0 0 8 - < < * l./._.q.: J u y A u u q O     + 0 2 w q @ 3 I.o : 0 0 0 8 8 0 0 0 q 0 y r 9 8 9 t 0 0 0 0 9 0 9 9 0 0 0 w 0 8 0 w r r r w 8 r 0 0 0 0 0 r y 0 9 ; 8 8 @ 8 9 r 8 9 0 y y 8 9 0 r w r 9 r r r r r w ; 8 9 8 8 w 0 0 0 0 w t e e t 0 w q 0 < w w < < 2 3 e e u 3 q u n e % k. XZX<X*XoX,X*X*X,X&X&X+X&X=X*X<X0X6X#X*X+X*X+XqXrX,X,X@X*X,XXX#XqXqXqX7X<X,X<X,X<X&X&X,X,X&XoX+XoX2X0X<XVX|.] . n b b b e n n e 3 3 e e q e q e l f z b e w 0 2 0 < w w ; 2 e l l b u b e l l l l u 4 s 6.{.2X9X=X&X#X%X*X1XqX<X,X,X<X6XoX,X7X7XqX6X+X#X6X<X,X7XoX<X,X,X,X6X7X@X,X0X*X&X*X*X#X*X7X6X+X#X7XwX&X#XVXNX:.> 1 b e 3 4 e e d q w e e 2 0 e e w w u e 0 e w - y y < 8 ; 9 ; 8 8 8 w r w ; r 0 8 0 y t 0 0 0 9 0 0 8 5 9 0 0 0 y r y y 0 8 0 0 9 t 9 8 9 y 0 0 9 8 0 9 8 8 8 r - r y z w - 8 8 w 0 w w 8 8 r w ; r r - 9 u x 9 y o m t.3 A y y u #         w 0 t w y u 9 & i kXE.c._.. y u e w w w e y w w u y u u u u u q M ( LXLXLXLX",
"LXLXLXI & < 0 0 @ 0 0 0 0 0 8 & - - 5 7 5 ; 0 e & $ d.c.g.C . n e w t y y w O O   + q 2 w 0 # 2 S.o < 0 t 0 @ 8 t 0 0 0 y 0 9 y 0 y t 9 8 9 t r 0 0 8 0 0 0 8 ; 8 8 ; 8 w r r r y y 0 0 9 0 0 y 0 0 0 0 9 @ 8 0 9 8 w w y r 8 0 - 8 9 w 0 9 8 w 8 0 8 8 8 0 8 8 t w 0 0 e e e y w w 0 q e w 0 e z u e 3 e n u < 2 3 e e e % 5.T.ZX1X<X<X-X*X6X6X6X0X<X6X*X&X+X=X6X7X7XXX,X&X&X+X,X7X6X<X6X,X@X,X@X@X,X,X<X6X<X6X7X<X7X6X&X&X<X0X9XoX&XVXbX] * q j j n z z e 3 e e e 3 3 e e w q q q e e q e e e 2 e e l z u e w q e e l 3 e e e w 1 h 6.;X2X%X%X5X-X6X+X-X*X+X&X,X*X6X&X,X*X+X<X<X<X<X6X6X#X,X,X,XXX*X<X+X7X<X+X*X6X7X7X<X6X6X*X6X,X*X5X%X7X,XVXNX:.> : n 3 3 n b z z e e q e e q e e w 0 0 0 < w y ; w w ; - w w e w 0 9 9 w r 8 r 0 8 0 y 0 9 r 0 9 0 0 8 8 0 9 0 0 r 0 0 y 9 y 8 5 0 y 8 @ 0 8 9 0 t y r 0 8 @ 8 y 8 y w y ; 9 w r 8 8 r r r 8 0 8 8 w 0 ; w w 9 r u o m t.q t S u u @       O e e u y u F e : * (.d.Q.).  u t 0 u y t u u e 0 w e u u u u e a b ` LXLXLXLX",
"LXLXLXY @ 0 0 & @ < w r 0 0 5 @ - - 0 7 0 < 0 @ & % K._.a.c & w e w t y u e + O O + t 1 y y o 2 Z.X < e 8 9 8 y y r r 0 w 0 8 ; 0 8 5 8 9 0 0 0 9 0 r 0 8 0 0 0 8 8 8 0 9 8 8 w r 5 0 y 9 @ 8 @ 8 0 0 0 9 0 0 9 8 r w r 8 w w y ; 0 8 8 w 9 r w 8 8 9 0 0 8 0 0 9 u y - 8 2 w 9 e 0 < 0 e e e w w w e d e e w q b e 2 2 2 % 5.T.BX&X<X=X2X6X<X+X&X+X*X6X0X=X&X*X,X*X7X<X7X<X*X@X6X+X,X,X7X7X,X7X@X,X1X,X&X*X&X&X,XoX*X,X6X7X,X6XwXoX@XVX|.] $ e b k e l u e 3 q l q 3 3 e l e 2 2 0 f e z 0 q 2 e w 2 e e q 2 q q q e b n 3 3 e w 3 > 5.NX2X4X2X*X5X6X*X9X<X7X<X6X@X<X*XeX+X+X7X<X<X*X,X,X,X*X@X7X7X<X@X*X6X7X8X,X@X&X&X0X<X*X7X9X+X,X6X2X9X&XVX:X$.: e e e b n 3 e e l z n e w w w q w 0 0 0 0 8 w w 0 0 e y e t w 0 0 0 0 0 e 8 0 r 0 8 9 0 8 @ 8 0 9 8 9 0 y y 8 8 y 0 0 8 9 - - 8 w r 8 r w 0 y y w w y r w 9 0 8 8 8 r r w ; 0 w 8 r y w 0 w 8 8 8 r y r - 8 0 y 9 o m e.: 0 y u z +   O   X y u e t t y z : % kXf.W._.. t y u u u u t q 0 q < 0 u f u u n e n K LXLXLXLX",
"LXLXLXT 7 & 0 @ @ 0 0 0 0 0 7 < - < r 0 0 2 0 < & . g.x.z.| : z u u A t u e O     + e 0 t t - 3 I.o < r r ; 9 y 0 y w < - - 0 ; 9 0 0 0 0 0 r 0 0 0 0 5 0 y 0 5 9 0 0 8 0 5 9 0 9 @ 8 0 9 0 r 0 9 0 0 0 9 0 0 0 r 9 8 8 8 r r w w r r 8 r y r w 8 0 0 y 0 8 8 8 9 y k w w 9 - - y 0 < < 2 w < < 0 e e 2 < e z 3 l b l l 2 : 8.T.BX-X<X&X&X+X*X,X7X,X*X,X<X6X<X<X*X@X7X6X6X@X@X6X6X+X<X,X+X<X7XoX7X7X,X8X<X6X,X,X,X6X,XXX*X6X+X&X=X*X<XVX{.v o n j , q z n l b b e e e e e e e e e e e e q 2 e q y 2 2 w 0 2 2 e e e 3 l e b 3 e H : i 6.;X>X2X2X<X6X#X+X1X<X*X7X,X,X6X&X@X7XqX<X<X+X<X7X@X,X7X,X+X6X<X,X7X6X,X<X,X7X+X7X*X,X+X6X0X*X<X&X=X=X#XVXnX:.$ l n b e 3 w q 2 e e e e 2 e e e w q q 0 0 < w 0 < 0 0 0 & 0 0 < - < 0 e e 0 0 0 9 5 8 0 0 8 9 0 0 0 9 0 0 9 8 8 r 0 9 0 y 9 9 r y r 8 w r 0 r r r r r w 9 w 8 8 0 8 w r y r r w 9 w 9 0 ; 8 9 0 8 w r w - < 8 r 8 o m t.4 y y y y #       O y f y u w 9 9 $ % sXf.Q.).. F u u u e w 0 w w y 0 0 u n z z f q b E LXLXLXLX",
"LXLXLX^ 0 @ @ @ @ @ 8 7 & 5 @ 0 2 - 0 t 0 2 0 r 1 % z.j._...o e e q y y u u + O   + q 0 0 q o q I.o - w 9 8 8 9 0 u y < - 8 r 9 0 0 0 0 0 0 9 0 8 9 8 8 0 0 0 5 0 r 9 0 0 9 5 0 0 0 0 0 0 r r 0 t r 9 8 0 0 r 9 y y 9 8 8 w w y 8 r r w w r w 9 8 8 y y y 0 8 8 @ 0 8 9 w 9 2 w n y w e e w e w w e e < 2 u n q q 3 2 k 1 % k.].CX1X<X-X*X&X,X,XoX,X<X&X&X<X<X<X@X,X6X@X,X<X6X<X6X6X6X<X,X<X,X+X*X<X*X,X,X6X6X0X6X&X<X,X*X*X*X6X=X9XeXAXhX] = l b b b u n e e b e e b e 3 q q e e e 2 q 2 q w e e e e y e e e e e e e 3 q b M e H o i 5.|.4X2X1X*X8X*XoX&X0X*X,XXX<X7X6X,X&X#X,X+X<X,X@X6X<X,X6X,X+X+X@X,X6X6X@X,X<X+X,X<X@X*X+X0X<X7X,X9X=X*XVXBX>.$ 3 f e e 3 e l e e q e 2 < w q q q e y u e w w w w w w < - & 0 q 0 0 e y 0 8 0 0 8 0 8 8 5 0 0 0 r 0 r 0 0 0 0 0 0 8 5 0 y 8 w w r w ; < 0 0 8 0 9 r 8 - 8 9 w r w 8 8 8 8 w r r w r w r 8 - y y r 8 8 w 9 w 0 9 9 o Y u.: y u y w +         y z t w r 9 9 $ % sXf.!._.  u e u t 0 0 t e w u e y u u n F y q n Y LXLXLXLX",
"LXLXLX( 0 & < - 5 o 0 w 0 @ @ 0 - ; 5 0 q 2 0 0 & * z.j.P.q.o z e w y t n t +     @ q 1 q 0 @ 3 S.o - 2 0 9 9 9 0 w t 0 < w y w 8 9 0 9 0 9 0 r @ 9 w 9 0 9 0 9 0 0 0 9 0 0 8 0 y y 0 5 0 0 8 ; y 0 8 0 9 0 0 8 0 t t 9 8 9 r r 9 0 w 8 9 r 8 w 8 8 0 w r 0 9 8 y y 2 9 w w y x u e w e w e e q y e q d u e l l 3 3 2 2 2 $ 5.T.BXoXoX4X<X9X<X,XqX&X+X,X0X2X<X0X7X+X#X<X6X,X@X6X@X<X@X,X<X@X#X,X6X*X#X,X,X7X,X#X,X,XqX6XoX*X<X@X2X6X,XVX|.] o e c b e l e e 3 d e e e e e e 2 2 t e 0 e 2 e q e l y e l l z e l 3 e l 3 e b l 2 y 1 h R.nX2X:X1X5XoX6X,X0X*X#X7X<X,X+X,X7X6X@XeX<X,X,X,X*X,X,X@X6XqX7X7X7X<X@X6X&X#X0X,XqX,X7X,X+X@X,X@X:X-X$X9XBX>.> e e 3 q l e e e 3 q w w w w w 0 w e u y e y e w 0 w e w q w y w < @ 0 e t 0 9 8 8 8 8 8 8 y 0 0 8 0 y y 0 y y t 0 0 9 0 0 8 8 r r 0 8 ; 9 9 8 8 t y 8 8 8 y y y r w 8 8 8 9 w y r r y w r w y y r w 9 8 w 0 w r 9 = C C.3 z y z z &       X u u 0 0 9 y r & i kX2.Q.).  u y e e 0 q y e w y e u y y u u e e b K LXLXLXLX",
"LXLXLX^ < 7 0 @ < @ 0 w 0 @ & 0 0 ; 5 5 < < - 0 1 * g.d.l.| o n e u A A u e O   O + t < t e o 2 I.o < w r r r y 0 0 0 < w < w 9 9 9 r 8 5 8 0 0 9 0 t t y r 0 9 0 r 8 0 0 0 9 0 9 0 0 5 8 0 8 ; 0 0 0 9 0 0 8 0 9 0 t 0 9 0 0 0 8 w 8 8 9 w 8 r ; 8 8 8 8 8 w r u y 9 8 w 9 8 y w 0 < 0 w 2 0 0 u 2 2 u f q w e e j k l q * 2.T.CX1X<X<X6X*X&X#X+X6X0X,X&X<X0X<X<X<X<X<X,X<X*X,X<X<X<X<X@X<XqX7X<X<X<X6X,X,X*X,X*X6X6X*X*X6X*X*X9X=X#XVXgX] . b k 4 e n n e b b e e e e q q 2 < q e e l q e w e z k 2 w w e l e 3 e l e b d 3 l u 3 i 5.nX3X-X2XqXXX#X*X#X&X6XeX6X+X#X&X,X*X,X,X,X,X,X,X<X,X<X<XXX@X,X,X*X@X,XeX<X,X6X@X+X<X<X7X=X9X6XqXwX0X,XVXnX>.> b u q e e 3 e q e l e y e e e q e t q 0 0 0 0 < 0 0 0 q 0 w w y w 0 < 0 0 y 0 8 8 8 9 y u r 9 8 8 0 y y 0 y 8 8 0 9 0 t 0 r 9 r r w 8 8 r w - 8 y y 8 ; 8 0 8 0 r w r 0 9 w r y r w r 9 0 9 w 8 0 9 w w 9 - w 9 r o m y.: z u u e +       + t t 0 2 y y 9 o > dX;.W.).. H f u w 0 0 y y 0 < w y e q y n u 3 n E LXLXLXLX",
"LXLXLXI @ & 0 < 0 @ 0 5 0 @ 0 0 0 < 7 7 < = - 0 0 % z.g.g.V $ e w w t y e 0 O     + 0 < y e @ 2 S.o < w 0 9 9 y 0 9 0 0 w 9 8 9 w w r 8 8 8 9 0 0 0 9 0 w y 0 8 9 0 0 5 0 r 0 0 0 0 0 9 8 9 0 w 0 0 w y 0 6 8 0 0 0 0 r t y 0 9 8 8 8 - < 8 8 8 w 9 8 8 - 8 w r y 0 8 - w w - - t w q q e 0 0 q w t 3 3 e e e l e e 2 k 2 % f. XBX-X4X&X*X*X<X6X<X#X+X,X<X*XoXoX0X@X@X7X6X*XoX,X<X,X,X,X,X*X&X<X+X,X<X6X@X*X<X0X@X*X*X7X<X*X,X0X2X9X<XAXbX] . n 4 j l H n l e 3 b e b e 2 2 q l w q q e 2 q q z z e w w 2 e q 3 e e 3 l 3 e e b z 1 i 5.nX3X1X-X#XXX8XqX&XtX<X+X,X6XeX0X6X,X&X,X+X7X,X@X7X6X#XqX7X<X<X,X+X&X6X<X,X@X7X6X<X7XXXXX6X9X@X7X:X9X,XVXnX:.$ e u b l e b e e e e q w 2 w w w 2 0 0 0 2 0 < < 0 0 0 0 0 7 0 e e 0 & @ < 0 0 0 y r r y y 8 8 8 9 0 0 0 5 0 8 8 8 8 0 9 8 w 8 - w r 0 8 r 8 8 r y y w 8 8 8 - 8 8 0 r r r 8 w 9 8 8 8 0 8 8 - 8 8 w y y w 0 9 S 9 o M t.: F S y y #   O   X y f w e t y 9 o % kXf.!.).. A u e 0 @ < e u e 0 w e t 0 y z u q n Y LXLXLXLX",
"LXLXLXI @ @ < - & @ 5 @ @ 5 5 0 < < r 7 - < 0 0 . % x.l.K.V : z 0 0 t t e 0 O O   O 2 < t t @ 3 S.o < 0 0 6 9 9 y 0 w w 0 < r w w 0 r r 0 0 9 5 9 8 9 0 0 8 8 8 0 0 0 9 9 0 0 r 0 9 y y 0 9 r 8 9 9 0 r t 9 8 8 0 0 0 0 y y y 0 0 8 - 9 9 8 8 w r w y - 9 0 8 8 w y w w w e y w w q w w q 2 0 w 0 e e 3 0 e z e l 3 2 2 2 % f.].CX<X-X%X*X=X,X<X0X7X<X&X*X*X<X9X6X<X,X,X,X7X,X@X<X6X8X,XqX6XXX<X6X,X+X*X,X7X,X#X#X=X7X*X+X&X6X%X5X=X+XrX|.v o n j c l n n e 2 3 e b b e q q e q 0 2 e w w 2 e e y e l e e q q 3 e e l b b e b b t 1 % E.bX4X2X1X8X#X#X5X&X<X*X,X,X<X&X@X6X7X&X7X7X6X6X8X<X,X,X+X#X7X<X@X6X<X#X&XqX6X<X+X<X7X,X<X=X<X+X*X-X=X*XVXGX:.= 3 e e d l u b b l e 2 w e < 2 0 < < 0 w e q w w t q 0 0 0 e w 7 @ o < w y ; 8 r y w 0 0 0 0 0 y r y 0 9 9 0 0 9 0 9 8 8 8 0 8 ; 8 8 9 8 w 8 8 0 r r 0 0 8 8 9 0 8 8 r 0 0 8 8 - 8 8 w w r w 9 r 8 w r y y w w y y = m e.= A u y e # .     + y e e y y y 9 2 % dXW.yX).  H w y w < < t u e t 0 y e t e H z q n Y LXLXLXLX",
"LXLXLX^ 7 o @ 0 @ 0 w 0 0 w 0 < ; < 0 < < < 0 < & > P.l.P.N o n n e u t u y O   O o 0 < 0 q @ 2 S.X & 0 8 9 9 9 0 w e 0 < 9 9 8 8 8 r 0 t 0 8 0 @ r y y 8 @ 8 y 0 y w 9 0 0 9 t 0 @ w y 8 5 0 0 0 5 9 0 0 0 8 @ 9 9 0 8 8 8 8 9 y r w r r w 8 r y y y y r r w 0 0 y r ; ; w w w w 0 0 2 0 0 q e q q e 3 0 q e e b e l z 1 . 2.^.ZX<X<X&X&X&X*X*X@X,X,X,X<X0X<X&X<X6X<X8X,X<X,X8X<X*X,X+X@XqX6X8X<X6X<X7X,X,X&X*X6X6X@X*X0X7X#X*X5X*XXXrXhX&.$ 2 4 4 q e u e e b e e q e l e 3 2 q 2 e q n q e e e l y e 2 0 e e e e e l b b e 3 7 1 % E.;X.X2X2X*X5X*X*X5X*X#X=X#X,X,X<X+X7X,X,X,X,X+XoXqX0X@X,X0X7X,X+X<XeX7XoXXX,X<X<X,X,X+X8X&X*X#X=X9X9X7XtXNX>.: 3 d e q 2 q e l e e q e n 0 w w < 0 & 0 q e e w w 0 0 q e 0 w w 0 w y w & r 0 9 0 8 8 0 y 0 y y y 0 y 0 0 r 0 y y y 0 0 0 y 8 - 8 8 w r 9 8 9 0 9 8 0 0 8 w r r 9 w 8 0 0 y y y r 8 - 9 r y y r 8 8 w r w w - y r = C e.: u u u y @       X 0 q w e y 9 y o % sX3.k._.. y 0 u u w < 0 0 0 u e e y e u z f e n E LXLXLXLX",
"LXLXLXI 0 # o @ < < 5 @ @ 5 0 8 - ; 0 0 < 2 w 0 & p _.=.z.V = z e e t y t e O     O 0 2 0 q & 3 I.= = - y r 9 9 8 9 w 0 < < r w w 9 0 r 0 9 5 0 0 0 r t 0 9 8 0 0 t y y y y r w 0 9 8 0 9 r w 8 8 8 0 0 8 r 9 8 w 9 - 8 y 0 5 8 y 9 8 w 9 8 0 t 0 9 0 r 9 8 - ; 8 8 ; l 9 - w 8 0 0 1 q e e w 2 q 2 q 3 l w l e b b e l w % 2.T.ZX1X*X-X1X=X,X7X,X&X*X<X<X<X<X2X+X@X,X,X,X+X&X,X,X6X<X,X,X<X<X<X*X#X6X,X,X,XqX7X6X6X+X#X<X6XqX*X2X=X6XVXhX] $ e j j d u e l b e e e l e e n e e 2 e e e q q w e z - w e q q e e b e j e b d e 3 y l p :.[.wX2X1X*X#X6X&X0X1X<X6X+X,X<X<X+X@X<X#X*X6X6X*X+X@X,X<X+X+X@X,X,X,X<X0X@X+X@X6X,XqX,X<X%X&X7X<X0X=X&XVX>X:.> 3 3 e n 3 n e e e e e l e e 2 0 0 0 2 0 0 0 0 0 @ @ w 8 < @ < < 0 t 0 2 0 8 y 0 @ 8 9 8 r 0 8 8 9 0 0 0 9 9 0 t r 8 8 0 r ; w 8 8 8 r w 8 y y y 0 0 0 9 9 y 0 0 0 @ 8 9 y 9 r w 8 0 0 9 8 8 0 0 r y 0 8 w < ; 8 r = W e.o y y y z @ O     + r e 0 w t y y 4 > kX3.Q._.  z e e t y e 0 0 0 e 0 0 e H u z n e d E LXLXLXLX",
"LXLXLXI 0 @ 7 < < 0 0 0 0 7 & @ < - 5 7 < < 8 < & % K.a.l.V = e q w 0 t w e O   O O q 0 0 t < 2 S.= ; r y 9 8 r 9 r w - ; - w y 8 8 8 r 0 9 0 0 0 9 9 0 0 8 @ 5 9 0 y y y y r 8 y 0 0 9 w r w 9 0 r 0 0 8 8 w r r w w r 0 9 @ 8 r w 9 r y 0 0 0 y 0 r y r w r r r 0 w y w w w y 0 0 < 0 w e e q e q e 3 e e e e 2 e l k - . 3. XCX=X&X&X6X*X&X*X7X<X,X,X*X=X<X<X,X,X<X,X<X,X,X,XqX@X+X,X<X+X+X<X,X,X6X<X*X#X6X0X6X7X,X*X&X+X,X=X&X=X8XVX{.] $ n b b n z u e 3 3 e e e 3 3 e e 1 q e z e l e q e e 2 2 w e u b n e e e e d l b l u : i 6.{.2X3XeX#X#X*X+X&X&X,X+X6X,X*X*X,X<X7X<X@X@X,X<X8X7X7X6X6X6X6X6X,X&X@X&X<X,X6X#X@X$X<X<X9X0X6X+X-X%X,XVXnX>.: 3 e e e e e 3 q e 2 q e z 0 < 0 q e y u y t w e 0 w e 0 e 0 0 0 0 0 q w e 8 y 0 8 8 8 - 9 w r r r 0 0 5 0 9 0 0 0 9 8 9 0 r w r - - 9 r w w 0 0 9 w y y 0 w 5 8 0 0 0 0 8 < y r 8 8 0 0 5 8 0 0 0 y 0 8 r 0 0 u y = m e.4 y y y z #       O r e < w w y 9 o p sX3.yXK.  z u u u y q t 0 0 u u e u u H H u 3 d E LXLXLXLX",
"LXLXLXE 0 & < < < 8 5 0 0 0 0 @ < - 7 0 < < 0 0 & % z.d.d.V : q e y r t w e O O   # q 2 0 e < q S.o 2 w r 9 9 9 8 0 w w w 9 w 9 8 ; - 8 8 8 9 0 0 9 0 0 9 8 8 5 8 0 0 r y y r 0 y 0 8 8 - 8 9 w 0 0 y 0 - w y y r r w 9 0 0 0 0 0 9 8 8 8 0 y t 8 w r y y r r w r w w w r 2 9 w y w < < 0 q 2 0 w e e 3 e z l e 1 3 2 k q % k.].:XoX1X*X9X=X,X&X,X,X<X<X<X6X<X<X6X<X6X<X7X6X6X<X<X7X6X*X,X8X<X,X&XqX0X,X*X6X&X$X,X<X*X,X*X*X6X7XwX*X#XCXbXv o b 4 j d z n b d e e e 3 q q q e 2 0 q w w w < < t e z e 2 e l l e e e l b e b b l u 3 % 6.nX1X2X2X5X7X*X,X<X0X0X<X0X7X<X6X<X,X<X6X<X,X@X*X,X,X,X*X6X6X<X<X,X,X<X<X,X<X<X6X6X@X7X<X<X<X*X7XwX:X,XVX;X>.$ q f q l l l e n e 0 2 e y 0 2 w y y y u e < < w w 0 w 0 e 0 0 0 0 0 @ @ 0 0 y w ; 8 8 8 8 8 r y 0 0 9 8 0 8 9 0 0 r 0 0 8 y r r 9 9 0 y y y r 0 0 r y y 0 r 8 9 t y y r 8 y k x 0 8 0 0 9 9 y y 0 r 8 ; w w 9 r y o C t.: y y e e #       O w w 0 w y x r * % kX!.sXP.. y u u u e w y e t y u u y y n n n e d ( LXLXLXLX",
"LXLXLXE 0 @ @ @ 8 & 0 @ 0 w 0 8 - 8 0 7 < 2 0 0 & % P.j.l.V $ z n u r t w w O     # 0 < 0 q - 1 I.o = 0 8 9 r 8 - 0 w t e r 8 9 r r 8 w 0 0 w y 0 r 0 0 y 0 0 0 0 0 0 9 0 0 0 0 0 8 8 8 8 8 8 w 9 9 y r r r r r y 8 w r 9 0 y 0 8 w r - 8 9 y w 8 8 w r 8 w r r 8 y ; 0 9 w ; w u w 2 0 0 0 0 2 e e 3 e e n z l n 1 e 2 e > f.T.ZX%X%XoX*X*X,X&X<X,X,X&X%X*X<X<X,X,X,X#X,X*X,X@X+X,X6X<X<X,X*X,X6X,X+X&X,X<X*X6X6X8X&X,X7X*X<X*X-X6X<XVX|.v o e k c n n n z 3 3 3 e e l e e e 2 e e 3 e e 2 2 e y l w 2 q w 3 q b b l e d l b n K 3 h 5.{.oX3X2X8X8X*X<X<X1X&X&X&X,X<X6X8X<X<X6XqX7X6X<X,X&X&X*X<X<X,X@X,X<X7X7X<X6X+X6X@X6X<X,X-X+X,X<X=X-X@XtX:X>.$ 3 n e e b l e d e w 2 e e e 0 e e t e e 0 0 0 e q 0 t 0 q 0 q e e 0 < & 0 y y 0 9 8 8 0 r 9 r t 0 7 9 8 9 0 0 0 0 r 0 r 0 - 8 w r w w r r y y 0 0 r 0 9 0 y r y y 0 9 0 y 0 r r 0 9 8 0 8 y y y y 0 0 8 0 0 9 8 9 X B X.o y y y e #       X w t q u y 9 8 : % lX2.f._.o y u y e 0 e u y e w w e e e y u f e d ( LXLXLXLX",
"LXLXLX^ & @ < @ < 0 7 @ 0 0 0 & ; - 6 r < < 0 0 & % K.s.l.C o z z z r y y e O     + q 2 0 w o 2 I.o o 0 8 9 y r 0 0 0 < < 0 r w w r 0 8 8 9 0 8 9 0 r 0 0 9 0 r r 8 8 8 8 8 8 8 0 0 r r w r w r 0 0 0 0 r 0 0 0 9 - w 8 8 8 w ; @ 8 y y 0 0 9 5 8 8 8 r 9 8 9 0 ; r 9 - w w 9 k e w 0 q q w e e e z e e e n z l q 4 l 2 q * 2.T.CX<X<X2XeX<X,X,X+X,X6X7X<X2X<XoX<X<X<X,X<X,X<X<X&X&X,X6X<X#X#X6X<X6X,X7X<X*XoX*X*X*X*X<X*X*X*X*X%X<X<XVX;Xv : l j c n z u e e 3 b e e l l e e 2 e e w q e q w e 2 w 2 2 e e 2 e l e e 3 e b b M u 3 % 6.GX3X2X%X5X#X5X5X-XOX&X<X,X,X#X+X,X<X<X<XXX*X<X,X,X,X,X@X<X<X,X#X,X,X&X#X,X#X<X,X,X,X,X,X=X*X6X#X%XwX,XVX;X>.: 3 f e e e e 2 3 q 2 q l y z e e e 0 w e t e 0 0 < w y 0 q < 0 0 w 0 0 0 0 r r y w 8 8 y r - w 8 9 0 0 9 8 w r r r r w r r - 8 0 r r r w r 0 0 0 9 8 0 r 0 r 8 9 0 8 @ 0 y y 9 0 u y 8 8 t 0 y t 0 y 9 - 8 @ 0 y y X m X.: y y y l +       O y u t t 0 9 8 : % sX1.x./.. t f u e y t 0 0 0 w r t e t 0 y u d n W LXLXLXLX",
"LXLXLX( & 0 0 @ < @ 0 8 @ 0 0 0 - < 7 0 < 2 0 < & % z.=.g.C o e w w t u u u O O O + q 0 r w @ 2 S.o < w 0 8 y y 0 0 0 < 0 0 w r 8 w 0 ; - 8 8 5 5 9 0 0 8 8 0 0 8 8 8 0 0 8 8 8 9 0 r r y w r r y 0 9 8 0 0 8 8 - w w 8 8 8 r 8 ; 0 r 0 8 8 8 @ 0 9 8 w w 0 0 y 8 w w 2 w w y z t w 2 0 w < w y e e 3 3 q e l 2 2 e l 2 q . 2.T.BX=X=XoXoX@X<X7X<X<X<X,X<X<X0X0X,X*X,X,X<X*X<X<X<X0X<X,X<X7X<X<X*X7X<X+X#X0XqX0X*X*X*X*X*X*X=X6X9X%XXXAXmX] $ b k j e e u l b b e e 3 e 3 w q 3 2 q q q e e 2 2 w < 2 w e e q e e e 3 3 3 e 3 e z : i 5.;X-XwXwX8X#X8X#X,X7X<X0X<X<X<X,X&X<X8X,X#X,X<X,X<X6X<X,X,X,X<X6X6X8X@XXX+X+X7X,X<X<X,X,X*X%X#X&X=XwX@XVXnX>.: 3 z d e 3 e e e e q q e e e q e w 0 w e u t < 0 < 0 e 0 0 0 < < 0 < & 0 0 r r y y w 9 w 8 w r w 0 8 9 0 @ 8 9 w 0 9 w w w 9 8 8 0 w 0 9 0 8 9 8 9 5 8 0 0 0 ; ; 8 0 0 y 0 0 8 0 y y 8 8 0 9 0 8 9 y 0 8 0 - r 9 r = C X.$ y y y e +       O y e q 0 0 9 ; o % lX!.yX).. y u e w w e < 0 w e q y u u q e z e g ^ LXLXLXLX",
"LXLXLX( @ 0 q < @ 0 0 5 5 - 0 < w 0 0 7 < < r 0 & % K.d.g.V < w < < t A e e       + e 1 t t : 2 S.; < w y 9 9 y 9 9 0 0 0 0 0 8 r y r w 0 r 0 8 0 0 y 0 0 9 0 0 0 9 0 y y 9 8 8 8 8 0 r 9 w 8 8 r 0 0 9 8 8 8 8 8 r r w r r w r 0 9 9 5 8 @ 8 8 r < 8 r 8 w 9 w 0 0 w 9 ; w y y e 0 2 w 2 < < e q 0 3 3 e w w 2 q b 2 e f * 2.T.BX2X6X<X,X0X6X@X<X,X,X,X*X*X,X*X8X,X<X<X6X&X<X8X6X<X,X,X<X6X,X<X<X,X,X6X6X6X<X*X7X6X*X*X*X*X*X*X=X=X5XVXgX] o q b b n e e e e 3 e q q e q 3 e q e f e q u e q w e e w e q e e e e l l e e e 3 2 t 3 % R.;X3X=X9XqX8X#X%X1X6X,X*X@X,X7X7X<X,X6X<X<X,X,X@X@X,X&X@X@X&X<X<X<X<X,X,X7X<X*X*X+X,X,X@X6X0X*XwX=X.X+XVX:X>.* 2 n e 3 e n e l e w w e e 0 w e q 0 t u y e 0 0 0 e y w e e w q w 0 0 0 e y 0 y u 8 0 w 8 8 r 0 8 8 0 0 8 8 8 8 8 8 w 9 0 r 8 - 8 9 w 9 0 0 0 9 0 8 8 8 8 0 8 8 w r 0 y y 8 5 @ 8 8 8 @ 5 0 0 8 8 t 0 9 - w e 9 8 = V #.o y y y l # .     X r e 0 0 w r w o i xXf.k._.: w u y t w w w w e e t e y u u u u e d E LXLXLXLX",
"LXLXLX` @ r 0 @ + < 0 & < 5 5 < 2 ; 5 5 < 2 w 0 & % ).z.d.V : < w 2 w t u w O   O O t 0 0 q < 2 I.2 < 0 y y 8 9 t 0 0 - < 0 8 9 8 8 9 - 0 0 9 8 0 0 0 9 0 r 0 9 y r 0 y 0 8 8 0 9 0 0 0 8 8 8 0 8 0 r 0 0 9 8 8 8 y y 9 y w ; 8 u 0 0 0 0 9 8 9 r 9 0 8 8 8 0 y y y y e - - y ; e 0 w w w 0 e n e 2 3 3 l e l l < b w e u % 2.T.:X%X1XwX*X*X@X7X,X*X*X,X<X<X<X<X6X&X,X,X<X+X#X,X#X,X<X<X7X<X,X,X*X&X6X,X*X+X*X#X*X6X6X8X6X6X*X*XwX6X7XVX|.] o z , j b n u l b l 3 e l n e w 3 2 e n e 2 0 e w - l e l y 2 e n q 3 e l b b 3 3 e g & i 6.;X3X5X%X#X5X.X6X,X<X<X7X6X&X<XqX<X,X,X+X<X,X<X6X<X,X<X7X6X8X<X,X*X@X,X7X,X<X,X<X<X<X6X,X*XqXoX9X9X-X#XVXGX7.. 2 m n e b e e e e 2 2 e e e w u u e e u e w < 0 0 q t 0 0 0 0 0 w q q 0 0 u 0 y y ; 8 r r 8 0 w 9 8 0 0 0 8 ; ; - r y r 8 8 8 - 8 r w w - r 0 0 0 0 0 0 9 w 0 r r 9 0 y y 9 0 r 0 9 0 9 9 y 0 8 8 y 0 9 0 < y r 9 = m X.& u y w y #       + x e 0 q u x u 1 % zXf.(.).. H F n u e t u u u 0 w w w u z n e b f ^ LXLXLXLX",
"LXLXLX+.# & < @ 0 w @ 0 @ < < 8 @ ; 6 r 0 - 0 r & % _.c.z.q.. w 0 w 0 e y y       # u q e e o < S.: < 0 w y r 9 w 0 - < 8 9 9 9 - r r r 0 9 0 0 y 0 0 y w 0 w y r 0 0 0 0 8 8 0 8 0 0 8 0 y 0 + 8 0 y r 0 8 8 8 r 0 8 8 w r w 9 y r 9 8 w y r 8 y 8 0 r - 9 y 8 y w w ; ; ; w w < 2 w w 2 e e 0 0 q l e e u f b e 3 e 3 q . 4.].ZX<X<X&X&XoX,X&X&XqX6X6X6X<X,X*X#X<X,X&X,X7X0X6X+X<X7X@X<X,X,X,X7X<X,X,X&X,X&X@X+X,X,X6X<X7X<X*X9X-X#XVX}.v . n j j n z z e l b q e e e 3 q e e w q e q w e e e l e 2 l e e e e e 2 3 l l b e l n e % 6.;X2X.X.X1X=X6X<X1X&X9X6X,X*X+X*X6X+X6X7X,X$X6X+X,X<X,XqX,X<X7X6X<X#X&X,X@X,X8X6X<X&X,X6X6X*X,X<XwX9X#XAXBX>.: 3 d e e w 3 q e e q n z 2 < w q e w 0 0 e 0 0 w w - - 9 e y k r 8 w r 8 r 0 9 0 9 5 @ - w 8 8 8 8 0 y y 8 @ 8 0 0 9 8 8 9 8 8 w w r 9 9 r y 8 ; 8 w w 0 9 y y y y 0 0 8 r 8 y y r 0 0 0 8 9 y 9 0 0 @ r 9 ; 8 r y o m t.& 8 y u e #       X w t q e y x y 1 % sXk.dX).. u u f y e 2 0 u t w u e u e 0 u e q n E LXLXLXLX",
"LXLXLXb.+ & 0 @ & @ < - < @ 8 < @ @ 7 7 < < 5 0 & p P.g.g.V . w w e 0 0 w e O     O f 0 w q < 2 S.o 0 < 9 9 y 9 0 - 0 0 9 9 8 8 8 - 9 w 0 0 r y y r 0 0 9 8 9 0 9 r 0 0 0 9 r 0 y y y 9 0 0 9 8 9 0 y 0 8 9 8 9 r 8 0 ; - 8 8 w 8 0 0 w y r w 8 0 8 8 0 w r r 0 w r w w 0 w w 0 w q 0 q w e q 0 w e e 3 0 w q e q e l l e % ,.].NX4X&X<X9X<X<X&X*X*X+X<X@X&X,X,X&X7X6X6X6X,X6XqX<X8X,X@X<X<X,X,X*X<X,X,X,X0X7X<X7X,X#X,X,X&X*X<X9X9X,XZX}.] * y 3 j b e q q e M e e e 3 q 3 e 3 e z e q 2 e e e e w e l e q e q n l 3 l 3 3 3 e u e i 6.{.2X2X0X&X*X&X&X0X=X&X,X*X*X<X<X6X*X7X6XqXqX6X,XqX7X+X,X@X@X@X,X6X7X6X<X*X7X<X6X*X6X@X,X=X*X+X+X>X%X#XAX;X$.$ e u b u n l e z b e e l q e e e y w 0 0 0 w 0 9 w w 9 ; - r r 8 - 8 8 9 w 0 0 0 r y 0 9 w w 8 0 9 9 0 0 8 r 0 y y t 9 0 w r 9 r r w w w r r 8 0 w r 8 8 r w 9 8 8 8 9 r w ; - - 0 r y r 0 0 y 0 y 0 ; w 8 < r 9 9 o m e.* w y w < #   X   X w t q e y 9 y . i lXf.(.L.. y y u u e 0 0 u e e u w y y w n u b d E LXLXLXLX",
"LXLXLX_ @ 0 0 < 8 @ < @ @ 0 < < - ; 5 9 8 < 9 w . % c.d.x.V o w e t t q y u O     O u 0 0 q < q S.o < < - 9 8 r 9 0 0 w w 0 r 9 r w 0 r 0 0 0 0 0 y 0 8 8 8 8 8 8 0 0 9 8 0 0 y y 0 0 r 0 r 0 y 0 r 0 0 8 0 0 0 8 w r w w 9 r y 8 9 9 y y 9 8 8 0 r 8 8 8 r w w k y w y e y y ; e u 0 2 u u 0 w w e 3 2 e e e e d 3 e e q * ,.].ZX<X=X9X<X-X,X,X7X6X<X7X,X,X<X&X<X7X<X,X,X+X@X6X<X,X*X<X6X<X@X,X,X<X+X@X#X<X,X7X&X&X<X<X7X#X<X6X<XwXqXCX}.v * f b j e e l l b e l l e e e e e e l e e 3 w q e e y 2 e l e e e q e e e e 3 3 3 l t o i E.>X2X3X-X5X.XwXwX*X1X,X*X6X6X6X<X,X+X#XoX+X6X*X,XXX+X<X<X<X6X,X,X+X<X@XXX<X,XXX*X<X7X,X,X*X@X0X<X5XwXXXVXnX:.o e l e e e n e n b q 0 e z w w q q e u e e w w 2 r k r 2 - y y w w y y r y y 0 0 y y y w r 0 9 0 0 8 0 r 8 9 8 8 0 8 8 8 0 r w 0 9 9 0 8 8 - 0 w 9 8 8 8 w ; 8 - - - 8 0 r 0 0 9 w y r 0 0 5 0 0 0 8 @ 9 2 2 w y 9 o B t.& y y w w -       X w y e e 2 9 9 & p lX2./.).. y y u y y e t u 0 w y q e u e z u e d E LXLXLXLX",
"LXLXLX( @ & 0 0 - < @ - @ @ - @ < - 0 0 9 w t t o % P.g./.q.o w y e y y u u O     O u & 2 w < q D.o < 2 8 8 9 8 0 0 w 0 t r r y 9 w 9 r 0 r 0 9 r r 0 8 5 0 9 - 0 8 8 8 8 8 9 0 8 9 9 0 0 0 0 y y 0 0 5 9 0 y 0 9 8 w y y r y r 8 w w r r w w - r y 0 ; 0 8 ; r x w r w 9 y l y u e < 0 u e 2 e e q 0 1 e e n e e 3 3 2 2 o 4.].ZX1X%X1X&X&X&X7X&X@X,X,X,X<X7X#X+X&X&X,X<X<X,X*X<X<X<X7X6X8X,X6X*XeX0X6X6X0X,X#X,X*X+X+X6X7X0X*X-X%X*XVX{.v : e j j e e n n e 3 e e e e e 3 e e q q w w 2 q q e l w e l e e z e q 2 3 l b b 3 3 H 1 * 6.{.1X1X-X+X+X*X&X<X0X6X#X,X#X+X*X7X<X6X7X,X,XoX,X+X,X7X@X@X,X&X@X,X7X7X6X0X6X<X<X6X,X<X0X%XoX1X&X=X9XXXVX:X$.* 3 l n n l e e e e w 2 e z 0 < 2 w u u u y w 9 - w y y r ; ; e 8 9 w r 0 ; y 0 9 0 r r r r 0 9 0 0 0 w y y 9 0 0 0 0 9 r t 0 0 8 w 8 - 8 r - r r r 8 8 8 8 @ 8 r r 8 8 0 x z y r y r 8 8 8 8 0 8 8 8 9 w 9 e w y y = Y e.& r u z u &       X w y w e w 9 r o i dX1.W.).. f e u e u y e u 0 0 0 0 t u y y u e e E LXLXLXLX",
"LXLXLX( @ @ & 8 0 @ 0 @ - < @ < 0 w 8 0 0 w 9 w & % P.=.z.q.. u e e t e u y #     X u 0 2 2 o 0 S.o 0 q r 9 - 9 y y w 0 0 0 r 0 9 0 8 r r y 0 y r w 8 8 9 0 r w y 8 8 8 9 5 @ r 8 t r 9 8 0 9 8 y 0 0 r 0 0 r y 8 8 8 r r y 9 8 w r r 9 r 9 w r y y 9 - 9 - 8 r w w - 2 - e y w w e w 2 e 0 < e w e q 3 e u d e q 3 e 2 q * ,.'.ZX&XoX=X*X7X,X<X@X<X,XXX@X8X,X<X<X6X@X,X6X7X7X6X&X,X@X*XoX#X&X,X#X,X,X,X6X+X+X,X+X7X6X6X%X+X*X,X-X1X<XZX{.v % u 4 j f z e e e 3 e e e e e e e 3 w 3 q e e e q q 2 2 e e e e e e e e 3 e b M 3 3 w n i 6.:X3X>X1X7XtXwX=XXX+X8X,XeX,X@X,X<X,X*X*X,X7X<X7X7X<X,X<X7X<X,X&X6X<X,X@X&X6X8X,X@X#X<X7X8XqX8X<X=X-X8XVXbX:.: d e e n n w e q 2 2 e e e 0 2 < 0 e e w 0 w ; - w w 9 w w ; 9 8 8 w w ; 8 0 0 5 8 8 8 8 ; 0 8 0 0 0 y y r 0 0 0 9 0 w t y 8 r w r 8 8 8 w r y y 9 w w 9 r 8 r r r 8 8 r y y 0 0 r 0 8 8 9 0 0 0 9 r y y w e y y y : m 0.o 9 y z z &       X k y w e 2 9 9 . % dX5.(.).# u y e w u y y f w q 0 w u u u y e b e E LXLXLXLX",
"LXLXLX^ 7 o @ @ @ < @ < - 8 0 < - - 6 9 - - 8 0 . * ).=.a.| X u y y w w y y O     + f q w w @ < S.$ q e y 9 9 w 0 w 0 0 8 5 9 9 0 0 8 w 0 0 0 r 9 0 8 8 8 8 8 8 y 8 8 0 0 @ 8 y 0 y w 8 5 0 0 0 0 y r y y 0 0 y 0 8 ; - 8 w w 8 0 0 w - 8 8 r w - r w w r 8 9 w ; 9 8 ; ; y y ; e e w 0 0 0 < 0 ; ; 2 q e u u e b e l 2 q % 4. XCX-X1X<X<X6X,X,X6X7X7X,X7X6X,X7X7X7X&X@X@XXX+X,X7X<X<X,X*X<X<X,XqX&X@X&X7XoX*XeX8X6X+X7X6X,X*X&X=XwXrXCX}.s : u j j b l e e a e e e b e 3 e 3 e e e e z l e e w w 2 2 3 w w e e e e 2 3 e b l e F d % 6.|.3X1X-XXXXX*XqX<X,X7X+X,X,X,X#X&X<X@X*X6X+X*X,X7X<X,X,X,X,X,X&X<X*X<X<X,X<X#X<X<X7X<X6X+X7X6X9X5X&X#XVXGX:.: b e 4 e w 3 b e < 0 e e 2 e w 0 e w w 0 < z y w e 9 2 9 e 2 w r r r y r y 8 5 0 0 8 8 8 8 9 8 9 0 0 r 0 8 9 8 8 8 8 9 8 8 w r 9 0 0 8 8 r r w 8 0 r r 8 0 r 8 0 ; w y w 8 8 8 8 9 8 8 0 r r 0 r 0 r y w - 2 - 9 9 $ m r.o y y y w @       X 9 w w y 2 y x & p dXf.uX).. t e t y u u e u u e w t f H n u e n n ^ LXLXLXLX",
"LXLXLX^ 0 @ @ < - - 0 @ < < - < - - 7 0 - - 0 & & > iXg.a.| $ y y e w y u u O     # u r q e @ 2 I.$ q w r y 9 9 8 w q w 9 9 9 9 w r r r 0 8 8 9 y 8 8 r r w 9 w y y 0 r 9 0 0 0 0 0 0 0 9 0 0 0 w r r r 0 0 9 t 0 0 0 8 8 r 0 9 9 r 8 r 9 w r w 8 8 9 r r w w 8 w w e w 9 w y w w e q w 2 0 0 2 < w 2 3 e e e n d e 3 2 2 % 4.].BX%X=X-X*X<X,X,X@X@X6X<X6X<X,X,X<X7X7XqX7X<X<X<X6X,X,X,X<X7X6X#X,X<X0X*X<X6X7X,X6X<XoX,X,X*X7X6X&X-X,XZX}.v 1 q b j e e n z e 3 e e e b w 3 q e e q q e e e q 2 e w 2 e 2 q e e 3 e 3 e 3 3 b l A & * E.;X2X2X.X@X5X*X5X=X*X&XeX,X,X6X<X&X6X,X,X7X+X7X7X+XoX<X,X@X<X6X8X<X,X,X<X,X,X,X7X@X+XXX6X#XoX6X=X=XwX#XVXnX&.o e a l n w 3 u e 2 e l w 2 q e e e e t t q y y y y y w w w 0 0 8 - 9 8 0 r 8 9 9 t w 0 0 w 5 8 0 0 9 9 0 8 0 0 0 0 0 y 9 8 8 0 9 8 8 8 8 r y 8 8 8 8 8 ; - r w - 0 w r r - 0 0 0 0 9 0 0 0 0 0 y 8 8 r 8 - 2 - r 9 o Y t.: u y e 2 @       O 0 t t e y y y * h sXf.(.P.. n w w e f u y f u u 0 u z H H u u e b W LXLXLXLX",
"LXLXLX^ & @ < 0 0 8 & 0 @ < - @ - - 6 7 0 - 0 0 & % ).c.d.V & u w e t u u u O     # e 0 q q & 0 I.& 0 2 w r 8 8 - r w e y y y 9 ; - 9 w 9 0 0 0 w - ; y y 0 8 r 0 y y 0 8 r 0 8 8 8 9 y y 0 8 8 w 9 w y 0 5 9 w 9 9 0 w r 0 0 8 0 8 8 w w r w 9 r - w r - 8 r w 8 w y y ; - w e w e e q 0 q e 2 e l l e w t e l 1 3 q 2 0 $ %.T.BX4X*X%X1X0X<X,X<X,X7X@X+X,X,XoX,X6X&X+X#X,X<X,X<X+X&X&X,X<X7X,X<X#X&X<X<X@X,X,X*X,X@X*X6X%X6XXX<X+X*XCX{.v > 0 k j b n e l 3 e 3 e l e e e e l e q w w e e e q 2 2 2 w 2 0 q e e l b l b b l 3 t % % E.;X-X4X0X@X5X5X7X1X9X&X&X6X,X*X<X,X,X+X*X<X,X&X6X7X8X7X&X@X<X,X,X,X8X,X+X<X<X<X,X<X,X<X<XqX6X,X=X:X9X@XVX;X&.o l 3 q n l e e e q e q w w 0 w y e w 0 0 0 ; 2 ; y w ; - 9 y w 8 - 8 - w r 0 0 9 9 0 0 9 w @ 8 y y 0 0 0 5 r 0 r 0 y y 0 8 8 8 0 w r 8 y y y 8 8 w 8 8 8 w r y y r 9 8 w 9 r y 0 9 0 y y 9 8 8 y 8 8 0 - 8 w 9 r 9 o m t.o u G z y #   X     < r t e y 9 y < s yXf.(.).. y w w y H u e u u e 0 y y u H e u e q K LXLXLXLX",
"LXLXLXE & @ w 7 0 @ 0 0 < - - @ ; - 6 r 8 - 9 0 & % ).k.w.| 2 u u u u u u F       @ u 0 < q : w Z.@ & < w 9 y u 0 y w 0 0 w r 9 0 y y - 8 9 0 r y 8 8 0 r 8 - w 8 y t 8 @ 8 y y u y 0 0 0 0 9 0 r 8 8 w r w 8 9 w r 0 y y y r w - w 0 8 r 0 r w r 9 w w 8 r r 9 w w 2 8 w w ; ; 0 w < < w e w w w l d e e e f n d q 2 l e $ 3.'.BX<X=X2X&X+X7X<X7X<X+X6X7X<X<X7X7X,X6X,X6X,X7X+X<X*X*XqX<X+X<X+X*X,X<X6X7X0X7X,X6X7X#X<X,X&X,X6X=XwX7XAX].s $ e b 4 e e u l 1 e 3 q e b n q 4 2 w q q 2 2 0 q q < e e e u e q l n l e l e 3 3 e u d p E.;X2X2X3X*X&X&X*X<X7X6X+X+X*X,X*X,X<X,X+X8X<X#XoX,X,X&X,X<X6X*XXX,X+X#X,X6X,X<X6X<X6X7X6X*X#X7X<X:X%X#XtXbX&.> 3 l e n e e e e e e e l l 0 e e w w w 0 0 w w w - w e ; y - w 0 9 8 9 8 5 y w 8 r r - 8 r - 0 r 8 8 w r 8 0 0 r 8 - 8 r w ; 9 0 8 0 0 0 8 y 8 ; r y r 9 w w 8 8 y r - - r 0 0 r 9 < w ; - 0 9 0 0 y 9 8 0 2 w r y = K e.o y x y w #       X y t 7 e e y r & p lX5.(._.. A t e y u u w y u f 0 0 2 0 u z e e d n LXLXLXLX",
"LXLXLXE & @ 0 - < @ & - @ 0 0 < - - r 7 - - 0 w & p ).d.l.q.o u y e e t t u       @ u r 2 q < < D.o & < t 0 9 y 0 w w 0 8 0 r 9 r y r 8 8 w 8 8 0 9 0 r y 0 9 r 8 y 0 9 8 8 0 y 0 9 9 9 r 0 8 5 w 9 - w 9 - 8 0 ; 0 r 0 8 8 0 r 8 9 w 0 9 w 0 8 8 8 8 r 0 9 8 8 w 9 w 9 w y y 2 e e 2 w e q w e 2 q e e u u l e n b l l e % ;.T.NX2XoX<X*X<X+X<X,X,X<X*X6X+X,X,X6X@X<X7X,X#X,X,X,XeX6X<X,X&X7X7X6XqX*X,X+X$X*X+X*X6X*X7X6X<X*X=X=X0X*XZXT.v > t k j n q e e 3 2 e n e e l q w q e e e q w 2 2 0 e l e l e e e z l q 4 l M M j 2 y q % 5.[.<X1X1X6X6X=X=X&X*X8X6XeX6X<X0XqX6X<X<X@X<X,X*X6XeX6X,X*X<X7X7X7X7X6X7X,X+X,XqX7X+X#X6X8X,X6X6XwX=XqXAXnX$.$ e M 2 l z e b b e q 0 w e 0 q q w w y t e - ; w 9 9 y < w w w y 0 0 0 0 0 y 9 w 9 r 9 0 r 8 8 9 w 8 8 r 0 0 9 8 0 w 9 8 8 8 0 0 8 5 0 y r y r 8 w r - ; - w 9 r y y 9 w r 0 y r 8 8 r 0 ; 0 0 r 0 0 8 8 ; < 8 y 9 o m t.& y y w w @       X w t t e e 9 9 . > lXf./.).. H u y u f f y e u y w 0 t e y u e e n U LXLXLXLX",
"LXLXLX^ @ @ 0 < @ @ @ & @ < 0 < - w 0 0 - - 0 r * p P.=.l...o z u y e y u F O     + e 0 0 0 < @ D.& 2 0 y 0 9 9 y w 0 0 0 y y y r 0 0 8 8 8 8 8 t 8 9 y r 9 0 r 8 8 8 0 0 9 9 0 0 8 8 0 0 0 9 8 - w 9 y r 8 8 r ; 0 r w 8 8 0 t 0 r r 9 8 8 8 8 8 w w r w 9 - w y e w w w y y r q 0 0 0 t < 0 z r w q l u u e e q e l 3 e % 2.T.ZXOXoX2X*X0X7X,X+X@X*X$X@X+X6X<X,X#X,X8X,X6X<X,X,X+XXX*X,X#X<X@X<X#X*X&X,X7X*X*X*X,X*X*X6X6X@X*X=X-X0XCXgXv * u j M n n z e d 3 b n e e e 3 q e e e l e e e e q e 2 e l e e e u 2 q b n b 3 e b H d % 7.[.2X2X2X7X5X<X2X1X1X,X,X,X@X@X,X<X<X,X,X@X<X7X6X,X@X#X@X<X,X,X,X+X&X*X&XoX<X<X@X@X<X,X+X7X7X,X-X5X.X%XVXnX$.> e e e n e e e b e e w e e 0 2 e w w e e e 9 y e w w w 8 9 y 2 8 0 0 0 0 0 r - - w w 8 9 0 8 w 9 8 w r 0 r 0 8 8 0 y 8 8 8 8 0 0 8 8 0 0 y w - 8 r 0 9 8 w w r y r w w 9 r 9 y r - 8 y t @ 8 y t 0 0 r 0 8 w w y y o m t.& y y w e &       X ; w r w ; r S * i kXf.(.).# D t w w e e 0 0 0 w w t u u u t e q e m LXLXLXLX",
"LXLXLX^ & & < 0 0 - 0 < < 0 0 & - ; 0 r - - 5 7 o % ).x.g.| = y t e e w t u     . + t q q q : < S.: < < 0 8 9 9 0 - @ < 0 0 r 9 r ; 8 w 0 8 0 ; 0 8 0 r r - - 0 8 8 9 0 0 0 0 0 y 0 8 8 0 y r 0 8 r r r 8 8 0 w w 9 8 r y y 0 9 8 0 8 8 8 w 8 8 r 8 w x r - r y w w y ; 9 2 w 9 < 0 < 2 e 2 0 e k 2 3 e e q e b d d e e q * ;.'.ZX2X0X<X=X&XoX<X6XqX7X7X7X7X<X+X<X,X,X,X,X7X7X,X@X,X6X<X@X<X7X+X&X&XeX7X<X7X&X6X6X*X*X*X*X<X,X6X-X<X*XVX'.v o n , j 3 n z 2 e e e b e e e e 3 q w q w e q e e e k 2 e l q e e e q e l l b e 3 l r < i E.;XwX2X1X5X#X<X<XwX=X6X*X,X6X6X<X&X*X*X,X<X+X+X,X<X<X,X,X<X,X,X<X,X<X,X,X6X7X,X@X6X7X6X6X#X<X@X=XwX=X6XVX;X&.> q e b n l q e b e u e l l q e w w w w w q e y x w ; w 8 y 9 ; ; 0 0 9 9 0 w r 8 9 8 - 8 w 8 r r 8 8 w r t w 9 8 r r w r 0 8 8 9 8 8 0 9 8 8 8 8 r 0 0 0 y w y y r 8 8 0 8 8 r r 8 9 y y 8 9 y 0 9 0 y y w 2 w 9 9 o m e.& z y y u &       + 9 0 & < 9 r y . i kXE.sX).O t e e w y q 0 0 t w e e y u u t e d e LXLXLXLXLX",
"LXLXLX` @ & 0 0 0 < 0 0 < 0 < < ; - 6 7 8 - 9 8 & % ).c.d.| & y e y e t u u       + 0 0 < 0 o < S.& & < 8 8 9 8 0 ; @ < 0 9 9 r r 8 8 r 0 0 r 8 0 8 0 0 9 - 8 9 8 0 0 0 9 0 0 9 0 9 8 0 0 0 0 r 0 0 0 0 8 8 r r y r - 8 y y w 9 - 0 8 8 9 0 0 9 w 8 8 y r w w r 9 2 9 ; w - - 2 < w 2 w e e q w y w 2 e e e n n d 2 2 3 0 . ,.].BX.X%XoX<X0X,X,X+X&X@X+XoX&X*X,X<X,X<X6X<X@X,X6X7X7X<X<X0X*X+X7XqX6X+X+X*X*X,X<X&X*X<X0X*X&XqX=X-X-XeXCXgX] > t k j 2 l u 2 e b e b e q e 3 2 < e q w w 2 q e e e 2 e e q q e e b e e l 3 3 3 b F 1 % 6.{.=X-X<X*X&X6X5X1X*X<X6X#X,X6X6X6X<X7X0X6X7X<X*X,X7X7X@X@X<X,X#X<X@X,X,X<X#X+X*X<X@X@X7X#X*X8X*X9X9X,XVXnX[ o e l 3 e l e e b e q q 2 w e e e w w < 0 w w w w - w 2 - u 0 - 8 r t 0 8 0 y r y r r 8 9 w 8 w r 9 0 w w 0 0 y w 9 w 8 9 w 0 8 8 8 0 t 9 8 y 0 r 0 0 8 9 0 0 y r 8 8 0 9 0 8 8 0 0 0 y 9 9 t 0 y y r r 8 w 2 9 8 8 o m t.o u F y e @         t r 0 w y y 9 . i uX;.j._.. u u f u u e 0 0 e w y e w u u e u n e LXLXLXLXLX",
"LXLXLX( @ 7 < 0 0 < < 0 0 < 0 @ - - 5 5 - 2 0 w : * ).s.l.C $ F u u y e u u O O   @ t < 2 2 - < S.o < 0 9 8 y 0 0 0 0 0 0 9 9 9 r 8 8 0 0 0 r 8 8 8 8 0 0 8 8 0 8 0 t 8 5 0 t 0 8 0 r 0 8 8 9 0 r 0 9 ; - 9 8 w 8 8 9 0 y w r y 8 9 r 8 0 0 0 0 r 8 8 r r w 9 r y 9 9 2 w ; ; w w e w w e e w w y e e e n e u n f 3 2 e e % 2.].BXoX2X9XoX,X&X<X,X,X<X,X<X*X#X&X,X&X*X*X,X&X,X<X,X<X&X#X,X7X,X*X+X,X<X<X<X*X#X<X,X*X*X6X*X#XqX+X9X=X#XCX}.v . n j b n l e l b d n e q 2 3 w 2 < e e e q w q e e e e 2 e e e e e 3 e l l 3 3 j n u : % 5.;X2X2X2X#X5X*X9X&X7X<X0X*X,X<X*X@X,X&X+XXX,X6X<X<X<X6X6X7X7X&XXX7X6X,X,X6X6X<X,X6X6X<X#X5X#X,X*X=X9X,XVXnX&.: e e q e e e e e e e e w w z e e w w 0 0 q ; w 9 w y ; 9 k w 0 9 r r 9 8 8 w r r w w w 0 r 8 r 8 w 6 0 0 9 0 r r 8 8 w r 8 0 0 8 9 0 y y 0 0 0 0 0 0 8 5 8 5 9 r w 8 8 9 0 0 0 9 r y 0 8 8 9 0 0 y r 8 - - < 8 6 9 $ B t.o u S y e o   O   X y t 7 e e y 9 & h lX2.W.U.. H e y u u w 0 w e e q w w u u y u n b LXLXLXLXLX",
"LXLXLX( + @ < 0 @ @ < 0 @ < 0 @ < - 6 7 - - r 0 . $ iXd.z.| $ u y e w w y u       5 e t 0 < - 2 S.* 2 w 0 9 u r 0 0 0 0 5 9 8 8 - r 0 8 w r 8 8 9 0 0 r 0 8 0 r 9 9 9 8 9 0 0 r r y y 0 0 0 0 9 0 0 9 8 8 0 w 8 8 8 8 w 8 9 r y 8 r r r 0 r 0 9 9 w r 8 9 - w 0 w w w w w 0 w y q e y w w 0 2 e y e e d u u e e n b l e e % 4.T.NX&X1X<X6X<X+X0X,X,X,X#X,X0X7X0X&X,X+X@X*X6X<X,X#X&X<X0X<X<X7XqX6X,X,X+X*X6X#X6X6X,X*X#X*X*X7XXX=X9X6XVX Xp > u j k l e q l 3 3 e b q 2 q e 2 2 e e q e e q e e e l e e e e q e z q 3 e b b b e D 2 * 2.{.1X9X<X5X&X&X6X1X7X,X,X&X<X6X*X,X7X<X,X6X,X@X<X7X#X+X,X*X&X@X,X7X0X<X#X6X<X*X,X6X6X<X#X7X*X*X=X-X-X#XVX;X[ * q 3 b n z e e 3 e l l e e e e w e w 0 q w 2 9 w w w y 0 w 8 w 0 0 0 9 8 8 8 8 9 8 8 8 8 8 w r w 8 8 9 0 0 r r r w 9 w 0 w 0 0 9 0 0 9 0 t 9 8 8 0 0 8 8 0 8 8 0 0 0 8 8 y 0 r 9 0 0 0 8 5 @ 9 0 0 9 w w ; w 2 r y = Y t.& u u e y @       + y t 5 0 x S y & p sX1.x.K.  u w y y u y e y u y t e u u u u e d e n LXLXLXLX",
"LXLXLX( o & @ w 0 @ < 0 - @ ; o w - 9 0 8 < 6 @ o > /.d.g.W & e f y w y u z O     & y e q q < q S.o < 0 8 9 9 9 0 w w 0 8 t y r ; y 0 ; 8 r 8 8 9 0 y 0 0 8 0 0 0 5 5 0 w 0 9 y y y y 0 9 t 0 r 9 0 y 0 0 r 0 ; w r 8 - 8 0 8 - w r y 0 y 0 0 8 w y r w 8 w 9 w w w 9 w w ; - w e e e e u 0 < e w w 2 3 e f n e e d 3 2 0 $ 3.T.ZX4X=X<X0X&X&X+XXX*X,X<XXX7X+X<X&X<X*X7X,X<X@X7X#X7X<X&X<X7X,X<X+X7X,X6XqX&X<X*X+X,X7X*X6X<X6X5X=X<X#XFX}.s : e b 3 e e u e 2 b e l w 3 e n q 2 e e e e e 3 w w e k w 2 u l e n l e e b l d 4 3 u 1 i 6.;XwX5X.X*X@X=X=X<X+X,X<X,X,X,X<X,X#X*X<X<X<X,X,X6X,X,XqX,X<X6X7X+X,X<X7X<X<X6X,X+X,XqX0X6X,X+X9X5X-X8XAXbX$.$ e 3 4 e l e 3 2 q e u e w y w w q 0 0 0 w 8 w w ; w y - w ; 8 0 0 0 0 0 9 8 8 0 8 8 w 9 - y y r 8 9 0 0 0 y 8 8 y y r 8 r 9 0 t r y 8 9 0 8 8 8 5 9 0 8 9 8 8 0 y t 8 8 r 0 0 0 8 8 0 0 8 5 0 0 ; ; w r 8 2 w y 0 o M o.& u y w u &     X   r t w q 9 9 r t % sX1.(.).# u u u e q 0 q 0 0 w w y H n u u e 2 q LXLXLXLXLX",
"LXLXLX^ # 0 5 @ < 0 0 @ 5 0 0 @ < 0 0 0 - - 6 0 o i _.x.h.C $ n u u u u u u O     @ f e w 0 & 2 S.o < < r w 9 8 0 8 w w t 0 9 9 w r w 9 w 8 9 r 9 0 9 y y y r - 8 8 8 0 0 r 8 8 9 r r 8 8 9 0 8 0 0 0 r t y 0 9 0 t w ; 8 r w r 0 y 0 0 8 0 0 8 9 0 8 9 8 r w r w 0 ; - 8 w w ; < w e e 2 w 0 e e w 4 l q q n e 3 3 3 e e . ;.{.BXoX=X.X&X<X6X<X0X,X,X7X,XoX#X7X*X&X<X7X<X&X#X,X+X@X7X<X<X+X&X,X,X6X,X,X&X,X,X+X7X*X*X6X#X*X*X=X6X9X6XCX}.v $ q 4 b e e w e l e 3 3 e l e q w 2 e l n u e l e w e x l 2 0 q e e e e l e 3 3 3 4 l 3 % 6.;XtX0X*XeX-X6X*X6X<X6X6X<X&X*X,X7X6X@X<X&XoX<X#X*X,X#X6X*X6X,X*X,X,X<X,X<X@X7X7X,X,X@X<X*X,XeX<X<X=X7XVXbX$.: e 2 : l l e e e 3 w e l e q q 2 0 w w w w - y w @ 0 e y w 0 w w 0 r t w w w 8 9 r w 8 8 ; 0 0 9 8 8 0 9 ; 8 0 8 8 8 5 0 8 8 8 0 0 0 8 8 8 9 w w 0 y 0 9 9 0 0 r r y w y w 8 8 8 8 r r y 9 9 0 0 0 8 8 9 w - w 9 ; X B t.2 y y y e o       X y 0 t 0 0 r r + % dX1.W._.  y u u u u y w t u u q 0 y e f H u q q K LXLXLXLX",
"LXLXLX` o 7 < 0 0 < 5 0 0 0 @ @ ; w 0 - - r r 0 * > /.d.a.C : H n n e u A u       + y < < q & 2 S.o 0 w 0 ; 9 ; 8 8 0 w r 0 0 r 8 8 8 r r 8 w r 8 w w r y w w 9 8 8 9 0 0 9 8 8 8 w y 0 8 0 0 0 0 9 8 0 0 r 9 0 9 0 r 8 0 r 9 w 8 9 0 9 0 0 0 0 0 9 5 0 w y w 9 w ; w w w 0 2 9 2 t w e 2 w w e e e 2 e q q z 3 2 q 3 l n o ,.].:X-X-X0X<X<X<X+X&X0X<X@X<X7X<X<X#XqX&X,X,X0X0X@X<X6X*X6X@X<X*X,X,X<X&X,X,X<X6X<X0X@X@X0X6X&X*X0X%X-X6XAX}.v : z l c l e e l b e e e e e q 2 2 3 e q e e e e e q e 2 w w e l e w e e b b b b b e y 3 % 5.;X-X.X#XoX%X7X=X#X<X<X,X@X#X,X<X6X,X&X,X7X<X<X&X,XqX7X,X+X+X+X&X@X7X#X<X<X@X8X<X,X,X&X&XqX&X&X,X9X=X8XAX;X$.$ e q 3 e e 3 e e e q w e e w 0 0 w t e t w w u w < q 0 0 q < 0 u t 0 < r w 8 r w 8 8 ; 8 0 r 0 0 5 8 0 0 8 8 0 8 8 8 9 0 9 8 9 0 y r 0 9 0 + 5 9 0 0 y 0 0 9 0 r y r r 9 r 8 8 8 0 w y y y 9 w y t 8 - 0 0 8 w 9 r = W p.= y u y w @         y 6 t 0 2 r r & p sX} _._.  A y u u e w e w 0 e w w e u t u y u e K LXLXLXLX",
"LXLXLX( @ & @ 0 & @ @ 0 0 0 @ @ ; < 0 - w w 9 7 = > iXd.h...: z n u 0 e z u O     @ w 2 0 e & : S.= 2 9 8 9 - 9 - 0 < w r 0 9 r 8 8 w 8 w 8 8 w 0 w - 8 8 8 ; 8 y y y y 0 r 0 9 @ 8 0 8 8 8 8 8 0 0 8 8 9 0 0 0 8 r 0 8 w r 0 8 8 8 8 9 0 0 r 0 0 0 0 0 w r r < - w w 9 9 - w w 0 0 0 2 w t w w e 2 < 2 d u z l 3 3 e l n * %.].BX1X9X<X&X<X*X6X*X6X,X*X6X7X,X<X<X&X<X,X#X+XoXqX<X*X,X&X7X,X6X,X*X6X6X7X*X*X6X7X@X*X*X*X*X0X0X*X5X5X6XCXT.v : z j b l e e z b l q e l e e 3 q e e e e e e q w 3 2 2 e e e e e q e 3 e e e l b e z 4 i k.;X=XoX=X=X5X9X6X*X6X,X+X&X,X<X8X<X<X6X6X*X#X+X<X6X#X1X,X6X<X6X7X,X0X,X7X0X6X,X,X,X<X0X7X#X*X<X<X9X6X#XVX;X&.$ q l 3 e e e e e e e 2 w e 2 w q q y y e w e y e u e 0 < 0 @ w u y 0 7 r t r r r 0 8 0 0 y 0 0 0 8 8 w r 0 8 9 8 0 t 8 0 @ 0 0 r 0 0 0 0 0 8 8 8 0 r y 0 9 @ 8 0 0 r y w w 9 w w 8 8 y k u 0 0 r y w 9 - w < w y r 4 B t.o A S y w +       X y r t q q r 0 . i xXf.yX).O u e y e r t e e < 0 w w 0 t e q e n u K LXLXLXLX",
"LXLXLX_ @ @ o < 8 @ @ 0 0 0 8 & < - @ 0 w ; 5 0 o , uXg.l.O.o w u e < e u y       + y 0 2 e o & S.o < 8 r r y y 0 < 0 0 0 0 0 9 0 < 9 r r 9 8 w 8 r r 8 ; - 8 8 0 y 0 0 0 0 0 0 @ 8 8 8 8 0 8 8 0 5 0 9 0 0 r 0 8 r r 8 8 0 8 8 0 0 0 y r 9 0 y y r 0 r r 9 w 9 - 9 w e 9 - < ; 2 < 0 2 q 0 e w z x 2 2 q q z e e e 3 3 q . ;.T.ZX4X0X-X&X=X&X<X,X#X*X6X,X+X&X*X+XoXeX<X0X<X+X<X@X,X,X6X,X<X,X<X8X&XXX@X,X,X,X+X6X7X6X6X*X*X*X+X-X-X6XAX].s : y 3 j e e e b l e q 3 e e e e 3 e u e e e e w q e e e y l q 2 w z b e l l a a b e 0 2 * 6.;XeX9XeX6X*X*X7X,X6X<X<X7X7X<X<X*X,X6X+X6X0X<X,X+X&X6X7X<X7X,X,X<X&X*X#X,X<X&X6X,X#X<X,X<X7X<X&X9XtX6X0XnX:.$ 0 e 3 3 e b e l n z e e z e q 0 w e e e 0 w e w w u 0 < w 0 e w r 0 0 w e y y 0 r y y r 0 8 8 8 8 8 9 w 9 0 0 8 y y 8 0 9 y r 0 8 8 9 y y y 0 5 8 0 0 0 0 + 8 9 t w y r 8 w r 8 8 8 r y y 0 8 9 8 8 w r ; < < 9 9 = B e.o u u y e &       @ t t u e e t 9 & i xX3./.L.o u y e 0 < w u u 0 w e 0 0 e y y z u e K LXLXLXLX",
"LXLXLX_ @ & @ < - @ 0 - 7 0 0 @ y ; < < 0 - 6 w . > /.g.l.V o l z u e u z y       @ u < < q o : I.o 8 2 9 y r r r w 0 < w 0 9 9 8 r w r 9 0 8 8 0 y y r 0 6 0 0 8 0 9 0 8 8 0 0 9 8 5 0 0 y r 8 9 0 9 0 0 0 8 0 8 w r 8 w 9 - 8 0 0 y w 0 0 9 t y y y y r 0 8 r w ; y y w ; - w 0 < w 0 u 0 e e e e 2 2 e e z n l e b 3 w o ;.].BX4X&X1X6X*X<X&X<X<X7X<X&X,X7X<X6X7X,X+X<X+XeX,X6X7X<X,X#X*X&X,X<X<X<X8X<X,X<X,X*X+X+X8X*X&X&X6X=X=X0XAX].v > H j b l z b e e 3 n e 3 2 3 2 q e e q 0 e e e e e l e 2 l e e e e e e e l l b M z z b > 2.;XwX=X%X-X+X+X6X*X*X*X<X<X6X<X8X,X,X7X&X+X#X&X&X<XrX,XXX<XqX@X+XrX<X,X<X*X6X,X6X,X+X<X+X*X6X6X<X%X=X5XVXnX2.: q e e e l q 3 e n n e l n e e w 2 w w w w w y e w y y 0 0 0 < 0 < 0 r w r r 0 8 0 y 0 y r 9 0 8 0 8 w r w u y 9 9 5 @ t u 0 9 8 5 9 0 r y 0 0 5 8 0 y r r 8 8 w y y 8 - ; y r r - 9 0 r 0 y 9 9 9 w y y w w e 9 - o m t.$ w y y e @ .     X k 0 y e w r r & p dX} _._.  F u t 0 0 e y u y u u 0 t u u u n e e H LXLXLXLX",
"LXLXLX( + & & < @ < 0 7 @ 0 0 0 - w 0 - - 8 7 r $ p /.d.l.V : n e n u n u y       @ u < & 0 o < I.o - - r y 9 9 r w 0 < 0 0 r 9 8 9 8 8 0 w r < 0 0 y y 0 0 0 0 0 0 0 8 8 8 r y r 0 8 9 t y w 9 5 9 0 0 0 6 0 5 8 w 9 8 8 8 8 8 9 y r r 0 9 0 0 r y y 0 9 r w r w w y k r 9 w y q 2 w q e w q e < y 2 2 u e e z 3 3 3 e e $ ;.T.BX%X4X=X&X0X,X,X+X6X&XXX#X,X#X&X<X,X+X7X,X+X@X#X<X<X6X@X<X&X<X*X<X,X@X,X6X<X<X@X7XqX7X6X*X7X*X6X5X-X6XCX~.s o u j a b z n n b e l e w q e e q e e e q e e q w q e l y z z e q e l 3 e l 3 b e l r 2 i 5.;XwX&X*X5X&X*X6X*X*X=X*X+X,X7X6X<X<X7X7X7X7X0X7X#X+X+X6X@X+X<X,XoX<X<X<X7X0X,X<X<X<XqX7X,X*X,X6X-X=X#XwXnX>.: w a l e l e e q l e e w e u y w 0 w w w t y u e 0 t u q 0 0 r w t w w t w 9 0 0 0 8 9 y u r 0 9 r 8 w 8 w 0 r 0 0 9 @ 9 y @ 8 ; 8 0 0 0 y 9 8 8 0 y 0 0 0 8 8 8 r 9 w 0 8 y y y r 0 y 0 0 9 8 8 0 y y r w e y y ; = m y.: 8 r r q @ O     X y 0 t w r y y 1 p kX;._._.. t w < 0 e u u y u u u e y u H u y e 0 n LXLXLXLX",
"LXLXLX^ o & 0 0 < 8 0 @ & 0 0 & - w 0 - ; 0 7 5 $ > ).d.z.W = n 0 e z u u A O     @ u < < 0 < 2 S.o < ; r y 9 8 ; 9 w 0 0 0 9 r w r w w r y w 9 0 y 9 0 0 0 9 0 9 0 w r r 8 0 y 0 9 9 0 9 0 0 0 0 8 0 0 0 9 0 9 8 r 0 8 9 w 8 r 8 0 0 0 8 0 9 8 r 0 0 0 w r w 9 e w w y k y r e 0 < 0 e e w w e e z 2 2 f q < 2 2 2 e b e $ ,.T.BX4X=X<XoX0X+X&X7X7X,X,X7X<X+X,X6XXX+X<X#X0X,X,X@X<X,X8X,X7X,X,X,X<X6X<X<X,X7X<X*X*X,X*X*X6X@X6X:X=X7XAX[.v $ n j j l z n n l l q q e l f e q 0 l e e e e e w 2 4 e l l w 2 q e e 2 3 3 3 3 3 e e 2 i 2.;X-X&X*X5X&X-X8X6X8X0X6X*X<X7X,X*X*X*X<X+X,X,X&X,X7XqX<X,XXXqX7X$X&X7X@X&X<X,X<X8X<X7X<X<X6XqX0X%X-X8XtX;X$.% e e j n e l e e e e w w w z e q w w e t w t u e 0 q e w 0 q t y u y y w w 8 0 y 0 8 8 w t y r 0 r r r 9 8 5 0 0 r 0 9 0 8 5 8 0 0 9 8 r y 0 0 9 r y 8 8 0 w 8 8 r w y r r r y y t y y 0 0 8 8 9 0 w 0 0 8 y y r 9 o m y.: w r 0 w +       X y r t e w S y & i lX5._.).* A 0 0 0 t e u e e u e y e u u u y e e n LXLXLXLX",
"LXLXLX^ + r r 0 0 @ + 5 0 0 5 0 - - 0 0 0 - 6 0 $ * iX=.L.q.o n 0 n n e u u O     @ f 0 2 e & 2 S.= w 2 w 9 @ ; @ - w < 8 5 0 0 w r r 9 w r r 9 9 y y y y 0 t 0 w 9 8 8 8 - 8 9 y 0 0 0 8 8 0 y 0 0 0 9 0 0 0 0 8 w 8 - 0 r r y 8 r 0 8 8 r 0 8 w ; 5 8 r y y w y w ; y y e w y < < < e e e w e 2 e < 2 f g e e e : 3 l z * ;.T.BX9X0X2X&X*X6X6X,X,X,X6X<X,X<X*X6X,X0XeX,X+X<X,X6X6X6X*X&X&X<X,X6X,X@X+X<X<X6X#X*X*X7X*X5XqX+X%X9X5X<XCX}.v o H b b l z e q w 4 l b e e e 3 2 2 e e e q q e e e w e w w w q e e l q e b 3 b M n z q i 2.[.2X9X0X$XoX-X5X*XoX8X*X,X<X<X*X,X7X,X0X,X<X*X7X<X$X*X,X<XqX7X@X<X@X6X+X#X,X,X,X+X+X,X<X*X#X=X0X%X6X8XtX;X&.* e e b n l e e e 3 e z e l e e e q e q 0 0 < 0 e 0 0 0 0 q e w 0 r w t w 7 9 0 0 0 9 0 8 9 y 0 8 0 r w 8 - 8 0 0 8 8 8 y 9 0 0 r 0 8 @ 9 u y 0 0 0 0 9 0 y y r 8 w 9 r 8 - 0 0 9 9 0 0 0 9 w t t 0 5 5 8 r 2 e 9 y = M e.= y y w t o       # y t e q 0 S y 1 h kXf.sX).. y 0 q < < 0 u u t t w e 0 0 e u u e 0 n LXLXLXLX",
"LXLXLXQ @ < 0 q w 0 r 0 & @ 5 < w < 8 - - 0 6 5 : $ l.-.w.m $ z w u H z y u O     + e < 0 2 < : I.- - w w ; ; 8 0 0 0 0 w r r 9 y r w 9 8 8 9 y 0 0 8 r y y r w 8 8 8 0 r 8 - - 8 8 - 8 8 8 - 9 8 8 8 9 8 8 8 0 r 9 8 8 8 r w r 8 r 9 8 r 9 9 u 8 0 8 8 @ ; r 8 k r 9 2 r w w 9 - < < 0 e 2 u e 0 l l 2 q f n l e e 3 4 u $ ,.T.ZXoX*X0X<X1X&X<X+X6X&X&X8X7X1X7X<X6X,X+X6X,X,X,X7X*X*XoX&X#X+X7X,X#X&X@XXX+X,XXX<X,X@X,X*X*X*X6X=X-X6XCX}.s i H b c e y e q e 3 n b b e e q q e e e e q e n z e e 2 e y n u e 1 e e 3 e j b 3 b u e % 5.[.wX<XqX0X9X0X+X<X7X,X<X&XXX,X6X6X6X@X,X,X<X<X6XqX<X<X6X<X,X<X6X6X<X,X,X<X<X6X6XeX0X+XXX*X,X*X<X9X9X7XVX;X$.: q b l 2 2 3 e n e e q e e w w e e w 0 0 e 0 0 0 < w e q < 0 e t w w 0 0 & 8 0 0 8 8 0 0 0 r w w r r 8 8 8 8 0 0 9 0 r r 9 9 5 8 0 8 8 0 y r 8 ; 8 9 8 8 y x w y y w 8 0 w w 8 r w 8 9 r y 0 8 8 0 9 w w y 0 - 9 w o m y.2 r y 8 e @ .     X k y r q 0 y y & i sX;.x.).  y 0 < w w 0 y y 0 w e w @ r z n u n e n LXLXLXLX",
"LXLXLXE @ & < 0 < & @ 0 0 @ 5 - < ; 0 < - 8 r 7 o % iXc.l.V . z e e z u w y       @ f 0 q q < < S.: < w 0 8 9 r 0 8 & @ 0 0 0 0 9 8 w r r 0 0 8 9 0 r 8 - 8 8 ; 0 9 0 0 9 w 0 0 w 8 r w w 8 8 r r 8 w w 0 8 8 8 w 0 9 8 8 0 w r r 0 - - w w 8 0 0 9 y t 0 w y 8 9 w < 9 w w y ; e e e w e 0 z l 0 w 2 2 q e z e b 3 2 z n * ;.T.BX1X%X-X*XwX6X0X6X6X7X7X,X,X*X&X,X@XoX+X<X@X<X7X,X*X<X,X7X7X*X7X,X,X,X<X,X<X7X7X*X<X<X6X6X6X6X*X9X=X0XAX{.s & e b b l l n u l b z l l e l e 3 e e e e w w q e e 2 e 2 e e u e q n b e e 3 e 3 e y 2 % 6.;XwX-XoX&X.X<X7X,X,X,X7X6X7X@X<X<X@X6X@X,X6X+X+X7X6X@X6X6X,X+XXX@X7X7X,X,X@X,X#X#X,X,X7X9XqX7X7X5X-X#XtXbX$.> e b e f n e e e e q 2 2 w e u z e 0 < 0 q e q 0 q 0 0 0 0 e y e 0 r r 7 0 r y y 9 0 0 8 8 w 9 w r r 8 0 9 9 0 0 0 0 t r 0 0 8 0 0 8 9 y y 8 8 0 w 8 8 8 0 r r 9 r 9 - 8 8 - 9 w 8 8 0 y y 9 8 8 8 8 r w - w w 9 r o m e.= x y 2 y +         w r t e e y r * s sX;.x.z.. y e 0 t w q e u w e u e 0 t u z n z e H LXLXLXLX",
"LXLXLX^ @ 7 < 0 @ < @ 0 0 @ 0 < - - 0 < 8 ; 0 0 $ * P.d.K.u.: J n e e w w y       + n 0 q q : < S.- < 2 0 9 y r 9 - & 0 0 9 0 6 - 8 8 r r y 0 8 8 0 r 0 8 - 8 0 w 8 8 8 8 0 r 9 ; 8 w 9 r 8 w 8 8 8 8 r r 8 8 8 8 r w 8 8 8 - 9 y 8 8 8 8 0 0 8 0 0 0 y y 9 0 8 w ; w w w y e ; q e q 0 0 - w w w 2 2 2 e q e l 3 e 4 b e * &.T.NXwX&X*X&X6X+X#X@X#X*X*X&X*X<X#X,X7X0X,X<X6X6X#X<X7X7X7X,X,X*X0X<X@X&X6X<X+X&X<X,X,X<X#X&X*X*X*X-X%X6XCX}.h : z b b l y l b l e e 3 2 q 3 3 w 2 e e e q q w e e e e 2 w q e u n e e 3 l 3 b n M z e i 1.{.1X2X<XeX=X,X<X#X<X@X@X6X,X,X*X*X8X6X<X&X<X6XqX@X@X@X<X,X<X6X7X<X,X<X<X,X,X,X6X,X6X*X@X+X*X,X<X5X9X7XVXnX$.* 2 4 3 e l n b b b e e e z e u u u w 0 0 0 e w 0 0 < 0 r 0 @ 0 0 0 t t w w 0 0 0 y r 8 8 8 - 8 8 9 8 w r w 9 0 0 9 8 9 r w 8 @ 5 9 0 9 t 0 0 r y y 0 0 0 r - 8 8 w r 9 r w 9 r y - ; 0 0 0 8 w w 9 w w y ; 2 w 9 0 = N t.: u z r e #       X 0 0 t e e y 0 o c lX3.Q.K.o H w e w e u u e e y y y e u y u A e q H LXLXLXLX",
"LXLXLX` o < < 0 y 0 0 5 0 0 0 0 ; - 0 0 - - r 9 o > /.s.L.y.o H e 0 w e t u O     + u 0 w 2 & < D.= < < 0 r 9 9 0 0 0 0 0 0 9 9 r 0 - 8 w y 0 8 8 0 r r 0 0 9 r r r 0 8 8 8 w r 8 0 9 r w r 8 r 8 w w y r 8 8 8 8 0 r w r 8 8 w r 0 w r ; 8 0 r y 9 9 y 0 8 8 8 9 w w - ; y y e ; w e w w < q q e y 2 q g f e e e n a b e , 2.T.BX-X&X<XqX*X<X<X<X6X<X+X*X#X,X<X6X,X8X&X,X,X<X6X<X#XXXXX+X<X#XoX7X,X+X,X7X7X6X@X<X<X,XoX@X@X6X6X-X5XqXCX].p = z j j l y e l e 3 e e q e e e e e e q e u l q q e k e e e q e e e e n b l d e b e u q % 2.|.eX3X6XoX-X<X1X7XqX,X6X6X*X<X@X#X<X*X,X#X,X,X<X7X6X<X7X,X*X*X<X<X,X,X<X7X,X,X7X,XqX<X<X*X,X1X,X5X7X,XtXGX$.$ e e e l q e e e e e e e e < w e e y e q 0 w w q 0 0 0 w w w y t 0 w 0 0 0 8 8 8 0 y 8 8 9 8 r r 8 - 8 0 8 0 0 0 r w w r 8 0 8 0 0 0 0 y y r y y r 0 r y y 8 w r r w r 8 8 - y r 8 8 8 0 8 8 t y y 0 9 r w < w 9 - = m y.$ y y w y o       X w t 0 q e y y . h lX2._._.  y e y t y u e t y w e e t e w e u q t n LXLXLXLX",
"LXLXLXE @ 7 0 0 w 0 - 7 7 0 0 & w - 0 0 0 8 0 r . p /.d.h...: n e 0 w e u u       @ u 2 2 w : 2 S.o < < 8 8 9 9 0 w 0 0 0 0 r 9 r w - 8 8 r w w 8 8 w r 8 8 8 9 y y y r y 0 0 y y y y y r w - 8 8 r y y y r w 0 8 9 y r 9 8 8 0 9 0 t t @ 8 y y y 0 0 r r 9 0 0 ; w w 9 y y e 9 < 0 q e e w e l < e k e q g e e 2 d 3 2 q : 2.].BX4X4X-X,XoX,X,X#X<X<X<X0X6X<X<X,X@X7X<X<X,XoXXX*X,X,X6X<X7X0XeX+X6X8X@X+X@X<X,X,X,X6X6X7X<X,X<X5X9XtXCX'.s o z , j e e l z n l q e e b e q e e e w 2 e e 0 w e k e w e e u e e e e e l 3 3 3 q y e > 2.{.wX<X=XoX=X5X-X1X*X#X,X<X<X*X<X*X+X<X,XeX0X<X&X,X,X#X<X7X<X@X+X,X7X6X@X<X<X<X6X+X6X<X7X6X7X<X<X9X9X#X9XnX[ * e 2 2 l 2 e e e e e w w w 0 0 q e y w w e 0 r 0 0 w e w w t y t r w 0 0 8 0 8 8 0 0 8 8 y r w r 9 8 8 0 8 0 w w r r r r y r 9 0 0 8 8 w r w r r - 8 0 y 0 8 w w y y w 8 8 8 0 r w y 0 0 r 8 8 0 t w - 8 w < w 9 8 o m y.o y y w u @       X w w w e w u y : N MX1./.).. u u u 0 0 e w w u 0 0 w w w 0 t u e e H LXLXLXLX",
"LXLXLX^ o 5 0 0 & - - 5 0 0 0 @ - < 8 < 8 0 r 7 & > K.<.g...: H e e e u y u O     + f 0 0 q < < S.= - ; 9 9 y y 0 8 < 0 r 0 r 9 w 9 9 r w 9 8 9 0 9 8 8 r w 8 8 0 r 0 r 9 0 0 r y w y r 9 w 8 8 8 r 9 w 8 w 8 9 - 8 w r 0 8 8 w 0 9 8 9 9 9 0 y 0 8 0 y r y r 0 w w w x l y w ; 0 w < q w w e e 2 e l 2 q q u e b d e l n $ 4.].BX1X=X<X*X0XqX<X0X<X<X*X+X#X<X,X@X,X7X+X&X6X6X6X7X6X&X<X<X6X6X,X6X7X*X,X7X6X,X+X<X&X,X<X6X<X,X<X=X-X7XVX].v : z b b z z z z b l 3 e n e q 3 q 2 l q 0 1 0 2 q e w 2 e e e l e e e 3 3 l b b b l u e i ;.[.-X2X9X-XoX=X*X#X@X<X<X@X,X,X0X7X,X<X,X<X#X<X<X@X+X6X,X<X7X7X6X8X6X,X,X,X<X7X6X@X,X@X8X#X*X*X<X9X9X8XVX;X[ > n 3 3 n l b e b n z e e e u e w 2 w w t y e w 0 q w e r < < w 0 0 t y w w y 0 8 9 0 9 0 w y y 9 w 8 8 8 8 8 8 9 r w 8 9 w 0 0 y 9 @ ; 8 0 - 9 8 ; ; w r 0 9 8 8 y y w 9 r 0 8 8 r 0 9 0 y r ; @ 0 y r 8 9 < w 9 9 = m t.= y u w e + .     X w w e e w y t & s lX3.(.K.. u y u 0 t y w w t q t w e y u u n u e H LXLXLXLX",
"LXLXLX^ @ & < - @ @ @ 0 0 0 0 @ - ; - - - 8 9 7 $ > iXd.h.V o u z u u e y u O     + z 0 q 0 : 2 S.o - 2 r 8 y y w 0 0 < 0 0 0 9 0 0 - 0 w r 9 w 0 r w w r 0 0 8 0 0 0 0 0 9 0 9 0 0 0 8 8 r 9 r - 9 - - 8 8 0 9 8 w 0 0 w 8 9 0 9 0 8 8 0 0 0 0 8 8 0 0 0 0 w 9 w w w e y w 2 8 e e 0 e w e e y w w e 2 e f z l l q 3 l n * ;.].ZX<X9X=X*X<X*X+X+X#X<X7X6X6X<X&X<X&X6X8X7X@X+X6X7X6X<X,X#XXX&X&X,X@X+X<X7X,X#X,X<X,X+X#X*X,X,X,X5X%X5XCX}.v % y c c z l l e l 3 b n n e e e l l e e e q 1 0 e l ; 2 e l e e e e b n l e b 3 e e A q * ;.{.0X2X%X%X-XwX0X#X#X6X<X6X&X0X<X,X7X&X,X6X6X,X,X7X,XXX+X8X,X@X<X<X<X8X6X,X,X,X,X,X6X<X7X5X6X*X<X=X=X*XVX;X] : q : 2 e e e q e b e e w e u e w w t q w e q t q 0 q w 0 0 0 e w 0 r 0 0 7 r 0 0 y y 0 w 9 y 9 0 w 9 - - r - 8 8 8 9 8 8 w y 0 y y 9 0 w r 8 8 r 0 8 9 r w w 8 8 r r r w w y r r 0 9 0 0 0 t 9 8 9 y y r w - - 9 0 o B t.: y u y u o       X w e t e w r 8 * c lX6.yXL.. I q 0 e e e e y w w u u y u u u H f e n LXLXLXLX",
"LXLXLXE @ @ @ - < 0 0 @ 7 0 0 @ 0 - 0 - 0 - 8 0 & , uXd.g.o.$ n e u z u y F       @ u < 2 q < q S.o - w y 9 8 8 y w 0 0 t 0 r 9 0 8 - ; - w r r 8 8 9 r r 0 0 8 5 9 0 0 9 0 0 0 r w 0 9 8 0 w 8 w r 8 8 - 8 r r 8 8 0 9 8 w r r 0 y 0 8 0 r 0 y w r r 9 @ ; w - y - - 9 w < ; r 2 0 - e w e e ; e 2 < e f e e l q l 2 l e $ 2.].ZXoX*X4X0X*X&XeX,XqX,X&X<X6X@X7X,X<X7X*X<X<X,X7X6X&X*X6X0X,X0X,X6XqX<X,X<X<X<X<X,X<X,X7X6X7X<X*X=X%X5XCX[.v $ H 4 b z z e l e l u l e 2 2 2 q e w e e q 0 3 q e 2 e z z q w e e l q e 3 3 b 3 e u d % 6.[.BX=X&X<XtX=X#X,X0X<X,X8X<X+X+X#X<XqX<X<X,X<X0X,X,X,X,X,X6X6X,X&X<X<X,X<X6X7X<X6X<X,X<X7X*X+X*X9X9X8XVXnX&.: q e e b q l e e e u 2 2 e e w e e e u e w w 0 w e 0 t w e < 0 0 & r w w 0 8 9 0 0 y y w r y w - r y - r y 0 9 w r w < 9 r 8 8 0 0 8 0 0 ; ; 8 w r w 8 w r r 8 8 - 9 8 8 8 y y y 8 8 r y 0 9 0 y 0 8 w y y 2 w 9 r : m t.& y u y u 5       X 0 w q e w w r . s cX;./.).. u u w t 0 - t u e e u u u u n u u n e n LXLXLXLX",
"LXLXLX/ & < < - @ 8 0 < < 0 0 @ 0 - 8 0 0 < 0 t 1 % _.d.l.B : f n u w u 0 w O     + f y w q 2 < Z.o < 0 w 0 0 9 z r - w 8 8 r r y 8 5 8 0 y y y r 9 w r w w 9 0 r y 0 9 8 8 0 0 0 0 0 0 0 0 9 5 9 0 9 5 8 0 0 0 0 9 8 0 y r - ; 8 r 0 8 r w 8 ; r w r 8 8 8 ; r w 0 < 0 < < 0 e y e 0 w 0 e 2 < e z l x n d u q z b b e e > 2.T.3X+X6X=X*X,X,X&X6X,X#X&X6X<X<XqX<X<X@X@X6X,X6X,X,X,X*X,X0X0X,X*X,X7X*X+X&X&X,X7X,X6X<XXX*X*X*X,X5XwXqXVX].v * y 4 b z e 2 3 e b e e e e z w < e e - 2 y e 2 w e e e 2 < e n z n q q 3 l b e a b y j % 2.[.wX1X<X9X.X+X*X,X8X*X@X1X,X<X7X&X#X+X&X,XXX,X*X6X<X,X<X6X7X,X<X,X&X<X,X,X<X&X&X+X,X,XXX,X8X<X2X=X=X8XVXnX$.% n e 2 b n n e q l 2 e e z l y 2 w w 0 w w q u e 0 0 u e 0 < w w 0 0 0 q 0 w 0 r 0 8 0 t 8 8 y y 9 8 0 r 0 - 9 r y w 8 0 9 8 9 0 0 8 8 w r 0 0 0 0 y 0 0 r 0 0 9 8 8 0 0 0 r y y w 0 r r w ; 8 - 8 8 8 r ; ; 0 y u = m t.o u y 9 H 7       X u 0 y e r x y . s lX[ Q.).. A e w 0 0 q u u w w u n u u u u n 0 e u LXLXLXLX",
"LXLXLX( o < 0 0 & < 0 0 < 0 w 0 0 < 0 0 0 0 7 7 . > _.<.J.| > K z e y u t y   O   + e 0 2 w q 2 D.< < < w 0 9 5 0 ; - 9 9 w 9 0 r 0 0 9 0 0 0 9 8 - 8 y r w 0 0 0 0 0 0 0 9 9 0 5 9 9 0 r 0 8 8 0 0 0 0 0 y y r y 0 0 y r r 8 8 - r 0 8 r w 0 8 w 9 9 w w r r r l y e w t 0 e y f u u e q q w w y e 2 2 d u e 0 e e e 3 e : 2.].BX<X6X=X*X7X0X0X,X*X*X6X6X*X+XXX,X6X7X,X<X@X<X&X<X6X6X,X*X&X#X,X*XXX<X6X,X7X,X+X#X<X&X*X6X7X*X=X=X%X8XCXT.c $ y l b b l l l e b e e 3 q e q 2 2 w 2 w 2 w 0 2 w e l y w e e e e e e l l b e l n y 4 > 2.[.wXwX%X%X*X7X0X,X@X@X6X6X<X<X7X<X<X<X<XeX0X&X6X<X6X<X<X,X+XXX&X7X6X6X,X<X<X&X7X,X6X7X,X&X<X<X0XwX*X,XVX{.[ $ f d 3 e n b e q b e e e l w 2 w e q 2 0 2 0 0 0 0 e e e t w w w t t r e y w 9 6 0 9 0 0 9 0 0 0 y 0 8 8 0 y r w 8 9 r 0 0 0 0 0 0 0 - 8 r w r 0 0 0 9 0 y 8 0 0 0 0 r 0 9 8 9 0 0 0 y r r 0 0 r 8 w r y y - e y u = m e.. t r 8 u 7       + u w u e 0 w < > s cX3.W.z.. u f y w q e u u w u f y 0 0 e y z q n n LXLXLXLX",
"LXLXLX/ o & 0 < 8 0 0 < < 0 0 0 0 0 0 & 0 < 0 7 % p (.4.z.0.& u u e y e u u       & u w q q q q S.< < < w 0 0 8 8 - ; w r 8 0 t 9 0 y 0 0 9 0 8 9 w r y 9 8 8 0 0 0 0 0 0 y 9 8 0 0 9 0 0 0 9 5 0 r 0 0 0 y y 0 0 0 9 r 0 0 0 r 8 r 9 8 0 0 0 0 w 8 8 w r r y r e e w w w 0 0 e 0 e y e w w w e e e 2 2 t g u e e e l 3 e $ 4.].ZX+XoX0X<X*XoX#XqX,X,X7X*X*X6X6X6X@X,X<X7X<X#X@X,X@X<X,X*X*X#X*X7X,X7X,X<X7X+X&X&X7XqX*X,X#X*X8X%X-X*XZX].v : H j b b b n l 3 l 3 e e 3 e e w w w e y 2 < e e w w l l e e f e e 3 e l b b 3 3 b z q i 3.{.2X1X=X5X5X*X#X6X8X<X0X&X+X#X,X<X<X<X@X@X7X7X7X,XXX+XoX7X6X,X6X<X#X,X<X7X&X#XqX8X,X<X<X6X,X$XoX5X5X#XVX;X[ > e b 3 e e e e e l e e e e < w e y q 0 2 0 w 0 0 y y 0 < 0 0 < 0 0 r 0 w y r 8 0 0 8 0 0 8 y r 0 y r 0 9 0 u r 8 8 0 9 8 8 8 0 0 0 w 9 w r r 0 9 0 8 8 9 y 9 0 0 0 0 r 0 8 9 9 9 8 0 y y y 0 r 9 8 8 r w w r y y x o m t.o y y 8 y o       + u w w w ; r w . c zX&./.iXo y u y t q w w w w u u y e 0 t e e u n n LXLXLXLX",
"LXLXLX( @ < 0 0 < < @ @ @ 0 0 & - < r & < r r 7 & % ).d.g.O.4 q e q u w z y       + y w 0 < & & S.: - < t 0 r 0 8 w e r r w 0 w 8 0 y 8 8 r y 0 y y r 8 ; - 8 0 u r 8 9 0 t 0 0 r 0 0 0 0 0 8 0 r 0 0 9 r 0 0 9 0 9 0 0 0 8 9 r w r w ; 0 0 9 y r r 8 r y w 9 2 0 0 0 w w w e w < 2 q w w w e e y k 2 2 f f u e e l d e z * ;.[.BX=X&X*X,X6X<X<X8X#X*X6X,X,X,X<X<X@X<X6X6X<X,X7X<X,X6X7X6X6X<X*X,X0X,X*X,X,X<X0X6X*X*X+X7X<X6X5X9XtX9XCX{.v & u j j e z n l e 3 e e 3 q e e l e w e l 2 w e u e w 2 e e u n e e e 3 e l 3 e 3 l z d i 2.|.1X-X9XqX0X=X#X@X,X&X<X7X*X<X<X7X<X6X,XoX+X*X#X8X,X0X7X7X<X,X<X,X&X#X*X,X,X<X<X#X<X6X+X*X<X&X=X=X5X*XVXnX:.$ q b e e e 3 e e e 2 l w e e e e w q 0 e e e 0 w u e 7 < 0 t 0 r r w r w t y 0 0 w 0 9 0 9 y y y 0 0 y y r r 0 8 0 w w 0 ; 5 0 6 9 r r 9 w w ; 5 8 0 0 0 y r r 0 9 9 0 0 y t 0 0 0 9 y y y 0 r 0 8 8 8 w ; 0 9 r r o N t.o A F 0 u +       X y w w w e y z . v kX%./.P.  n u y 0 0 w w w e y e y u u u u 0 f H LXLXLXLXLX",
"LXLXLX_ < < 0 0 < 0 < @ 0 0 0 0 0 2 7 @ 0 0 t 0 $ $ c.d.h.B % u 0 q u y F r       + e 0 < & & < Z.o @ < 0 r 0 8 w w 9 9 0 8 0 r 8 r 0 8 0 y u y w 8 8 - 8 8 8 - u r 8 @ 0 0 0 0 r 0 y 0 0 0 9 9 0 9 0 0 0 9 0 0 r 0 0 r 8 8 8 0 0 0 0 8 9 9 5 0 y w 0 0 w r 9 - 0 0 < 0 e y t < w w e e q e e u w e 4 2 q t l e e n l e n o ;.].3X7X6X*X*X<X0X7X8X*X&X,X7X6X#X+X+X@X8X+X+X<X,X<X<X,X6X6X,X,X,X7X+X#X,X7X*X*X<X&X0X*XoX,X7X6X#X=X%X.X&XAX}.h $ t l j l l z l l e e q q e e 0 w e w e w w 2 w e e e e w 2 u z e q e e l 3 l e a 3 k 2 p 2.[.3XeX-X5X&X,X8X*X8X0X0X6X,X<X@X@X#X,X&X7X6X6X6X,X6X@X*X&X,X<X,X<X6X<X,X<X*X,X7X,X<X<X<X8X6X7X0X9X9X6XtXnX:.* < e 3 3 d e l e d 3 e e e l e q w q w w q w 0 e t q 0 0 e 0 q w 0 0 r w w y 0 r y 8 8 0 r 8 r r 8 8 r r 9 8 8 8 9 w r 8 ; 0 0 w w r y 8 8 0 8 8 0 y y y y 0 0 0 0 9 9 0 y 0 r y 0 0 r 0 t r 0 9 0 w 8 w 9 < 9 8 8 = m t.& r A 0 u +         w w y k z x u $ v cX5./.P.. y y w w w w t e u u 0 q u u u u e e f LXLXLXLXLX",
"LXLXLX_ < < q 0 @ 0 0 0 0 0 0 @ 9 - 0 & < < 0 7 $ i /.<.K...$ u e e z u u y   O   @ e 0 q 0 0 2 S.= < 0 0 0 0 0 9 - 2 w 0 8 7 6 9 0 8 - 8 0 y r 9 w r w y y 0 9 r 9 8 8 0 9 8 5 8 9 0 y y 0 0 5 0 9 9 7 0 y 0 r 0 0 0 0 9 8 0 0 y y r 9 0 0 0 0 y ; 8 0 9 0 - 8 0 0 0 0 t e 0 @ e e e y e e e e w e e e e e e e e e d l z * %. X:X<X1X-X6X&X*X&X,X6X,X&X,X,X,X0X<X<X<X,X6XqX8X<X,X#X*X,X1X#X*X6X<X&X6X*X*X6X#X#X6X6X7X*X*X@X*X=X5X9XwXAX}.h $ u l j e e l e e l l 3 e l e < 2 e l e 2 e q w y e l k w 2 e e 0 2 n l l l b b b e z 2 % ;.[.wXwX%X7X%X5X8X#X,X,X&X+X#X,X,X,X,X6X<X&X@X6X6X,X<X+X@X<X6X6X,X*X<X,X,X7X+X#X7X6X*X+X7XqX*X&X<X=X5X8XVXnX$.> e b 3 < e n e e e 2 e y e e 3 w q e w w 2 t e e e w 0 0 0 < w w 0 7 0 0 7 9 8 0 r 9 8 0 0 8 - w w y 0 - 0 8 8 w 8 9 r r w 0 0 r r y 9 w 8 y 9 8 t y y r 0 0 8 0 r 0 0 0 r 9 0 0 y 0 9 0 0 r w 0 r r w 8 w w w 9 8 o m u.* 9 r t H 7       X 0 w w r x r e % s kX4.W.z.. u t e t e w r t e u t w e u n u y e e LXLXLXLXLX",
"LXLXLX_ @ < < 0 & 0 @ 0 < < 0 @ w ; & @ < & 6 7 . p /.=._.y.: f u e u u t u O     O y w q < < & S.< 0 < 0 0 r r r w w r 0 0 r 0 8 8 8 8 5 9 9 0 r r w r r r w 8 8 8 0 9 9 0 8 9 8 0 0 r r 0 0 9 0 0 9 0 0 9 0 0 9 9 8 r 0 0 r y 0 y y 0 r 0 0 r r 9 w r r w 8 r e e t w e y e 0 w w q e q e u w e z e e d q z w d q e 3 e * ;.'.BXwX*X&X<X7XqX<X@X*X<X<X*X,X<X7X,X,X*X6X,X@X&X<X7X<X<X<X6X6X#X*X6X<X<X+X,X7X*X0X*X,X6X$X*X,XqX*X-XwX0XZX}.v 4 A e j 3 e e e 3 M q 2 e b q 2 w w l y e q w w w e y l y e e e e q e n b e e b b l z e % ;.{.2X&X1X&X%X8X8X,X#X,X6XoXoX@X<X6X6X6X,XeX<X<X@X6X<X<X*X<X*X#X+X*X6X,X,X&X<X<X*X&X6X@X*X6X*X<X0X5X5X#XVXnX$.> f e 3 2 e e e 3 e 3 q e l y e 0 w w < < w e y y w e 0 < 0 0 e w y w w w w 8 5 0 0 0 r w 0 w 8 r x y 8 8 8 w w w 9 w r r w r r 8 8 9 w r r y 0 5 0 0 8 8 8 9 5 0 y y 0 8 0 0 0 0 r 0 0 9 9 - 9 9 w r 8 w w w y 9 y o B t.1 r S y H 7       @ w w - - y 8 w * N xX*.k.K.. F t e e y t w 0 0 y y u u H u e u e u LXLXLXLXLX",
"LXLXLX_ & < - @ @ 0 < < & 0 @ @ - ; & 0 w 0 r t * s ).=.h.| . e n y u F t u       + u t w < : < D.= < < 0 7 9 y w r ; - 8 0 r r 0 0 8 0 0 8 0 y 8 r y 0 ; w y y 8 9 0 8 0 5 0 0 9 0 0 0 8 8 0 0 t 0 0 8 0 9 8 8 0 0 0 0 0 0 9 8 8 y 0 0 9 0 8 8 r 8 w y y 8 8 w < 0 w 0 0 w t e 2 w y e e w w 0 z l l q u g e 2 l q j e e $ ,.T.BX0X*X0X6X+X#X0X8X,X,X*X*X6X6X#X<X6X@X6X6X7X6X,X+X&X<X<X,X,X*X6X,X<X7X7X,X&X<X&X&X#X*X6X6X*X,X5X5X%X.XwX~.h 1 w l j b z l 2 e n 2 2 e l w e e < e l e w 0 2 2 w e l l z n n n n e e l 3 1 l b l z 1 i 2.[.2X2X<X5X5X5X6X7X,X+X6X7X6X,X<X,X<X&X+X@X@X+X6X<X#X*X@X+X,XqX7X,X,X*X6X<X<X<X7X7X7X@X7X*X1X,X,XwXqX*XVX;X[ % 0 3 l e l e q 2 e e e e z w e w < < < w l u 0 t e e 0 < 0 0 < w t t 0 0 r 0 0 0 0 r y w ; 8 y y r 0 8 0 8 r 9 w r y w w 9 y r 0 - - - 8 9 y 0 9 0 0 ; - r 0 9 0 0 0 8 8 0 y w 8 8 9 0 0 t 8 8 8 w r w 0 9 - r y y = m t.1 t A 0 u @       O y z y w k 8 w : > uX3.c.P.* e w w u f y w w 2 e u u u u u u H u u LXLXLXLXLX",
"LXLXLX_ < < 0 < @ < 0 0 0 < @ < < 0 r & - t t & $ p uXg.g.O.o u z w w f u u       @ u 0 2 < & & S.o w 2 0 0 r 8 t w 8 - 0 y t t 0 9 9 8 8 0 0 0 5 0 0 0 8 8 8 r 0 0 9 0 0 0 0 9 0 0 8 8 0 9 0 0 0 0 0 0 9 8 9 5 - 8 9 r w r r 8 9 8 0 9 8 9 0 t 0 0 r r 9 r w r - < < 0 0 0 w w - q e w e e w e z e k 2 e q e l e e l l n o [ T.NX&XoX&X*X6X,X*X+X8X7X7X*X*X,X6X6X,X<X7X@X,X,X#X6X6X0X,X<X#X7X7X,X#X+X6X7X6X+X+X8X&X*X6X*X<X6X&X5X5XtXCX'.c d u l l M n w 3 e q 2 < 2 : 2 e e w < w z l u e 0 e y l w 2 q q 2 e d e l b b b b b y : i ;.[.wX2X-X6X7X8X@X@X<X6X1X7X&X<X&X&X,X6X6X,X6XqX,X,X<X@X*X0X*X+X#X<X&X<X<X*X,X6X*X,X*X*X7X6X6X*XoX%X-X8XtX;X;.* e q 3 b q 2 2 q b z e w e k e w w w e w w 0 < w t 0 0 t q t 0 < r w 0 8 0 @ 9 y 0 8 r y y ; 8 5 0 y y 0 8 8 w 8 r 9 0 r y w r 8 8 r r 9 8 8 0 8 0 9 - - y y y r ; @ 8 8 9 y y 9 w y y r 8 y w 8 r w 8 r k w - 9 y o M e.< y A w u @       O y e w x w 9 y > s sX%.Q.P.: u D y t u f y t 0 e y t e H y 0 u e n LXLXLXLXLX",
"LXLXLX( @ < < < 8 0 < & 0 < 5 @ w < t < - 0 t r . p uXd.g.O.o n n e y u u A O O   + f 0 t w q 0 D.= e e 0 w r 8 9 0 8 - 0 y r y 0 0 0 8 8 9 9 0 0 r 0 r r t r 8 y r 0 0 9 9 0 0 0 0 y y y 0 r y 8 9 y y y y 0 8 8 0 0 8 8 0 8 8 y 0 5 0 0 r 0 8 9 0 r r w r w 9 0 0 w e e t 0 < w e q w e y w e u l e e e q e e b b q 3 q * *.].BX9X*X=X#X*X*X6X6X*X*X6X*X*X*X,X7X6X<X8X&X<X6X<X+X*X@X+X&X,X,X*X*X<X7X&X*X6X6X*X0X,X*X<X,X7X6XXX-X5X6XCX~.s 1 y j j z e e e e q e e e t w e w 2 2 < < < e l 0 < e e 2 < e u e e l l l l b e b b z 4 > ;.[.wX2X&X*X,X<X<X<X<X<X<X*X<X&X*XqX7X,X,X7X@X*X6X<X<X7X,X<X,X&X+X<X7X7X*X*X<X6X6X,X,X*X<X@X*X<X0XwX0X,XVXnX:.: e e d q e q e l e 2 2 2 e y e e w w q e e 0 2 0 0 0 2 0 0 q 0 0 w t 0 8 t y y r 0 0 0 y u 0 w 0 0 y y y 0 w w 8 8 8 8 8 8 ; 8 8 8 9 0 0 8 8 9 9 0 r w r y 9 w 0 0 8 8 8 8 w r w y y r w 8 r 8 8 - 9 w y u y - 9 0 o m t.o r A 0 y @       X 0 0 8 w w y l : v cX3./.z.o H H u e e y w w e w w t u n y 0 u e n LXLXLXLXLX",
"LXLXLX( @ @ < 0 0 < @ @ 0 0 5 < w - 0 0 - - r 7 * p uXd.z.q.: d u e u y w y O     o u r 0 q 1 & Z.X w w 0 0 t 0 w ; 8 - 0 r r r y 0 0 0 9 0 0 0 t 0 9 0 w 0 0 8 y y r y 0 r y y r y y y 0 8 8 0 0 y 0 8 8 y y 0 r r 0 - 8 8 8 8 0 9 0 0 0 8 9 t 0 w r y r w 8 8 < 0 e t 0 q q 0 w e 2 w q w 2 w u y 2 l d e e l l b 3 e e o ,.].BX<X&X<X&X,X6X7X*X#X#X,X#X*X#X<X+X@X,X6X,X<X<X<X7X6X<XeX6X6X*X<X7X<X<X+X&X,X6X<X*X*X6X8X@X@X6XqX9X9X-XZXT.s % H e j e q l l 2 2 e e n q q q w e e w e 2 w q 2 q e e w 2 e u e z e n e b b b e l z 2 % 1.[.wX2X&X*X5X8X8X#X#X,X<X*X,X,X<X+XXX*X+X,X,X+X<X<X,X<X*X@X,X<X,X<X+X,X,X*X,X6X6X*X6X*X#X*X7X#X*X%X9X,XVXnX$.% e 3 3 1 n e n b e w q e e l y w 2 0 w w w 0 t 0 0 q t 0 w e w r w y w w t 8 8 8 0 9 ; - 0 y t 9 9 r t 0 y y 9 8 8 w r r w 0 r w 8 - 8 8 w 0 0 5 0 r y y w ; 8 r w 0 0 9 8 - r y y w 9 w 8 8 8 r w 9 9 u y w w r 9 o m t.. t y 0 t & O     + w 0 < w 9 u z . p dXf./.P.. u u u y y w w y u e y e u e e t u e u LXLXLXLXLX",
"LXLXLX_ & : 0 0 < 0 8 @ < < 0 < < ; 7 0 - @ 7 r * p uX<.z.p.$ 0 e u f u u A O   O + e 2 0 2 < & Z.. 2 0 0 0 r r 8 y w w 0 0 7 0 y t 0 r y 0 y 0 8 9 y 0 8 8 9 0 0 9 0 0 0 0 0 8 y y y 0 8 8 9 0 r y y 8 8 0 0 0 9 w 9 w y r 9 w 5 8 0 0 8 8 8 0 w 9 w w r 0 8 8 < 0 0 0 < 0 0 0 q w < 0 w 0 < e u k 2 2 e d e e 3 n d n e . 1.T.BX<X&X<X*X<X*X*X5X7X7X6X*X6X7X0X<X6X6X,X,X,X<X6X,X,X,X0X,X,X&X7X<X&X,X7X0X&X#X*X*X*X*X*X+X+X*X=X-X5X6XAX}.v o 6 j j e q z y 2 2 3 e b e w e 2 e e l z w w w w l e e e q e e e e b e b e 3 e d l e e % ;.[.wX3X,X0X%X+X,X7X,X,X<XqX,X&X0X,X7XeX7X#X6X<X<X<X*X,X,X7X<X,X8XqX<X,X,X6X*X,X6X*X6X*X*X5X7X6X,X%X6X#XqX;X:.% e 3 2 n e 2 q e e 3 e y e l w < < q e 2 < 0 e q 0 w 0 2 w w 0 0 t y w 0 y 0 9 y y t 0 ; w 9 0 0 8 9 0 9 0 r r 0 8 w r y w r r y r 0 w 9 w y 8 9 0 8 w r 8 8 w r w y y r y - 9 r r 8 w y u - w r 9 0 y u y r 9 y y = N p.@ y S 0 y 5 .     + w w w r 9 u e o N sX,.k.L.. F r w e u e w e u w e u y t e u y e u LXLXLXLXLX",
"LXLXLX_ @ < 0 0 < 0 @ @ 0 < 5 0 8 - < w 0 & 0 7 * p uX=.a.u.* q e 0 w y u A O     + u 0 q q 2 < S.o < w w w 0 9 w y y w 9 w 0 r 0 y r w y r 0 8 9 0 0 0 0 8 0 8 0 5 @ 8 0 r 0 8 0 9 8 8 8 9 0 r 8 0 y r 0 y 0 ; - 9 0 8 9 w 0 8 y 0 8 0 y t 9 @ 8 9 w 8 r 9 w 8 0 e w 0 < 0 w 0 e q 2 w e 0 2 e y e k 2 e f l l e n 3 e t . ,.T.BX9X*X<X*X6X*X&X*X,X*X*X*X7X6X*X6X6X<X,X6X6X6X<XoX@X<X@X+X,X,X,X,X6X6X<X+X*X,X7X7X7X7X6X6X6X5X&X9X=X0XZX}.s % A 2 e e e z n e z e q e e q e w 2 y e y 2 w u w e w k z e e e e e l e 3 l 3 3 b l x b % 2.[.3X9X=X*X9X7X#X@X,X,XXXoXoX*X,X+X&X@X7X7X+X&X*X+X6X0X7X7X7X&X+X@X<X7X7X6X&X*X6X*X6X*X<X,X<X6X<X:X5X8XtX|.:.* e q 4 n d e q e l l l e l w 2 w q e e e w t e w 0 0 < @ 0 0 < 0 0 0 & @ 7 u u y y 8 r r y 9 r w w r w 8 r r r 9 8 r 8 8 w 8 8 w 9 w y y y y 0 0 r 8 8 r 0 0 r 0 t 0 0 0 0 8 9 r w 9 w r y ; w r 9 9 0 y y w ; y y o M t.> y A 8 y 5 O     + t w w w r z w . v cX&./._.$ w 7 0 0 t e w u f w t u t w u u u e f LXLXLXLXLX",
"LXLXLX+.@ : < - < 0 < 0 @ 0 0 0 - ; 0 0 < 0 r 7 . p uX=.w.o.. n H e w e t y       + u < 0 q < & S.o < w w 0 9 9 - y w w 9 w r t 0 9 r 0 r 9 8 8 y 0 8 8 r 0 9 8 0 9 8 8 0 y 0 8 5 8 8 0 0 0 0 0 8 0 0 0 0 y 0 8 r - 8 - 8 8 8 r y 0 9 0 0 9 8 8 y w r r r w 9 w & 0 0 0 2 0 0 < 2 w q w w 2 0 y - e 2 l d e e 2 3 b e e t o ;.T.BX6X&X*X&X<X6X6X8X6X<X7X<X<X,X<XoX,X<X@X6X<X,X,X6X<X7X@X,X8X,X,X+X<X<X6X,X6X,X,X*X@X%X6X*X@X#X0X-X&XeXCX~.h & H 2 j e l l l e d e e e q e l w w 2 e u w w e 0 z 2 e x z q l z e e e e e b e 3 b z e i 2.[.wX9X6X5X5X6XqX8X@X,XeXqX,X<X6X<X7X,X,X,XXX,X6X7X7X&X#XXX#X<X7X@X+X&X@X*X&X,X,X6X<X,X8X7X#X*X=X5X-X8XVX;X$.* e b l q n M e w l n e e z < e e z e 0 w q u y e 0 q 0 0 w 0 0 0 0 r 0 0 0 r y y 8 8 - 8 9 - r 8 r r w 8 9 8 w w w 8 8 0 r w 8 8 0 r r w 8 r 0 r t r r y y y 0 8 0 9 8 8 8 - 8 8 w r w 9 - 0 r w 8 0 0 r r y - r y o m u.& r S 0 y @       O w w 0 2 y z e . s lX&.yX).. 8 t q 0 w w e u u e y y e e u u e u e LXLXLXLXLX",
"LXLXLX_ @ < - @ 0 0 @ - 0 @ 0 0 0 ; & 0 & 0 r 7 . c uX=.h.O.o n J n H u z A O   . @ u 0 < < < < S.o - e w w r 0 8 9 ; - 0 w 0 y y 0 0 0 0 8 8 ; 0 8 8 5 0 0 0 8 r 0 8 0 0 y y 0 8 0 0 y 0 0 8 8 0 9 8 8 9 8 w 8 y 9 8 8 - 8 9 w 8 9 0 y 8 @ 0 y y y y y w w - 8 @ < 0 0 w w 0 0 0 w w w 2 w q q - e e q e d l 3 3 b b d u * { T.BX9X=X*XXX#X*X,X*X,X,X8X&X*X*X<X7X0X7X&X*X@X,X,X7X@X<X,X<X<X&X6X,X,X@X,X<X<X<X<X7X@X+X8X6X+X+X9X%X-XqXCX~.s o u l j e z e e q 2 e 2 q 2 w e e e e l z k w w < l < 2 l l q e n e d e 3 l d b b b u 4 h 2.[.2X=X5X0X5X+X#X,X,X*X=X6X&X,X<X&X&X6X,XqX7X,X*X<X<X,X0X0X,X+X6X@X,X6X,X&X*X6X#X<X*X*X*X7X*X*X9X9X=X,XVXbX} % u e b 2 u l q 2 2 e 2 w 2 e y e e w < < w y e e w 0 q u u 0 0 7 0 w w w w 0 0 y y w r 9 r w r 0 8 r 8 - r 9 w 8 r r w w r r w r w r w 9 8 9 0 0 0 y w w y 0 8 8 9 8 8 8 8 - 8 r r y 9 w - r 0 r w 9 w w w e w 9 9 = B t.& 0 A 0 u @ .     # y w 8 w y x z 1 c lX,./.z.  H e e t e w e y u e u u e y u e u f e LXLXLXLXLX",
"LXLXLX_ < < < - < 0 @ & < 0 @ & w & 0 & < 0 r 0 & v /.4.g.O.$ u e u u u y z O     + e 0 0 2 q 1 I.; w e y t 0 r 8 w w - 8 r 9 0 y y r 9 8 0 0 w 9 0 0 9 9 8 0 r 8 8 8 8 8 8 9 0 5 0 r 0 9 8 9 0 0 0 9 t y 0 8 - y w r r y w r r 0 0 r 0 0 9 9 0 8 0 0 y r 9 r 8 w t w q q w 0 w w e q < w e y q < e 2 2 1 e l l q e l e u % { ].BX1X&X&X+X*X6X7X*X8X*X*X*X0X7X6X7X,X&X#X7XqX6X+X8X<X7X<X,X6X,X6X,X,X<X,X8X,X<X<X@X*X*X*X6X*X*X-X5X-X7XZXT.s * t b 3 e e w w q 2 3 e e 4 2 e e e e w e 2 e e < w w w e e w q e q b l l e l e l b u 2 s ;.[.3X*X*X-X5X7X6X,X7X0X<X<X<X+X*XeX6X6X6X,X6X6X7X<X7XqX#X*X#X&XqX<XeXeX#X,X6XqX+X,X<X6X6X*X6X&X*X-X6X8XrX;X:.o e 3 : l q e e q q e e l e e e w w u e e e e 0 0 0 - < w q e t 0 < 0 0 8 w y 9 8 y w - 9 z y y 9 8 8 8 - w w r 8 8 w 9 9 ; w r 8 8 8 8 0 - @ 9 5 8 w 9 ; r 0 9 8 0 0 0 r y w 9 w y w r r y r r - w r 8 0 9 w y y r o Y A.< t A y u 7       . y 0 < 2 9 ; 0 % s kX} yXP.. y u u y u y u t w 0 u u y u u y H n n LXLXLXLXLX",
"LXLXLXr.@ @ 0 < 0 q 0 0 @ @ 0 0 0 q 0 0 < & 6 + * v _.} L.0.o 3 n q w 0 u f O     @ y y q w < 0 D.o 0 2 8 r x y e 0 0 0 0 t 0 6 r w 8 - w r r 8 0 9 9 0 0 8 8 0 0 0 0 r 8 8 8 r w 8 8 r r 9 w w r y y r w 8 9 w w w - 8 w w 8 w 0 y y y 9 0 r 0 0 8 5 0 w r r w u y e w 0 < 0 w t y e e e 0 2 e w 2 3 3 w e l 2 e e 3 e w . =.T.BX-X*X<X<X*X+X&X6X6X6X,X<X7X0X<X&X6X,X*X0X<X+X*X<X,X,X,X@X#X,X<X,X&X<X<X7X*X,X,X6X*X<X,X6X,X6X*X-X5X6XZX~.p < L b 3 e b z e n n e z l e l l e e < q e 0 w e e w e e e 2 2 - e e k e l e b b b l z l > ;.{.wX0X9X&X&X5X8X7XXX&X*X,X6X*XoX<X7X@X@X,X<X@X6X,X+X+X,X<XeX7X,X+X#X,X7X<X,X+X6XqX@X6X,X#X7X8X<X9X=X8XVX;X:.$ e e b e 2 q l n e q e z w u u e 0 e y e w w w w 9 ; 8 y y w 9 w w w ; ; w y 8 y y 8 0 y r 0 y 9 8 8 0 y 0 u 9 8 8 0 8 0 0 9 w r y w 8 8 r 0 y 0 8 7 9 9 8 y r 8 8 0 y y y 8 r r - 8 0 0 ; 8 0 0 9 0 0 r 8 w w y F o m t.o 0 y r z 0       O w w w w w 0 0 * h uX[ yX).. t t u n u 0 0 t y y u f u u y u H n e LXLXLXLXLX",
"LXLXLXr.@ < < @ < 0 0 @ - - & @ & 0 0 - < 0 0 0 * c _.s._...$ n u 0 y 0 u u O O   5 e t q 0 = < D.o < w w r y 9 0 0 0 0 0 0 r 9 ; 8 r 9 8 - w r y 0 0 r 9 8 8 0 r 9 8 0 0 8 0 r r 9 8 8 y y 8 w y r ; w 8 0 r y r 9 9 r r - 8 r y 0 9 0 w y y 0 0 8 8 0 9 8 8 w t w q 0 0 & 0 w w e e y q 0 w w e w e 3 q e e e q e 2 w e . <.T.BX<X-X*X%X<X<X,X7X,X,X0X<X+X4X<X*X<X,X0X&X6X,X6X6X<X,X6X0X7X6X&X#X<XqX6X6X6X7X7X0X0X,X,X+X*X*X*X%X5X7XZX~.> & A l l d f l e u z e z e e z y w k w w w 2 w w 2 q z e e q e y e e l l l e 4 3 b n z e i 2.{.2X-X*XwX%X+X+X7X,X*X1X*X@X,X,X,X7X0X6X@X,X,X,X6X7X<X+X+X+X,X7X@X<X7X&X+X&X&X+X*X,X<X,XqX,X*X9X:X.X#XVX;X>.$ q 3 3 e q 2 e e 3 2 e z e e u z e t 0 0 0 y w w w w 2 w ; y y 2 9 w y w x r 8 y y ; 5 y 8 8 0 r 0 0 0 9 0 0 9 8 8 0 r y 0 - r r w 0 9 8 w 9 r 0 9 8 9 0 0 w 8 8 8 0 0 0 0 8 8 w 9 ; r y 0 9 0 r 8 5 8 w w 2 < 9 y o m u.o u A e z &       O 0 0 e k z y u * C sX&.c.L.. L H 0 0 w e 2 0 n u e e u n u u u u u LXLXLXLXLX",
"LXLXLXr.o < 0 < 0 0 0 & 0 0 0 @ < < 8 - < < r 0 * Z _.1.P.y.: w y e u e u u O     5 u 0 2 q < < D.= 2 w 9 w y 9 0 w w 0 w r r 9 - 0 r w 9 8 9 r y 0 0 0 8 5 5 0 r 0 8 0 8 8 8 w r 9 w w y u y y y r 8 - 8 r y y y 8 w 8 9 9 8 w 9 0 0 0 y y r 9 9 8 ; 9 8 - 8 9 0 w 0 < 0 0 0 0 w w e e w w 2 < w e 3 2 e e e l z l k y y . &.].BX-X<X<X<X,X,X,X+X,X,X6X*X<X<X<X*X&X&X#X+X*X<X,X7X6X*X+X+X@X7X7X6X,X@X+X*X*X*X+XXX,X*X7X*X6X*X*XwX9X9XCX'.p 1 y 3 j d u e l u e l e e w e e w w e w w w q w w l e e e e z e y 2 u y 3 2 3 3 d b z 3 i ;.].2X1X<X9X0X0X#X&X<X<X<X7X<X7X<X+X+X@X,X@X,X7X,X@X@X7X7X0X<X,X<XoX&X6X+X<X7XqX@X,X7X<X+X@X*X0X9X5X9XqXtX;X:.$ q e q e e 2 q e e 0 2 e l < e f y q w 0 0 8 - w 9 w y y e w - ; ; - w w w 0 0 y u 0 9 w 0 8 8 y y 0 8 9 0 @ 8 9 5 0 y y 0 9 w y 8 - 8 r 9 8 0 r 0 8 0 0 y - 8 8 9 0 r 9 8 w 8 w 8 8 w y r 8 r w 8 - - 0 r y ; 9 y o Y A.& y x y z <       # w 0 u z F u u * Z sX,.(.iX. A y q t u f y w 0 z e t u H y u n u e LXLXLXLXLX",
"LXLXLX@.# o < 0 2 0 0 < 0 < 0 5 0 < 8 8 0 & r 0 . N sX{ g.0.o e e e z y u t O     & q 0 0 t 2 2 S.= < w 8 9 y 9 0 0 w 0 w y r 0 w r w r y y y 0 8 0 0 0 0 8 9 t r 0 9 0 0 8 0 9 y e 8 8 9 y y y 0 0 9 8 r w w y r w w r y w r r 8 0 y r 0 0 0 r 0 8 8 8 - 8 - r 0 0 0 0 0 q t 0 w e e q q q 0 < 2 y 3 2 e e 2 l e l l l f * ] T.3X%X*X2X2X*X,X,X<X<X,X6X=X<X*X*XeXqX,X+X6X<X#XoXXX@X,X6X,XoX&X@X<X*X<X6X<X*X6X0X*X,X,X*X7X*X*X6X6X=XwXCXR.> < A 3 d b e q e e e e y 2 ; e w 2 w e e e e q 0 w z e e q q k e e e l e 2 l b M b e F d % ;.[.3X1X0X9X%X6X8X<X<X4X*X&X<X<X&X8X<X,XqX@X+X6X7X<X@X,X,X+X7X&X,X,X,X,X,X6XoX+X,X7X@X+X,X*X,X<X*X:X=X8XrX;X:.$ e b e d e 2 q e l q w 2 w 3 0 0 2 e u e w y w w w w w w w w 0 0 2 w w 9 w 8 8 y y 0 0 0 9 0 0 9 r r 8 0 y 5 0 0 8 9 9 0 0 - r y w 8 8 r w 9 0 0 0 8 0 0 0 9 r y y r r r 0 r 9 y r - - 9 r 0 y y 0 8 9 w y y 9 r 9 o B C.2 w r w e @   O   @ y 0 z z y w e % V sX,.iXP.. u u u u u y e e u u y y u y e u H u e LXLXLXLXLX",
"LXLXLXM.< < - @ @ 0 < 0 < 0 0 & < < 0 - < 0 r 0 & c (.{ g.q.o z w e z w y t   O   @ t < 0 e q 2 D.o < - - 8 y 9 8 w 0 0 0 8 0 9 r w 8 9 0 r 0 r 8 0 0 r 0 9 0 0 w 8 w 8 r r 9 - y u w 9 ; 8 8 8 - r y w 0 8 8 w y w 8 r w y r w 8 r r 0 8 9 0 0 0 0 0 9 9 0 w r < w q 0 2 0 t 0 q w w 0 e q 0 0 y q q 2 l e e l 3 w e k e . &.'.BX<X1X*X&X&X<X+X0X6X*X,X=X6X&X*X&X<X#X,X7XrX<X,X7X,X+X,X<X,X<X,X*X*X6X7X<X+X#X&XqX<X6X+X0X#X*X6X%X%X6XCX~.p & A e j d e q e e e l e 2 w e e e 2 < e e w 2 0 w e e e e e e e l e l e e l b n b 3 w l > :.{.wX%X*X=X-X7X#X+X7X9X7X<X<X<X,X6X<X+X6X7X,X#X&X+X,X<X@X,X7X+X,X0XqX*X+X,X7X<X+X,X<XqX@X6X6X*X=X9X%X#XVX;X$.$ e e a z l e 2 3 l e e e w u e < 0 e u t 0 y w w 9 w y r 9 w 9 w w w 0 - w r 0 9 0 9 9 5 @ y r 0 0 0 9 0 y w r y 0 0 9 0 t 8 y y y 0 r y y 0 0 0 0 0 r 0 8 - r y z y r 0 0 8 8 9 r - - 8 8 r w r 0 r y r 2 e w y y o B C.1 0 y w e -       X t 0 u e w 9 e * N sX%./.P.  H u t e n u 0 0 u y y u e y u u f u w LXLXLXLXLX",
"LXLXLXm.o < < - & - 8 < < < 0 0 & < 8 8 < < 0 0 * | (.3.l.C $ J q 0 u w y t O     @ e 0 q e 2 w A.o 2 w 0 9 y 8 8 r w w 0 8 9 9 8 r r w 0 8 0 0 8 9 r 0 0 9 9 0 - r r r w r r w 9 y y y 0 0 8 9 9 y y w 8 ; w r r 9 8 8 0 9 r ; 0 0 8 8 0 y 0 0 8 0 r t r 8 8 0 8 0 w w q w q w 0 0 2 0 w e q e y w 2 3 z z e e e 3 2 l u o &.].ZX9X2X=X,X*X<X,X,X,X,X*X,X<X2X<X,X,X7X6X+X+X<X*X7X,X*X6X7X7X6X,X#X@X<X,X8X6X0X,X,X*X*X6X0X6X*X=X6X-X5XCX}.s q r l j d e e e e u l r w e w e e w 0 e q w w w w 2 e e e e w w y l e e l l e a 3 l < l i [ {.BX&X+X9X+X*X7XeX0X=X&X,X+X*X,X,X6X<X,X,X,X6X0X&X,X+X*X&X6X6X7X#X&X0X0X,X6X,X,X,XXX<X,X*X0X6X*X9X9X8XVX;X:.$ 3 l e d u n e q e e n z e e e e w w 0 < 0 ; w ; y k x y w e ; w 9 - - ; ; y 0 8 0 0 0 0 8 y 0 0 0 y y y y u y r y 0 8 8 r 8 9 r w 0 0 0 0 0 0 9 9 0 y 0 9 - 8 r r y y 9 0 8 8 w r 9 r w 9 w r w 9 y r r ; e y x u o Y C.: 0 y < e @       O e w u w 8 9 e 1 | kX1.(.jX$ z y t u H H y e t t e y u n H n y e w LXLXLXLXLX",
"LXLXLXr.# - < 0 < 0 & 0 0 0 0 0 7 < - 0 < & 9 0 . O.Q.s.g.O.: z u e u 0 t u O     @ y q q q 2 q F.o w y r 9 y 9 - w w 0 0 0 9 r 0 9 - 8 9 0 9 8 0 0 0 0 y 0 0 @ 9 8 0 0 9 w r r 8 8 w y r 0 0 t r y t 0 8 8 8 r 9 w w 8 8 8 r w w r 0 9 0 y r 0 8 0 0 0 w 8 8 8 0 0 0 t e e w e 0 w w 0 w w w e k w q e u e l 3 l b l l e * %.'.BX&XoX0X7X<X<X0X0X&X<X<X6X+X&X6X,X#XqX<X*XoXqX7X*X<X<X<X,X,X6X@X,X<X6X@X@X1X,X,X*X6X*X6X*X=X<X=X<X=X9XCX~.i & A M j e f l 3 e u l 2 e k 2 w e 2 w e w w e e w e 3 3 e e e e e e e l b l 3 3 d b H e h [ [.BX9X*X9X5X6X+XXX+X6X<X<X&X<X<X,X6X<X,X6X&X,X<X,X,X@X6X0X7X,X,X,X<X,XXX+X,X<X,X,X,X6X<X6X6X*X=X=X-X8XVX;X:.$ e b e l e l e e w q z b e 2 0 e q 0 0 0 e y e k y w w 2 ; y w w w w ; 9 e y w 0 9 y y t y 9 0 0 8 0 0 r 0 9 0 r 0 0 9 8 9 r - 8 8 0 8 5 0 y 0 0 5 8 0 y 0 ; 9 9 w 0 0 0 0 w 8 r w w y y w 9 r w w 9 r w 8 < w r y o m V.. 8 0 8 w &   O   + u e w w w t t * N lX} k.P.. t u u y 0 w H H u q t e u n H H z z e LXLXLXLXLX",
"LXLXLXN.& < 0 0 0 - @ @ < < 7 @ 0 < 0 w 0 2 0 w * O./.g.d.q.o J H u z y u u O     + t t q w < w Z.o < 2 8 ; y r 8 w q 0 0 8 r r 0 0 ; 8 0 y 0 8 r 0 9 0 0 r 0 8 ; 0 y 0 9 w w 8 0 8 8 8 8 5 8 8 r r 0 0 9 8 9 8 - r r w 8 w r y w y y r 9 0 0 0 0 0 9 9 8 8 y y 0 @ @ 0 w 0 0 0 w e q e w 2 w w z w q l q w l l e l 2 n e . %.'.BX=X&X-X&X<X,X+X*X*X6X&X<X&X<X+X+X&X<X7XqX7X,X<X+X<X8X*X+X*X<X@X6X&X*X,X7X6X,X#XoX*X8X,X+X8X7X7X-X-X<XCX'.p & A M l b n n e e z z y z z e y l e q w < e q w < e w e e z e e e w l e 3 e e b b l H * i [  X2X<X%X5X%X*X#X8X*XtX<X<X7X<X#X,X,X+X,XXX+X6X+X,X,X,X@X#X0X,X,X<X<X,X7X7X,X<X&X8X<X<X6X@X#X<X9X9X=X8XVXnX7.: e 3 q b e q 3 e 3 w e e e q 0 0 2 0 0 0 e y w w w y y w y w - ; w r w w y t y 0 9 0 r 0 0 8 0 0 8 5 9 0 0 ; r y 0 0 0 8 @ y r 8 r r 8 9 0 y t 0 8 8 9 0 w 0 w w r r 0 0 0 r w y 9 - r r - w r y r w w 9 w 8 9 y u o C p.. y y w w @       # u y w 0 u u g * c MX} c.L.. F t w 0 e w w e e u y e y u y y u u e LXLXLXLXLX",
"LXLXLXN.@ 0 < @ @ @ < 0 0 0 0 @ 0 w r 0 2 0 t 0 * | W.d.L.O.$ n z u u n u 0 O     @ t 0 0 e 2 & Z.= < w y r 9 r u y w w e 0 9 r 8 8 9 0 0 r y y w 9 ; 8 0 0 9 5 8 8 8 9 0 r r 0 0 0 8 8 0 9 0 0 8 8 9 8 0 r w 8 9 0 0 r 9 0 y u ; t u y 8 8 8 8 9 w 8 8 y z y w 7 0 0 0 < < 0 t 0 q q w e e e e w w e e q l l 3 e M 2 e e * %.T.:X1X&X=X<X&X6X+X&X<X0X6X=X<X0X9X0X<X6X+X,X6X#X<X,X<X<X@XXX0X0X,X<X,X,X,X*X*X6X+X6X8X,X,X6X<X,X<X=X9XqXCX'.p & A j l d e e l u e e e 2 z e z e w 0 q e e w < w e e l e l e - w z l e 2 e M l 3 b H 2 % $.[.3X&XXX=X6X7XqX,XoX-X<XoX,X<X*X7X&X+X,XqX8X+X<X<X6X<X&X&X#X+X*X,X,X,X<X+X@X+X,X#X@XXX,XqX#X6XwX=X5XqXqXnX>.: q 3 e n e e e n e e q l w w w 2 0 0 q 0 < ; 8 - 8 ; e w w 9 - 9 w w w ; - 0 0 0 r 0 r y y 8 w 8 8 8 0 y @ 8 0 0 5 8 y 0 @ 5 u u y 9 9 t 8 9 5 ; 0 0 y y y 9 8 8 0 0 9 9 8 8 8 0 0 r 0 8 r - y y r w 8 8 - w w r y o C C.$ w y y u &         y u t w z y e % v kX} W.).. t u t 0 e w 0 0 e f u u u y e u z z q LXLXLXLXLX",
"LXLXLXM.o < 0 0 & @ - - < 0 r w < < 8 - & < r r . | _.{ g.o.: n n n u z u t O     @ e q 0 e & @ Z.o < 9 w 8 8 9 r 8 ; < 0 8 9 9 y y 0 9 8 8 8 0 8 w w 0 0 9 0 y 0 0 0 0 9 0 0 0 r 0 8 9 0 0 0 r w r w 0 w r w 8 9 0 0 0 0 9 9 0 9 8 8 @ 8 9 0 8 w y r w r r r 8 0 w t 0 0 t w w e y q w w w w e 0 < 3 e w z z e 3 n k k e : ,.T.3X-X=X<X6X&X6X*X<X6X*X#X6X<X<X6X&X#X+X+X,X,X<X6X&X,X<X6X#X,X&X6X,X*X&X*X#X*X7X6X<X6X<X+X&X<X6X<X=X=X7XZXR., < F b b g e e e f e w e w z e l w 2 2 w e w w w 0 2 q q w q e 2 e l l e 2 l l 3 3 e z 4 i ;.[.BX0X<X<X6X#X#X0X0X<X0X<X&X<X<X6X,X6X<X@X<X6X7X8X*X,X&X,X6X6X@X#X<X<X@XqX6X<X6X+X&X,X@X8X7X=X*X=X%X#XVXnX$.$ b d 3 q w e 3 l b e < w e w 2 0 2 0 e w 0 w 2 ; 9 9 w w ; e w 9 w w 9 w - 8 9 9 0 0 8 0 y r r r 0 0 9 0 9 8 8 8 8 9 t y 9 0 y 9 8 @ 9 y 0 8 8 8 r y 0 0 0 8 8 0 0 y t y 0 8 @ 9 8 r r 9 u y y y y w 9 w ; - - 9 9 o K t.o y y e u @   O   # w y e e w r u * N sX1.Q.L.. H u n u n y u y u u y u u u u u u e w LXLXLXLXLX",
"LXLXLXN.o < < 0 0 0 < @ < 0 w w < < 0 8 < < 6 w . | _.{ w.q.1 q u e y e u u +     @ t < 2 0 - 2 Z.= < 2 r 9 9 - 0 - < 0 0 9 0 r 0 y 0 0 8 8 0 8 r y u y 9 9 0 y y y r 0 0 9 8 0 9 0 0 0 0 y y 0 8 8 r ; 8 r 9 - 5 8 8 9 0 t 0 0 y 0 @ 8 9 y 0 8 r y w 9 - 9 9 0 y w 0 q e u e w u e e w 2 q e e u e e e w e e < w b e k q $ %.T.CX9X&X&X<X<X7XqX#X*X<X<XwX*X&X=XeX0X0X6X<X&X<X&X+X<X<X,X,X,X+X<X,X,X,X6X*X&X,X*X$X*X<X<X7X7X*X&X9X%XwXCX~.> : S 3 l d u e l u n w e e k y l e w e y e e e e w w e e 2 w y l z l 2 l 2 3 e 3 3 e u 3 p } ].3X<X*X=X%X<X*X<X<X*X&X6X6X<X,X6X,X,X6X@X,X*X+X,X+X,X,X&X,X6XqX7X<X,X,X#X<X,X<X7X0X6X<X*X*XoX4XwXwX8XVX;X:.* l b e 3 e e e e n w < w e e w 0 q 0 w w 0 - 8 w w y e w r k y e w 8 8 - w 8 8 0 0 8 5 8 r y w 8 r y 8 - w y 0 9 0 0 0 0 0 0 0 8 8 0 0 t 9 0 y r y 0 0 0 y 0 r y y y y y 0 0 0 w ; w y 0 t 9 0 r r r r w w < 2 y 9 = m C.& u u 0 e &   O   + 0 w w y r 0 e * | sX5./.z.. w y D u y w y e u u e w u u D u u e 0 LXLXLXLXLX",
"LXLXLXB.# < @ @ < 0 0 0 < 0 0 & & < 0 w w < 0 w . 0.(.,.a.q.. z e t y w A u O     @ e 0 q q 2 q D.= w w y w 9 9 8 8 w u y t 0 r 8 8 0 y y y r 0 r r r 8 8 0 0 7 0 0 y y 0 0 8 8 @ 8 9 t y y r 0 8 w w r y y y y 5 @ 8 0 y y t 0 0 8 9 r w y 0 r r y w r 8 8 0 0 u e 0 0 y y y e w 0 0 2 w w w e w 3 e e w l l 4 b q 2 x w o &.R.BXoX&X%X%XXXXX*X<X+X6X,X&XoX<X&X+XXX,X&X#X6X<X6X<XqXqX,X,X7X<X*X,X*X<X6X6X<X<X6X6X,X#X&X*X*X6X0X=X%X7XCX~., q A 4 4 d b e e u e l y e e 2 y e l e e y q w q e l 2 e w w l z z e e e e 2 3 b b M n e i } [.2X1X*X&X.X<X<X,X7X<X%X%X,X,X+X,X@X+X<X@X,X*X@X6X<X,X,X6X@X@X6X<X+X@X7X<X0X,XoX&X,X#X+X*X<X0X0X:X%X#XtX;X:.$ e b e e e 3 e e e < e l l e u e q w q 0 0 9 8 2 w ; w 9 ; r ; w w w 2 9 9 8 0 0 r 0 8 8 0 y 9 w y w 0 9 r r 0 0 8 0 9 y y 0 0 9 r y 0 8 @ u y y 0 0 8 9 r 0 0 y 0 y y 0 9 0 r r - 9 y 9 0 ; 0 0 0 9 8 w r w r S 9 o b p.& y S 0 e @       O e u w e z y w . | uX1.(.).. y u f u u w n u f y e y u n u z u e w LXLXLXLXLX",
"LXLXLXN.o = - @ @ 0 < < @ < 8 @ 0 < 0 t 0 < 0 w * o.).f.a.q.: q n w w w u y O   O @ w w q 1 - < A.- 0 w y w 9 9 0 - w w y 0 r 9 ; 8 w r 0 0 9 9 8 5 ; 5 0 y y 0 9 0 r 0 8 0 0 9 5 9 9 0 0 0 9 0 8 8 r r 0 y y y 9 0 y y t 0 9 9 @ @ 0 0 r 0 0 y 9 r w 8 w r w 9 u y 0 < t e w w w 0 w 2 w w w w w w q e e l l e n 3 e x e o &.^.NX4X1X9X0X<X*X<X0X+X6X,X,X*XeX1X,X,X7X6X+X7X*X,X*X+X@X@X@X<X<X<X*X#X#X&X*X,X*X,X6X,X*X6X7X*X*X*X5X-X9XCX~.i 0 F 3 j b u l e w e y e e w w 2 y l 0 2 0 0 2 0 w y w e q q e k z e l e e l d b M n y 3 i :.[.BX6X5X9X5X6X*X,X0X1X6X<X,X7X7X<X7X0X6X+X6X<X<X6X<X,X<X7X6X<X,X&X*X,X<X&X,X7X7X<X6X7X,X6X#X+X-X5X6X7XwXnX$.$ 3 b d e q q e q e 2 n l y w e e w w w q e w w w ; w w w 2 9 < 9 2 - 9 - - 9 0 0 r 0 0 9 0 y r r w r w 9 w ; 0 9 9 0 0 y y y 0 9 0 0 9 9 0 y w r 0 9 5 0 y 8 9 w 0 8 r 9 w 8 9 0 8 0 y ; 8 8 9 r w w 8 w w 2 w F 9 o M u.& y y w e &       X u u w w z y y * | _.] iX_.. u D u u z u H u u f u u u u u u u u w LXLXLXLXLX",
"LXLXLXM.# - - < 8 < 0 @ 0 < 0 < 0 < - - & < 0 w * a._.<.a.O.: e u < w e A t   O   + q 0 0 w - o Z.= < 2 r w y y r 0 < - 8 9 9 y 0 r 8 r 0 0 0 0 5 8 0 0 0 r 0 y 0 0 9 8 8 8 0 y 0 0 0 9 9 8 9 0 8 8 8 - 8 0 9 8 0 y y y 0 9 8 8 r 0 9 8 0 0 9 8 r 8 8 w w w r r y t < 0 w e 0 < y e w < 0 2 w w z e 3 3 w q e e e q k e 0 % =.^.ZX&X4X&X9XwX6X6X&X<X<X*X9X<X<X<X&X7X,X6X#X<X6X,X,XXX,X<X,X<X6X7X6X6X<X<X6X6X*X*X*X6X*X*X*X*X#X%X=X=X0XCX~.p & A e j d d e e e z 2 2 e 2 e e e e 2 0 q q 0 < 2 2 2 q 2 e y e z e e e l b 3 b b e z q > } [.wX*X*XwX9X7X7X@X,X&X<X<X,X@X<X#X6X<X+X,X6X,X<X,X,X@X,X+X<X<X<X,X6X<X,X,X@X,X+X+X&X<X6X6X7X*X*X=X*X8XrXnX:.% 2 3 b e w b e 3 e q q e l z u q 0 0 0 t 0 9 w y w - w w y k y w ; ; - 2 ; 0 8 8 r y 0 0 0 w r r 8 9 r r 8 5 0 y 0 0 t r 9 0 9 0 8 8 0 8 0 8 9 0 r 0 9 0 w - w 8 ; 8 8 0 8 8 0 y r y y 8 0 0 8 w r 8 8 9 y e y F 9 $ m C.0 r r ; e &   O   @ r w w k y r e * | Q.} uXg.. t H u e u u u t u u u u H u u z H e w LXLXLXLXLX",
"LXLXLXN.o < 0 0 0 0 < 0 < 0 0 0 0 < 0 - & 0 r w * w.x.{ -.V : e e @ t w u u       @ t t q e 0 2 Z.o < 0 r w 9 9 y 0 0 < 8 0 y y r r r 0 0 0 t y 0 0 0 y 0 8 8 y 0 0 8 5 5 0 0 9 0 t 0 0 7 9 0 0 y y t 0 0 y y r 9 y y y 0 0 0 0 y y 0 8 9 0 9 @ 8 w 9 8 8 r 9 8 t 0 0 0 0 0 < < u e w w 0 w q e e 2 4 3 e l l b q e l y y $ &.T.BX1X<X&X*X&X*X*X6X7X,X+X&X$XoX*X&X,X,X,X<X<X7X0X<X,X7X,X,X#X&X+XoX#X,X*X<X<X#X*X*X,X*X*X*X*X*X6X&X%XwXCXT.s 1 A l 3 q e e l l z e e l y x e e w 2 0 w e w 0 2 < e q w e e e z z e 2 l b 3 3 3 3 H b i } [.3X*X=X9XoX#X7X&X<X0X+X,X<X+X@X,X6X@X*X,X<X,X6X7X6X,X+X@X@X@X@X@X,X,X6X@X6X6X*X7X<X<X7X#X6X=X=XwX-X8XAXnX:.* 2 3 e n e l 2 e e e 2 e e e e w 0 q w w 0 - y e w 9 w y y z y y w w - w 9 9 8 8 0 9 9 0 9 w 0 r w 9 r 9 8 0 r 0 0 9 0 9 0 9 8 t 0 0 t 8 8 8 8 7 0 0 9 0 0 y y r - - r 8 8 w r y y y w ; y 0 8 8 w 8 w r e - w y y o M t.: w y w e @   O   X 0 y e w r w l . | /.2.yXz.. H H u u n u z u u y u z u u u y z e w LXLXLXLXLX",
"LXLXLXB.@ < 0 < @ & 8 & 0 @ < @ & 0 8 - 0 w r & . 0.W.<.a.V : n e 0 u y u H       - t & @ < 2 2 D.- 2 < 9 w 9 9 w 0 0 0 0 0 y y 8 w 0 y r 0 8 9 0 9 8 9 0 8 9 y 0 y 0 8 8 9 8 @ 8 8 0 y t 0 0 9 r y 8 9 8 0 0 0 0 t 0 w r 0 9 9 8 0 r 9 0 y t 0 8 0 8 8 8 w w r 0 0 < 0 0 0 q t w t q q q e q e w 2 w e e e e 2 l e l l f * [ T.ZXqX0X=X*X*X6X<X7X&X*X7X0X<X*X,X0X,X0X@X6X&X+X6X8X<X<X,XqX7X,X,X<X0XqX<X*X<X&X6X7X7X7X6X8X*X=XqX=X%X0XCX9.% q F l j d f e e e e y e e w l e l w w q 0 q e e e w w 3 < q e w e k e 2 q M e 3 b e u 3 i ;.|.3X*X5X-X%X8X7X7X&X<X<X,X@X,X6XXX<X7X6X6X@X+X@X,X@X<X@X6X6X6X7X<X,X&X,X,X,X<X&X+X#X<X@X6X8X#X=X9X-X#XVX;X$.$ z e d e e e q l 0 q e z y 0 2 w e e e w 0 - ; w ; - ; w e r y y w w w w y 8 8 0 0 0 8 8 0 9 w - 9 < w w w u 9 8 8 0 8 0 t 0 0 r 8 9 y 8 8 0 0 9 0 0 8 9 0 9 r w - 9 r y w r r w r 0 8 - r y r 8 9 r w w 9 2 r y y o m t.o 8 9 w e @   O   + u z e y z u z > C yX*.Q.P.. L y u y f y u n H w e y u u u e u e q LXLXLXLXLX",
"LXLXLXZ.= - - - @ - @ @ @ - 0 < - - - 9 0 < 6 q . w.W.*.l.q.4 n z e u t y y O     @ w 0 < 0 o o Z.= w e u w 5 5 0 8 w y y y y 8 w 8 9 8 8 0 w y 9 0 0 y r w 8 0 ; 0 r w 0 w r y 8 - 9 8 w y y y r 9 0 w - 8 r 8 9 w 9 0 - ; 0 0 - 0 0 0 9 w r 0 y 0 9 0 y r 9 8 e 0 0 0 < @ & < 0 w q 0 < z z - 2 e q 1 e u l q n e 4 e t . $.^.BX&X=X%X*X*X#X+X6X6X<X=X,X5X8X7X6X,X,X,X*XoX,XoX+XXX&X0X#X*X<X<X&X<X<XoX&X,X&X6X,X,X,X@X6X,X+X0X=X%XtXCX~.p 1 F n 3 e q y z l e e y l w 2 2 w w e w w q q l e q e e e w w w e l l y q 2 e b b b y 4 > ;.[.-X1X*XqXoX%X7XOX,X<X7X7XqX7X<X#X,X*X&X,X0X6X6X&X<X,X6X,X<X<X+X<X,X+X<X,X*X+X7X7X6X<X+X7X8X*X*X6X9XqXVX:X:.= l d e e e e e 2 w e e w e e e ; w 9 2 9 w w r w - 2 9 9 w w 9 y y 0 0 9 0 0 y y 0 9 8 8 9 9 0 8 8 8 8 8 9 y 8 @ 8 0 0 0 y 8 8 0 8 8 8 0 r 0 0 0 9 0 0 0 6 w 0 0 y y 0 0 9 8 0 r 0 8 8 8 w 8 y y ; 0 y y 8 - 8 r S = m t.o y 9 2 z 0       O y y u e e y e $ C (.6.sX).. D u u u e y y f H w y e e e y y f e u LXLXLXLXLX",
"LXLXLXB.o - < < @ 0 0 5 7 0 0 0 w < - 8 < - 0 w . | Q.,.K.q.; z u w y w u e O     + w 0 q e 2 w Z.X < 0 y y 0 0 0 8 ; w w r r 0 r w w 8 8 8 w r ; @ 8 8 w 9 r 9 - 8 9 w 8 8 8 8 w 8 8 8 0 r r w r - 8 r w 0 r w 9 8 8 w r w 0 8 ; w 9 8 5 9 0 5 y r 0 0 r r w - e 0 0 w w 0 0 r u e w 2 < 2 w - x y w < w e w 2 w e k z q . &.R.ZX-X<X6X7X6X6X8X,X6X<X*X6X8X*X+X7XoX,X7X,X,XeX<X<X,X,X6X*X*X,X<X*X#X7X0X<X7X<X<X#X<X<X,X@X7X,X&X9X-XwXCX^.p @ y b e d e u k y l 2 e e y w w 0 2 w w 2 w w 0 w w 2 e u l z k 2 w z l e e e b b l z l % ;.[.-X2XqX6X6X6X8X,X8X7X@X+XXX#XqX7X,X,X0X+X,X,X&X7X,X@X,X<X7X6X@X6X0X6X6X7X,X+X,X,X*X6X<X*X*X,X*X-X&X#XtXnX7.> z l e e 2 2 q 0 q u e w w e y e y w 9 w y y k y w r 9 2 w w w r 0 8 8 5 9 0 0 0 r 0 r 0 0 0 0 0 9 0 0 9 0 y 9 8 9 r 0 9 0 8 w r r w 0 9 0 0 r 0 9 9 0 0 9 0 5 0 0 8 8 0 9 9 8 ; 8 8 8 8 w r r y y t y y 0 2 w 9 S X m N.: y r w l <       X y t t 2 w w y * v (.6.(.j.. y u u u n f u y u e u u u n A u y e e LXLXLXLXLX",
"LXLXLXB.o < < < 5 0 5 5 0 0 0 2 w < 8 8 < & 0 w . w./.{ s.c . u u w u w y y .     @ e 0 0 e 2 0 S.= < - 0 r 9 8 0 8 r w 8 0 r 0 y r w 9 0 8 8 w y 0 8 8 w r w 8 - 8 r r r 8 r w w r w 8 ; 8 8 r y 8 w r r 9 0 0 0 0 r y y y 0 9 w 8 8 w 0 0 9 0 u 0 0 r y 0 0 0 t w 0 q t 0 0 w u w w e < < 2 w y e 2 3 e u l e 3 q k k e % &.R.BX=X6X*X#X*X6X7X+X,X<X*X*X*X8X,XXX7X7X,X,X,X,X&X*X,X<X,X0X,X#X+X7X7X,X,X#X*XoX&X,X&X,X<X*X*X<X#X9X9XtXCXR.p : A l e f u l e y l e 2 y z l e 2 0 w q w e e w e y e l e e e w e e e l e e e b e l z e % 2.{.eX3X2X*X6X=X*X6X,X6X&X<X<X<X<XoX+X@X,X6X#X+X+X,X6XqX*X+X,X#X#X,X7X<X7X+X,X<X+XXX+X6X,X*X*X*X*X9X5X,XtXnX:.. < 1 e n e e e w w u u e l w w y z y 2 r l 9 e z y y 2 2 r w w 0 r 8 8 8 0 9 9 0 0 0 y y 0 r y r 0 t 0 0 t 0 0 0 r 0 0 8 8 r w r y y 0 8 8 0 0 0 9 8 0 9 0 0 0 r y 8 5 0 t - 8 - 8 0 w y r y w w y 0 8 8 0 w w r r & m C.& y y 2 e @       X y r t 2 2 2 w . N dX:.yXg.o y t w u u u u u y u u u t y f H u u e LXLXLXLXLX",
"LXLXLXF.o < < - 0 - 7 0 @ & 0 < < - 8 9 0 0 0 0 . a._.1.a.| < z u w u w y y       7 y w 2 0 < < Z.o < < 0 w 0 y u y y w 8 9 w 0 8 0 9 w r w r 9 y 0 9 0 r 8 8 8 0 r y y r 8 w 9 0 9 r 9 0 8 8 0 y - 8 y r 8 8 8 0 8 8 r y y 0 8 r 9 r r 0 0 0 0 y 0 9 0 0 r y y w 0 0 w q 0 w e w < < e y w w e 8 2 w e n n z l n n e w w * $.R.BX-X*X*X6X7X7X@X&X,X<X*X#X#X#X8X7X*XoX,X<X,X<X,X,X,X,X+X<X<X7X<X,X0X&X<X<X7X+X,X0X&X&X<X6XoX6X<X>X-X0XCX~.c 2 A 3 d n f y e e e e w e k e q w q e e 0 e e < u e u e e w e e e l w e l l d e 3 3 u < i ;.{.BX1X-X%X#X+X+X,X,X0X0X6X6X@X+X#XeXeX<X&XeX7X&X+X,X,X<X<X,X,X<X,X@XXX<X8X,X6X0XqX,X,X6X8X<X,X=XtX7X8XrXnX>.. 2 q 3 u e u e 2 < w w w q 0 2 w x y 8 9 k - 9 ; w y 9 ; w w 9 0 r 0 0 0 y t 0 9 8 8 0 0 r 0 y 0 0 0 9 8 0 9 y 0 0 0 9 0 ; 8 8 0 9 y t 0 8 9 8 0 8 0 0 0 0 8 0 y y 8 9 0 y w y r r y y r r w w r r 9 8 0 0 w w r r o m u.& y y w w o       + y t t w k 9 w $ | (.>.lX).. 0 q 0 0 0 y u n n H H u w w u n n e u LXLXLXLXLX",
"LXLXLXF.o < - o 0 0 0 0 0 < < 0 @ < 8 r 0 r 0 < * a.Q.<.d.0.2 n e t u y u u O     @ u e w w < 2 Z.- < < w y r r y y 9 w 0 0 t 9 8 w r y y r r 0 0 9 - w 8 8 8 9 r w y w w 8 8 8 8 0 r w w r 8 - y 8 - w r w 8 8 0 0 9 0 0 0 r 9 r 8 9 8 r 8 w r 0 r 9 0 r r y y t 0 w w q 0 e y 0 < < w e e z y 9 w 2 e e u q q q l e k t * %.^.ZX1X&X2X6X8X*X#X7X6X6X0XqX6X8X7X@X,X<X7X6X@X,X0X<X,X<X&X,X,X7X,X+X&X+X<X#X7X<X,X6X6X@X@X*X&X<X=X%X%X=XZX~.s q 9 l b f f y e e z e e 2 w w 2 w w e u 0 q 2 < 0 2 w e q e l e w w e l e l l d e l z q i } [.:X=X1X0X5X7X8X+X#X&X&X+X,X0X7X,X+X,X,X+X@X7XeX#X,X6X@X7X<X<XqX6X<X&X7X0X#XoX,X8X<X#X&X*X8X,X&X5X#X#XrXnX2.$ n d 3 e u q e q w e w 0 0 w 2 0 w w ; e y w w ; y y w 2 9 ; w 8 r 0 0 9 0 0 y r 0 8 0 0 y 0 0 8 8 8 ; 5 9 0 0 y 8 - r w w r - 8 8 0 t 0 9 0 0 9 5 8 0 0 5 8 - 0 9 8 9 0 8 r w 8 w w r r 8 ; 0 r 0 9 0 w w w 8 6 S $ m t.: y y w e o       X y t u u e w w . o.pX2.yXL.. F u u w w e y u H y z H u y u u u f u LXLXLXLXLX",
"LXLXLXB.o < < - 0 0 7 7 7 - - < < 0 0 0 0 w 0 0 * w.x.%.d.N X z w w y e u y O     8 u y 2 w < < S.= w < y u 9 @ y - - - 8 0 r 6 8 0 r r y 0 9 0 0 0 9 r r 8 - - 8 8 w 0 - 8 8 9 8 8 w r r r 8 9 r 8 9 r w r r 8 r 0 0 8 8 0 0 0 8 r w w w 9 8 8 y 0 0 0 0 0 0 0 w t w w < 0 0 e w 0 2 0 w e z w y e e e e 0 w 2 3 q 2 e e $ %.R.ZX2X1X<X+X+X8X7X*X*X*X*X,X*X*X7XoXeX6X,X6X7X#X+X#X&X<X6X,X,X,X+X6XqX,X,X&X<X<X,X*X7X*X*X+X6X,X6XwX9XqXCX'.p 1 r e 3 d u q w e l e e y w w e e e e e w w 0 0 0 q e q w w w w 2 e u e e e e 3 e b z n % %.;X>XwX-X-XoX5XqX8X7X*X<X<X#X,X6X7X,X&X+X6X&X#X&X0X6X6X,XoXoX#X@X&X<X#X*X,X7X*X+XOX9X*X&X5X6X8X*X5X,X#XrX;X$.. n e 2 e l q e e e e e e u e w w r 9 w y w w ; 2 w y y 9 w w - w y r 0 8 8 9 0 y 0 8 9 0 0 9 0 9 8 8 8 8 0 0 t r 9 8 9 r y y 9 8 8 9 0 r y 0 0 0 8 8 0 9 8 8 8 8 w 0 0 0 8 r w 9 8 9 w 8 - 8 0 y 0 0 0 0 ; < 9 r y o m N.& 0 y w y 7       O y t t d e r 2 * | sX;.Q.L.$ y H z y e e y u z 0 e n u u u u u e f LXLXLXLXLX",
"LXLXLXF.- < < < 5 5 5 0 0 @ - < < 0 8 0 0 1 9 < o w.x.{ L.q.= y e w u y u y       @ e w 0 q < < Z.o < < y u y t w - 0 w 0 0 w 7 8 w r r 0 r 0 0 t r 0 y y w - 9 8 8 w 9 9 w y y 0 0 8 w w 8 8 - y 8 9 8 8 r r - 0 0 0 9 9 0 0 0 0 w y w w r r 8 9 y 0 0 9 0 0 8 r w w w 0 0 0 w y 0 0 2 < w y w z k 3 e e e e l n e k k e * ] R.BX0X-X<X*X6X7X*X7X0X6X<X#X*X,X6X,X,X,X6X#X&X6XqX,X<X<X<X,X<X<X6X#X0X*X,X6X,X#X*X6X6X7X0X*X0X7X6X=X5XqXAX~.> & A 3 3 e e w w y y e 2 e l e w e z e q e 0 1 u e y e e w 2 2 2 w e l w 3 q 3 e 3 e w e * ;.;X2X2X4X5X@X&X6X7X,X,X<XeX7X6X,X<X*X,X&XeX,X7X<X+X+X7X,X<X,X<X<X6X6X<X@X,X,X6X<X,X&X+X7X6X*X*X5X9X5X8XrX;X$.* u d q e q 0 e y 2 w 2 w e w w w - y e r e ; w 9 w y 2 ; 9 w w w r y 0 0 9 @ 9 0 0 9 y y 0 0 r 0 0 y r 0 0 r r 0 0 w r y r r 9 0 8 0 0 0 0 0 0 0 0 9 0 9 8 y r r r y t y 0 r 9 0 0 0 w 9 0 9 0 y 0 0 8 @ ; < 8 r r . m u.< w y w u <       X y w u e l w w * Z yXf.uXz.. z u u y e y e u u u u H H H H H K e e LXLXLXLXLX",
"LXLXLXZ.- < @ < 0 0 @ 7 0 < 0 0 - < 8 0 0 7 0 < . g.k. .w.q.o z y t f u u y       @ e 0 w e 2 w F.= u w 0 0 0 y r w y y r w t r 8 9 w 8 w r 0 y r 8 8 r y y r r r y r r 0 w r y 9 r 8 9 8 8 8 8 y w w 8 9 0 w ; 8 9 0 0 0 9 r 0 0 x y y r y y 8 8 0 0 9 0 0 r 9 w w t w y e e t 0 & 2 t w - 2 2 z y e e z e e q 2 2 w z q * %.~.NX2X4X0X*X,X6X,X,X<X=X&X,X7X,X#X+X*X+X,X6X7X,X,X+X6X*X,X6X6X#X6X6X<X&X,X,X*X0X0X@X$X7X#X@X*X7X.X>X-X<XCX~.i q F l j d u e l l e w ; w l l < 0 u e 0 z < < u < 2 2 e z e l y w e e y e b n b a e n e h } [.3X4X<X5XtX5XXX,X8X7X,X<X&X*X,X<X+X*X*XXX*X<X<XoX<X7X,X&X+X,X,X<X,X<X,X<X,X7X,X7X,X&X<X*X*X*X*X%X+X#XtXnX:.$ q e e n n < e e u q w w w 2 e y w ; w w ; w w w y y - < w x e 9 r r 0 0 0 8 9 r 0 r u u y 8 r 0 0 0 0 8 0 8 8 0 r w w 9 8 w w r 8 8 9 8 5 9 0 6 0 0 0 0 7 r w 0 r 0 y y 9 r 0 0 9 8 8 w r y 0 8 y y 9 r y w w 0 t o m C.q y y w e &       X y t u f e y y * | !.6.yXL.. u u n u u y t t n H u u n n y y u e u LXLXLXLXLX",
"LXLXLXB.X - - o 0 0 0 7 8 @ 0 < < - 9 8 < 0 0 - . h.x.[ s.q.: w 0 w e t w y O     @ u 0 2 @ - < B.< < 2 0 t 9 r 9 2 w y y r 8 8 9 0 t y 9 0 0 9 r 0 9 0 y y y y w r y w 9 8 0 w 9 0 0 r r 9 0 w 9 8 8 8 y y 0 0 5 y y 8 8 0 0 8 8 r w 9 w r y y w y r r y r 8 8 u t t 0 0 < @ < & 0 q 0 w q y e y y w 2 q w 2 q e 1 < ; u . &.].ZX=X4X&X&XoX+X,X,X*X&X=X+X+X,X,X<X6X<X,X#X&X+X*X<X,X7X6X&X,X+X+X*X,X*X*X6X<X*X*X7X0X6X*X&XoX@X9XBX5XwXAX~.p : S 3 b g u z z l e e w 2 e e w 2 w 2 < 2 w e q 0 0 e e e w w 2 e n e e e e 3 e d e u l % ;.;X:X2X-X-X*X*X&X+X<X=X<X<XXX0X6X,XqXqX6X,X7X6X6X7X*X+X@X7X7X,X,X#XoX<X7X7X&X+X<X,X0X<X&X7X7X*X<XwXtX7XVXnX:.* q 2 2 e q 2 2 q e e e w q e y e y w ; - w 9 e x y y y e ; w w w 8 r r 9 8 y 0 0 8 0 w r 0 5 y y 9 y y w y r w 9 y y w 8 8 0 9 8 @ 0 r 8 0 0 8 8 8 8 8 8 9 ; w y 0 - 9 r w 9 8 0 r r 0 9 < 8 8 8 r y w w y - 9 9 r o m t.& t u 0 y 0       + A D u e e y ; * u.fX6.sX_.. t e y H H u 0 e u n u u n n e y H u e LXLXLXLXLX",
"LXLXLXF.o < < - 5 & 7 5 @ 8 < < < < 8 8 @ 0 y w . h.W.,.l.q.o w e e u w t y       + y < 0 < : ; N.o & 0 0 w 9 r 8 8 - 9 y w 0 8 0 0 r 0 y 0 0 9 y 0 0 y 0 0 0 8 r 9 8 w 0 0 0 9 0 0 9 0 8 8 0 r r r 8 8 0 r 0 8 w y y y 9 8 0 0 0 9 r r w w 0 0 w y 9 8 w r 8 r r 0 0 w e t 0 w 0 w e w w e e w w y e e z e e e n b l k n . [ T.BXBX4X1X0X=X6X&X9X6X<X<X<X6X7X6X,X<X,X&X<X7X,X&X7X*X,X#X&X6X6X6X#X,X*X6X*X,X*X&X7X@X*X0X7X6X7X6X5X=XqXCXR.> & A 4 e e e l y w 2 e 2 2 w w e w w 0 w w e 0 0 2 0 2 2 w 2 e w 2 e l e 3 w 2 3 l b w n % } [.=X2X2X<X=X6X7X<X<X*X<X*X<X0X<X@X*X+X*X,X,X*X6X7X*X&X,X7X*X,X*X6XqX&XXX&X,X0X<X,X#X&X,X6X*X#X*X=X-X#XrXnX:.: u e e u e u e y e w 0 w w e q y w e y 9 r 2 r y 2 w w w w w ; 9 8 w w y u y r 0 9 9 0 0 0 0 0 8 @ 5 9 8 8 w 9 w r w 8 8 r y y 8 8 0 0 0 r 0 9 8 9 0 r 0 0 8 y y 0 8 r w - 8 8 8 0 r r r y r w 8 0 r 9 8 w e w r y * m t.& 0 w 2 e &       X t f t e e l r $ | (.2.(.j.. F u z u n t w u u F u y u u y u H n e LXLXLXLXLX",
"LXLXLXZ.o < < - 0 7 5 @ @ @ @ 0 < < w 9 < 0 0 < . h.x.*.a.q.o u u y y y w y       @ y < 2 0 - - t.o - 0 w t 9 0 9 w 2 2 0 r t 9 0 0 9 0 r y 0 8 0 y 0 w y r 0 0 r w 9 8 0 8 8 8 y r 0 5 - 8 w r y r r r y 0 0 9 r 0 0 y w 8 8 r w w 0 w r 8 0 w r y 8 8 8 8 0 y u u y e e 0 0 < w t e q 2 q e e 2 w 2 e l e e e e n x l f * { R.BX3X4X4XoX+X7X*X&X*X%X&X<X,X6X<X@X<X6X#X*X7X<X<X+XoX*X,X7X<X,X+X*X,X&X<X+X*X@X*X#X,X0X6X@X6X7X@X-X=X7XCXR.> 2 A e e e e e y w e e y w w e e e 2 w q e 0 0 2 2 w 0 2 2 w e e w w y e e l e 3 e e w H * } bX3X.X1X=X*X<X<X<X7X<X*X<X+XoX,X&X7X,XXX#X<X+XXX+X*X,X,X&X&X6X*X&X,X+X,X,X*X+XoX7X<X,X,X*X,X<XeX9X*X#XVXnX$.% e t 1 w q e e u e 2 0 2 0 w w 2 9 w y w 2 9 y y 9 ; w w - - - 8 r 9 - 9 t w r 9 8 9 0 r y 0 y 8 @ - 8 8 5 8 8 r w 8 - 9 y 9 0 0 r y 9 ; 0 0 5 @ 8 0 0 0 9 r y y r 0 0 9 - 0 0 y y 9 8 8 8 r y 8 8 w 8 9 w e 9 8 S o b t.1 ; 9 8 e &       O w u t l l F u * O.dX2.k.g.. r H u t e 0 u n u u y e u u u u f n f LXLXLXLXLX",
"LXLXLXZ.o < - < 0 0 0 5 5 @ < < - - 9 w < & 6 # o L.c.&.s.V o n e u u e w y       @ f 0 < - < 2 M.o < w w t r 0 r y y 9 0 t r 0 9 8 0 0 0 y 0 8 0 9 9 0 r y 0 0 y y r w 8 5 9 0 0 0 t 0 0 - 9 8 w e y y 0 0 0 8 9 @ 5 0 r 8 9 0 y r 8 r w 9 9 0 0 9 w 8 8 w 8 8 u t 0 w w e 0 w w e 0 0 0 w w w 9 e 2 2 w e e e 2 e j y u * %.T.BX4X-X<X+X6X6X*X&X6X9X9X9X,X#X+X#X<X7X,X&X,X,X7X7X6X,X&X&X&X7X<X6X<X*X6X#X6X6X7X&X*X#X+X*X*X*X&X-X-X6XCXR.p & u b b e e z e w z e e l e e q w w < q e 0 2 w w q 0 e e e w ; w z 2 e e e 3 e a e e g % 1.{.4X-X2X9X0X,X+XOX6X<X<X6X,X<X0X&X*X7X*X&XqX7X<X7X7X6X,X6X<X&X<X<X+X<X0X7X6X#X,X6X0X<X7X<X<X1X<X5X9X8XVX;X:.$ q e e e u e q e w 0 < 2 0 w 2 9 < ; w w ; ; w e w y w 9 - w 9 8 0 8 - ; 0 0 0 8 0 8 9 0 0 9 y 0 9 w r 0 9 8 w y r 8 ; w y r 0 0 0 y 8 @ 9 r 8 8 0 r y 0 t w 0 9 r y 8 8 8 5 8 9 0 8 - w r r w 0 - 9 r 8 w w 9 6 r & m t.< 8 y w e @   O   X y y e e e x k * w.yX:.sX).  z u u y e e u H y e e t u H H u y u u LXLXLXLXLX",
"LXLXLXZ.o = < < 7 0 0 7 0 @ 0 < < 0 8 - & 0 w 0 o L.Q.*.a.q.= F u y u u y y       @ t 0 0 < < < N.: < w 0 y 0 0 9 w e 9 0 y t 8 8 0 0 r 0 0 0 0 0 0 8 8 8 8 8 5 y y y 0 8 8 0 r 9 0 r w 9 w w 9 ; 0 r 8 8 9 0 0 8 9 9 0 w 0 0 y y r 8 8 9 y r 0 8 9 < r w w 8 ; r 0 < 0 w 0 0 t 0 w 0 < < w w w y e 2 2 e e y e e e e k u . *.T.NX-X4X0XqXeX,X<X&X<X%XoXoX#X7XeX,X,X,X&X<X6X&X*X,X7X6XqX<X,X<X*X<X,X<X6X*X6X7X7X*X<X*X*X6X6X6X0X=X-X9XFX~.i & F l l e e e w 2 k 2 l z y e 2 0 < w e q w 2 w q w 2 e q < 4 - e k e e e q 3 3 l e 0 z % ] |.2X2X2X.X%X9X6X*X6X<X-X<X0X<X<X7X*X<X,X,X<X+X*X,X+X@X6X6X,X+X6X7X*X,X#X,X,X<X7X#X&X+X&X=X*X*X-X=X*X8XVX;X$.* q e q e n l e q e e q w 2 w q e 9 - w 9 w - w w w e r w ; - w r w r 0 w 8 9 r 0 0 8 5 8 8 @ 9 r y r 0 0 0 8 9 0 r w 9 0 0 u u 9 9 0 8 8 y r r w 8 0 0 0 r r 0 8 r y 0 8 r 8 0 0 0 8 0 8 y 9 9 8 w r r 0 w - - 6 r o Y u.& w u w e -       + y w w e e y e * | (.;.yX_.  0 u u u u u u u u t e w u H H u e e e LXLXLXLXLX",
"LXLXLXZ.# o - < 5 9 7 0 0 < 0 < < < r 9 7 w y 0 . L.W.*.d.q.= l u e f u u u       @ e < w e < - N.; < 0 0 t 9 0 9 w y w y y r 0 9 0 r 0 0 9 r y 9 8 8 8 9 0 0 9 x y 8 8 0 0 0 0 r y r w 8 8 y r 8 8 r 8 0 0 0 r 8 0 y r 0 r 0 9 8 r 8 ; 8 t 0 8 r - 8 w 9 r r - t w w e w 0 < < w w 2 < < w 2 < w w w q u e e e 3 e 2 l e . *.T.BX2X.X2X*X+X*X7X0X0X1X=X<X,X,X<X7X,X@X#X,X<X@X*X<X,X*X<X*X6X*X*X*X*X,X*X&X*X<X*X*X*X7X7X+X@X6X=X9X-X9XCX'.s & F 3 3 d e e w w e < y k e w 2 2 w w e 0 2 w q t w q e 2 0 e y e e z l l e 3 q d e u : i ;.;X3XBX-X.X.X*X6X*X8X<X0XXX,X<X*X*XoX<X6X+X,X,X6X6X,X&X*X,X@X<X@X&X<X*X,X<X*X7X6X<X,X6X&X=X*X,X0X5X*X,XVXnX$.$ q t 1 q e u e w w t e e e w w y w w 9 2 w w ; - w 9 2 9 w ; w 9 w y x r 8 0 0 0 0 0 0 8 8 5 0 0 0 0 0 9 y 0 0 y y y 0 0 0 y y 0 0 y y 0 0 8 0 0 9 0 ; 8 9 8 8 0 r r 8 8 8 u y y 0 0 ; - - - w 8 8 r 0 8 - ; w 6 r = m t.& y A 2 w o       + y r r e e y 2 * h.dX6.(.K.. u y e u u u u u y u y e y u H u u u u LXLXLXLXLX",
"LXLXLXZ.o < @ - 0 0 0 7 0 < @ < - - r y 0 0 0 - . L.x.{ a.V o u y e u y y u O     @ y 0 e e 0 < B.o < w 0 w 8 9 w w e y y r t t 0 0 0 r 0 9 0 y 9 9 8 0 0 y t w w 0 5 8 0 0 0 8 r y y r 0 9 r r - r r 9 8 0 r t 8 0 0 0 9 0 8 8 0 8 0 8 0 0 0 9 0 9 r r 8 w y w 0 0 0 0 0 0 w e 0 e 0 < w e e ; - w 2 q u e w 2 2 e 2 e e . ,.T.NX2X%XwX+X+X,X,X9X<X<X2X<X*X<X<X<X<X<X*X,X,X,X7X<X&X,X*X#X<X1X6X6X7X,X,X#X*X*X6X7XXX+X0X7X8X7X6X9X=X6XCX'.c & t l 3 q t y e e e e e e e w w w e w w 2 q 0 0 0 e 2 q w w y l e e w e l e e q 3 < 0 e h %.;X>X-XeX5X*X=X7X7X6X*X=X<X&X#X*X*X,X<XXX*X7X*X+X,X6X6X,X7X,X,X+X&XqX7X7X*X*X<X*X,X*X<X,X0X=XoX=XwX5X#XrXnX:.$ u e 2 t e q w 0 < 0 e y e e w ; w w ; w y w 9 - ; 2 9 2 8 w - 9 y u y y w 9 0 0 9 r 0 0 9 8 0 0 0 0 8 8 0 0 0 0 0 0 8 9 0 8 r y 0 y y 8 ; r r r w 0 8 0 9 r 9 0 0 0 0 8 8 0 9 8 9 0 r r y - 9 r w y 0 8 - 2 < 9 r o m t.0 y u 8 < @   O   + w t q l e u w * w.(.5./.z.X w y u f y e u F u H u u u u u u u f u LXLXLXLXLX",
"LXLXLXD.- o < & 0 0 r 0 0 < - - < - w 0 < q y 0 . L.k.} s.V o H u t u e t y       @ u 0 0 2 2 2 C.< 2 w w w 9 r y 2 r r 0 0 9 r 0 9 0 0 8 5 8 t 0 0 0 0 y 0 9 0 ; 0 0 0 9 8 9 8 8 w y y r w w - ; 8 w - 8 9 0 0 9 0 t 0 0 8 9 0 r 8 0 y y r 0 0 9 9 u k 9 - y r r 0 < < @ & r u 0 w 2 w e e y 2 9 2 3 q e e w 2 3 l e e t * ;.R.NX-X4X&X,XeX+X,X&X&X<X0X<X&X*X@XoX,X7X6X6X7X<X6X*X#X7X&X+X&X,X<X*X6X,X6X*X6X*X6X@X@X+X+X*X*X*X=X=X5X9XAX~.p : u l l q q l z z q z e 2 w 2 < < y 2 0 0 0 2 < 2 e - q w 2 2 e w e 2 w q 3 3 3 3 2 q g * } {.>X-X0X=X=X,X5X@X*X*X6X<X0X<X<X0X0X<X<X&X<X&X&X<X<X,X+X&X,X,X6X6X*X<X+X<X7X<X,X6X0X+XoX%X<X6X9XwX=X+XVXnX$.. e q 1 e e q e e q w e q 0 e w - w y w ; w w w 9 w y y w - r - 8 y z y r y y 0 r 0 0 0 0 8 9 0 r 0 0 9 8 9 0 r 0 9 8 5 9 t 8 y y 8 8 0 r 0 - 8 - 8 0 8 8 - 0 w y 0 9 8 8 ; 0 0 8 8 8 8 8 0 9 r w r y y 0 9 0 0 9 t o M t.l u F 0 w 7       X t 7 r u e w q . L.pX;.(.L.. z z H H w w f f e H u u H n u y u e e LXLXLXLXLX",
"LXLXLXS.@ < < < < 0 t 0 5 0 < < < & ; 0 w 0 y < * K.f.1.g.... u w e w u w y       + e < < q & 2 Z.< 2 y 6 0 t 8 r 9 w w 2 y y r 9 5 w 0 9 0 9 8 y 0 y y y 0 8 5 8 w 8 w 0 8 0 9 y 0 8 w y y r 0 0 0 0 8 y w 0 0 - - r w 9 - 8 8 ; 8 9 0 t y 0 8 r r w w 0 0 r w w 0 8 0 w 8 w r w w w 0 w w 0 0 r w k e e e 0 q j 4 4 2 g . { R.BX2X2X1X#XXX&X7X,X+X*X*X=X&X<X<X0X7X&X+X<X<X&X<X0X&X,X*XwX0X,X,X<X&X*X#X6X6X*X=X<X0X0X*X<X<X-X<X+X*X5XAX~.c = l k l u u l u u w < l e 0 2 w w q w e e 0 w w 0 < < 0 q e 0 q 2 q e e q 3 2 1 3 e e 3 i [ bX:X1X4X1X1X9X0X6X#X%X7X&X*X=X7X=X+X6X*X&X*X%X0X&X<X*X7X0X<X%X=X=X&X<X*X8X*X=X+X<X<XeX*X%XwX#X6X=X:X6XVXNX&.o 3 e e t e 2 2 w e 0 0 q w w q e e w 0 w e y y 0 t y 0 9 - 9 0 r y y r w 8 0 8 8 0 w y y y 8 9 w r w 9 w 8 8 0 0 8 8 r w ; r 8 8 8 ; - 8 0 9 9 8 0 8 8 w r 8 r r r 8 w 0 0 8 y r 9 8 8 0 0 @ 0 < & 8 0 0 8 A r 0 w X M t.o < e 0 w +       o t t r y y x e . a.(.;.(.U.* t e y u H u t K y u u u u u n H y n e 0 LXLXLXLX",
"LXLXLXS.@ o - @ @ < 0 @ @ 0 < 0 & < ; 9 0 - 8 - # K.W.2.s.| 2 0 t y e u y u       @ t < < 2 < 2 C.= < w 9 y y 8 9 2 2 ; ; 9 r 9 0 0 t y t 0 r t 8 0 0 0 0 0 0 9 r y 9 r 0 0 y y 0 ; 9 r y w r r r 0 8 8 0 9 9 y 9 9 y y y w w 9 @ 0 0 r 9 0 y 0 0 r r 9 r 8 0 r r < 9 0 r 8 ; 0 e y w 2 0 q 0 w k w w y e e w y k k 2 w q * *.R.GX2X2X2X7X8X,X7X#X6X7XqX6X*X=X&X=X*X6X&X*X0X*X*X&X=XwX<X#X%X<X<X&X<XqX7X&X+X+X7X%X*X*X%X<X<X<X0X<X&X9XZXc.j > z j j x w e e q w w q 0 < 0 w 2 0 e q 0 q t e e 0 w 0 0 2 0 2 2 0 u e e e n e e w z l % &.bXnX-X@X2X1X-X2X7X*X@X,X0X*X@X*X*X=X6X&X*X5X9X6X6X6X=X-X0X<X&X*X,X*X<X<X5X5X<X<X<X&X*X*X9X9X#X5X-X=X*XVXnX>.o b 3 ; H & e w e 0 < 2 q 2 w e t 0 0 - 0 w y 0 9 0 0 0 r 0 w 0 0 0 w r 9 w y 0 9 0 r w w y 8 w 9 r r w w 8 8 0 y 0 r r r 8 8 w w r w 9 0 r 0 0 9 w 8 8 9 r 8 8 w 8 w 9 y y 9 9 9 @ ; 0 0 t w w r 0 w 0 9 y t r w q 2 G p.= < y t t 5       . 0 t S S S 9 - o s.(.5.zX_.. & e 0 u u q u u u u e u u y u u e u q 0 LXLXLXLX",
"LXLXLXS.o o = @ @ 5 0 5 - 0 2 q < < - r 0 < 0 - * L.E.1.s.N X 0 e u t z y u       @ y q 2 q : 3 D.< < y y A F 9 x 9 2 9 0 y r r 9 5 0 u y 0 0 y 0 r y 8 5 0 0 5 8 y 8 8 8 8 r 0 8 @ 8 r w ; 8 y y y r ; 8 8 0 t r r y r r w 8 w 0 y y 0 0 0 r y 8 0 0 9 r 9 - 9 r 0 0 0 w 8 w 8 w e 0 0 w w q e x e w e f e t l j j j w g * =.9.nX4X4X-X5X5X#X+X8X7X8X*X.X*X<X9X6X%X<X0X=X6X0X0X6X%X*X<X*X%X<X*X7X6X#X*X*X5X*X7X7X6X*X,X*X*X*X6X2X4XwXFX~.s : b j j e k l l e y z l w 2 q 0 < - 0 2 0 0 w w t w w e 0 2 w w w 1 q w e b n b e 1 y e : &.{.:X4X1X<X.X%X=X6X6X,X<X=X*X5X6X7X7X7X*X*X<X&X#X+X*X*X*X*X*XXX#X7X6X*X*X5X#X5X8X7X5X$X+X-X<X6X8X1X4X+XVXnX&.* q l k u e e 0 e w 0 w e t w 2 0 w 0 < 0 0 y 0 8 8 0 9 0 0 y 0 9 5 - 9 w w y t r 0 y r r y 9 8 0 w r y 8 8 ; 8 r r r 9 w 8 8 8 8 r r r w w 0 0 r r 8 - - 8 y r r 0 8 8 0 y y 9 8 9 0 0 w t y w w y r 8 8 y A r 0 2 4 k t.< 0 f y u 7       o t r r y y t 0 . a.(.;.).).* n e w u e w n w u u u n H z H H u f e LXLXLXLXLX",
"LXLXLXS.o o < @ - @ w @ - 0 0 2 & < 8 r 0 0 y < * ).E.[ h.q.4 w u e e y y t       # e 2 w e < 4 Z.: < e y u S 9 x 9 9 k r t A t 0 ; 9 w 9 9 0 y 8 r 0 9 8 9 0 9 w y r r r 0 y 8 0 0 0 y 0 8 8 0 r y y w r 0 8 9 8 8 w 0 r 8 8 8 y y 0 9 9 0 0 8 8 t 9 0 y w - r r y 0 t w w 9 - < w 0 0 e w w y x k w e u e t e k k e e U * -.9.BX>X4X*X+X#X#X8X#X*X*X5X*X*X*X#X*X*X*XqX<XoX=X+X#X6X7X<X&X<XeX=X8X6X&X5X5X8X,X6X*X*X<X<X*X<X@X=X2X<X9XFX~.s $ 3 k k y w 4 3 y e e w w q z e 2 w 0 < < 0 0 0 e u w w w q e e q w 1 e e e e e e e y 2 $ =.aX:X-X1X7X6X9X%X$X&X1X<X#X5X*X&X*X*X6X7X6X*X*X6X6X6X*X8X6X7X8X8X5X#X#X8X8X8X#X+X*X7X#X*X2X<X+XOX<X0X,XVXGX&.* < e k o e q w e e q 0 e w < w e w t 0 0 < y 0 9 0 y r 0 9 0 0 8 0 8 r 8 r y 0 9 8 8 8 8 w r w 8 r w r 8 8 w 8 8 0 w - 8 r r w 9 8 8 8 8 r w 8 8 8 r w 8 8 y y 0 r 0 ; 8 0 r ; 9 y r 0 w 0 t 0 0 0 - ; 8 w 0 < 3 ; = K t.q 0 e t t 5       & u r r y y u e o s.yX$._.K.. n u H H u u u w y u e u H H H n u n e LXLXLXLXLX",
"LXLXLXS.o o < - - 0 0 7 < 0 < < & < 9 0 0 2 t - > ).f.%.l.0.< u u e 0 u y u O     # e w 2 w = < C.4 2 e w r r r y 9 8 2 w w e y 8 w 9 w 8 w r r 0 8 9 0 0 0 0 0 8 y y w r y y 8 r 0 y 0 w 8 8 8 8 w y r r 8 - 8 ; 8 0 0 9 w r r y r 0 8 0 0 0 9 8 w 0 9 y r 8 0 r r w 8 w 9 9 w 0 w 0 w u e w w ; k y w e e w w j k e e f * -.R.ZX>XoX2X1X#X*X6X,X&X*X*X6X,X6X<X*XeX*X&X&X&X9XoX*X*X&X<X6X+X&X<X+X=X<X=X8X&X&X*X*X1X<X<X*X7X=X=X5XtXtXZXQ.> > e e u u y w 2 y k e w 2 w u w < w e t 0 q w w w y w w 2 w e e q w q e e e 3 2 e z 0 m . ] }.>X&X6X$X#XqX7X#X8X1X1X<X1X*X&X&X*X=X,X6X*X<X*X0X*X6X*X#X*X5X5X*X5X8XqX5X5XqX5X5X6X5X7X5XqX8X8XqX1X&XCXnX,.& f e ; 2 < e e e e 0 2 q 2 y w e t t 0 0 0 r 0 9 0 y r 9 8 0 9 w 8 r w 9 8 0 0 8 8 8 0 0 8 r r 8 w 9 r 9 - w 0 - 0 r 8 8 w r w r w 8 8 w 0 y 0 8 5 9 w - - 0 9 8 0 0 0 9 0 w 8 0 0 0 0 t r 0 r r r 8 - 9 w o q 3 2 b e.#.2 t u r t 0       # q w w w y y w & d.pX2.(.L.. g n I A z f y u y u y f H H F H H n e LXLXLXLXLX",
"LXLXLXS.@ @ < < @ 5 0 @ - < < - 2 0 9 0 0 0 y o $ P.f.1.d.| : 0 u u w n u u O     + q w q q < 2 t.1 q u y t r S y 9 9 9 8 9 0 w w r r 9 8 w y 9 y 8 9 0 r 0 9 0 8 r 8 - 0 0 y 0 9 0 0 9 9 r w ; 8 r w 8 r w w r w 9 r w w w 9 w 8 0 0 9 8 9 0 t ; w 0 0 y 0 5 8 9 w r 8 8 r w 2 w e 0 w u 0 y e w l l < q z e e l k e u 7 * Z ~.GX-X[.1X+X1X*X#X#X%X<X6X9X*X<X<X<X:X,XoX&X6X<X9X<X6X&X%X<X0X4X.X<X<X<X-X<X*X1X-X<X-X-X4X4X-X=X=X%X5XCXKXQ.* % D u F A A k w y l z l e e e < < w u e 0 w e e w 7 u y q 0 w w e e l q 0 2 q e e q 0 n > v }.;X$X,X<X*X5X&X+X,X1X&X7X0X2X<X5X5X%X&X<X=X1XoX&X&X-X*X0X#X-X5X*X6X6X#XoX5X5X#X*X&X+X%X%X#X#X#X<X-X-XCXmXZ . D y e l l z w 2 w < < 0 0 u e 0 < 2 0 0 < t 9 8 0 0 0 0 0 0 0 8 0 w 8 8 8 0 y r 0 r y y r 9 8 8 - w 8 w r y ; 8 9 w r 8 w - 9 8 w r r 0 9 y 0 8 9 r y 0 ; 0 9 0 w y r 0 t 0 9 y y 0 0 0 0 0 r r 0 8 9 r w & d : n W ^ < # e t 7 t 6       o 0 w w 9 k y w * g.yX;.(._.. n e H u u u e u u H u n H H n n H u q LXLXLXLXLX",
"LXLXLXS.o o < < & 8 0 5 @ 0 - - q q 9 8 0 0 y @ % z.3.f.l.N 4 K u n y n u A       @ e 0 0 q < 3 t.: 3 e w 0 r r y 9 r y 9 w w w y 0 - 9 8 r w - y y 9 0 0 0 9 8 w y 9 r y 0 y y 5 0 9 0 r w r 8 9 r w - r r 9 w r r r 0 8 - - 9 8 0 0 0 8 9 r y - r r 8 0 8 8 0 w r r w w r w 9 t u & t e 0 y e e y e w e u e e l k y u 7 1 s %.|.:X[..X.X%X=X=X9X=X>X>X.X.X>X%X-X>X-X-X:X-X.X>X-X>X.X>X>X>X.X.X>X.X.X.X.X.X.X>X%X.X.X>X.X>X-X:X3XnXCXGX%.* q D t y y y r ; w w w q w w e q w e e w 0 < 0 e w @ e t 0 q 0 q e u e q 0 q e e e 2 y : i s ~.SX>X=X=X>X%X%X5X8X*X1X-X%X-X%X>XoX>X-X-X9X=X9X-X5X-X%X%X%X5X5X-X5X=X5X9X5X%X5X=X5X5X9X-X5X5X#X%X5XZXKXaX> & t e z - l e < 0 w 0 0 e w u e w r q 0 < < y 0 8 9 0 y y 0 r r 0 9 8 9 - 8 8 8 9 8 8 r 8 ; w 8 w 9 8 8 8 w y r w w 9 w 8 8 8 8 w w 9 0 0 8 0 r 0 9 0 y 0 8 0 r y y y 0 0 9 5 w t t t r 6 5 8 0 9 r w 8 8 w : > b X.( d . t t t r A 0       @ e 0 - ; k y y * g.!.>.W.P.. w e u u y u u u H u e y u y u u u f e LXLXLXLXLX",
"LXLXLXS.@ @ < 2 w w w < < 0 < < 0 < ; ; < 0 w o i ).E.,.d.N o z H H y u y u X     # 0 < < 2 @ w N.3 e l u w 0 r r 8 r w 0 - 9 2 z 9 8 y r w 8 w y w 0 @ 9 0 t 8 r r ; w 0 8 0 8 0 5 9 w y r 8 0 9 w 9 8 w r 8 8 w w r 9 w r r r u y 0 8 8 0 0 8 9 8 w r 8 8 9 r 8 8 9 - 8 8 - ; 0 e @ e u 0 u u < w w e e e w w k e y e g g * v }.DXSXDXSXSXDXSXSXDXDXDXDXDXSXSXDXSXSXDXDXDXDXDXDXSXDXDXSXDXDXDXDXDXDXDXDXKXSXDXKXSXDXDXDXDXDXDXKXKXMX>.. * u t z t t y z z u l 2 0 2 0 w q 0 w < e e w 0 t y w < < 2 0 w 2 w e e e e e e e e e e q % > ] MXKXSXSXDXDXFXFXFXFXFXSXSXDXDXDXDXSXDXDXSXDXSXDXSXDXDXSXDXDXSXDXDXDXDXSXDXSXDXSXDXDXFXDXFXDXDXDXKXKXGX] & i @ y z ; r e w e u e e w w e t w e u e 0 0 y 0 8 0 y y 0 0 0 r r r r r y w 9 0 0 t y y r w 9 w r r 8 8 8 8 y y r r 9 8 8 9 r w r 9 w 9 w r 0 0 y 0 y y 8 8 9 0 0 0 y y 0 - 0 t 0 0 r t 0 0 y 9 r y r - - 2 4 b r.W : o < w t t 7 t 8       X 0 w 2 k 9 9 6 . g.!.E.uX).. I f y n y e H u u H u u u y f n y n u w LXLXLXLX",
"LXLXLXS.o - < - - 8 0 @ < 0 - @ < < r 9 0 0 0 < > K.f.[ d...w P H w u u u t +     @ w + & 2 o n t.m n n 0 < t 0 y r 9 6 t y y e 8 8 r - - r r y y 9 9 8 r z y t y 0 8 8 8 r y y 0 9 0 r 0 y 0 8 w r y r 8 r y - 9 9 0 r y y < 8 r 9 0 0 0 9 8 9 5 0 y 0 8 8 0 0 ; 8 r y w 0 ; ; w < @ u u w < y 0 w e y w e e 2 q e q t e 1 > * i s.x.k.f.c.c.c.x.c.x.f.g.l.k.d.k.k.j.f.k.c.x.k.c.f.f.k.c.f.k.k.k.g.f.j.j.d.d.f.d.s.d.4.<.d.s.s.k.-.v o o 1 e w k j e w e e w < q w 0 2 0 e 0 0 0 t q 0 q u e & ; w w < 0 e e 2 0 < 2 q e e e e w 0 q : * v f.c./.x.j.c.l.k.f.d.4.4.s.f.k.f.d.d.4.d.f.d.4.4.=.=.-.=.&.=.=.=.=.=.-.-.4.4.s.f.j.d.d.d.4.3.f.j.-.s o $ 2 t y e e k n e q 0 0 e u e w w 0 < 0 t w w ; 0 0 8 0 y r 9 0 0 8 8 0 0 w 9 r w r w w r r w 0 0 w y w w 0 r y y r 8 r y r w 9 8 8 0 8 8 9 0 8 9 9 8 9 y w ; 8 8 8 8 8 8 9 9 0 e t 0 0 r r 0 0 r 0 6 - w < < M ( W 3 @ < q t r @ r w O       + 8 8 0 ; w 6 f * L.!.6.(.).. D f u w w u u u H H H u z u H n H n n w LXLXLXLX",
"LXLXLXD.o - - o < < 0 @ & 0 < < & - 9 9 < 0 t : i K.f.[ d.V q y D w n u H u O     + t < q 0 # q M.m 3 0 e w w u 9 r 0 9 0 0 w w w r y r 9 w 8 8 8 8 t 0 9 y 0 0 r 8 8 w 9 w y r 0 9 5 0 y 0 9 8 8 0 r w w r y w r w w w r 9 8 - 9 0 0 y y y 0 0 0 0 9 y 0 9 0 y t 9 w 0 8 0 w y u w w w y q 0 e w w e l w w w e 2 e t t u 3 3 : o . # . . . .   . o . . . . . . . . X . .   . . .   . . .   . . . . . . . . . . o . .   . * . . = o . o 0 z y 4 4 k j 4 2 w w e < 2 w 2 0 3 0 2 2 0 w w w w 0 0 e w 2 w e w e w q w w q e e e e F u u e : $ * . . . . * . . . . . o . . X .   X . . . . .   . . X o X X . . o . . . . o . . = . X o * $ * . . * 4 1 < q e e k y w 0 2 q 0 0 0 0 0 0 0 t u t w 0 - y y 0 9 0 0 9 8 9 0 8 0 9 w w y 8 8 0 8 ; w 9 r 0 r r 9 8 9 r 8 - 8 w y y y w 0 0 9 9 0 0 8 0 8 0 0 0 r y r - 0 - @ 8 y u y t w w 0 8 0 t 9 6 0 0 0 0 - - w n W W b : < q 7 0 0 t 5 O       O r 0 - ; 2 O L q * ).aX:.(.).. D H n w y u f z H u u H H u n u H u u q LXLXLXLX",
"LXLXLXD.X o : - @ @ @ 5 @ 0 w 0 < - ; 9 < 0 0 < % L.E.3.g.N < H u y H H z u       . 0 0 0 e @ < K Y R M e q w w 9 r r 0 - 9 ; e 8 0 y t w r 9 8 8 0 y 0 8 8 9 y 8 8 r r r y y - 0 0 0 0 r y 0 8 r 8 w y w 9 r r w r 9 w r w 0 9 0 y r 0 t r 0 9 y 9 0 r t y 0 y r 0 0 8 0 8 w w w 0 w 7 w 0 y t y w e e e 2 w l 4 e u u q 1 3 3 1 3 1 3 $ : > c 1 > 4 1 > 4 4 4 > 4 a 1 4 : : > 4 1 3 1 : : 1 4 > 4 4 4 4 , a 1 4 : : : : 4 : 1 1 g 0 0 y S 2 2 4 k 2 2 e e y y ; w w w 0 2 0 q 2 < 0 u e 0 0 y y 2 < y w < < w w q e w w e e u y w t f d a a 1 1 1 e 4 : , , , : : > : > : : 4 1 > : : : , 4 1 3 1 4 4 > : 1 1 1 3 3 : : 1 4 : , > : : 1 1 4 4 4 < < < w w 9 w w - 0 u e 0 0 q w 2 0 w y t r 0 r r r w 8 0 0 0 0 9 8 w r r r 9 y w w 9 8 8 w y r w 8 9 9 8 w w 9 0 8 r y y y y t 0 0 0 0 r y 9 5 8 0 8 - r r 8 w 8 8 0 y t w 8 w w w t r 8 9 y 0 0 w 0 < < z W #.M : & q t 0 0 y <         O r y S u 9 X y t & * j.E.} uXL.. 0 H H y u H u n u w y u u u y y y e u < LXLXLXLX",
"LXLXLXD.# o < o + @ @ 0 < 0 2 < 0 - ; 9 < 0 0 & s d.E.3.g.V o L u u H n u <     O   o @ & t 0 & < l W ^ b 3 e < r r S r 9 8 w e 8 8 r 0 8 y w y y 0 0 8 8 y 0 t w - 9 w w 0 0 ; 9 0 0 r 0 0 0 r y w 9 y r w - 8 8 8 r 8 0 8 w r 0 y y 0 0 0 9 @ w y 0 0 0 y y 8 w r r y 0 8 - - < 0 0 o 0 w e e w e 2 w 2 0 e l 2 n u y 1 2 e q & 2 e 1 : 4 e 1 1 o 1 3 2 1 3 1 & 2 1 2 < : : 2 : < : < : 2 3 1 $ : 1 2 3 : 3 : 1 2 1 2 2 q 1 1 2 < 0 0 9 9 9 x 2 3 w e e u 2 2 2 q e q 0 w e e 0 0 e u w 0 < e e - ; w e - < w w e w w 0 e u u 0 t A t < < & d e 0 2 = 4 : 3 : 4 2 3 4 3 1 4 3 1 4 4 1 4 3 3 3 3 3 2 1 2 2 3 2 : 2 2 4 1 2 1 4 = : 4 2 w e 9 X ; 2 q e q 2 w 9 w 0 0 e 0 0 t u t 0 0 r t w 0 0 - 9 w 0 0 0 y y r 0 w 9 w r w w r 9 y r 0 r y y w 8 8 8 w r 8 w y r w 0 w w r y r 0 0 8 0 y k r 8 9 0 8 9 8 w w 9 8 r r 9 8 8 8 w y u y 0 6 9 y 0 0 0 2 2 n R W j 2 - 2 0 0 t t y           y L G F L G l z @ : * _.!.E._.L.. L u H y n H u z u f y u e H f u e u e LXLXLXLXLX",
"LXLXLXS.6 ; < - 0 0 0 5 - < @ o 0 < 8 9 ; 0 w o h g.f.%.{ ..2 F D u u w 8 @     O   . @ & t t 7 < . q W R b l w w t t S y r r r 0 9 0 9 8 0 0 y 9 8 0 0 t y 9 9 0 8 r 0 8 w 8 ; ; 0 0 0 8 5 8 9 x w 0 y r - 8 8 9 w y r 8 0 w 8 0 y y 9 8 0 9 @ 0 0 0 9 0 0 0 9 r y y 9 8 8 0 y e t w e < q 0 t t w w 2 w y e 2 e b y e 3 2 l u f q q q 1 1 q : q < q n q q d q 1 1 q 1 1 3 3 3 q 3 1 1 3 q d 3 e q 3 q 1 1 3 d 1 1 q q 1 q 1 1 4 1 w y S r 8 y y e w t t u 2 - w q q q q q e w 0 e u e w 0 < < w w ; w e w w w 1 0 0 2 q e e e e b f t q d e e f 0 q 3 , 4 e 3 q 1 1 q d 3 1 q 1 q q q q q q 3 1 q q 1 q 0 2 2 q q 2 & < 1 q e 2 2 q q q < 9 x r e d f d t w w y w w w < 0 e e 0 w y y e w 0 5 8 8 w 9 0 y y y r r w 8 9 r w r w w r w 8 0 r r w w - w 0 w 8 r r r 9 - 9 8 8 0 0 0 0 9 0 y y r 0 0 w 9 - w r w - 9 0 8 @ @ 8 y w w 0 9 0 y 0 @ 8 0 < 2 b Y Y l $ < 0 w 7 t y t X         t L F D T L A P b b o % xX!.3./.L.. f u H y u z u z n u e y w H u f u n n 0 LXLXLXLX",
"LXLXLXS.o @ < < < 0 7 @ @ @ - @ 0 - ; 9 < < < o i _.E.3.w.c z F A y 0 0 w w 0 @       X @ 0 w & t & X e R m j l w w r t y y 9 w 9 9 0 0 8 0 9 y 8 8 r 0 0 0 0 0 y 0 9 0 8 r 0 8 ; 8 0 0 8 8 8 y r 0 9 w r 8 w 9 8 8 0 r r r y y 9 0 0 8 0 0 0 0 w 9 9 0 0 8 9 y r y r < 5 9 w y y e r y 0 0 < w 0 w w 3 k l e 4 3 e t e 3 e z u t t g q e q g n q q d f d e f 1 3 3 q 3 q 1 q 3 e 1 1 1 q 3 1 q d d q 3 q 0 q q q 1 q q q q q 3 3 3 w r r 9 < y w y t w t 0 w y 2 2 w 0 2 0 w < < q u 0 0 w w - ; e w 2 ; e 2 w w q 0 0 w e q w e l d r q 3 3 j e < 3 3 3 2 3 d d e q q e q q d e e d d d d d e e e z e e q w q f e q q q q e e u w q q 0 q 9 ; y 9 7 1 q e e ; e w e e t y y 0 & t u t w t w w r r r 8 9 0 0 0 8 8 8 8 8 w w r y r r ; ; 8 r w 9 9 r r r 8 8 w 8 - 9 w 0 0 0 9 0 9 9 8 8 9 w r r t r r r 8 9 w 8 0 0 0 9 9 0 9 0 w 9 9 y t y @ < < w l B E M : < 0 w 8 t t t +       X w H F A H A L A < l M o { (.E.R.sXL.. u u n u e y u u H e w e y u n F u n n q LXLXLXLX",
"LXLXLXS.# @ < < & 5 @ @ < - < < < - 9 9 < 0 0 $ a _.W.E.s.c e H D u w e n H H z @ O     O o 0 r 7 q < 4 b m b z n t 0 r y 9 8 r y 8 0 r r y 0 r 0 0 0 9 9 9 0 y 0 9 r 0 0 r 0 9 - r r r 0 0 0 y w 8 r w 8 w r - ; 8 0 0 y r y y 0 9 8 0 0 0 r y t 9 5 y t 8 0 u 8 w w w w w 0 8 0 0 0 w q 0 w y t w w 2 x y 3 2 3 e q q 4 j y t 0 e u < u e e 2 q q e e u e e q q e e 2 q q e q w 2 0 1 e 2 q e q 3 e e q e q w 0 1 q 2 < w 2 3 3 3 t r r 0 0 e 4 w 2 q y w 2 k - w 0 2 0 q 0 2 < 0 t 2 0 e w w w ; w ; - ; w 2 w 2 0 e e w w w = w y z e e 2 k w e e l 3 3 t t e q w 3 3 2 q e l e e q q e e e e q e q q e 2 q e w e e w 2 q 0 - u g d 1 3 e x x r 0 t t g q e y w w y e e w w w w 0 0 0 r t y y y 0 0 0 0 0 9 8 ; 8 w 9 w w r y r w 8 - r y r 8 w r y y 8 8 8 9 8 r r t r 0 r 0 0 0 0 r w 9 r r w 8 8 8 9 w r 0 0 y y y t 8 8 0 0 0 0 y y 9 0 w 0 d m W n , : e y ; 6 y r +       X e J F A F H I A D R b $ G._.f.E.7._.U.. z f u n y u n t u u u y f H H H H H n 0 LXLXLXLX",
"LXLXLXS.o = < < 0 0 w 0 0 0 < @ - - 8 8 0 0 r & p _._.3.| s 1 K H H H n H H H H H 0 .     O 0 w & 0 < < = e M m Y n 0 0 r 8 0 y u 0 w 0 y y 0 0 y 9 0 0 y y r 0 0 8 0 0 9 0 0 @ 9 w w r r y t 0 0 r w 9 8 r w 9 0 0 y y y w 9 - y r 8 8 9 0 0 r y y 0 0 r y y y y y r 9 y y 0 < 2 0 w < e 0 u u y w 2 2 e y l l 3 q w q e 2 w 0 0 u n e l 2 q e e e q w e l e q 2 y e e e e e e w e u e e z l l e e l 2 3 e l l e e l l q e w q 3 3 t r t 0 2 e 3 2 < 0 u y < ; 2 2 0 2 w 0 e e w e e 0 0 0 w w w w w 2 w - w q 0 0 0 w w w w e z 2 r y y k k x k l x z l n u w z e l e e w 3 e z l 3 e e l e e e 2 l e 3 e 2 e z 3 e e 2 q n l n y q d b 3 ; k 9 y e q & 1 < 2 u & 0 w 0 0 r 0 t 0 r w t w 0 w y y r 0 y r 0 8 8 8 w r r r w 9 - 8 8 8 - r y 8 8 8 r w r 8 ; 8 w w y r 0 0 0 0 5 5 9 0 w 8 - 8 r 9 0 0 w 8 0 r y 0 9 8 9 0 0 r r 8 8 9 y y 8 ; e 0 n E K 4 : q w 0 6 r S 5   O   X z J z u H H F P Q H : > i.jXj.1.$.} /.| : y e 0 H y n H 0 w f y 0 u u H n u H n q LXLXLXLX",
"LXLXLXI.o o < < < 8 < < 0 @ @ - 2 & @ 0 S y r 0 . c z./.d.| v p H z z M z H L D H u w & .     @ 9 0 w 0 & o 4 Y b M n w 2 w - y u y 9 w r - ; w - - y x r r S r r 9 9 y y 0 9 8 0 8 0 y A y 0 9 ; w w 9 8 8 r y y 0 8 0 y y 0 ; 8 w w w 8 8 9 y y u y 0 5 8 w x w w 0 w w w t w < 0 w e e w e y y w w w y y 3 2 l k k w 2 4 - 2 l e q e 3 e e 3 q e q 2 3 e e q e 3 4 q l e e 2 e e b l e 2 q e e l y 2 2 2 w w y e l e y l k e < 2 w e e e e e q 3 q q q 0 2 q w e e q w 2 w e w w w 0 < < 0 e 0 y u w w y w 9 2 r w e w 0 2 0 e e e u e 2 e e l e z l e b q e n q l e e 2 2 e 3 e q w q b b e 2 q q e 2 2 w e 0 e e n f u n u w q e l e w e e 0 < q e e q e e 0 0 0 0 0 < 0 0 0 w y y t 0 w t 0 9 0 0 r w w y r w 0 r w r r y 0 y y 9 0 y 0 0 9 9 0 0 8 8 8 0 0 0 8 8 8 r r - 9 0 0 9 r r r - r w 8 - 8 w 0 0 w 0 8 8 8 8 0 t r r r y 0 @ - 2 e M E K e 2 < 0 0 r r r 6 X     + f U D L e l x x P z n % s.vXE.} $.&.k.q.> e y w 2 0 e z n u q w u w z u H H H n n 2 LXLXLXLX",
"LXLXLXI.- < @ - @ & 0 0 7 @ 0 0 & < 2 0 6 5 8 9 = o c P.uXz.g.c = R J M J I L L t H D e #     O 5 t r 0 < - < l R n J J q e u w y r r r w w w e w w w w 0 r A r 6 9 0 t 0 0 0 0 0 9 0 r y y w 0 0 r r w w r r y r 0 0 9 0 w y r w 9 r r w - 0 r y y y r 0 0 9 8 8 0 y y 0 0 0 t q 0 0 0 0 0 e y e w w e l y e w e u e e e e e e q e b e e q e e e 2 2 2 3 e l n e e e e e n e q 2 q q l e e e e y l e l y e e 2 2 e w 2 w e e e e e e e e e e e w w q 2 2 2 w e w 0 w w w q w w q 0 2 2 2 0 0 2 8 0 0 0 w e w w w e e w e w q 0 0 2 e u e e e e w e l 2 e e 2 3 l e b e e b q e e e e 3 q l e 2 n e w q e e q e 1 e e e q 2 q 2 2 w w e w 2 < < q 0 q n e w 2 w 0 0 w w 0 < < 0 e e y t 0 0 r w @ @ 8 r y y r y r w r 0 8 9 - w r 0 u y 0 y 0 8 0 0 r 0 8 8 0 r t 9 w r y y y y r r w w w w 9 - w r 8 9 r y r 0 t w w r t t 0 r 9 y y r w 2 0 2 n Y K e & < t w 0 t 0 8 +     X t D D D H J x x G P n : o.kX(.E.6.E.k.g., 4 8 r < w e e < 0 z J e n H H z u n z H n < LXLXLXLX",
"LXLXLXI.o < - < @ @ @ 0 8 @ - 0 r 0 0 @ < - < = = 2 . > u.).P.K.c p m J F G L A D n H F t -     O 7 7 < < : & 2 M m R M n l q q 8 8 w r 9 2 ; ; r 0 y 0 9 r y y 0 0 y y r 0 0 0 0 r w 9 8 r r 8 w r r 8 8 r y 0 0 y 0 8 8 0 w w 8 r y r 8 r w 8 8 0 0 0 0 y w r - 0 t t w 5 8 0 < 0 0 0 0 0 0 0 y 2 w y k y 2 w z e e w l l e e e e e q l l e 3 < 2 w q e e e e 3 w q e 3 e e e d e e b e e l l l y e e y l y e e e y w w e y e e w q q w u e e q w 2 0 < 0 0 e 2 < < 0 e e q w q 2 2 0 t 0 0 2 9 - - r 9 ; 9 w w w w w w 2 q w q 2 e z e q e q e e q e e e 2 e e q e e e n q e l e 3 q e z e e l e q q e u e e e u e n e q e e 0 q e e e e q 2 e u w 0 0 2 < w 2 2 t e w 2 0 q t q w r 0 0 0 0 8 9 0 0 y y r y 9 0 w 0 w 8 8 w 0 0 t 0 0 y 9 5 0 9 0 0 8 0 0 y r 8 8 w w 0 - 9 w w 9 r 8 w 9 r r r w w y r 0 8 0 0 0 y t y 0 0 r r y 0 0 0 l z W R e o o w r 5 t t <       @ r H H l J H P J G G M = a._.f.1.3.6.3.g.| $ < @ ; < < w e 0 w u n H n n u H u H n n K w LXLXLXLX",
"LXLXLXI.# o - < - - @ 0 @ 0 7 0 t 7 < @ - < ; = w o # % p G._.-.iXC * J 9 P u A F A A S H F <     O @ & < < - : = z K M K n < e w r w w y y y w 2 9 r 0 9 9 r 9 5 w y 0 9 9 0 r 8 0 w 9 0 y 0 ; r 8 8 - 9 y t 0 0 0 0 8 8 9 9 r r y y 9 8 w r 8 9 0 0 9 0 y y y 0 w u u r 0 5 0 @ < 0 0 0 t 1 < w w w 2 y z l w y e e e y e e e l e 2 3 e l e q 2 q b e e e e e 2 q 3 e e 3 e e e e e e q 3 q e e e w 2 w e u k l y e k e e 2 e q 0 0 w w e e e w 2 w w w < 2 w e 0 < < w e w < 0 0 < w e e q w y w 9 e r 2 w y w - < 2 0 w e q q w e e q w e e e q 2 e l q q n l 2 q e e e 2 3 e l e q e b l q w e e u e e w e e e e e e e n u 2 e e e e l l w e n e & < 0 w q t 0 0 q 0 0 0 0 0 < r w w 0 & 5 y 0 0 r r r 9 0 w 9 w 9 8 9 r y 9 8 r 0 0 y 9 0 0 r 0 0 9 9 0 t r - 8 9 0 8 ; 8 0 9 w 8 8 r y u w y r 8 w 9 0 0 9 0 r y t y r 9 r 9 0 0 < q n T R b < @ 0 0 9 8 t r X     X 9 z H F J n z F P P x : q.uXE.1.6.} v <.O., < & t + < @ - 0 q e e e < w z H H u n n e Y n LXLXLXLX",
"LXLXLXI.X - < 2 0 0 < 0 0 0 0 0 7 t t < @ = X = < y 7 q . > w.c.Q.K.V l z G R x y G G S z n u &       + & 0 < < - o n R M M z e l y r 9 y y y 8 8 y r r 0 9 8 0 9 0 0 8 0 r w 0 8 8 r y y y r 0 8 8 8 8 0 0 0 r 9 9 8 0 8 8 8 - w y y 8 8 w r 8 r y y 0 8 w 9 w 7 0 q r 0 0 w t 0 0 0 < < w e w 2 9 w ; < z e e 2 w e e e 2 y e 2 e l e q 3 e e e l e 3 2 q e b e e l z e z e n 0 q q e q 2 e e 2 e k y w 2 e e l e z e e y e w 0 w q e w q e e < 2 0 q q w w w u e 0 < w w w 2 e 0 w q e w q q y r 2 9 y l z y e 0 2 0 w q q e 2 < 0 q q w e e e e w e e 3 2 e z w 2 e e e 2 0 u u b u e e q w e e e n u e e e e q w e q w l e e y e 2 e e w < < e e w e e 0 q e 0 0 0 0 < q 0 0 q w w w w 0 8 0 0 8 8 0 0 y 0 r r r 0 8 0 0 y 0 9 0 9 9 u y y r 9 0 0 9 0 0 0 9 w 0 9 0 r y y r w r w 9 8 r y 9 w 9 ; 9 w y y 9 9 r r w r y y r 0 0 - q M R W 2 o < 0 0 @ r u 9 O     X w z F x n R x U D D D = Z iX/.6.:.1.s.a.p.j 8 @ w & & < @ 8 @ @ 0 w e w e 0 e q e u z n K n LXLXLXLX",
"LXLXLXS.o - - - 0 < & 0 0 0 7 0 & 7 7 @ - @ = X - X r @ o $ > l.x.j.U.W l l M R F P L S e n U D 5 .     & 0 7 r 0 & 0 z J K n l z z 2 9 0 r 0 5 y y y r y 8 8 w 0 r 0 0 0 y u u u y 9 y r r 8 0 8 w r y 0 9 9 0 0 0 9 0 9 w r 8 w y y 8 8 9 w 8 0 y y y 8 9 8 0 w 0 0 0 0 0 0 w w e e q 0 0 w q 2 w 2 ; - w z w 2 e e y w e e l q e e e q e l l e e e e 2 e e l n f u e d u e e e e e z e q e e e y l e w 2 e e w 2 e y e 3 e 2 w q e e q w w w w w w e w w 2 q u e q e q w 2 0 q q w 2 0 < 2 0 w w 9 - w y e ; u q 0 0 2 0 2 y w < q e e e e e e z e z b q 2 2 e e e q e n q q q e e e q q 2 q n e q q e e q e u e e e e w l u e e e e e e y w w < 0 e e 0 0 e u t < 0 0 0 0 t t 0 w 0 0 7 0 0 y 0 9 8 9 y y y r 0 0 8 - ; 8 9 r 0 0 0 9 y 0 y 0 0 r 0 y 0 9 0 0 r r 8 0 y u y y w y r 0 8 w r w w r w 8 y y y r t y r 9 8 y y r y w < n E Y l o < q < 8 0 t y O       2 n J G x G z R D D t % q.jXx.%.2.2.3.x.).Y   6 y t & q & - < @ @ @ 0 w z z 2 y < y n n U K 0 LXLXLXLX",
"LXLXLXS.. @ @ + 0 @ @ < @ & @ < & @ @ 5 0 9 - ; ; - t # < $ . > L.z.s.P.q.4 m R G G F u u L H H u 0     O @ r w w 0 - o l m l l n n e w w w t r r y 9 0 r 9 - w r 0 9 0 y y y y u u y 0 w 9 r ; r 8 r y 0 8 9 r r 0 0 0 r w 8 w w r r 9 9 w w y 8 8 y r w w w w r 0 0 0 0 0 0 0 t 0 0 t e w 0 q w 9 w 2 w 9 w e w w e z e e u z e e q q l z e w q w e e e e q q w q e e q w 0 3 e e e e e 0 0 2 e l e 2 w e e u 2 2 2 e w w 3 e e q y w w w 0 w e q e w 0 < - 2 e e e y w e w 0 e 0 0 0 0 0 0 0 r 0 8 w 9 w w - y 0 < < 0 2 0 w e w q e e e e w e z e u z w e w q e z e q l e e w 2 w e e e e e l y w w w 2 2 w e e 2 e y 2 e y w w w e u e e e e 0 < < 0 0 w e w w w w 0 0 0 q 0 0 0 < @ 0 7 0 y y y y 0 y r 0 w 8 0 9 8 8 5 - y 9 0 0 0 y r y y 0 0 y y r 0 9 r w y r r 0 9 8 w 9 w r r w r w w y y 2 9 y 9 r r y y r 8 9 r y 0 3 e l m R n : < w < - 9 y r O     O 0 z n n z x P G L D g q N iXQ.4.W.;.2.k.).b   6 6 t 0 0 & @ 7 & 0 0 0 - @ # w n n e ; e n n K z LXLXLXLX",
"LXLXLXS.. @ < @ < 0 @ - 0 @ 0 0 @ & 7 0 6 + 5 0 @ - - @ q < < . % L.P.s./.V 2 x x x y y A D H n P H 0     O 7 w w 0 w ; 2 R m l e l l w < 0 9 0 6 9 9 5 w - ; 2 0 8 9 0 9 8 8 8 8 0 0 ; w y y - w w - 9 0 8 0 0 y t 0 9 8 8 - r 9 8 w w y w r y r w r r r r r r 0 0 q 0 t 0 0 r y 2 < 0 0 0 0 0 k y w x k w 2 e 2 e e e l e e e < e e e e e e q q q q l z e e e 2 q e e q q e e n e e e f e q 2 w w w w e z z w k w e w w 2 w q w 0 2 < 2 e q w < 0 2 w 2 < - < w 0 0 0 0 w q 0 0 2 0 w q 0 < 0 8 ; - y w ; w y e 0 < 2 w w q e q 0 2 w 0 w e u w l < 2 w 2 e e q 2 q e e q 0 n e e 2 q e e u l 2 2 e e e w 2 y l e q z e 2 e 2 w 2 2 e e w w w e e e 0 0 u z 0 0 0 e u q 0 e e & 0 0 r r 0 w t 8 0 r 0 0 0 0 0 w r 0 y y y y 0 0 8 0 8 9 t 0 0 r 0 9 0 0 y 0 y 0 ; 9 u u r 0 0 9 w y y r w 0 0 ; 9 y w y y y r 9 9 r 9 9 9 y y 2 < e K K l < = < < - 0 r r +       8 u z z z z x F F F f > B d.k.$.[ 1.;.3.z.v . 0 r r 5 0 # q 0 0 0 0 0 & - - < - # - z e u 0 e / E LXLXLXLX",
"LXLXLXI.6 0 @ @ @ < @ @ w w 0 0 2 < 0 7 6 6 6 6 ; ; ; = 2 8 0 5 o o g.c._.L.O.a d l z P A A L y F H H @     O 6 t 0 0 @ o < b b n l 2 l y - w w y 8 8 8 w ; 2 e 9 8 8 0 r 8 8 8 r - w y w r y w w 8 y y 9 8 8 0 9 w r y w 8 9 - ; 0 8 0 0 y y r r w r w r 9 9 - 0 < t t 0 w t w y 0 0 0 & 0 e t x y e z y 2 w e y e w 2 w e e w q e w q 2 < < w z e 2 y e e e e e l u e e e q 2 q q e w e e q w w w e e y u e 0 w q l z e 0 0 0 e e y w 2 q w 2 < w w 2 w e e y e e y w e w t 0 w w w 0 < 0 0 < r - w y w ; ; y e w w 2 < 2 0 q e w w w e e y e z l l e e w w 4 e e u e e e e z e l u e q w e e - w z e 2 - w u u e w 0 0 q e z 2 y 2 < 0 w w q 2 w u w w e 0 - e y e 0 0 0 w 0 e 0 0 r t 0 w w r r 0 9 w r w 8 8 r 0 y y y w 0 w ; - 8 0 9 9 0 9 - ; w 9 0 y w y 0 0 y r 0 9 8 8 0 0 0 r 8 8 x w 2 ; - ; 8 u y r y 0 y r 8 y 0 q b n m n = - w 0 < < e w @       9 A H f H e n x F G n 1 C )./.1.6.] ] d.z.c . < < r 6 r r - ; @ 0 0 0 0 0 @ @ < 0 0 - @ < 0 0 e < LXLXLXLXLX",
"LXLXLXB.O 5 + O 0 < 0 < 0 @ @ @ @ < < 8 5 5 6 r 6 @ = - ; 8 6 7 o = # _.z. .h.N a m n G S G L H H z H H 7 O   O @ 0 0 & 0 < < m M n z z l < 0 w 9 w r y y r w y t 0 y y w ; 8 - y 9 w y w w y 9 r 9 k r 9 0 8 0 y y w 9 w r r y 0 w r 0 r y y w 8 0 9 w r w r 8 r 0 w 0 < 7 8 @ y t w q 0 0 w r ; w w ; 2 w < - w < w e 2 e q 2 n l e e e w 2 < u l e l e q w w q e e e e z z e w q w 3 e e e e e e q y e l z e w e u e e e e e e w 2 w w w 2 0 w y e w 0 e e w y t 0 0 w e 0 < 0 q 0 0 0 0 q 0 y r w e w w e w t w w q w 0 2 w w e q e e w e e w e w w w 2 w e e e e e 2 w e e q e l u e e l z w q q w w e e e e w e w 0 2 q q - 2 e w w < 0 2 y y w 0 0 y l y 0 q 0 0 < 0 2 @ w w 0 t w t w w w 8 w r 9 8 8 8 w 9 9 0 y 0 0 0 y 9 0 0 0 0 0 0 0 - 8 9 8 0 0 9 u y 0 9 0 0 0 8 5 8 9 0 y r r y 2 9 w w 0 0 r 9 r w y @ w -   z n K K b < : < < < 0 t 0 +       9 F H H n H L U P F 0 2 c ).(.3.W.f.,.=.l.| * < 2 < r 7 7 0 - = - @ 7 - 0 @ & < < 0 < < < & 2 0 < LXLXLXLXLXLX",
"LXLXLXLXLX+ 0 < 0 0 0 < & - @ @ @ 8 < - @ 5 6 r r 8 = - ; - r 6 2 = . . | { W.).| = y x z R t L U z u L A +       w t 0 < - = k b n K m n e 0 y 0 0 y y w ; 0 r y r y r y r r w r 8 r r 8 r r w w 8 y r 0 0 9 0 y y 8 8 8 r w w 0 9 0 9 8 9 0 9 w 9 8 w w r 0 8 w 0 w w r 0 0 0 w 0 0 q 0 1 0 < w y y w 8 r 2 - e 2 < < 0 w e e z y e y e e w e q e e e e 2 2 w 0 e e e e e u z e e q q 0 q e e e e u e q 0 w e w e z e e w w 0 y w ; w w - 0 - ; k y w < w r y 0 w 0 q 0 q 0 t y e q 0 0 0 0 < x y 9 ; 9 w y w w t 0 2 < < < < u w e e e e e e w e e e 2 w e y l e e e e e e e w y e e 2 w e q e w < w e e u e w e e e w 2 0 0 - w 2 e w ; w 2 k y w w w w u y 0 0 q w 0 q 0 < < t t 0 r 0 0 0 9 w r w 0 0 9 w y y r 2 8 8 8 9 y y r y y 9 0 0 y 0 8 r t r w ; y 0 0 0 8 8 8 8 0 0 8 0 y 0 0 9 8 9 y w 9 9 y r 0 t t 0 - 2 l l m K M w = - w - @ 0 w 5     O 0 S L H H n f U L I t 4 c ).c.;.} 1.} j.g.N X 2 & < & & 7 0 r 9 ; 0 0 0 @ 5 0 0 0 0 < < < < 0 < < LXLXLXLXLXLXLX",
"LXLXLXLXLX& y e & 0 < 0 8 @ < 5 7 0 < < - @ 9 6 5 ; - - 2 < 6 8 9 w < * # d.s.d.).e.j E n z E H U H u A A t 0     O w w @ @ 2 ; 2 l K K H n w q w y y 8 8 2 0 8 - r r 0 w y y y 9 w - 9 9 w y r 8 8 r w 0 0 8 y r w r w y y 9 8 y 0 0 0 0 0 y w w r r 9 w 9 w 8 t 0 r t w w t e 0 < w q 0 0 0 0 e y y y k y w < y e w w 2 e e z 2 w e l e 2 e z 2 w e q w w w 2 2 e e e q e e e u l e e 3 w e q e w e u e 0 2 w w e y e w w w 2 y w w y y 0 0 w w w w w 0 8 2 9 @ 0 e e 0 0 q y e e q 0 2 0 w 0 w y w w w w w w y e q w 2 0 0 e e w e q w w w w e e e e 2 w 2 w w w w e e e y e e e e e w e 2 e e w e w 0 0 e z e w e u q w 2 0 y e 9 ; < 2 w 9 w y w ; w w r 2 q w 0 e t e 0 0 0 e y w 0 t w 0 r w 8 8 8 8 w r y y y 9 8 8 r 0 w y y e y 0 0 r 0 8 w y r r r - 0 9 r 0 0 9 0 8 r 0 0 9 t 0 8 0 - 8 w w 8 r u y w e < u e z T l K n 0 0 0 < w < 0 8 @       8 A F F H n n t H U q a p ).uXf.;.1.1.W.).w.o = 0 @ 0 0 0 < < < ; ; 5 0 0 0 0 0 & 0 @ w 0 @ 0 e 0 LXLXLXLXLXLXLXLX",
"LXLXLXLXLX0 0 & @ < 8 8 - @ @ 5 5 5 7 @ - < - - @ @ @ < < 0 7 @ - @ @ 0 . > a.d.h.jXO.: n f e H H L H H D z F @     O t 0 - 0 0 < < n n M J l l e w r 2 8 9 0 0 9 r r 9 w w y r w r r w 9 w w 8 8 8 0 r r 0 9 0 r w 9 y z y w 8 8 w 8 w 0 0 t y r 9 w w w w r 8 w 0 r 0 < r w 0 w < 0 e 0 0 w w w y w y y e w e q 0 e u e e e 0 y e e k w 2 w e e e e e e e e 2 q 0 q q e e e e e e e q w 2 0 q e w < q e e e w w w q e w e w w x y w y y w w x y 9 ; w w 8 ; 9 t 0 0 0 t e t 2 0 0 w r 0 q q w w r w y y ; w w e w 0 2 0 < 0 e y y y t 2 w e w w w 2 w w k y e w 2 e u e 0 2 w e w e w q e e z w e e q w 2 e e e q e e q 0 w y y y k y y e 9 ; y w r w y e y 0 w 0 2 0 0 q 0 2 0 e u r 0 q u t y w - - 9 w w r 8 y y 8 8 y u u 8 r y r r r y r 9 8 0 r w 8 r 8 9 0 9 0 0 0 9 0 0 r 0 9 0 y y y 9 - - w 0 r u y e & w e J M 3 K n 0 # 0 0 @ 8 y 0 ;     O & e D I H n z z z H K g p ).(.x.k.[  .g.).O.* : 0 e w 0 r 0 0 < = ; 9 8 < 0 0 < - 7 @ 0 w r @ 0 y LXLXLXLXLXLXLXLXLX",
"LXLXLXLXLXLX@ @ @ & @ < < < - 8 6 5 @ & < < - - < @ 7 5 @ & - < 9 y y @ o . * w.g.G.L.O.i n u I H H H H H F H y + O   + y w < e o : q e n P M n q 2 - 8 y 0 r 9 - w 8 8 8 8 8 w w y 8 8 y r 9 r y 9 y 0 0 y 9 r w r w r y y r w w 0 8 9 0 9 0 9 w r 8 r 8 9 r w w 0 0 0 & 0 t 0 w 0 0 e w q y e w ; ; e r w 2 y 0 2 0 e 0 e e e l e w e e y 2 2 l y 2 w e l z y e q 0 e e e e q w w w q q w w e w q w w 0 < w e e w w q e e 2 w k w w w w w y k l - < r y < - w e 0 0 w q 0 0 < < 0 w w 0 w t t 8 8 r k w - ; 0 - < 0 q < < 0 e e u u e 0 w e q w w 0 2 e l e w w e e u e q w q 0 2 < 0 < 0 w e e e e t q w w w 0 0 0 q w 2 w e x l y e e w e w k y w w y y r 0 q 0 0 0 0 0 0 t 0 0 0 r w t u y r 9 8 9 w y 8 8 8 y y 8 8 y u r 8 w y y w y y y 0 0 0 0 8 r y y y y y r 0 r y r 0 y 0 9 r 0 0 y w - 9 w r y w 0 t 0 e n n M M n 2 < @ < 0 @ 0 y 6 O     & u f n J H F y F F w 3 i l.(.f.k.1.} <._.A.. * q & y 0 7 r 0 2 4 ; @ 0 - - @ < - 0 < < w 0 0 r 0 - LXLXLXLXLXLXLXLXLX",
"LXLXLXLXLXLXLX0 0 @ 0 < 8 < 8 @ 8 8 6 9 0 2 = = : @ & 7 5 & @ < 5 7 0 + 8 2   : a.w.s.g...1 H ~ L H H F u f n n 0 0     + t r w < < : 2 e M R m e w - w y 0 0 r 9 8 8 w r 9 r 9 r w 9 w y y 9 r y 0 0 0 0 0 0 0 8 0 0 9 r 9 r 9 r r r y y r 0 y w 8 0 0 r w 0 r 0 0 w w 0 0 w t w < 0 q w 0 t e 9 w w w 0 w w e q < 2 < < 0 e u y 2 < w l e w w w 2 < 2 w 2 e e e t q q w q q e q w 2 w e q q e 2 e u w - < 0 e e e q 0 0 0 0 - r 9 - w 9 w r w w 9 0 ; ; w < 0 0 w t y w @ 0 r w t w w 0 0 t w 8 0 9 w w - < 0 0 0 e e q w q e e u u e q w q w e e w 0 e e y < 2 < 2 0 0 < < w e e e w w 2 w w w 0 0 2 0 0 0 2 2 < 0 q w 2 2 e z e w - ; 2 y w e y 9 w w 9 0 0 0 0 q w 0 2 t u 0 0 0 0 w w t y y w r r r r w w r y w w w r r 9 8 9 r r y y y 0 y 0 0 0 9 w y y 0 w t y y u y 9 y u y r 0 0 8 0 w 9 w w y 0 w 0 w f n m b M W : o 0 0 0 9 9 r 0 O     @ y f n n n l F S F F & N z.(.f.6.2.1.f.(.p.. % q . t 7 6 0 0 0 8 0 @ 5 7 < < & < 0 0 w 0 0 0 0 r 5 LXLXLXLXLXLXLXLXLXLX",
"LXLXLXLXLXLXLXLX0 @ + @ @ 8 @ @ ; @ 0 6 5 @ @ = : < 7 0 7 @ & & 7 + 7 9 8 + - o % w.w.g.J.| i I H A I H H H z u n < O     5 t w q z < - = y K K J k 2 w t 0 0 w w w r y r 2 8 w y y 0 - y e - w 0 8 8 8 9 r 0 0 8 8 w r w 0 8 - w 9 w y y r 0 0 8 w 8 9 w 9 0 8 7 < t 0 < 0 r 0 0 < < 0 2 0 2 0 ; e y ; 0 0 w 0 < < 0 0 < 2 t e w 2 2 e e w 2 e y < 2 w w < 2 w 0 2 2 0 w 0 e e e q q e e 0 w 2 e w 2 w e n e w q 0 2 < 0 2 2 - - < w w ; e y ; w w w - - w w 0 0 0 w w w r 0 0 w t y 0 0 0 0 w 0 9 8 - 8 r w w 0 0 0 w 0 0 0 y w u z e w w w < 0 q 0 2 - 2 e 2 0 0 0 q q e y l z e e w w w 0 q 2 w e 0 2 < 2 t 0 < 2 0 0 2 w y w 2 2 ; y y y ; ; 9 2 w w w w 0 0 0 w q 0 0 0 e q 0 2 w t w y y y y r w 8 - 9 y r 8 9 r r r 0 9 8 8 w r w y 0 9 0 9 0 r r w r - 8 9 0 y u u 9 8 0 y y y y y 0 9 y 2 w w 0 0 t e e d U n n m 3 . 2 q 7 5 9 r r + O   @ u H n n n b e z L L z , d.sXf.6.%.] f._.G.X = 3 : 0 7 r r 0 8 8 8 9 8 7 < @ @ 8 0 < 0 & 0 & r u < LXLXLXLXLXLXLXLXLXLXLX",
"LXLXLXLXLXLXLXLXLX0 @ 0 7 0 @ 5 < @ 8 5 @ @ - & < < < @ @ 0 < 0 8 - 0 < 8 - - = . > u.h.).).v h J L T T U u H e l e r # O O + 8 w 0 < 0 & < u K K K b 2 q q 2 0 w ; r ; w ; w r 9 w r 0 - w 9 0 8 - w w 0 u z - 9 y w 8 0 y w - - - r w 9 2 0 < - 0 w w w ; < - 0 4 w e w < w - 2 ; < 0 2 2 w w e w < < < q e e u 2 < w 2 - < w 0 0 2 q e e q < w < 0 2 e 0 e q 2 0 2 0 2 w q 0 0 u e < w e w e 0 0 q e e w 0 2 0 0 q q 2 < < < < < 0 < - y - 0 0 0 < < < 0 0 0 0 & 0 w q 0 2 0 0 @ 0 0 2 w w < w y 0 0 w 7 r y t 0 & 0 0 y t w - w w e 2 9 2 - r w ; 2 < 2 w w q < 0 2 < w e w 0 2 0 e e 0 w e e 0 < q w w w e < < w q w q e w w w 0 w y y y e 0 0 0 0 y y w 0 0 e l q 2 w e z 0 q 0 2 w < @ e y y 9 w y y w 0 0 0 0 0 0 y y 0 w w w y y w r w w ; w z < 0 y - 0 r r w r t w 0 r r 0 0 t y y r ; w 2 w 2 0 3 q d n 1 K K 2 # < o < w 0 0 0 O O   7 0 H z z l z u z J K q s g.(.E.E.$.1.=.K.J.. o w 2 o 0 0 & t < - 8 - @ @ - - < 0 & @ @ - < & t y 0 LXLXLXLXLXLXLXLXLXLXLXLX",
"LXLXLXLXLXLXLXLXLXLX0 0 @ 8 0 < @ 0 0 & - 0 @ < - 0 0 @ @ @ @ @ @ - - ; ; ; o - 2 . > 0.i.K.(.Z 1 Q D H u I f d e n D r O O   ; 0 0 < < < < 2 q K K n 3 q 0 2 < < w w r y w r 0 - - 9 9 r r 0 y 0 8 < 9 0 y u 0 < w e 0 0 w w w 0 0 < w 0 w 0 w w w w y w r 0 2 w w w w w w 2 - e e q w w w w e 2 w e q 0 < 0 q y e e u e t w q e 0 0 q w e 0 0 w 2 q 0 w 2 e 0 e q t e q w q 0 q u e t u e q q u e w w q w e e e e u e w e e w w < 0 0 < e < w 0 q w 0 w q w e 0 < 0 w q 0 0 0 t 2 t e 0 0 t 0 0 e 0 w e 0 t e t w w 0 t y w 0 < w w w u k w w e w e w w y y l q 0 e q < < q q e w 0 q t 2 0 2 0 e e w e e e u 0 e q 0 2 w e e y w y y u y y w y y y w y w y w - w w q 0 w q q < < < 0 t 2 0 q y e w w t w w 0 y y y w y 0 0 - w 0 w w y e w e y 2 e r 0 < e r 0 < 0 0 0 e y q 0 y y e y w w 8 2 ; w 2 q < 1 1 d M K U < < 0 = - @ 2 0 0 # O   6 r r H H z z z H u n b s h.dXW.:.:.$.3.uX).. o @ 0 < - 0 0 @ 0 @ < < - @ - < 0 < 0 0 - 0 0 q < y 8 LXLXLXLXLXLXLXLXLXLXLXLXLX",
"LXLXLXLXLXLXLXLXLXLX8 0 0 5 @ 0 @ < @ 0 < < 5 - @ 0 - @ @ - < 0 < 0 < 9 8 - 8 @ & & . N h.w.z.P.V a U u F J T 0 u u L n -       - w w < - < < o q b K n e < 2 q r y t r r 9 0 r y y y y u y t y w 0 0 0 w t y w < 0 0 0 w w w w t 0 7 w w w r w 0 0 - - 0 7 0 5 0 0 7 < 0 - 0 < 0 @ & 7 0 8 5 @ o < < < < < & @ o o < @ : - o o 2 = o @ < w 2 @ < < 2 < < - < < @ < : 0 2 < : < < < < : 2 < & < < < < : & < & & & o @ < @ o - o < o @ = @ & o < < @ @ o @ o @ < < & & & @ o & & o # o & o o & o o = # o < o & < & - < < < - & o 2 0 w < < - o o o - = ; @ o o < = o < < o - < & : & @ < : & < @ o - < & o @ & & & 2 < & & @ < < & < @ @ @ - @ @ & < 0 @ & - 0 @ < 2 3 0 q q q 0 : & < 2 < < < 0 < < - - < < < < 0 < & - < @ @ @ < o o - < < < < < < - ; < < < < < & ; 2 < - < < & : 2 < & = < 2 w w < = : : 3 q 1 m K e @ 0 ; - < @ 0 6 +   O + 0 z n I H P I P A H q , L.c.E.E.} } 3.d.P.* o 2 2 0 - 0 0 < < @ - @ 0 @ @ @ 0 0 0 @ @ e 0 0 < u 0 LXLXLXLXLXLXLXLXLXLXLXLXLXLX",
"LXLXLXLXLXLXLXLXLXLXLX0 0 & + 5 @ @ - @ - - - @ @ @ < - @ @ < 0 & & 8 - 8 - ; 8 2 2 % . h | d.P._.| a K F G J F U H z z y ;     O 7 w 0 < - < < = e K Y n q q < 0 r 0 0 8 - @ @ 8 8 5 8 5 @ @ @ < @ o - @ & & o - @ @ < o @ 0 e @ o @ 0 0 < @ @ @ & @ < @ & & 0 & 0 0 < 0 0 < w 0 0 0 0 0 w 0 2 < < < < 2 q q < q q 0 1 0 q q q q q 0 2 e e q 2 q q u e e 2 q w < 2 0 q q q q q b q q e f u e e q e e u f e q 1 q q q e q e e q f e e z e e e n q e n e e e e e f e e d u e f g e q e f f u f n 1 q 2 1 e 1 3 3 2 1 3 3 2 1 3 q 1 e z l e w e n e e z e e e z n n u e f n n n e n n f n f n g n f m U n g n n n q e f f e f n e u e e e e e e e 0 e e u u u e e q q e q e q u d e t e f q q e e e q q w 0 w e u n u e e e e u H u e e u l e e e e n b n n u e e n b n M n 3 q z e n b e e e l n J z e e u n M m ( K e o - 0 @ w w & 5 O   O + A n z u z F F L A L f , h./.=.} E.} %.W.z.g . : = 2 @ @ 0 0 < < @ - 0 < @ 0 < < 0 0 < 0 < 0 < 0 0 LXLXLXLXLXLXLXLXLXLXLXLXLXLXLX",
"LXLXLXLXLXLXLXLXLXLXLXLX0 0 7 @ @ 0 @ < @ 0 < @ < - @ @ @ @ @ @ @ & 5 - 8 ; 8 @ + @ < $ . c i.a.j._.B 1 I T L u ~ R G l n l 0     O - w 0 - < 2 @ - f E _ N.N._ t.r.q.#._ ( q.r.r.#.X.#.+.r.r.t.r.r.+.r.r.e.+.r.t.r.r.t.r.r.t.N.r.t.t.t.M.t.r.r.t.V.t.N.t.M.N.t.t.t.C.t.B.t.t.C.t.N.C.C.t.A.C.C.t.C.Z.C.t.m.t.C.Z.C.C.Z.A.C.Z.D.Z.B.C.F.B.N.M.t.B.t.Z.N.N.t.B.t.Z.D.A.A.Z.Z.C.A.Z.N.N.C.C.C.C.C.Z.C.C.C.C.N.N.N.C.C.C.A.Z.Z.C.N.N.N.B.Z.B.N.B.Z.B.C.B.C.Z.B.B.N.C.C.Z.B.Z.Z.Z.Z.S.Z.Z.S.Z.C.Z.D.Z.A.C.C.A.C.Z.Z.p.C.C.C.t.t.A.Z.N.N.C.Z.N.t.B.A.Z.Z.Z.C.F.F.A.Z.S.Z.C.Z.Z.D.C.N.Z.Z.Z.C.C.C.C.Z.C.Z.Z.Z.Z.A.Z.S.Z.S.S.S.S.S.S.S.D.D.S.S.S.D.S.S.S.S.S.S.D.D.Z.Z.S.Z.S.D.S.Z.S.S.S.A.Z.S.C.Z.D.A.D.D.Z.Z.Z.Z.Z.S.D.Z.B.C.B.N.B.S.C.Z.Z.C.Z.B.B.C.C.Z.C.Z.S.B.C.C.A.C.A.S.Z.t.C.A.A.F.A.C.C.C.t.t.r.@.m.M.m.r.r.r./ < & @ o < 8 8 t 6 # O   + y F J l l z z S A Q g : g.iXf.1.} 1.6.W.G.h . w 0 ; @ @ 0 < @ < 0 @ 8 & @ @ < 0 & @ & w 0 @ 0 z e LXLXLXLXLXLXLXLXLXLXLXLXLXLXLXLX",
"LXLXLXLXLXLXLXLXLXLXLXLXLXw w @ - - < - < - @ < @ @ 0 - @ @ @ < @ @ @ - @ ; 8 8 0 w o 2 o . c g.{ s.).V q L y P G P G J J J u 7       < 0 0 & < e 2 < < < 2 < o 4 < 2 4 3 1 2 2 3 : 2 : : : : 4 : : < < 2 < & < < < : < < & & 2 2 : < 2 < : : : o : 2 : < : < : = 2 3 4 : : < 4 : 4 4 4 : & = 4 & q q : * & & & & & & : < & & : o < < : : o o o - : < o - o < o & & & * . o & & < & * $ & o & & & & & o . & o & o . o & o * o . o # . # @ . o o o o o # o o o . o & & & # o # & & . . & # . # * < 1 & o : : : & & & : & & $ & < < o = o o o X . o o o o X o o o . o o o * & o * . & o * . . . o . . . o & . . o o * o . * o $ & o o # . . o # . # o o # . # o . . . o o o . * . & * & o o o & * = o # o o # # o o o @ o o o o & & & & & & o & & & < & o & & & & o o : o o # = 2 < $ = = @ o X X = ; - < # o # o & o & 7 0 0 8 8 r +     + r u u z H J z F H A H * q.uXd.E.E.%.} W.H.g * & & ; @ - 0 0 0 + < 0 @ @ < 0 0 0 0 0 @ 0 < @ 0 u u LXLXLXLXLXLXLXLXLXLXLXLXLXLXLXLXLX",
"LXLXLXLXLXLXLXLXLXLXLXLXLXLX0 w @ & - & @ - @ @ < @ @ @ < - 0 < @ 0 - < 8 ; 8 9 8 5 @ < 2 $ X N G.g.=.J.| % U H G G z n H U L u @     . < 0 < < < 2 @ o o @ @ 2 o o + o # o o o 0 @ @ & o o @ @ @ 0 & o @ < @ @ @ @ @ @ 5 o o o @ < < # # = @ o # o @ @ o o @ o @ @ - - o @ @ o + o @ @ o @ @ - & o o # o < o . & o & & & & & o o o < o @ = - < < o < = < o < o & & & & & & & 2 < & < 2 & & < & & & : & & o & @ < & & < & @ @ o < 2 - - < o < & < < & < < < < - o & & o o @ & o & o o & o & @ o & 1 @ & < & & o o @ & & o & @ o & o o < < < < < - = < & o o < - # & & & & & & 2 < & < < < < < < < : < < & & & & & & & @ & & < < & & @ & @ @ @ @ & & o o @ & < & < & & : 1 & < & : & & o < & @ & < & @ @ - @ < o o @ < & o @ & < & o & @ & & & & & < & @ & & & < < @ - o o o & < 0 < @ @ & < & 7 - - < @ o o @ < o e w o t 0 8 0 O O   @ y A z z J H H w I H t : y.jXk.,.1.1.E.j.L.M * t w 0 5 0 0 < 0 @ o < 0 @ - 0 < < < 0 < @ 0 @ 0 u z LXLXLXLXLXLXLXLXLXLXLXLXLXLXLXLXLXLX",
"LXLXLXLXLXLXLXLXLXLXLXLXLXLXLXA 0 < 0 0 0 0 < @ 0 < 0 < @ @ @ @ 0 & 8 @ @ 8 ; 8 6 5 9 @ 2 < = . | L.s.d.K.B n I R P G J J L H f y +     O < 0 t @ q 0 < < & @ < r 0 7 7 @ 5 7 7 7 7 7 0 r 5 @ < 0 t 0 + 7 < @ @ 0 7 0 @ 7 0 7 0 & 0 0 < < 0 0 ; < - 0 < 0 0 0 @ r 5 5 0 7 r r 5 7 0 7 0 5 0 0 0 < < & & @ < 0 < < 2 < < & < 0 2 < < < < < 0 < 0 < @ < < < < < - < < 0 < < < & < & & < 0 & < 2 & : 0 q < < & < 2 0 < < < & < < < < < o # - # 0 @ < - @ @ @ - @ & & & 0 < & & 0 < 0 & 0 < 0 < 0 @ 0 r 7 7 0 7 7 @ 7 r r r 7 & r 0 < - < 0 < - < 0 < < < - < < < @ < < o o < 0 o & < < @ & & 0 & @ # - < < & < < < & < < & < 2 < o < < < < < < & & < < 0 & < < 0 & 0 & @ & 0 < < 0 & 0 < < q < @ & < @ < < < < < < & 0 0 - < - 7 < 0 @ & & 0 < < @ & < 7 < < & @ @ 0 0 0 8 0 r w 0 7 5 @ < 7 0 5 @ 0 ; @ - < < - = @ < 0 @ 0 8 u + O O O y F z n P G F H H K 2 a y.kXyXf.1.} 1.f.(.N . 7 t 0 @ r 7 0 @ @ < 5 @ @ 0 @ < 0 0 @ @ < 0 + e H H LXLXLXLXLXLXLXLXLXLXLXLXLXLXLXLXLXLXLX",
"LXLXLXLXLXLXLXLXLXLXLXLXLXLXLXLXz - w 0 o @ + @ @ < - & - @ @ 0 & & @ @ - 8 8 8 9 9 8 ; 5 - - o   N d.4.<.d.% q P R R z J G P F z y o     X 0 0 0 @ @ & 0 < < 0 & @ - - = = < @ - - < 0 < - < < < - ; @ < < 2 - < - @ ; - - < ; 8 @ 5 @ 9 9 @ 8 8 5 0 8 0 8 0 8 @ < 0 - @ @ ; ; 0 8 < ; - - < 0 @ & 7 0 7 o @ @ & @ @ @ @ @ @ < - 8 0 - - 0 8 @ 0 w - + @ 8 8 - < @ - - @ - & @ w 0 & < < 0 & + 0 0 0 & & & 0 5 & & 0 < & & 5 - 0 8 0 - @ ; 8 ; 8 8 @ - 7 ; 5 ; 0 5 @ @ 5 & 0 & r & 5 0 7 < - @ t 5 5 8 7 7 7 8 7 7 9 6 7 5 7 7 8 @ 8 8 8 + @ 0 0 8 - 8 - @ - @ < @ @ 5 @ o 7 0 < 0 0 0 & - 0 < & @ & @ & - 0 - < @ @ 0 & 7 < @ < 8 7 @ @ 0 0 0 0 0 @ 0 0 - 7 0 & < < - 0 0 0 @ & 0 0 0 0 < 0 o w 0 0 0 0 - 8 - 0 8 8 8 8 - 8 0 5 0 0 0 0 < 0 0 0 - @ @ @ 0 0 8 r 7 9 8 6 9 r 0 t 9 6 9 r 7 9 9 0 0 8 @ @ - & 0 < < 0 0 w y <     7 y u n u J P L A D D b o V iX`.>.3.3.1.f.W.B = ; 8 ; @ 8 7 & 7 < < @ < 0 @ 0 - @ 0 @ < @ 0 @ # u n LXLXLXLXLXLXLXLXLXLXLXLXLXLXLXLXLXLXLXLX",
"LXLXLXLXLXLXLXLXLXLXLXLXLXLXLXLXLXK 0   < 8 0 < @ - @ @ - & @ @ 7 0 < @ - @ 5 ; 6 8 6 6 8 8 - ; - o c x. .3.L.N U F R R 9 R F z G z 0 X     O 0 0 8 < 7 & & @ @ < @ < < @ - @ o < - : < < < - - ; @ @ 6 - - ; @ - @ @ @ ; - - o 8 8 8 @ 5 + @ 8 @ 8 @ < 8 8 8 8 - - 0 8 - - - - @ @ - 8 8 0 8 - 0 0 0 0 0 0 0 0 0 0 0 5 0 7 0 8 8 9 8 - 8 0 9 8 + 8 8 8 0 0 ; 8 0 < < 0 < < 8 @ 8 0 0 0 < 0 0 @ < 5 5 0 0 0 0 0 5 0 9 0 0 5 8 0 9 0 0 8 5 0 8 9 @ @ @ ; - 5 @ 5 5 0 9 0 r 0 0 5 @ + @ @ @ @ @ + r 0 5 0 0 9 0 0 0 0 0 0 r r 0 0 @ 8 8 8 8 8 9 0 0 0 0 5 8 8 8 8 0 0 7 0 0 0 0 0 @ 5 @ 7 @ 8 8 0 8 8 8 5 0 0 - 5 0 0 9 0 8 0 0 0 @ 8 8 @ @ 0 8 5 0 @ 8 8 0 - @ 8 w 5 5 0 0 & @ 0 5 8 0 0 0 0 @ 5 0 0 8 5 8 8 8 @ 8 - 5 @ - 8 5 ; 8 8 @ 7 r w 0 @ r 0 0 5 7 0 0 @ 8 8 8 8 8 0 9 5 5 8 0 0 r r 8 @ @ 0 @ 5 < 8 & @ & 0 < 0 0 @ + O + 0 w e n e F u t L U f % V iXc.>.>.6.1.f.).o.# < 9 ; ; @ 5 q q @ - @ 0 < @ @ @ < w @ 0 - w & < 0 z LXLXLXLXLXLXLXLXLXLXLXLXLXLXLXLXLXLXLXLXLX",
"LXLXLXLXLXLXLXLXLXLXLXLXLXLXLXLXLXLXu 0 + < 0 @ < - + @ 0 0 - < @ 7 < 0 - @ 8 8 @ 6 8 6 8 9 8 - 8   o Z *.<.W.j.i K u F R z u J H F x r O     X 0 0 0 w 0 0 - < w 0 r y 0 8 0 ; 0 - ; 8 0 w - 8 8 8 9 9 y r r 6 y r r 9 r y y r ; 2 0 8 0 8 ; w - - - ; - - 8 8 8 9 9 0 0 8 0 0 9 8 9 5 - 8 8 8 8 8 6 0 9 0 9 6 0 9 7 r 9 r 9 0 8 9 9 8 9 9 9 8 ; 0 9 9 r 9 9 y w 0 r y r r 0 8 8 9 0 8 w w 0 0 0 8 0 5 9 6 9 5 0 r 0 r r r 0 r y 9 9 9 9 0 y r 8 8 9 9 y y 9 9 0 r 0 r r r 8 0 9 9 0 r t r r 8 0 - 8 8 8 8 - 8 0 0 8 8 0 0 8 - 8 8 r 8 8 9 9 9 0 9 9 9 8 5 8 5 8 0 9 0 0 6 8 0 0 r 9 9 0 r r r 0 r 9 9 0 r 8 8 0 9 0 r 9 r 0 0 9 r r r t r 9 0 0 0 r r 0 9 8 8 r 8 9 r r 9 5 0 8 9 9 8 7 8 9 0 8 9 9 9 9 5 9 5 t 9 9 5 r r 0 0 r 8 8 8 0 0 9 5 0 0 9 8 8 0 8 ; - - 9 ; ; ; 5 @ ; ; ; ; @ ; 8 ; 7 0 0 0 0 0 8 8 @ @ - - +       0 u y l z x n A D D D a V ).j.;.>.7.$.f.g.O.. & x ; ; ; ; 5 < & < - @ < @ @ < < @ w + & < 0 @ y H 0 LXLXLXLXLXLXLXLXLXLXLXLXLXLXLXLXLXLXLXLXLX",
"LXLXLXLXLXLXLXLXLXLXLXLXLXLXLXLXLXLXLXJ @ @ @ < - 0 @ @ < 0 < 5 @ 5 8 < 0 8 8 9 6 5 8 8 9 9 0 8 z < o > v w.d.x.J.s M I R K K n n n J F 0 O       . X + + . . O O O X + X X +   + O O O + + + @ + + + + + @ + + @ + + + + 6 + @ +   X   @ o X X @ ; ; X @ + @ + @ @ + 5 5 5 5 + 5 5 + + + + @ 6 5 + + + + + @ + + 5 + + O + 5 + 6 + @ + + + + + + + + O + O O @ + O X + X X + O + @ @ @ + + + + 5 + + + + + + + + + + + + + @ + + + O O O + + + + O O O O + X + + + O + + + + + O + + + + + + O + @ o + X X X X X X X o @ ; o + @ @ 5 + @ 6 @ + + + + + + + + + + + O + + + + + + + O O + + + + + O O O O O O O   O O O O O + O + + + + O + + + O O + O O O O O O + + O O + + O O O O O O + O + O O + O + O + + + + O O O + + + + + + O O O O + O O O O O O O O O   X X X X X   X X X X     X X     O       X   .   O         X 0 z z z z x n J D D i a )./.2.$.:.2.f.x.O.* # 0 9 9 ; 8 r 5 & & 0 @ @ @ - 0 < 0 @ @ 0 < < + w u y LXLXLXLXLXLXLXLXLXLXLXLXLXLXLXLXLXLXLXLXLXLX",
"LXLXLXLXLXLXLXLXLXLXLXLXLXLXLXLXLXLXLXLXH @ @ 0 - < < @ 0 < @ 0 0 0 0 0 < < - - 8 @ 5 @ 8 < 8 < - @ + + o | x.c._.w.B m R G K K H H J J F 0 O       O                                                                   O               O O         O       O                                                                                                                                                                             O     O           O                                                                                                                                                                                                                                                                                             O     X                                                         . @ 0 - k z F z y w n g > s iXW.s.;.f.<.%.x.a.a # r r ; ; @ 0 0 < & @ < @ @ < 0 0 q 0 < @ w 0 @ < z y LXLXLXLXLXLXLXLXLXLXLXLXLXLXLXLXLXLXLXLXLXLXLX",
"LXLXLXLXLXLXLXLXLXLXLXLXLXLXLXLXLXLXLXLXLXH @ o @ 0 0 < @ < @ 8 0 7 5 @ 8 < < - @ @ 0 @ ; - < < 2 w r # o o V d.g.W.u.g W I K ) I P F H F u 5 O           .                                                           .             O   O     .     O       O                   . O                                                                                                           .           .                                           O O           O               O                     .           .                                                                                                                                                                                                                           O             X     +           O           O O O X O O O   O X + @ @ - 0 w q w y G H F H q l % % _.).f.1.$.6.g.J.-.$ . 7 r r 0 & @ & < < @ 8 < @ @ w e 0 0 < @ 0 0 - # z n LXLXLXLXLXLXLXLXLXLXLXLXLXLXLXLXLXLXLXLXLXLXLXLX",
"LXLXLXLXLXLXLXLXLXLXLXLXLXLXLXLXLXLXLXLXLXLX0 @ # 0 0 @ @ @ @ @ 6 6 5 < < < @ < & < & @ @ & @ @ & 7 7 r X   X | P.{ j.s.| Y J G ~ T P H H L A 5 t t r r y y y w 0 0 w t < 0 t 0 u u u u t y t e u u u u u u f u w t q q y e t 0 e 0 0 & 0 0 0 0 q < 0 0 q w q t 7 < 0 q q q r 0 q q q < < 0 w t q 0 0 0 q t r q w w q q 0 0 w r 0 q t w w w q 0 t w 0 0 t 0 w u w w t q 0 0 0 < 0 & 0 2 0 < q 0 t 0 0 < 0 < < 0 @ 0 & & & 0 0 @ 0 0 0 < @ 0 0 0 < < 0 0 0 < & 0 0 @ o @ @ @ @ 0 r q w < @ 0 w r 0 0 w 0 7 0 0 w 5 0 0 0 7 0 5 0 0 q t 0 0 < < & < 0 7 @ & @ @ & @ < @ & & 0 0 7 0 q 0 q 0 0 w t e t w w t q e t y t w w 0 t w w q 2 q e u e u f e e u e e e e t u e w t e t y u f u u u y u u u u b u u f e u u e t u e t q w w y t w y u u u u u u y u u u u u z F L f u A z y H t y u u u u A u u u u z u u z y y z J n z z l k y A D F P x M j l.iX*.:.6.3.*.d.J.1 . 0 @ O 0 r & & & o @ 6 ; 8 @ 0 0 0 0 < - & 0 @ w w z LXLXLXLXLXLXLXLXLXLXLXLXLXLXLXLXLXLXLXLXLXLXLXLXLX",
"LXLXLXLXLXLXLXLXLXLXLXLXLXLXLXLXLXLXLXLXLXLXLXu X @ < @ 8 < 0 @ @ 5 0 - & @ < o @ & 0 < - < < @ @ 0 7 6 9 9 X X V /.s.z.a.c n I I ^ ^ I H L F y L L L L L I I U H u f H H H L u H H U K U H n H U U U H U U I I n n H H U K U K K n q t n U f f f H n H n U n H A n D H H H H H H H H U H L K U I K U H K I U H I I U H H H H H H U K I U H H H u n H U I H n H n n H K n n n n L m H H K H U n H H H H H H U H U H L H H U K U U K U H H H U K H H H H H u H H D H H L I I H H H U H H H H U H H I Q U H H L H D H L H H L H H f U U H H I I H U U H H D H H H H H H H H I K J H H U H U H U I I U H L L U I I I K U U K U I U K H H H H n n U H J U K K K K H H H f y f H I K H H H H f n n n H n U H K n U n K H n n n H H n u n H I I J H I n H H H H H I J H J U A u H P H H u A H H F A H H H L H F F G J J J J R I n J P z y y S r H j c iXsX5.&.} 1.W.d.w.> . 0 0 ; 5 0 7 7 1 < & @ 8 5 8 & 0 < 0 @ @ < 0 @ & y I LXLXLXLXLXLXLXLXLXLXLXLXLXLXLXLXLXLXLXLXLXLXLXLXLXLX",
"LXLXLXLXLXLXLXLXLXLXLXLXLXLXLXLXLXLXLXLXLXLXLXLXu + @ < w < = 0 @ @ < @ @ @ @ @ @ @ - 8 @ @ 0 @ @ < 0 0 0 6 5 o   w.d.d.K.-.s N M K u H I L D t F P L H L L D t A L A P P F I A H P F H z z F z F n J w u H I I u H F u I H u I H H A 0 I F y A D A y A I t H L y A L A A L F A H H A H L H H A H P H F H F H H u H H u u D z u H u H n J n u u n J K H z n K n J n z n J n H z z P n J z z z n z J J e F n z n z z n u u K y K H z J n u n J z w z H z z y l z F F F F L F F F F A F P H F F G u F H ~ F H P z H P H H H P H L H F L P H u H L P F H z J F H F H z P z H z n J H F H I P P J I I u L F A H A L H H L H A H H I K J n n n K n n q u m z H H J n n z n n n n K n J e n H z n n e n n n R R z J J J R P x J H n z z G F z J P H J z P J z z z R P l R z F F z z H z G J z P z z J z J J z z F u P H ! H H K H J I P G S y e $ p _.sXE.7.$.} ;.W.a.g # < 0 w 0 + & 0 & 0 < & @ @ @ 0 7 @ @ - < 0 < 0 X e K LXLXLXLXLXLXLXLXLXLXLXLXLXLXLXLXLXLXLXLXLXLXLXLXLXLXLX",
"LXLXLXLXLXLXLXLXLXLXLXLXLXLXLXLXLXLXLXLXLXLXLXLXLXu o - - o w o @ @ @ 0 - < < @ - < 0 @ @ < 0 & # @ @ < 6 0 7 0 o . q.z.g.iXw.v a f U U H H D F F L L H t H ! u F u P H H H H J H F F J P z H I H F J z H H H F t y L A A t F r t A P u P z u I A A L z H P A A F u H A F J F F G F A L Q F F L P P H F H F I Q ! H y F H H J T P J J H P H K F z J T P H F K P P F z G G z H F z J z z u F z J P I H z n F H J z z P J I R F u z H J z F z z z x J z z P J z P H P F F P S L G P P P P F u u y u P H L u P ! H U Q P H F P H L F F H U H F F F H H H F z z J J J z z n H H z I T J H P H L H F F ^ ` P F F I H I L H u z H H I J J K K T R R T T Y K J K E Y H I J R ^ / U K n J ^ I K I T P K T ^ z T R J K n T m K R n I T J ! z H R R R T J E R J K / J P J F K J F K n J J ^ P J J T G J P P F J J ^ P n z H I H J H H f H G J H q 1 a g.uXE.:.:.} 1.s.J.m & o w < @ 0 @ @ @ @ @ - 7 - @ ; @ 0 < @ @ - < < - w z LXLXLXLXLXLXLXLXLXLXLXLXLXLXLXLXLXLXLXLXLXLXLXLXLXLXLXLX",
"LXLXLXLXLXLXLXLXLXLXLXLXLXLXLXLXLXLXLXLXLXLXLXLXLXLXn # @ < @ - - 8 @ 0 - 0 @ < @ - @ @ 8 @ - & @ @ < @ ; - 8 8 1 . * O.P.K.c.z.c o e E ^ n D I L F D H f H I z I z J z H I H T K K K H K n I H I J P F H H I ! L P L A L P P F J J J J T T H L ^ J P J G T y P H F L Q ! R P R P R P P P R I L I P P ~ P P P P P F F P Q I T ! I P L P ! L ! J P P P L P P I P P F P P P G ~ P ~ P P G J ~ P R P P P Q P J P L P L P G P P P L P ! P F L P L Q A H P P P Q F u n I F z L u H H H H H H f H J F H H L ^ L U I L L I L L I I Q U I I I I ` I H t U H H H H I I H P n J J t H A H r z z z H u u F e z f n H n H l x z K n H n g D H D u H H n H H g D D ' H r y L U f n u D u q u e & t D H f z n f n e g l e n n u u z z y H t f e n J J z e w z l n n y y y z e F u z e n q n f z z z w < 2 e z z H K x z 0 n z q J I H u n n u q 3 d p i u.).W.;.1.3.1.f.).V . o < w < @ < 8 - < - - - 8 & 0 < 0 w 0 @ < < < < - z u LXLXLXLXLXLXLXLXLXLXLXLXLXLXLXLXLXLXLXLXLXLXLXLXLXLXLXLX",
"LXLXLXLXLXLXLXLXLXLXLXLXLXLXLXLXLXLXLXLXLXLXLXLXLXLXLXn X = - - < < @ - @ @ @ @ + < < @ - < @ 0 < 2 < - - @ @ 0 & t # . q.L.=.P.J.e.Y c : $ q < q d e e e 1 3 n 3 e 2 l n 3 b b b l 3 3 3 3 e 3 e q e 4 < 2 @ - o 1 q # @ < < : = 4 4 : : < : 1 3 < = : 4 : o < 2 4 < * : = e m 3 3 l 2 4 3 2 & w 4 2 e l 2 w 2 2 q 3 3 < < w e < = 2 < 2 = 2 = o o o = < e 2 < = ; e k l 2 < 2 w 2 e 8 ; l 9 ; 2 < o 2 - < e e - = - 4 < o 2 o : q 0 < 1 q < 1 q w q q o 3 q 0 1 1 1 : a : > : a 1 4 : 4 , 1 : 1 d g % * 1 a . 1 a * 1 a 1 g 1 1 g g a a 1 1 a g a a a 1 , a a c M j : M M 4 i j 4 b a a M b : b a N c p , : c N B c c N c s c N M b g a d M b g Y U ..B B W B M m B B B ..W ( X.W X...B B W ..X.W e.B C Y W W W B ..W ..B B ..C W V N V N M N W W N N C C W N ..C V V W N W ..q.......0.e.0...q.W q.q.e.q.0.W q...0.o.| W W o.V w.| | d.iXf.1.} E.f.<._.w.. : w @ - @ @ - < < 0 @ @ < @ @ 0 @ @ 0 @ @ < @ o - u e LXLXLXLXLXLXLXLXLXLXLXLXLXLXLXLXLXLXLXLXLXLXLXLXLXLXLXLXLX",
"LXLXLXLXLXLXLXLXLXLXLXLXLXLXLXLXLXLXLXLXLXLXLXLXLXLXLXLXz . o 8 < @ @ @ o @ @ - @ < @ @ < 0 @ 0 & @ < - - - - < @ 7 7 7 $ | z.s.iXJ.| B i % % % > p > % p p p , $ i p v N c i c p : * , p > % p s a s s c C N N M c | | c N N s v C C N v N V V s | | B C B | C | | | ..C B | V | N C V V N | O.V | V V | C V V B v V | | C V O.N Z q.Z Z -.q.| Z C -.V Z Z V V v C | C q.-.Z | V | -.V | | V Z q.| Z | Z v Z V | | -.w.q.a.a.w.w.w.w.| | | | |  .|  .o.w.w.w.h.s.w.s.w.s.s.=.a.j.g.d.g.d.g.d.s.a.d.h.d.h.g.z.g.z.z.a.d.g.s.g.g.d.h.d.d.g.k.l.c.x.z.W./.c.x./.(./.W.W.x._.(._.j.j.(./.x.yXyX/.(.(.(.uX_.W.W.x.(.sXuXQ./.(.(._.Q._.(.(._.(._.(.(.(.(.kX(.(.(.(.Q.(.uXuX(._.(.W.(.uX(.(.(.sX(.f.K.(._.(._.(.(.(./.(.W.(.sXW.W./.(.uXyX/.(.c.k./.iX(.c.c./.yX/./.(.uX/.(.uXuX(._.yXuXuX(.(.uXyXc./.W.c.l./.(.c.c.x.W.Q.yXk.c.x.Q.W._.E.E.6.x.E.f.E.E.1.s.j.i.. . u t < @ @ @ < < - @ < @ @ @ @ @ @ @ < @ < 0 - < z n LXLXLXLXLXLXLXLXLXLXLXLXLXLXLXLXLXLXLXLXLXLXLXLXLXLXLXLXLXLX",
"LXLXLXLXLXLXLXLXLXLXLXLXLXLXLXLXLXLXLXLXLXLXLXLXLXLXLXLXLXz   - - < - @ - @ @ @ o < - @ < @ < 0 @ @ 5 < @ ; = < w + 7 7 $ * a.l.z.j.s.zXJXHXJXHXJXJXJXJXcXJXJXHXJXcXJXHXJXJXHXJXJXJXvXJXJXJXJXJXcXHXJXHXvXcXvXcXcXcXvXHXcXvXvXvXzXvXcXcXvXvXcXvXuX).zXjXjXkXzXzXzXvXvXcXvXvXzXzXkXjXzXkXkXjX).kXuXkXjXjXkXjXkXkXuXuXjXjXkXjXkXkXcXyXsXkXuXP.c.uXsXuXkXsXuXsXlXxXiXuXuXyXiXuX).uXiXyXuXuXuXiXuXuXyXuXsXkXkXkXkXkXlXzXsXjXyXjXuXsXuXuXsXuX_.(.sXuX(.).uX(.sXuX(./.sXsXyX(.yXuXuXsX/.Q.(.(.!.(.(.yXQ.W.yXdXdXyX(.sXyXyX(.(.yXyXsXyX(.!./.(.yX(.yXyX(.(.uXyX(.k.k.Q.W.W.W.Q.E.(.Q.f.E.pX!.f.yXQ.5.f.(.Q.E.E.!.!.!.yXQ.!.E.Q.!.E.E.6.E.W.!.E.E.E.E.E.6.6.E.E.Q.f.E.Q.E.E.E.E.6.,.;.5.E.2.3.6.W.E.:.2.6.6.E.E.E.E.E.5.E.E.E.!.5.f.E.Q.E.8.k.Q.(.Q.8.2.k.5.k.8.4.%.f.f.k.6.2.E.8.5.2.E.f.E.f.f.5.,.2.k.&.3.8.4.,.;.5.2.k.c.E.3.k.Q.!.W.W.Q.f.1.:.:.$.2.f.*.W.h.* . w @ + 0 0 < @ @ < # 8 - < @ - < 0 - < 0 0 0 < 0 z J LXLXLXLXLXLXLXLXLXLXLXLXLXLXLXLXLXLXLXLXLXLXLXLXLXLXLXLXLXLXLX",
"LXLXLXLXLXLXLXLXLXLXLXLXLXLXLXLXLXLXLXLXLXLXLXLXLXLXLXLXLXLXz o @ & @ - < - - - 5 - < < @ 0 0 - @ & 5 5 @ + X ; o z & & & . * O.k.W.} } %.3.f.3.3.f.f.f.} ;.E.k.E.2.6.:.k.E.5.f.,.f.6.1.;.2.3.}  . .s.<.{ { ]  .{ { ] ] } { } 1.{ %.d.<.*.{ <.{ {  . . . . .{ <.<.s.*.*.{ { *.,.=.<.d.1.{ 3.s.<.&.4.<.,.3.3.4.f.f.f.3.{ { 1.3.<.4.&.3.,.&.4.4.%.5.4.4.%.] $.4.&.d.3.4.{ ] %.{ { &.=.%.*.,.-.,.,.d.4.f.%.=.4.%.,.} { %.%.%.,.} %.%.1.3.s.1.1.1.,.<.1.1.*.,.3.d.} %.{ { { ] ] *.%.%.{ %.{ &.%.%.%.=.%.2.%.&.[ } ,.[ &.$.&.%.%.&.[ ]  .1.<.}  .] *.{ } { [ %.[ %.] [ f.;.{ } <.] } %.[ { ;.1.,.1.] } { ] } { } { ,.:.} } } } }  . .1.*.}  . . . . .*.} [  . .%.} [  .]  .1.%.] } 1.{ } } ] ] *.4.4.} *.1.3.2.} 1.} ] ;.%.1.:.[ %.} %.4.*.{ =.4.*.&.d.,.*.[ %.,.E.f.<.1.1.1.,.,.,.f.f.f.1.1.1.W.Q.W.{ f.W.s.4.f.f.*.3.%.%.5.k.5.f.E.1.E.f.W.;.3.} %. .h.L.% . - 8 9 @ < 0 0 @ @ 0 + @ < 0 - < 0 0 < @ @ < @ @ e n LXLXLXLXLXLXLXLXLXLXLXLXLXLXLXLXLXLXLXLXLXLXLXLXLXLXLXLXLXLXLXLX",
"LXLXLXLXLXLXLXLXLXLXLXLXLXLXLXLXLXLXLXLXLXLXLXLXLXLXLXLXLXLXLXw + + < - < 0 - - 8 @ 0 @ @ @ < @ - @ 8 5 5 + ; - 2 # & & q & & *  .x.W.f.f.f.j.f.f.j.f.f.f.f.f.E.f.W.W.d.f.k.f.j.k.W.Q.x.W./.(.W.g.<.{ { s.s.<.1.{ <.{ <.=.<.d.d.=.*.=.*.<.=.d. .<.s. .{ { { g.{ { s.*.<.{  .{ {  .[ {  . .{ { <.*.d.<.{ { ] ] -.{  .{ <.{ { { <.%.] =.<.4.=.4.*.-.=.f.d.&.=.d.=.{  .=.*.{ d.d.=.=.d.=.<.4. .s.s.d.=.s.{ *.d.=.=.d.s.d.=.d.d.s.s.d.d.<.{ <.s.s.s.s.s.s.s.d.=.=.<.w.d.s.l.=.*.d.<.d.s.=.=.a.d.g.=.s.3.x.s.4.<.d.W.k.d.d.=.=.*.*.=.s.<.s.h.s.{ w.d.d.w.=. .{ | d.s.=.w.<.{  .{ {  . .<.s.=.<.{ <.j.=.=.{  .<.d.=.=.j.*.*.{ <.f.1.s.W.*. . . . .{ s. . .*.*.{ 3.&.-.s.,.%.} *.] 1.<.{ {  .<.f.<.{ 3.} } *.%.*. .{ } ;.*.1.*.} [ f.} { -.{ [  .*.=.{ s.%. .] ] { <.{ ]  .{  .{  .]  .1. .] ] ] 1.s.{ { *.d. .{ *.{ { %.,.] 1.4.4.} } *.*.1.1.1.1.} s.d.U.> . 2 0 + 9 0 < @ w 0 o @ < + @ @ - @ & < + - @ 0 @ 0 H LXLXLXLXLXLXLXLXLXLXLXLXLXLXLXLXLXLXLXLXLXLXLXLXLXLXLXLXLXLXLXLXLX",
"LXLXLXLXLXLXLXLXLXLXLXLXLXLXLXLXLXLXLXLXLXLXLXLXLXLXLXLXLXLXLX! - + < @ < 0 - # @ 8 < < - @ @ < < - @ - r 8 6 + + = = 4 < < 7 7 . s u.U.J.G.h.J.G.J.L.H.J.L.H.G.J.L.U.J.J.L.U.).G.H.U.J.J.J.U.U.L.h.i.G.J.L.H.J.L.L.G.h.h.G.J.h.g.g.h.g.z.L.L.l.L.G.h.g.G.h.a.u.h.h.J.L.G.L.L.h.L.h.h.h.h.G.l.J.J.J.h.w.a.h.J.L.a.i.h.L.J.l.h.h.G.h.a.h.h.h.G.h.h.h.h.i.a.G.G.h.G.G.h.i.u.a.h.G.h.i.i.h.i.u.a.u.0.w.w.y.h.J.G.u.a.H.i.o.o.u.w.0.u.u.a.0.0.i.y.y.h.i.u.h.G.h.u.u.p.C.i.A.i.u.p.C.A.i.A.p.p.A.i.p.p.p.i.h.h.i.h.p.G.J.G.i.h.J.U.J.G.i.u.u.u.p.p.p.w.y.h.J.h.J.L.J.H.h.h.i.w.i.J.G.L.U.L.p.p.G.U.U.P.J.h.p.w.w.L.L.U.l.h.L.U.P.L.L.G._.W.H.K.x.K.K.P.P.c.x./.c.l.k.W.z._.k.z.W./.<.s.j.x./.sX_.s.W.W.E._.W._._.W.W.W.W.(./.Q._./.(.(.Q.W._./.(.W.W._.W.f.W.j.f.f.W.d.<.3.s.f.g.f.f.E.f.=.<.=.<.f.<.j.3.<.1.f.f.1.1.f.3.f.f.1.2.3.*.{ d.s.1.<.=.] l.a.p . < 0 @ ; 6 @ 0 0 < @ - @ 0 0 @ @ 0 0 0 < @ - w @ - K H LXLXLXLXLXLXLXLXLXLXLXLXLXLXLXLXLXLXLXLXLXLXLXLXLXLXLXLXLXLXLXLXLX",
"LXLXLXLXLXLXLXLXLXLXLXLXLXLXLXLXLXLXLXLXLXLXLXLXLXLXLXLXLXLXLXLXLX0 @ - @ < @ < < - @ - @ @ 0 0 o @ o @ @ 6 6 8 6 ; = : - - 7 6 7 .     O       . O . . . . . . . . .   . O   . .   .   # . O . # . . . . o * * * * $ * : 3 p > : : $ : > 1 , > a s a , p 4 % i > > p p > p a 4 a p , , p p p a $ > > > , b d c a i 1 i 1 > p a * * $ o . $ $ o : = : $ $ > > $ $ & % & % * $ $ * . . o * . . . * $ * . * $ $ # * * * . . . . . . . *   . . . . . .   . . . . . . . . . # . . . . . . . . . . . o o . X o . X . X o o . . $ o o . .     . . o . . o : < : o = o : o : : o $ 3 $ $ & > : $ : 4 : > : 4 c 4 j c 3 N , 4 p , , c , h B c v N N Z C Z C V | q.q.q.a.| Z w.| O.w.a.| O.O.| | w.| | w.O.| o. .=.O.O.|  .| w.| { O.{ w.w.=.w.s.a.s.d.h.d.d.h.h.j.l.l.z.d.g.l.d.g.d.g.g._.h.h.d.w.d.z.l.j.h.g.h.h.j.g.z._.z.z.c._.z.j.x.L.j.g._.d.=.l.w., = : w r 9 6 ; @ - < - @ @ - & & < - @ o @ < - < @ @ K H LXLXLXLXLXLXLXLXLXLXLXLXLXLXLXLXLXLXLXLXLXLXLXLXLXLXLXLXLXLXLXLXLXLX",
"LXLXLXLXLXLXLXLXLXLXLXLXLXLXLXLXLXLXLXLXLXLXLXLXLXLXLXLXLXLXLXLXLX^ 0 - @ o 0 # 0 @ @ @ @ < < - - = = o @ 6 6 r 6 8 + ; < o 5 8 t q r & @ 7 0 w @ @ < & & < < < < < < < & < < & & & & & & 7 & @ 0 w t @ = ; - o o ; - o o @ # o < < = o o o # X # . # X # X . # o X X . . . X . # o X o # . . O = X # o o X X o o # # o X o . o # o ; 4 # o - o o = o = = - @ @ # o @ - 7 < - @ 7 & - < & < - 0 < < 0 - - = - - - < & - 0 < o < - - r - @ < @ - 0 - @ + ; - 0 - < @ < < < < < < @ & < < - < - o < - - - < @ @ @ - @ o - @ @ @ o 0 0 0 @ - < - - @ - - @ # o X o o X # & o @ & & # . # o & o o o o . o o o o o . X = . o X . . . . O . #   X X .     X X       . .   X   * . X   * X .       .   X   X   * . .   . # o . O .   o o . * .       .   . * . X o . .     X X .   X X o o o o X X = o o o o . * o * : % * : 3 1 > : a 1 > * m B N W % o 2 w - + ; ; @ 8 - @ @ < < @ - 0 @ @ - + @ @ 0 # = H K LXLXLXLXLXLXLXLXLXLXLXLXLXLXLXLXLXLXLXLXLXLXLXLXLXLXLXLXLXLXLXLXLXLXLX",
"LXLXLXLXLXLXLXLXLXLXLXLXLXLXLXLXLXLXLXLXLXLXLXLXLXLXLXLXLXLXLXLXLXLX( X + < w + @ < - @ @ @ @ < o < ; < - 6 6 r 6 5 @ < < o 0 w 7 0 0 0 0 5 8 - 5 8 w r t 0 0 0 0 < & @ @ 8 & 0 0 - & 0 7 w w 0 8 @ 5 8 r r r 8 8 r 0 9 8 8 8 0 0 0 r 9 0 y y r 0 0 0 0 r 0 0 8 0 r 0 0 r 0 9 8 0 8 r r t 0 0 0 r - - 8 - ; w 0 0 @ 0 w w 0 0 0 ; 8 w 9 - 8 0 0 - 8 8 9 r - - 0 0 9 0 0 0 y 0 8 8 8 @ 5 0 @ @ 8 ; @ @ ; - - - - - - - @ ; ; @ 0 8 ; 8 ; ; 9 ; 8 @ 9 ; ; ; 9 8 @ 0 0 @ 0 0 0 & 8 @ < - < @ < @ @ 0 0 0 < @ 0 < 0 0 0 - 8 0 8 5 @ @ @ 5 0 < 0 0 - @ 0 - - 0 0 - 0 0 r 0 & 0 0 0 e q < < 0 0 0 < < 0 q 0 0 < < & < < 2 < & 2 w q & r r 7 r 0 8 9 @ 8 ; 8 9 0 9 0 0 9 8 9 9 9 ; 9 9 w 9 9 9 @ 9 y @ 9 8 8 9 7 r y 9 w 6 0 9 5 0 8 9 0 ; 8 8 8 9 @ 8 8 7 r @ @ ; + + 8 ; ; 9 y 9 9 9 @ ; ; 9 + + 8 ; ; 8 @ @ 7 0 @ 8 X @ + X @ o X @ @ 0 o . # & * # o - w 0 8 - - - 0 @ @ @ - 0 0 0 - @ @ @ - < - # X n K LXLXLXLXLXLXLXLXLXLXLXLXLXLXLXLXLXLXLXLXLXLXLXLXLXLXLXLXLXLXLXLXLXLXLXLX",
"LXLXLXLXLXLXLXLXLXLXLXLXLXLXLXLXLXLXLXLXLXLXLXLXLXLXLXLXLXLXLXLXLXLXLXE X w # 0 @ < 0 @ @ @ @ @ ; - ; - = ; @ @ r 6 5 9 < @ < < 0 8 + ; 9 w 9 x ; - 8 8 - - - @ 0 0 8 0 - - ; - - - - ; @ ; - ; - # o < w 2 < - < - < - @ - 0 0 - - 0 0 w w 0 t 5 5 @ 5 8 0 5 5 @ 0 5 5 w w @ 8 - 0 0 0 0 0 0 0 ; = - - o ; < @ < - @ - = < 0 0 - - - @ @ 5 0 5 0 0 0 8 0 @ @ 8 0 < @ @ @ 5 0 @ @ @ 0 8 0 9 0 0 0 - @ 0 w 8 0 8 0 r 0 ; @ 0 0 0 8 @ 8 8 7 @ 8 8 @ 0 8 - - - 5 @ 0 & @ & 0 & & @ 0 0 < & & 0 < < 0 0 0 0 7 & 5 @ @ 0 & @ 7 0 & 0 @ @ @ @ < : < < @ < o o < 2 = - o 2 - ; < < ; ; ; < < 0 < < ; < + 6 9 8 8 8 8 0 0 0 @ - 0 0 0 < 5 7 & 7 0 7 0 # w 0 y u & o @ o 8 9 8 ; 0 8 8 8 8 8 9 ; 8 9 9 w 0 - @ r 8 - w 8 8 @ 8 8 8 8 @ 8 8 8 0 0 y y 0 0 0 9 0 9 9 0 9 r 9 5 9 5 0 9 9 5 8 9 0 r 9 9 r 9 8 9 9 0 y t 0 9 9 t u 9 r r r 0 r ; e ; o e t D @ ; ; 8 0 - & 0 < @ @ - 0 < - @ o 0 0 @ # w 0   e I LXLXLXLXLXLXLXLXLXLXLXLXLXLXLXLXLXLXLXLXLXLXLXLXLXLXLXLXLXLXLXLXLXLXLXLXLX",
"LXLXLXLXLXLXLXLXLXLXLXLXLXLXLXLXLXLXLXLXLXLXLXLXLXLXLXLXLXLXLXLXLXLXLXLX^ # - @ @ @ < 0 @ @ @ - - - @ @ @ @ - - 0 6 @ 9 8 + ; ; 8 8 r w 0 + X ; ; r - @ - - 0 ; @ 5 9 8 - 8 @ 8 8 0 w 0 - 8 0 0 < 2 0 0 ; - - o 0 < - - < - @ o < < < < 7 & @ # @ & 5 & 8 0 0 7 @ w 0 @ r 0 8 - @ 0 7 0 0 0 0 0 < < 2 - o < < o < = & & < < < & 0 0 - 5 0 0 @ 0 0 0 0 8 - @ @ 8 r 0 0 5 5 0 0 0 5 0 @ 0 0 0 7 0 @ - 0 0 0 @ @ - - w 0 - @ 0 0 - 8 @ 5 8 0 0 7 @ 0 5 0 5 5 0 0 0 0 < 7 0 0 0 7 @ q 2 < @ @ < < & < < 0 < 0 @ @ o + @ @ @ @ & 0 @ 0 : < & @ o o # < 2 < - < : : < = - ; = ; - = X = ; - ; - - < ; 8 9 8 8 9 8 @ 8 0 8 - 0 0 @ - 0 & 0 < 0 0 & < - & o & < o 7 0 - - 0 < ; - 0 - ; ; 8 - 0 r ; ; - 0 < 8 - @ 0 @ & & 0 0 0 & 0 8 0 5 8 0 8 5 5 + + 5 + 8 8 5 6 @ 0 9 9 r 8 0 5 0 r 5 r r w r 8 0 ; 5 0 5 8 9 @ 6 0 6 0 r 0 0 0 7 0 4 ; r t t u t 7 0 8 ; ; X - < < 7 - - @ - - @ @ - @ 0 < @ o < w I LXLXLXLXLXLXLXLXLXLXLXLXLXLXLXLXLXLXLXLXLXLXLXLXLXLXLXLXLXLXLXLXLXLXLXLXLXLX",
"LXLXLXLXLXLXLXLXLXLXLXLXLXLXLXLXLXLXLXLXLXLXLXLXLXLXLXLXLXLXLXLXLXLXLXLXLXJ + @ @ @ @ 0 0 @ < @ 0 9 6 5 @ - = = o o @ 5 8 @ 8 w - @ ; ; - 8 ; - - w @ - 7 @ 0 0 & 5 8 7 8 8 0 0 @ 8 - @ @ @ - 0 X - 0 @ @ < 0 5 - @ 8 7 0 0 0 7 & @ & 0 0 0 7 0 7 & 5 @ 5 0 0 & - 0 0 @ & 0 - @ @ @ @ @ @ < 0 @ @ 8 - + @ 0 7 0 @ @ 7 0 0 7 & o @ < @ @ < @ + < 0 & < < @ - 0 - 7 0 0 @ & 0 7 < @ 0 & 7 @ & 5 o @ < 0 2 & < 0 0 < < < - + < 0 @ & < < & 7 0 0 & 0 & 7 < 7 0 7 0 5 8 7 0 7 0 0 0 w 0 0 @ 0 < - - 0 < 0 < & - < - & o - < 0 < - @ & @ 5 @ - < 0 0 < - 0 < 0 0 0 - w 0 w 2 ; 8 8 9 8 0 8 @ 8 8 r w 8 + 8 6 6 8 + r 8 @ 0 0 @ + 0 8 @ w - - 0 ; @ - 0 @ @ ; 5 8 8 @ # & @ - @ 7 0 0 0 < & & 0 @ @ 0 t & < & < 0 @ 0 & 0 5 0 7 @ 5 7 @ - 0 < - < @ - 0 - < < < @ @ < o @ < @ & @ < 2 0 e < @ < @ w q @ 2 @ < 5 + 0 0 0 0 0 w 0 & 0 w + y 9 7 7 6 t A @ 5 8 2 < < 0 7 & - - < - @ @ @ 0 X @ 0 @ + w I LXLXLXLXLXLXLXLXLXLXLXLXLXLXLXLXLXLXLXLXLXLXLXLXLXLXLXLXLXLXLXLXLXLXLXLXLXLXLX",
"LXLXLXLXLXLXLXLXLXLXLXLXLXLXLXLXLXLXLXLXLXLXLXLXLXLXLXLXLXLXLXLXLXLXLXLXLXLXI @ < @ @ @ @ < - 7 - 8 9 5 @ @ = = = 4 - 0 8 8 8 - - 0 < @ ; - 0 - @ ; o < r @ q 0 0 r 5 5 @ @ & 7 @ @ < - @ & @ & - 8 - @ < @ 5 @ 8 5 5 @ + @ 5 5 0 7 & @ & < & @ r w 0 0 & & 7 5 # < < @ @ 0 0 @ < 0 < @ @ < 0 @ @ r y 0 w r & r 0 @ @ 7 0 7 7 0 o @ + @ 0 5 o 0 @ @ @ < + - 0 - o 0 & 7 @ o & @ @ @ & - < 7 & @ - < - @ @ - < < w < < - o @ < < < 0 7 @ o & < 7 0 @ & & < & & < @ @ 8 8 8 5 8 0 8 8 @ 0 9 0 - @ @ < - - - - 8 w - @ ; @ @ - ; @ 9 0 8 5 ; 5 @ 8 8 @ 5 8 @ 9 w < 8 - 8 9 8 @ 5 8 @ 8 5 9 9 8 8 8 8 @ r r ; @ @ r 0 @ 0 w @ 0 w 8 @ w 8 ; 0 - - r ; 8 r 8 8 ; 0 w 0 0 0 w & & & w r o 7 w & < & < & # 0 # 0 0 # 0 r 0 7 7 7 7 0 & - o < ; - - X X @ o < - < 2 < 0 q < < < 0 < < @ o w q 2 < < < < < 0 @ < < < 1 0 < & q 0 < & 0 @ - ; 9 7 7 t 7 6 y @ 8 y < - & o @ @ - 0 < @ @ < @ - - o # e H LXLXLXLXLXLXLXLXLXLXLXLXLXLXLXLXLXLXLXLXLXLXLXLXLXLXLXLXLXLXLXLXLXLXLXLXLXLXLXLX",
"LXLXLXLXLXLXLXLXLXLXLXLXLXLXLXLXLXLXLXLXLXLXLXLXLXLXLXLXLXLXLXLXLXLXLXLXLXLXLXI + + 0 @ + e @ + 7 @ 5 + 5 < < @ < < @ @ @ 0 0 < - - < 0 @ 0 < 0 0 - @ @ < - < @ 5 - 0 0 0 0 @ 0 0 0 0 0 @ @ 8 @ 0 @ @ 7 0 @ @ @ @ 0 0 @ + @ @ + + & @ @ @ @ @ @ 0 0 w 0 & 0 @ @ @ - < 0 @ @ @ @ @ - - 0 - 8 < < @ < 5 0 0 @ 0 0 0 @ 0 @ 0 0 r @ @ - @ < @ @ @ @ @ @ < < < 0 0 + 0 < @ @ & < @ @ @ 0 @ @ @ < @ @ @ 0 0 0 0 < 8 < @ 0 - @ @ @ < @ @ 5 0 0 0 @ @ @ @ < & 0 0 0 & 0 @ @ 0 0 0 < 0 0 < @ @ @ < < 8 - ; - - - 8 - - 8 9 - ; - w 9 - - w - 8 8 8 ; - - - < - - ; - w ; @ 0 < @ - 0 0 @ @ w w 0 @ 0 @ + @ 0 r 0 5 0 0 0 @ 0 & 0 0 0 0 0 + 0 0 @ @ 5 0 w 8 0 9 @ @ 8 8 & & w w 0 7 @ 7 0 & 5 5 0 0 @ o @ @ @ & w 0 & 0 < 0 0 < 0 7 < 0 < < < < @ @ < 0 < - @ 0 < - @ < @ 0 - & < < < & < o & 0 0 q < 0 < < < < 0 0 0 0 - 0 0 < < q 0 < 0 @ - 0 < 7 5 7 0 w 0 < < & 0 0 & @ 0 8 6 + ; @ < # o - < - n I LXLXLXLXLXLXLXLXLXLXLXLXLXLXLXLXLXLXLXLXLXLXLXLXLXLXLXLXLXLXLXLXLXLXLXLXLXLXLXLX",
"LXLXLXLXLXLXLXLXLXLXLXLXLXLXLXLXLXLXLXLXLXLXLXLXLXLXLXLXLXLXLXLXLXLXLXLXLXLXLXLXH @ @ O y @ + w @ 5 @ @ - 0 8 @ 0 5 0 < @ 5 0 @ @ < 0 - & - @ 0 < - @ @ @ 0 @ 0 @ 0 @ 0 @ 5 @ @ @ 0 0 7 0 0 8 @ 0 0 0 0 0 - 5 @ @ 5 0 5 0 7 @ 5 @ < @ 8 < @ @ @ < < < @ @ @ - @ @ - - < - @ @ < @ < 8 & & - - 0 0 @ < < < - & 0 < 0 @ < < 0 < @ - 0 0 - < @ @ - @ < 0 @ @ @ - @ e 0 0 - 8 - - @ 0 < 0 < < 0 0 < @ < < 0 < @ @ 0 < w < @ - < 0 - 0 < 0 < - @ < < 8 & 8 < @ < 0 < @ 0 & 8 @ @ @ @ w 0 @ @ @ @ < 0 - - - 9 9 8 - - - - w 8 - - - ; - w ; < 0 - - 8 0 ; 9 - - - - 8 ; @ 8 < < 0 < @ & 0 0 @ @ 0 < 7 @ 0 0 & 5 @ 5 8 @ 5 8 t t w 0 @ 5 0 w 0 0 0 0 @ @ 7 0 0 5 5 0 w 0 5 & 0 0 @ @ 0 0 < 0 0 0 0 7 < @ 0 0 w 0 0 0 0 0 0 0 < 0 < 0 0 @ 0 - - @ @ 0 < 0 < < 0 < @ < 0 < 0 < 0 0 0 0 0 @ 8 @ 0 0 0 0 < w 0 0 < - < < 0 @ 0 < @ 0 0 < < < 0 0 0 < @ - 0 0 0 @ @ @ @ @ @ 8 8 @ 8 - ; o - @ o - o K n LXLXLXLXLXLXLXLXLXLXLXLXLXLXLXLXLXLXLXLXLXLXLXLXLXLXLXLXLXLXLXLXLXLXLXLXLXLXLXLXLX",
"LXLXLXLXLXLXLXLXLXLXLXLXLXLXLXLXLXLXLXLXLXLXLXLXLXLXLXLXLXLXLXLXLXLXLXLXLXLXLXLXLXH   0 @ @ - - < - < 0 < @ < @ 0 @ @ 0 7 - 0 @ 8 0 @ 0 8 - 5 0 @ - @ 0 0 0 - 0 0 7 @ 5 5 @ 5 7 5 0 0 @ 7 @ 0 - @ 7 0 0 5 @ @ 5 @ 7 - @ 7 0 0 0 @ 0 0 < 0 < @ @ < @ @ + @ < 0 < @ & @ @ < & 0 0 < < 0 < - @ < 0 @ < 0 @ 5 0 0 < @ 0 8 @ & 0 @ - - < 0 0 - @ @ < @ 0 0 @ @ @ < < 0 0 < < @ < 0 < 0 0 0 < < 0 < @ < & 0 @ @ - - @ 0 0 8 @ @ 0 < - @ 0 < < @ - < < 0 - @ - @ & @ 0 - < @ 0 0 < < @ 0 < - @ @ @ @ 8 ; - - - - ; - ; ; < w - ; ; - - - - - - - - ; @ - - 8 8 w 8 w w 0 < @ 0 < @ @ @ 0 0 @ < < 0 0 0 @ - 0 @ @ @ 8 < 0 < - 0 - < < 0 0 0 0 < 8 0 < < @ 0 < < @ - 0 0 0 & @ 0 0 - @ @ < 0 0 0 0 0 q 0 0 < 0 w 0 0 < 0 < @ < @ @ < 0 0 8 @ @ < < @ 5 0 0 < 0 < @ < 0 0 - < 0 - 0 0 0 < 0 0 < < 0 - & 0 t q 0 < @ - 0 0 0 < @ 0 0 < < < 0 0 0 0 0 < < < & 0 0 < - @ @ 0 5 @ @ 8 0 @ o - 2 o @ J K LXLXLXLXLXLXLXLXLXLXLXLXLXLXLXLXLXLXLXLXLXLXLXLXLXLXLXLXLXLXLXLXLXLXLXLXLXLXLXLXLXLX",
"LXLXLXLXLXLXLXLXLXLXLXLXLXLXLXLXLXLXLXLXLXLXLXLXLXLXLXLXLXLXLXLXLXLXLXLXLXLXLXLXLX^ u   < @ - - 0 - @ @ 0 - - @ w @ - 0 < - - < @ @ 5 @ 0 7 0 < 7 0 5 @ @ 7 @ @ 0 @ @ 8 8 < 8 - @ 5 @ 8 0 0 7 @ @ @ @ 5 @ 0 5 @ @ - 5 @ 0 @ @ 0 @ @ 0 < 0 < - 0 8 < 0 < 0 0 0 < @ + 0 < 8 @ - 0 0 0 0 @ @ @ @ 0 - @ - @ < < @ 0 < @ < @ < @ 0 < - 0 0 & @ @ - 0 @ < 0 < @ @ @ 0 & @ @ - < @ 0 0 - < - 0 5 < - @ 0 @ @ < 8 < @ @ < < @ @ @ & @ @ o < 0 @ < 0 0 - < @ @ @ 0 0 < @ 8 - & @ 0 0 0 & < < @ - @ @ @ & - ; ; - - < - - ; - - - - @ ; w ; ; ; - - 9 - - - - ; 2 - 9 8 w 0 < @ @ @ @ @ @ < @ < 0 0 0 & < 0 < @ - < < 0 < 0 0 @ @ @ - 0 < < 0 0 @ + < 0 0 @ < 0 0 @ - < 0 0 < 0 0 0 0 - @ 0 0 < < < 0 0 0 < 7 < - < & 0 & < @ @ @ & @ @ 0 0 < < 0 0 @ @ & 0 < @ 0 8 < < 0 @ @ - @ @ - < @ 0 < 0 < @ 8 & < 0 0 0 0 < < & 0 0 0 0 & 0 0 8 < 0 < < 0 0 0 0 7 @ < 0 0 8 < @ < @ 8 8 8 - ; - 0 < # e E LXLXLXLXLXLXLXLXLXLXLXLXLXLXLXLXLXLXLXLXLXLXLXLXLXLXLXLXLXLXLXLXLXLXLXLXLXLXLXLXLXLXLX",
"LXLXLXLXLXLXLXLXLXLXLXLXLXLXLXLXLXLXLXLXLXLXLXLXLXLXLXLXLXLXLXLXLXLXLXLXLXLXLXLXLXLXI u @ 0 < < 0 @ @ @ & 8 @ @ 0 < < w 0 < 0 8 0 @ 8 8 5 0 5 0 0 7 - 0 < 5 5 @ 8 8 - 8 0 8 5 0 - - 8 < @ 0 0 @ @ @ @ 0 0 8 0 0 @ 0 5 @ 7 - @ @ @ w 0 7 @ 5 7 w 0 @ @ 0 w 0 0 0 @ @ < 0 < < @ 0 0 0 < - - @ @ @ - @ @ 0 < 0 @ @ @ - - < @ < < 0 @ @ < @ @ - < 0 - - 0 0 0 @ @ 0 < < 0 - @ @ @ 0 - - - - - 0 0 @ @ @ @ < 0 @ & @ 8 0 @ @ @ 0 < 0 @ 0 0 @ < w 0 @ 0 @ @ < - 0 & - < @ 0 < 0 - @ @ - < @ 0 < @ < 0 - 8 - - - 0 8 - ; ; @ @ - - - 8 8 - ; - 8 0 - - 9 ; - - 0 - - - @ < < @ @ 0 0 @ < @ @ 0 0 0 < - < - - < - < < 0 @ < 0 < 0 < - @ @ < 0 0 < & 0 0 w 0 0 & @ < 0 0 o 0 0 0 0 0 0 < 0 w < - - < 0 - 8 7 @ 8 @ 5 0 0 - 0 0 0 5 0 @ 0 w 0 7 0 0 5 < 0 0 & 5 0 - 0 0 - 0 8 8 @ 0 0 0 5 5 0 0 0 0 0 7 0 - 0 0 0 0 - 5 0 @ w 0 8 0 0 7 0 0 7 < 0 0 0 0 0 5 0 0 0 @ @ 0 0 ; 8 8 - < < - - . e I LXLXLXLXLXLXLXLXLXLXLXLXLXLXLXLXLXLXLXLXLXLXLXLXLXLXLXLXLXLXLXLXLXLXLXLXLXLXLXLXLXLXLXLX",
"LXLXLXLXLXLXLXLXLXLXLXLXLXLXLXLXLXLXLXLXLXLXLXLXLXLXLXLXLXLXLXLXLXLXLXLXLXLXLXLXLXLXLX^ w @ < - < @ @ < 0 - @ - 0 < 0 0 < < 0 & 0 0 0 8 < 0 8 & 0 8 8 - 5 @ - 8 0 - - 0 0 & 5 @ 8 - 8 8 5 0 5 @ 5 8 0 5 @ 0 @ @ 8 0 0 5 0 0 8 @ 5 0 0 8 8 @ + 0 0 0 7 5 7 - - 7 0 < @ - @ @ @ @ 0 & @ @ < < @ @ @ < - @ < 0 < < & 8 8 @ 0 @ @ 0 < 0 @ 0 - @ @ @ < @ @ @ < < @ @ 0 0 - - @ @ @ @ - - - < @ < < @ 0 @ @ 0 0 < 8 < @ 0 < @ < < @ 0 0 @ @ + @ 0 < - < < - @ @ 0 < @ 0 < 0 - < - @ @ 0 @ < @ @ 0 < 0 - - ; ; - - - ; < - ; - - 0 0 - 0 - - - - - ; ; w ; ; - 8 - ; @ @ 0 0 < 0 0 w @ 0 @ @ 0 < @ < 0 - - - - - < 0 0 < 0 < - < 8 - - & 0 q t 0 8 @ 8 0 @ @ @ 8 < @ < + 2 0 - & 0 < < - 8 - - - 0 < < 0 0 0 @ 0 0 7 0 5 ; 5 0 0 0 @ 5 5 < @ 8 8 8 0 0 @ + @ 0 7 0 0 7 0 0 5 0 0 5 8 0 @ 0 @ 8 @ 0 0 - 8 8 7 - @ 7 0 w @ 7 8 - 0 7 0 r 0 < 0 8 8 0 0 0 0 0 7 0 0 0 5 0 5 8 5 @ 0 0 o o n H LXLXLXLXLXLXLXLXLXLXLXLXLXLXLXLXLXLXLXLXLXLXLXLXLXLXLXLXLXLXLXLXLXLXLXLXLXLXLXLXLXLXLXLXLX",
"LXLXLXLXLXLXLXLXLXLXLXLXLXLXLXLXLXLXLXLXLXLXLXLXLXLXLXLXLXLXLXLXLXLXLXLXLXLXLXLXLXLXLXLX^ < o @ < - @ @ < @ & 0 0 < 0 & @ 0 0 < 5 8 8 8 8 8 5 8 5 8 5 ; 8 @ 8 8 @ @ - 8 - - - 8 - w 8 - - - ; @ @ ; - @ @ - ; + ; - @ @ 8 - ; - 0 0 < 8 < @ 5 8 0 0 @ 0 0 5 - 0 0 - @ - @ @ - 0 - @ @ @ - 0 @ @ 0 @ < @ - @ @ - @ @ @ @ < @ @ < @ - < @ < @ @ @ - @ @ < - < < @ ; - - - - - - 8 - - - - - 8 - ; < @ @ < < < @ 0 o 0 < @ - @ @ 0 @ @ @ @ @ - < - @ < < @ < @ @ - @ < 0 < - @ < < < @ @ @ < @ - 0 - @ @ @ @ 0 5 @ 0 0 0 @ 0 0 0 < - < - - @ @ @ @ 0 < @ - @ @ @ @ @ < < 8 < 0 < @ < & @ @ @ < < 0 - - 8 - - - - 8 - 8 - ; @ 8 0 - 0 0 0 < & - & 0 < @ - 0 < @ @ @ 0 0 0 - ; ; - - - - - 8 8 - - 8 8 8 0 8 8 9 8 - 6 @ 8 8 @ @ @ 8 @ 5 8 @ @ 8 8 8 @ + @ 8 8 0 0 8 0 @ 5 8 0 8 5 0 0 5 5 - 5 5 8 0 - 8 8 ; 8 5 8 0 @ 8 @ 8 8 0 9 9 8 0 5 8 8 8 8 0 t 0 0 8 0 8 8 0 8 @ @ 0 0 < - w T LXLXLXLXLXLXLXLXLXLXLXLXLXLXLXLXLXLXLXLXLXLXLXLXLXLXLXLXLXLXLXLXLXLXLXLXLXLXLXLXLXLXLXLXLXLX",
"LXLXLXLXLXLXLXLXLXLXLXLXLXLXLXLXLXLXLXLXLXLXLXLXLXLXLXLXLXLXLXLXLXLXLXLXLXLXLXLXLXLXLXLXLX^ <   - @ @ 0 0 @ < 0 < 0 0 @ @ < 0 - @ @ 8 8 @ @ 8 0 @ 8 8 8 8 8 @ 5 + @ ; - - - - 0 - 8 0 - @ ; - @ @ @ ; @ ; - @ @ @ - ; X ; @ @ ; @ 7 @ @ 0 0 8 & @ @ @ 0 5 @ @ @ < @ @ @ < 8 @ @ @ @ - @ @ < - < & < - 0 - @ @ < @ @ @ @ 8 - @ - @ @ @ @ 8 < < - @ @ @ @ 8 @ @ - @ ; - - ; 8 - - 8 - - @ ; - - @ - @ @ 0 0 @ @ 8 @ @ < - - @ @ < @ @ < < @ # # - 0 @ @ @ + + @ 0 @ @ @ 0 @ @ @ < @ @ - 0 0 < @ @ 0 < < - < 0 - o < 0 @ < < - @ @ 8 0 < - @ < < < 0 - @ - 0 < - 0 0 < @ @ @ @ @ < - 0 < 0 0 @ @ @ ; - 0 8 - ; - - - - 8 - ; 0 0 - < 0 - < < 0 0 0 0 2 0 0 0 < - @ 0 - - 8 - - - 0 w ; - 8 w - - - @ 8 8 8 8 8 5 @ 5 ; @ @ @ 5 5 9 8 0 0 8 5 0 9 9 8 @ 5 0 8 5 9 0 0 @ @ 9 0 @ 8 0 0 8 8 8 - 9 0 w 5 5 0 0 0 8 8 @ 0 9 5 8 0 0 8 @ 8 8 8 @ @ 8 8 9 0 9 @ @ 8 0 5 + @ + @ w < + w I LXLXLXLXLXLXLXLXLXLXLXLXLXLXLXLXLXLXLXLXLXLXLXLXLXLXLXLXLXLXLXLXLXLXLXLXLXLXLXLXLXLXLXLXLXLXLX",
"LXLXLXLXLXLXLXLXLXLXLXLXLXLXLXLXLXLXLXLXLXLXLXLXLXLXLXLXLXLXLXLXLXLXLXLXLXLXLXLXLXLXLXLXLXLXI o   u 0 @ 0 o @ 0 0 0 < < < 5 < @ 5 0 0 5 8 0 0 w @ + @ 0 0 @ @ @ X @ - @ < 0 0 < @ < 0 - - @ - 0 - - @ @ @ - @ @ < 0 < - @ @ @ o 0 7 8 8 8 0 7 @ 0 0 0 0 - @ @ 5 - @ @ @ < 0 0 < - @ @ @ @ @ @ @ @ - 0 < 0 0 - @ < - - - @ @ @ @ - - @ < - < @ @ @ - < 0 @ @ - @ < @ - < 0 - 0 < 0 & 8 - @ - 0 @ @ @ @ - @ - - < @ - < - @ @ @ @ @ @ < < @ @ @ O @ < @ @ @ - - @ @ - < < @ @ - - 0 @ - 0 0 @ @ @ @ @ - - 0 0 < < < @ @ < @ 0 @ @ - < - < @ 0 - < 0 0 < @ @ < < @ @ 0 0 @ @ - < @ 0 0 @ + o @ 0 @ 0 < 0 < @ < 0 0 @ < 0 0 0 < < - < 0 0 @ < 0 < < - < 0 @ @ @ @ 8 - - - @ @ < < 0 @ @ @ - - - 0 0 8 0 7 8 @ @ 5 @ 5 @ 0 7 0 @ 5 & 8 8 w 0 0 < 0 0 @ 5 @ @ + - 0 @ 5 @ 0 8 5 0 0 < 0 0 @ 5 0 0 @ 0 8 8 0 0 < 8 0 0 0 0 0 @ 8 & 8 8 w 0 & - 0 0 0 5 0 w 0 7 0 0 0 & 8 @ 0 @ 0 u H LXLXLXLXLXLXLXLXLXLXLXLXLXLXLXLXLXLXLXLXLXLXLXLXLXLXLXLXLXLXLXLXLXLXLXLXLXLXLXLXLXLXLXLXLXLXLXLX",
"LXLXLXLXLXLXLXLXLXLXLXLXLXLXLXLXLXLXLXLXLXLXLXLXLXLXLXLXLXLXLXLXLXLXLXLXLXLXLXLXLXLXLXLXLXLXLXE <   @ - @ 0 - @ + @ < < < 0 0 @ @ 8 0 @ @ @ 7 - 5 5 5 < 8 - 8 0 - - - @ @ @ @ @ @ @ @ @ < @ @ @ 0 0 < @ - < @ @ @ @ @ @ @ @ @ @ @ 0 @ @ @ @ - @ 0 7 7 7 @ 0 0 @ 0 < 0 < - @ @ < 0 < - < 0 - - < @ @ @ - & - - < - - < @ 5 < @ < @ @ @ @ - - 0 - @ @ @ < < < < 0 @ @ @ @ & 8 @ - @ 0 0 < < 8 @ 0 < - @ - < @ @ @ 0 < < - @ @ @ @ @ @ 0 @ < < 0 0 @ 0 0 @ < < 0 - @ @ @ @ - 0 - - @ @ < 0 < - @ @ @ @ @ @ @ - - @ @ - 0 @ @ @ - @ @ - < @ @ @ @ @ < 0 < @ @ 0 < 0 @ - < @ @ - @ # 0 < 0 @ @ 0 < @ @ - @ @ @ - < - @ & 0 < @ - - - - < < - @ @ - @ < 0 < - 8 < < < - < 0 < - - - @ 0 < < < - < - < @ 0 0 0 0 8 0 w 0 0 0 0 0 0 0 0 8 8 0 0 7 8 7 0 0 0 0 7 + 0 0 @ 0 0 5 @ @ @ 0 0 @ @ @ @ 0 0 @ 5 @ - 0 7 0 7 - 7 @ @ 7 0 0 0 0 @ w 0 0 0 0 0 0 r & 0 0 0 0 w r 0 0 < w @ 8 H H LXLXLXLXLXLXLXLXLXLXLXLXLXLXLXLXLXLXLXLXLXLXLXLXLXLXLXLXLXLXLXLXLXLXLXLXLXLXLXLXLXLXLXLXLXLXLXLX",
"LXLXLXLXLXLXLXLXLXLXLXLXLXLXLXLXLXLXLXLXLXLXLXLXLXLXLXLXLXLXLXLXLXLXLXLXLXLXLXLXLXLXLXLXLXLXLXK I o - e @ < 2 0 & < 0 2 0 0 < < < & @ 0 0 < < < @ < < @ @ - - - 0 0 0 < < < 7 & < - @ < 0 0 0 0 - @ @ @ - < @ @ < 0 & 0 0 < 0 < @ & 7 & & @ < 0 & & o @ @ < @ & < < 0 < < & - - < @ @ @ @ @ @ @ 8 < - 0 0 8 @ < @ @ @ @ @ @ @ @ @ @ - @ @ @ @ 0 + @ @ - @ - @ < - @ @ @ @ @ @ & @ < @ - 0 < & 0 @ @ @ @ @ @ @ @ @ @ @ @ @ @ @ @ < < - @ + @ @ @ @ @ @ @ @ @ @ + 0 @ @ @ @ @ @ @ < 0 < @ @ < - @ @ @ o @ @ @ - @ @ @ @ < @ - & 0 @ 0 0 0 @ @ @ 0 @ < @ @ @ < 0 - @ < < @ & - @ + & 0 & & & w 0 o < < < - 0 < < o - < 0 2 < - < < 0 < < < < < < < < o < o & @ - o < < < < < < < - < < - < < 0 < < 0 0 < 0 < < < 0 0 0 < @ @ @ @ - 0 & @ @ @ @ @ - < @ < - @ < 0 @ 0 < 0 @ @ 0 0 < 8 & - < 0 0 0 < - 0 0 0 < 0 < 0 @ 0 < 0 0 0 0 < @ @ @ @ @ @ & @ @ 0 w 0 0 0 0 w - e O X I H LXLXLXLXLXLXLXLXLXLXLXLXLXLXLXLXLXLXLXLXLXLXLXLXLXLXLXLXLXLXLXLXLXLXLXLXLXLXLXLXLXLXLXLXLXLXLXLXLX",
"LXLXLXLXLXLXLXLXLXLXLXLXLXLXLXLXLXLXLXLXLXLXLXLXLXLXLXLXLXLXLXLXLXLXLXLXLXLXLXLXLXLXLXLXLXLXLXLXK n # o < & < < < < < - o & @ o @ @ + < 0 - - 0 < < 0 0 0 - < < < < - @ + @ @ @ < @ + @ & @ @ @ - - @ < 0 0 < @ + @ + @ @ @ # - + @ @ & @ + @ & + + @ @ & 7 o + + @ @ @ + @ @ @ @ @ @ @ < @ @ @ @ @ @ @ o @ o + @ @ < - - < - @ @ 8 & - @ @ & < @ @ @ < - @ @ @ @ @ @ @ @ o + o + o + @ @ @ @ & @ @ @ - @ - < 0 @ - @ @ @ - - < - 0 < @ @ @ @ o - @ < - - < & @ < @ - @ @ X # - @ @ < - @ - - @ @ @ @ @ @ @ @ < @ - @ @ - @ - - @ < < - @ o @ 0 - - @ @ @ @ @ @ o @ 7 & @ < & @ 0 & @ + @ & 7 @ @ - < 2 < 0 < @ < < < - o @ @ - < & < @ @ & @ @ < < - - < < < @ o @ @ @ @ < - = @ @ @ @ - < < - < 0 < @ - @ @ - @ - @ 0 < 0 w w w 0 0 < 0 0 0 < 0 @ 0 < & 0 0 < @ @ & @ < @ @ - 0 0 0 @ & < @ 0 < < < - - - - 0 @ @ @ 0 & 0 < @ 0 7 0 0 0 0 0 < 0 w w w 7 0 2 < 0 # < K J LXLXLXLXLXLXLXLXLXLXLXLXLXLXLXLXLXLXLXLXLXLXLXLXLXLXLXLXLXLXLXLXLXLXLXLXLXLXLXLXLXLXLXLXLXLXLXLXLXLX",
"LXLXLXLXLXLXLXLXLXLXLXLXLXLXLXLXLXLXLXLXLXLXLXLXLXLXLXLXLXLXLXLXLXLXLXLXLXLXLXLXLXLXLXLXLXLXLXLXLXE H < o @ < @ o @ o o o o - o @ # o < o # o < @ # # = @ o o # o @ o # + o o @ @ o o @ + o o & 7 & @ & & 0 & @ & @ & @ & @ @ @ < < & & & - @ @ @ < 2 0 w 0 < < < 0 < 0 @ @ 0 0 0 @ @ 0 - @ - 8 0 w 0 w 0 r < < 0 q 0 0 0 0 0 < - < 0 - @ @ < 0 0 0 < < < 0 0 0 0 0 q q 0 & 0 q 0 0 < & 0 & 0 0 0 0 - < 0 @ - 0 0 < @ & @ @ @ @ @ @ & @ @ < - 0 - @ < - 0 < < @ < @ - 0 0 @ < e 0 @ < 0 0 0 @ < @ < < 0 < 8 0 0 w 0 < < 0 0 0 < & 0 0 < 0 < < 0 @ @ - - - < - - @ @ & @ & @ & - @ @ # # @ @ @ @ # o - o o o - o - o o # : @ @ o @ o o < o < o @ o o # o o @ o o # o o @ o - & @ o - # o - o o o . # # o - o o @ o # # o o X o o o - o # o . X O o X o X   . X . # o o o = @ o o . o o X # o . X o o . X . X X # o # X o o o X o # o o o o o # X o = o o o o o # X   H I LXLXLXLXLXLXLXLXLXLXLXLXLXLXLXLXLXLXLXLXLXLXLXLXLXLXLXLXLXLXLXLXLXLXLXLXLXLXLXLXLXLXLXLXLXLXLXLXLXLXLX",
"LXLXLXLXLXLXLXLXLXLXLXLXLXLXLXLXLXLXLXLXLXLXLXLXLXLXLXLXLXLXLXLXLXLXLXLXLXLXLXLXLXLXLXLXLXLXLXLXLXLXE K n K K ^ E E ^ ^ ( / / ^ / ^ / / E E E ^ _ E E ( ( ^ E ^ E Q T E Q ` ^ ( ^ ` ^ ^ ^ ' ^ ^ E E Q T I I I I I I I I I U I K K K K J K K K n K U K K U K K K H K H H H H H J n z z n n H H u f u u u u u u u u u u e e y w w w w e w w w 0 w e 0 t 0 0 0 u e 0 < 0 0 < 0 < 0 q 0 0 < < 7 @ < 0 < 0 0 < < & 0 e 0 0 0 0 0 0 0 0 w w w w w w w w w 0 w 0 w w w u w w e e u y u y e y u n y t u u n u u u u z u n u y u u n u y y y e u y u u y H H n H H H H H U H U L H U H U H H H H U U K U K I R K I K T E E I K T E ^ E E E E E ^ ^ E E E ^ ( ^ / _ _ ( ( _ #._ _ _ @.r._ r.@.r.@.@.r._ _ _ @.@.r.r.r.@.r.r.M.N.r.r.@._ _ #.r.r.m.r.r.r.r.r.@.@.r.@.r.r.r./ / / ^ ^ ^ ^ / ^ _ _ _ _ _ _ _ _ @._ _ _ ( _ r.m.r._ _ _ _ _ _ _ ( ^ _ r.r._ / ^ ^ ^ ^ ^ _ ^ ^ K _ I LXLXLXLXLXLXLXLXLXLXLXLXLXLXLXLXLXLXLXLXLXLXLXLXLXLXLXLXLXLXLXLXLXLXLXLXLXLXLXLXLXLXLXLXLXLXLXLXLXLXLXLX",
"LXLXLXLXLXLXLXLXLXLXLXLXLXLXLXLXLXLXLXLXLXLXLXLXLXLXLXLXLXLXLXLXLXLXLXLXLXLXLXLXLXLXLXLXLXLXLXLXLXLXLXLXLXLXLXLXLXLXLXLXLXLXLXLXLXLXLXLXLXLXLXLXLXLXLXLXLXLXLXLXLXLXLXLXLXLXLXLXLXLXLXLXLXLXLXLXLXLXLXLXLXLXLXLXLXLXLXLXLXLXLXLXLXLXLXLXLXLXLXLXLXLXLXLXLXLXLXLXLXLXLXLXLXLXLXLXLXLXLXLXLXLXLXLXLXLXLXLXLXLXLXLXLXLXLXLXLXLXLXLXLXLXLXLXLXLXLXLXLXLXLXLXLXLXLXLXLXLXLXLXLXLXLXLXLXLXLXLXLXLXLXLXLXLXLXLXLXLXLXLXLXLXLXLXLXLXLXLXLXLXLXLXLXLXLXLXLXLXLXLXLXLXLXLXLXLXLXLXLXLXLXLXLXLXLXLXLXLXLXLXLXLXLXLXLXLXLXLXLXLXLXLXLXLXLXLXLXLXLXLXLXLXLXLXLXLXLXLXLXLXLXLXLXLXLXLXLXLXLXLXLXLXLXLXLXLXLXLXLXLXLXLXLXLXLXLXLXLXLXLXLXLXLXLXLXLXLXLXLXLXLXLXLXLXLXLXLXLXLXLXLXLXLXLXLXLXLXLXLXLXLXLXLXLXLXLXLXLXLXLXLXLXLXLXLXLXLXLXLXLXLXLXLXLXLXLXLXLXLXLXLXLXLXLXLXLXLXLXLXLXLXLXLXLXLXLXLXLXLXLXLXLXLXLXLXLXLXLXLXLXLXLXLXLXLXLXLXLXLXLXLXLXLXLXLXLXLXLXLXLXLXLXLXLXLXLXLXLXLXLXLXLXLXLXLXLXLXLXLXLXLXLXLXLXLXLXLXLXLXLXLXLXLXLXLXLXLXLXLXLXLXLXLXLXLXLXLXLXLXLXLXLXLXLXLXLXLXLXLXLXLX",
"LXLXLXLXLXLXLXLXLXLXLXLXLXLXLXLXLXLXLXLXLXLXLXLXLXLXLXLXLXLXLXLXLXLXLXLXLXLXLXLXLXLXLXLXLXLXLXLXLXLXLXLXLXLXLXLXLXLXLXLXLXLXLXLXLXLXLXLXLXLXLXLXLXLXLXLXLXLXLXLXLXLXLXLXLXLXLXLXLXLXLXLXLXLXLXLXLXLXLXLXLXLXLXLXLXLXLXLXLXLXLXLXLXLXLXLXLXLXLXLXLXLXLXLXLXLXLXLXLXLXLXLXLXLXLXLXLXLXLXLXLXLXLXLXLXLXLXLXLXLXLXLXLXLXLXLXLXLXLXLXLXLXLXLXLXLXLXLXLXLXLXLXLXLXLXLXLXLXLXLXLXLXLXLXLXLXLXLXLXLXLXLXLXLXLXLXLXLXLXLXLXLXLXLXLXLXLXLXLXLXLXLXLXLXLXLXLXLXLXLXLXLXLXLXLXLXLXLXLXLXLXLXLXLXLXLXLXLXLXLXLXLXLXLXLXLXLXLXLXLXLXLXLXLXLXLXLXLXLXLXLXLXLXLXLXLXLXLXLXLXLXLXLXLXLXLXLXLXLXLXLXLXLXLXLXLXLXLXLXLXLXLXLXLXLXLXLXLXLXLXLXLXLXLXLXLXLXLXLXLXLXLXLXLXLXLXLXLXLXLXLXLXLXLXLXLXLXLXLXLXLXLXLXLXLXLXLXLXLXLXLXLXLXLXLXLXLXLXLXLXLXLXLXLXLXLXLXLXLXLXLXLXLXLXLXLXLXLXLXLXLXLXLXLXLXLXLXLXLXLXLXLXLXLXLXLXLXLXLXLXLXLXLXLXLXLXLXLXLXLXLXLXLXLXLXLXLXLXLXLXLXLXLXLXLXLXLXLXLXLXLXLXLXLXLXLXLXLXLXLXLXLXLXLXLXLXLXLXLXLXLXLXLXLXLXLXLXLXLXLXLXLXLXLXLXLXLXLXLXLXLXLXLXLXLXLXLXLXLXLXLX",
"LXLXLXLXLXLXLXLXLXLXLXLXLXLXLXLXLXLXLXLXLXLXLXLXLXLXLXLXLXLXLXLXLXLXLXLXLXLXLXLXLXLXLXLXLXLXLXLXLXLXLXLXLXLXLXLXLXLXLXLXLXLXLXLXLXLXLXLXLXLXLXLXLXLXLXLXLXLXLXLXLXLXLXLXLXLXLXLXLXLXLXLXLXLXLXLXLXLXLXLXLXLXLXLXLXLXLXLXLXLXLXLXLXLXLXLXLXLXLXLXLXLXLXLXLXLXLXLXLXLXLXLXLXLXLXLXLXLXLXLXLXLXLXLXLXLXLXLXLXLXLXLXLXLXLXLXLXLXLXLXLXLXLXLXLXLXLXLXLXLXLXLXLXLXLXLXLXLXLXLXLXLXLXLXLXLXLXLXLXLXLXLXLXLXLXLXLXLXLXLXLXLXLXLXLXLXLXLXLXLXLXLXLXLXLXLXLXLXLXLXLXLXLXLXLXLXLXLXLXLXLXLXLXLXLXLXLXLXLXLXLXLXLXLXLXLXLXLXLXLXLXLXLXLXLXLXLXLXLXLXLXLXLXLXLXLXLXLXLXLXLXLXLXLXLXLXLXLXLXLXLXLXLXLXLXLXLXLXLXLXLXLXLXLXLXLXLXLXLXLXLXLXLXLXLXLXLXLXLXLXLXLXLXLXLXLXLXLXLXLXLXLXLXLXLXLXLXLXLXLXLXLXLXLXLXLXLXLXLXLXLXLXLXLXLXLXLXLXLXLXLXLXLXLXLXLXLXLXLXLXLXLXLXLXLXLXLXLXLXLXLXLXLXLXLXLXLXLXLXLXLXLXLXLXLXLXLXLXLXLXLXLXLXLXLXLXLXLXLXLXLXLXLXLXLXLXLXLXLXLXLXLXLXLXLXLXLXLXLXLXLXLXLXLXLXLXLXLXLXLXLXLXLXLXLXLXLXLXLXLXLXLXLXLXLXLXLXLXLXLXLXLXLXLXLXLXLXLXLXLXLXLXLXLXLXLXLXLXLXLXLX",
"LXLXLXLXLXLXLXLXLXLXLXLXLXLXLXLXLXLXLXLXLXLXLXLXLXLXLXLXLXLXLXLXLXLXLXLXLXLXLXLXLXLXLXLXLXLXLXLXLXLXLXLXLXLXLXLXLXLXLXLXLXLXLXLXLXLXLXLXLXLXLXLXLXLXLXLXLXLXLXLXLXLXLXLXLXLXLXLXLXLXLXLXLXLXLXLXLXLXLXLXLXLXLXLXLXLXLXLXLXLXLXLXLXLXLXLXLXLXLXLXLXLXLXLXLXLXLXLXLXLXLXLXLXLXLXLXLXLXLXLXLXLXLXLXLXLXLXLXLXLXLXLXLXLXLXLXLXLXLXLXLXLXLXLXLXLXLXLXLXLXLXLXLXLXLXLXLXLXLXLXLXLXLXLXLXLXLXLXLXLXLXLXLXLXLXLXLXLXLXLXLXLXLXLXLXLXLXLXLXLXLXLXLXLXLXLXLXLXLXLXLXLXLXLXLXLXLXLXLXLXLXLXLXLXLXLXLXLXLXLXLXLXLXLXLXLXLXLXLXLXLXLXLXLXLXLXLXLXLXLXLXLXLXLXLXLXLXLXLXLXLXLXLXLXLXLXLXLXLXLXLXLXLXLXLXLXLXLXLXLXLXLXLXLXLXLXLXLXLXLXLXLXLXLXLXLXLXLXLXLXLXLXLXLXLXLXLXLXLXLXLXLXLXLXLXLXLXLXLXLXLXLXLXLXLXLXLXLXLXLXLXLXLXLXLXLXLXLXLXLXLXLXLXLXLXLXLXLXLXLXLXLXLXLXLXLXLXLXLXLXLXLXLXLXLXLXLXLXLXLXLXLXLXLXLXLXLXLXLXLXLXLXLXLXLXLXLXLXLXLXLXLXLXLXLXLXLXLXLXLXLXLXLXLXLXLXLXLXLXLXLXLXLXLXLXLXLXLXLXLXLXLXLXLXLXLXLXLXLXLXLXLXLXLXLXLXLXLXLXLXLXLXLXLXLXLXLXLXLXLXLXLXLXLXLXLXLXLXLXLXLX",
"LXLXLXLXLXLXLXLXLXLXLXLXLXLXLXLXLXLXLXLXLXLXLXLXLXLXLXLXLXLXLXLXLXLXLXLXLXLXLXLXLXLXLXLXLXLXLXLXLXLXLXLXLXLXLXLXLXLXLXLXLXLXLXLXLXLXLXLXLXLXLXLXLXLXLXLXLXLXLXLXLXLXLXLXLXLXLXLXLXLXLXLXLXLXLXLXLXLXLXLXLXLXLXLXLXLXLXLXLXLXLXLXLXLXLXLXLXLXLXLXLXLXLXLXLXLXLXLXLXLXLXLXLXLXLXLXLXLXLXLXLXLXLXLXLXLXLXLXLXLXLXLXLXLXLXLXLXLXLXLXLXLXLXLXLXLXLXLXLXLXLXLXLXLXLXLXLXLXLXLXLXLXLXLXLXLXLXLXLXLXLXLXLXLXLXLXLXLXLXLXLXLXLXLXLXLXLXLXLXLXLXLXLXLXLXLXLXLXLXLXLXLXLXLXLXLXLXLXLXLXLXLXLXLXLXLXLXLXLXLXLXLXLXLXLXLXLXLXLXLXLXLXLXLXLXLXLXLXLXLXLXLXLXLXLXLXLXLXLXLXLXLXLXLXLXLXLXLXLXLXLXLXLXLXLXLXLXLXLXLXLXLXLXLXLXLXLXLXLXLXLXLXLXLXLXLXLXLXLXLXLXLXLXLXLXLXLXLXLXLXLXLXLXLXLXLXLXLXLXLXLXLXLXLXLXLXLXLXLXLXLXLXLXLXLXLXLXLXLXLXLXLXLXLXLXLXLXLXLXLXLXLXLXLXLXLXLXLXLXLXLXLXLXLXLXLXLXLXLXLXLXLXLXLXLXLXLXLXLXLXLXLXLXLXLXLXLXLXLXLXLXLXLXLXLXLXLXLXLXLXLXLXLXLXLXLXLXLXLXLXLXLXLXLXLXLXLXLXLXLXLXLXLXLXLXLXLXLXLXLXLXLXLXLXLXLXLXLXLXLXLXLXLXLXLXLXLXLXLXLXLXLXLXLXLXLXLXLXLXLXLX",
"LXLXLXLXLXLXLXLXLXLXLXLXLXLXLXLXLXLXLXLXLXLXLXLXLXLXLXLXLXLXLXLXLXLXLXLXLXLXLXLXLXLXLXLXLXLXLXLXLXLXLXLXLXLXLXLXLXLXLXLXLXLXLXLXLXLXLXLXLXLXLXLXLXLXLXLXLXLXLXLXLXLXLXLXLXLXLXLXLXLXLXLXLXLXLXLXLXLXLXLXLXLXLXLXLXLXLXLXLXLXLXLXLXLXLXLXLXLXLXLXLXLXLXLXLXLXLXLXLXLXLXLXLXLXLXLXLXLXLXLXLXLXLXLXLXLXLXLXLXLXLXLXLXLXLXLXLXLXLXLXLXLXLXLXLXLXLXLXLXLXLXLXLXLXLXLXLXLXLXLXLXLXLXLXLXLXLXLXLXLXLXLXLXLXLXLXLXLXLXLXLXLXLXLXLXLXLXLXLXLXLXLXLXLXLXLXLXLXLXLXLXLXLXLXLXLXLXLXLXLXLXLXLXLXLXLXLXLXLXLXLXLXLXLXLXLXLXLXLXLXLXLXLXLXLXLXLXLXLXLXLXLXLXLXLXLXLXLXLXLXLXLXLXLXLXLXLXLXLXLXLXLXLXLXLXLXLXLXLXLXLXLXLXLXLXLXLXLXLXLXLXLXLXLXLXLXLXLXLXLXLXLXLXLXLXLXLXLXLXLXLXLXLXLXLXLXLXLXLXLXLXLXLXLXLXLXLXLXLXLXLXLXLXLXLXLXLXLXLXLXLXLXLXLXLXLXLXLXLXLXLXLXLXLXLXLXLXLXLXLXLXLXLXLXLXLXLXLXLXLXLXLXLXLXLXLXLXLXLXLXLXLXLXLXLXLXLXLXLXLXLXLXLXLXLXLXLXLXLXLXLXLXLXLXLXLXLXLXLXLXLXLXLXLXLXLXLXLXLXLXLXLXLXLXLXLXLXLXLXLXLXLXLXLXLXLXLXLXLXLXLXLXLXLXLXLXLXLXLXLXLXLXLXLXLXLXLXLXLXLXLX",
"LXLXLXLXLXLXLXLXLXLXLXLXLXLXLXLXLXLXLXLXLXLXLXLXLXLXLXLXLXLXLXLXLXLXLXLXLXLXLXLXLXLXLXLXLXLXLXLXLXLXLXLXLXLXLXLXLXLXLXLXLXLXLXLXLXLXLXLXLXLXLXLXLXLXLXLXLXLXLXLXLXLXLXLXLXLXLXLXLXLXLXLXLXLXLXLXLXLXLXLXLXLXLXLXLXLXLXLXLXLXLXLXLXLXLXLXLXLXLXLXLXLXLXLXLXLXLXLXLXLXLXLXLXLXLXLXLXLXLXLXLXLXLXLXLXLXLXLXLXLXLXLXLXLXLXLXLXLXLXLXLXLXLXLXLXLXLXLXLXLXLXLXLXLXLXLXLXLXLXLXLXLXLXLXLXLXLXLXLXLXLXLXLXLXLXLXLXLXLXLXLXLXLXLXLXLXLXLXLXLXLXLXLXLXLXLXLXLXLXLXLXLXLXLXLXLXLXLXLXLXLXLXLXLXLXLXLXLXLXLXLXLXLXLXLXLXLXLXLXLXLXLXLXLXLXLXLXLXLXLXLXLXLXLXLXLXLXLXLXLXLXLXLXLXLXLXLXLXLXLXLXLXLXLXLXLXLXLXLXLXLXLXLXLXLXLXLXLXLXLXLXLXLXLXLXLXLXLXLXLXLXLXLXLXLXLXLXLXLXLXLXLXLXLXLXLXLXLXLXLXLXLXLXLXLXLXLXLXLXLXLXLXLXLXLXLXLXLXLXLXLXLXLXLXLXLXLXLXLXLXLXLXLXLXLXLXLXLXLXLXLXLXLXLXLXLXLXLXLXLXLXLXLXLXLXLXLXLXLXLXLXLXLXLXLXLXLXLXLXLXLXLXLXLXLXLXLXLXLXLXLXLXLXLXLXLXLXLXLXLXLXLXLXLXLXLXLXLXLXLXLXLXLXLXLXLXLXLXLXLXLXLXLXLXLXLXLXLXLXLXLXLXLXLXLXLXLXLXLXLXLXLXLXLXLXLXLXLXLXLXLX",
"LXLXLXLXLXLXLXLXLXLXLXLXLXLXLXLXLXLXLXLXLXLXLXLXLXLXLXLXLXLXLXLXLXLXLXLXLXLXLXLXLXLXLXLXLXLXLXLXLXLXLXLXLXLXLXLXLXLXLXLXLXLXLXLXLXLXLXLXLXLXLXLXLXLXLXLXLXLXLXLXLXLXLXLXLXLXLXLXLXLXLXLXLXLXLXLXLXLXLXLXLXLXLXLXLXLXLXLXLXLXLXLXLXLXLXLXLXLXLXLXLXLXLXLXLXLXLXLXLXLXLXLXLXLXLXLXLXLXLXLXLXLXLXLXLXLXLXLXLXLXLXLXLXLXLXLXLXLXLXLXLXLXLXLXLXLXLXLXLXLXLXLXLXLXLXLXLXLXLXLXLXLXLXLXLXLXLXLXLXLXLXLXLXLXLXLXLXLXLXLXLXLXLXLXLXLXLXLXLXLXLXLXLXLXLXLXLXLXLXLXLXLXLXLXLXLXLXLXLXLXLXLXLXLXLXLXLXLXLXLXLXLXLXLXLXLXLXLXLXLXLXLXLXLXLXLXLXLXLXLXLXLXLXLXLXLXLXLXLXLXLXLXLXLXLXLXLXLXLXLXLXLXLXLXLXLXLXLXLXLXLXLXLXLXLXLXLXLXLXLXLXLXLXLXLXLXLXLXLXLXLXLXLXLXLXLXLXLXLXLXLXLXLXLXLXLXLXLXLXLXLXLXLXLXLXLXLXLXLXLXLXLXLXLXLXLXLXLXLXLXLXLXLXLXLXLXLXLXLXLXLXLXLXLXLXLXLXLXLXLXLXLXLXLXLXLXLXLXLXLXLXLXLXLXLXLXLXLXLXLXLXLXLXLXLXLXLXLXLXLXLXLXLXLXLXLXLXLXLXLXLXLXLXLXLXLXLXLXLXLXLXLXLXLXLXLXLXLXLXLXLXLXLXLXLXLXLXLXLXLXLXLXLXLXLXLXLXLXLXLXLXLXLXLXLXLXLXLXLXLXLXLXLXLXLXLXLXLXLXLXLX",
"LXLXLXLXLXLXLXLXLXLXLXLXLXLXLXLXLXLXLXLXLXLXLXLXLXLXLXLXLXLXLXLXLXLXLXLXLXLXLXLXLXLXLXLXLXLXLXLXLXLXLXLXLXLXLXLXLXLXLXLXLXLXLXLXLXLXLXLXLXLXLXLXLXLXLXLXLXLXLXLXLXLXLXLXLXLXLXLXLXLXLXLXLXLXLXLXLXLXLXLXLXLXLXLXLXLXLXLXLXLXLXLXLXLXLXLXLXLXLXLXLXLXLXLXLXLXLXLXLXLXLXLXLXLXLXLXLXLXLXLXLXLXLXLXLXLXLXLXLXLXLXLXLXLXLXLXLXLXLXLXLXLXLXLXLXLXLXLXLXLXLXLXLXLXLXLXLXLXLXLXLXLXLXLXLXLXLXLXLXLXLXLXLXLXLXLXLXLXLXLXLXLXLXLXLXLXLXLXLXLXLXLXLXLXLXLXLXLXLXLXLXLXLXLXLXLXLXLXLXLXLXLXLXLXLXLXLXLXLXLXLXLXLXLXLXLXLXLXLXLXLXLXLXLXLXLXLXLXLXLXLXLXLXLXLXLXLXLXLXLXLXLXLXLXLXLXLXLXLXLXLXLXLXLXLXLXLXLXLXLXLXLXLXLXLXLXLXLXLXLXLXLXLXLXLXLXLXLXLXLXLXLXLXLXLXLXLXLXLXLXLXLXLXLXLXLXLXLXLXLXLXLXLXLXLXLXLXLXLXLXLXLXLXLXLXLXLXLXLXLXLXLXLXLXLXLXLXLXLXLXLXLXLXLXLXLXLXLXLXLXLXLXLXLXLXLXLXLXLXLXLXLXLXLXLXLXLXLXLXLXLXLXLXLXLXLXLXLXLXLXLXLXLXLXLXLXLXLXLXLXLXLXLXLXLXLXLXLXLXLXLXLXLXLXLXLXLXLXLXLXLXLXLXLXLXLXLXLXLXLXLXLXLXLXLXLXLXLXLXLXLXLXLXLXLXLXLXLXLXLXLXLXLXLXLXLXLXLXLXLXLX",
"LXLXLXLXLXLXLXLXLXLXLXLXLXLXLXLXLXLXLXLXLXLXLXLXLXLXLXLXLXLXLXLXLXLXLXLXLXLXLXLXLXLXLXLXLXLXLXLXLXLXLXLXLXLXLXLXLXLXLXLXLXLXLXLXLXLXLXLXLXLXLXLXLXLXLXLXLXLXLXLXLXLXLXLXLXLXLXLXLXLXLXLXLXLXLXLXLXLXLXLXLXLXLXLXLXLXLXLXLXLXLXLXLXLXLXLXLXLXLXLXLXLXLXLXLXLXLXLXLXLXLXLXLXLXLXLXLXLXLXLXLXLXLXLXLXLXLXLXLXLXLXLXLXLXLXLXLXLXLXLXLXLXLXLXLXLXLXLXLXLXLXLXLXLXLXLXLXLXLXLXLXLXLXLXLXLXLXLXLXLXLXLXLXLXLXLXLXLXLXLXLXLXLXLXLXLXLXLXLXLXLXLXLXLXLXLXLXLXLXLXLXLXLXLXLXLXLXLXLXLXLXLXLXLXLXLXLXLXLXLXLXLXLXLXLXLXLXLXLXLXLXLXLXLXLXLXLXLXLXLXLXLXLXLXLXLXLXLXLXLXLXLXLXLXLXLXLXLXLXLXLXLXLXLXLXLXLXLXLXLXLXLXLXLXLXLXLXLXLXLXLXLXLXLXLXLXLXLXLXLXLXLXLXLXLXLXLXLXLXLXLXLXLXLXLXLXLXLXLXLXLXLXLXLXLXLXLXLXLXLXLXLXLXLXLXLXLXLXLXLXLXLXLXLXLXLXLXLXLXLXLXLXLXLXLXLXLXLXLXLXLXLXLXLXLXLXLXLXLXLXLXLXLXLXLXLXLXLXLXLXLXLXLXLXLXLXLXLXLXLXLXLXLXLXLXLXLXLXLXLXLXLXLXLXLXLXLXLXLXLXLXLXLXLXLXLXLXLXLXLXLXLXLXLXLXLXLXLXLXLXLXLXLXLXLXLXLXLXLXLXLXLXLXLXLXLXLXLXLXLXLXLXLXLXLXLXLXLXLXLXLX",
"LXLXLXLXLXLXLXLXLXLXLXLXLXLXLXLXLXLXLXLXLXLXLXLXLXLXLXLXLXLXLXLXLXLXLXLXLXLXLXLXLXLXLXLXLXLXLXLXLXLXLXLXLXLXLXLXLXLXLXLXLXLXLXLXLXLXLXLXLXLXLXLXLXLXLXLXLXLXLXLXLXLXLXLXLXLXLXLXLXLXLXLXLXLXLXLXLXLXLXLXLXLXLXLXLXLXLXLXLXLXLXLXLXLXLXLXLXLXLXLXLXLXLXLXLXLXLXLXLXLXLXLXLXLXLXLXLXLXLXLXLXLXLXLXLXLXLXLXLXLXLXLXLXLXLXLXLXLXLXLXLXLXLXLXLXLXLXLXLXLXLXLXLXLXLXLXLXLXLXLXLXLXLXLXLXLXLXLXLXLXLXLXLXLXLXLXLXLXLXLXLXLXLXLXLXLXLXLXLXLXLXLXLXLXLXLXLXLXLXLXLXLXLXLXLXLXLXLXLXLXLXLXLXLXLXLXLXLXLXLXLXLXLXLXLXLXLXLXLXLXLXLXLXLXLXLXLXLXLXLXLXLXLXLXLXLXLXLXLXLXLXLXLXLXLXLXLXLXLXLXLXLXLXLXLXLXLXLXLXLXLXLXLXLXLXLXLXLXLXLXLXLXLXLXLXLXLXLXLXLXLXLXLXLXLXLXLXLXLXLXLXLXLXLXLXLXLXLXLXLXLXLXLXLXLXLXLXLXLXLXLXLXLXLXLXLXLXLXLXLXLXLXLXLXLXLXLXLXLXLXLXLXLXLXLXLXLXLXLXLXLXLXLXLXLXLXLXLXLXLXLXLXLXLXLXLXLXLXLXLXLXLXLXLXLXLXLXLXLXLXLXLXLXLXLXLXLXLXLXLXLXLXLXLXLXLXLXLXLXLXLXLXLXLXLXLXLXLXLXLXLXLXLXLXLXLXLXLXLXLXLXLXLXLXLXLXLXLXLXLXLXLXLXLXLXLXLXLXLXLXLXLXLXLXLXLXLXLXLXLXLX"
};
