/* XPM */
static char *_f95642071424ac2d3cb15f42e456d33bul4Rei1lX88JHp3[] = {
/* columns rows colors chars-per-pixel */
"34 60 31 1 ",
"  c #000000",
". c #000001",
"X c #0B0500",
"o c #05050B",
"O c #190B05",
"+ c #361205",
"@ c #202036",
"# c #45200B",
"$ c #6D2E19",
"% c #3D365D",
"& c #C23D19",
"* c #B14D2E",
"= c #F76D27",
"- c #EE7E36",
"; c #F79F45",
": c #86E5F7",
"> c #B1F7F7",
", c #B5F7F7",
"< c #B8F8F8",
"1 c #C0F8F8",
"2 c #C2F8F8",
"3 c #C6F8F8",
"4 c #C8F9F9",
"5 c #C9F9F9",
"6 c #CFFAFA",
"7 c #D0F9F9",
"8 c #D1FAFA",
"9 c #D3FBFB",
"0 c #DEFBFB",
"q c #616161",
"w c #FFFFFF",
/* pixels */
"                         :>       ",
"                         ww       ",
"                        ,w:       ",
"                       :w1        ",
"                       ww         ",
"                      6w:         ",
"                     :w<          ",
"                     ww           ",
"                    :w:           ",
"                   :ww            ",
"                   8w:###         ",
"                  5w:$&&&$#       ",
"                 :ww======&##     ",
"                 8w:=====&$$$#    ",
"                :w:++#$$#+$$&+    ",
"                ww+##+++#-;$+     ",
"             ##5w:+&$$#**$;+      ",
"            #$:w1&=&#O*-q.$       ",
"           #**ww@@$#*o$-*;#       ",
"         #$**8w:O%@O*#O*-;*#      ",
"        #$**:w>$#@%@$;##**#       ",
"       #**$$ww+#$o%%#**oOO        ",
"      .O*$$3w:OO$O%@###@@         ",
"     o%@O$:w0OOOOO%%$$##%o        ",
"    .o@@@.:>XOOOOo%@$#$@%o        ",
"     .o@@oqO.OOOO.%%@#$%%o        ",
"      oo@@@..OOOOo@@O*@%@#        ",
"      .o.oo .OOOoo@o##@%@$#       ",
"       .oo  .OOOO@@@#o@oO#$#O+.   ",
"      o%o   ...OO@@OO@@oO$$@@$$.  ",
"      %     .....oooo@..O#O@@@*OO ",
"     @ o   ........@@.  .OXXOO#X@.",
"     @@    .####o.o@@.   .X.O+O+$ ",
"           .$$$*$@@@o    .OOOOXOO ",
"           X$$$*#@%@o     ..O.    ",
"           O$$$$+@@@o             ",
"           O$$**#@@O*#            ",
"           X$****#X$**#           ",
"           .$****##$$**#          ",
"           O#$***#O#$$**#         ",
"           .#****#XO#$$*$#        ",
"           .#$***#.OO#$**#        ",
"           .#$***# XXO+$*$        ",
"           .#$$*#    .X#*$$       ",
"           .#$**#     .OOoO       ",
"         @.O$$*$#    .o@%%@       ",
"       .@%@O$**#     .@@%%@       ",
"      .@@%%@o+#      .o@@%@       ",
"     .@@@@@@@..      .o@@%@       ",
"     o@@@@@@o        ..@%%@       ",
"    o@@@@@@.         ..@@%@       ",
"   o@@@@@@.           .o@%@       ",
"  o%%%@@o.            .@@%@       ",
" X@%%%@o              .o@%@       ",
"o@@@%%%o              .@@%%@@     ",
"o@@@%%%@              .@@%%%@@    ",
" o@@@%@@.             .@@@@%%%@@  ",
" .@@%%@@o.            .o@@@@%%%@  ",
"  Xo@%@@%             .ooooo....  ",
"    .oooo                         "
};
