/* XPM */
static char *ca8681e3689d4e14cd5248023caede4bHghaqvB4WNjnbPv8[] = {
/* columns rows colors chars-per-pixel */
"31 60 19 1 ",
"  c #000000",
". c #000001",
"X c #0B0500",
"o c #05050B",
"O c #190B05",
"+ c #361205",
"@ c #202036",
"# c #45200B",
"$ c #6D2E19",
"% c #3D365D",
"& c #C23D19",
"* c #B14D2E",
"= c #F76D27",
"- c #EE7E36",
"; c #F79F45",
": c #86E5F7",
"> c #B1F7F7",
", c #616161",
"< c #FFFFFF",
/* pixels */
"                      :>       ",
"                     :<>       ",
"                     <<        ",
"                    ><:        ",
"                   :<>         ",
"                   <<<         ",
"                  ><:          ",
"                 >,>           ",
"                 <>            ",
"                ><####         ",
"               ><:$==&#        ",
"              :<<======##      ",
"              <<&=====#$$##    ",
"             ><:++#$$+$$&&+    ",
"            :,>+$+++#$;;++     ",
"         #..,,O$&*#$-*$*+      ",
"        #O#>,:*=#O#-;,.#       ",
"       ##*>,>%#+*$o*--;#       ",
"      #$**,,+@%o#*##--;#       ",
"     #***>,:$O%%+*-o$-$        ",
"    #***>,:O$O@%@$;$oO#        ",
"  .o#*$:,>OO#+@%@#@$@@         ",
" .@%@$$,,OOOOO@%@*##@%X        ",
" .@%@o:,:XOOO.o%%$+$@%X        ",
" .o@@.%: .OOOO@%@+$$%%+        ",
"  o@@%,o .OOOoo%@O*@%@$.       ",
"  .oo@o. .OOOOo@o$#@%@$+.      ",
"  ..oo.  .OOOOo@@#o@@.#$#O$+   ",
"  .@o.   ...O+@@OO@@.O#$@@#$OX ",
"  %,o    ....oo@oo@. .+OX@X###O",
" o,@     .......oo.  .X.XO##XO.",
".%%     .O#++o..@@    .XXXO+X$X",
" @o     .#$$**@@@.     .OOO... ",
"        .#$$$*@%@o      .OX    ",
"        .#$$$$@@@o       ..    ",
"        X#$***O@@O             ",
"        .+$***$O$*$            ",
"        .O$****#$**$           ",
"        .O$$***#$$**#          ",
"         O#$***O#$$**#         ",
"         .$$***XO#$$**#        ",
"         .#$**$..O#$$*#        ",
"         .#$$*$<<..#**#        ",
"         .+$$*#<@@@O$*#        ",
"         .#$**.@%%%%@o.        ",
"        .O$**#.%%%%@@o         ",
"       @%@oO#O@%%@@@o          ",
"      o@@%@@o@%%@@@o           ",
"      o@@@@@o%%@@@.            ",
"     .o@@@@o%%@@@.             ",
"     .@@@@o%%@@@.              ",
"    .o@@@@@%%%@.               ",
"    .@@@.o%%%%%.               ",
"    o@@o..o@%%%@               ",
"   .@%%@@o.@%%%@               ",
"   .@@%%%%o.@%%@               ",
"   .o@%%%%%@.@%@               ",
"   .o@@@%%%@o.@.               ",
"   .o@@@@%%@@                  ",
"    ..ooooooo                  "
};
