/* XPM */
static char *run_5_xpm[] = {
/* columns rows colors chars-per-pixel */
"31 58 33 1 ",
"  c #000000",
". c #000001",
"X c #0B0500",
"o c #05050B",
"O c #190B05",
"+ c #361205",
"@ c #202036",
"# c #45200B",
"$ c #6D2E19",
"% c #3D365D",
"& c #C23D19",
"* c #B14D2E",
"= c #F76D27",
"- c #EE7E36",
"; c #F79F45",
": c #86E5F7",
"> c #B1F7F7",
", c #B4F7F7",
"< c #BBF7F7",
"1 c #B9F8F8",
"2 c #BDF8F8",
"3 c #C1F8F8",
"4 c #C2F9F9",
"5 c #C3F9F9",
"6 c #C4F8F8",
"7 c #C4F9F9",
"8 c #C6F8F8",
"9 c #C7F9F9",
"0 c #C8F9F9",
"q c #C9F9F9",
"w c #D3FBFB",
"e c #616161",
"r c #FFFFFF",
/* pixels */
"                        ::     ",
"                       0r<     ",
"                      :rr      ",
"                      rr       ",
"                     5r:       ",
"                    ,r:        ",
"                   :r5         ",
"                  :rr          ",
"                 :rr##         ",
"                 8r:=&#        ",
"                5r:====###     ",
"               1r,====##&$#    ",
"              :r1#$$$+#*$&+    ",
"             :rr#++++$;;#+     ",
"          ##.8r:&$$#--$*+      ",
"         #$$8r:=*#O*-e.$       ",
"       ##**,r5@$#*O#--;$#      ",
"      #$**:r0O@@o$$+*-;*#      ",
"     #***:rr##@%@#;##**O       ",
"   .O***$2r:#$o%%$**oOo        ",
"  .@@#*$>r:OO$O%%$###%.        ",
" .o%%@#wr8OOOOo%@$*##%o        ",
" .o@@o.r8.OOOOo%%$#$@%@        ",
"  o@%.%: .OOXO.%%O#$@%##       ",
"  .o@%%O .OOOOo@@o*#%%$$       ",
"  .o.@oo .OOOOO@@#$@%@$$####   ",
"   .o..  ..OO#O@@#o@@.+$#X#$#. ",
"  o%O.   ...X#@@@O@@.X+#@%XO$#@",
" .e%     ......oooo. .XOXX##$OO",
".%%o     .......o@.   ..XX+####",
".%O      O+#$#Ooo@     .OXXOXOX",
"        .O$$**$o@.      .OOO.  ",
"        .X$***$oo        .O.   ",
"        ..#$***#o         .    ",
"        ..#$****#              ",
"        ..O$$****#             ",
"         .XO$*****$            ",
"          .O+$****$$           ",
"          .O.+$$***#           ",
"          .OOX+$***$           ",
"          .O$#O+$***$          ",
"          .X#$$X#$**$          ",
"           .##%O.$*$$          ",
"           O+@%%@o##$          ",
"         oo.@@@@%oo.           ",
"        o@o@@@@@@@o            ",
"       .@o@@@@@@@o             ",
"       .o@@@@@@@.              ",
"       o%%@@@@o                ",
"      o%%%%@@o                 ",
"     o%%%%%%o                  ",
"     o%%%%%%o                  ",
"     .@%%%%%o                  ",
"     .o@%%%%@                  ",
"     .oo@%%%@@                 ",
"     .@@o@%@@@@                ",
"     .@@@@@o@%@                ",
"     ..ooo.oooo                "
};
