/* XPM */
static char *a99371e4f7e94512d928e8ee57d91759lO67Jdz29EnNCE9s[] = {
/* columns rows colors chars-per-pixel */
"34 60 20 1 ",
"  c #000000",
". c #000001",
"X c #0B0500",
"o c #05050B",
"O c #190B05",
"+ c #361205",
"@ c #202036",
"# c #45200B",
"$ c #6D2E19",
"% c #3D365D",
"& c #C23D19",
"* c #B14D2E",
"= c #F76D27",
"- c #EE7E36",
"; c #F79F45",
": c #86E5F7",
"> c #B1F7F7",
", c #616161",
"< c #F9F9F9",
"1 c #FFFFFF",
/* pixels */
"                         :>       ",
"                         11       ",
"                        >1:       ",
"                       :1>        ",
"                       111        ",
"                     1>1:         ",
"                     :1>          ",
"                     11           ",
"                    :1:           ",
"                   :11            ",
"                   >1:###         ",
"                  ><:$&&&$#       ",
"                 :,,======&##     ",
"                1>,:=====&$$$#    ",
"                :1:++#$$#+$$&+    ",
"               111+##+++#-;$+     ",
"             ##>1:+&$$#**$;+      ",
"            #$:,>&=&#O*-,.$       ",
"           #**,,@@$#*o$-*;#       ",
"         #$**>,:O%@O*#O*-;*#      ",
"        #$**:,>$#@%@$;##**#       ",
"       #**$$,,+#$o%%#**oOO        ",
"      .O*$$>,:OO$O%@###@@         ",
"     o%@O$:,>OOOOO%%$$##%o        ",
"    .o@@@.:>XOOOOo%@$#$@%o        ",
"     .o@@o,O.OOOO.%%@#$%%o        ",
"      oo@@@..OOOOo@@O*@%@#        ",
"      .o.oo .OOOoo@o##@%@$#       ",
"       .oo  .OOOO@@@#o@oO#$#O+.   ",
"      o%o   ...OO@@OO@@oO$$@@$$.  ",
"      %     .....oooo@..O#O@@@*OO ",
"     @,o   ........@@.  .OXXOO#X@.",
"     @@    .####o.o@@.   .X.O+O+$ ",
"           .$$$*$@@@o    .OOOOXOO ",
"           X$$$*#@%@o     ..O.    ",
"           O$$$$+@@@o             ",
"           O$$**#@@O*#            ",
"           X$****#X$**#           ",
"           .$****##$$**#          ",
"           O#$***#O#$$**#         ",
"           .#****#XO#$$*$#        ",
"           .#$***#.OO#$**#        ",
"           .#$***# XXO+$*$        ",
"           .#$$*#    .X#*$$       ",
"           .#$**#     .OOoO       ",
"         @.O$$*$#    .o@%%@       ",
"       .@%@O$**#     .@@%%@       ",
"      .@@%%@o+#      .o@@%@       ",
"     .@@@@@@@..      .o@@%@       ",
"     o@@@@@@o        ..@%%@       ",
"    o@@@@@@.         ..@@%@       ",
"   o@@@@@@.           .o@%@       ",
"  o%%%@@o.            .@@%@       ",
" X@%%%@o              .o@%@       ",
"o@@@%%%o              .@@%%@@     ",
"o@@@%%%@              .@@%%%@@    ",
" o@@@%@@.             .@@@@%%%@@  ",
" .@@%%@@o.            .o@@@@%%%@  ",
"  Xo@%@@%.            .ooooo....  ",
"    .oooo                         "
};
