/* XPM */
static const char *h3_attack2[] = {
/* columns rows colors chars-per-pixel */
"98 63 19 1 ",
"  c #000000",
". c #282828",
"X c #780010",
"o c #484830",
"O c #505050",
"+ c #707058",
"@ c #686868",
"# c #E00808",
"$ c #F07828",
"% c #F8C010",
"& c #888868",
"* c #989898",
"= c #A0A080",
"- c #F8F080",
"; c #C0C0A0",
": c #C0C0C0",
"> c #E0E0D8",
", c #F0F0F0",
"< c #000001",
/* pixels */
"<<<<<<<<<<<<<<<<<<<<<<<<<<<<<<<<<<<<<<<<<<<<<<<<<<<<<<<<<<<<<<<<<<<<<<<<<<<<<<<<<<<<<<<<<<<<<<<<<<",
"<<<<<<<<<<<<<<<<<<<<<<<<<<<<<<<<<<<<<<<<<<<<<<<<<<<<<<<<<<<<<<<<<<<<<<<<<<<<<<<<<<<<<<<<<<<<<<<<<<",
"<<<<<<<<<<<<<<<<<<<<<<<<<<<<<<<<<<<<<<<<<<<<<<<<<<<<<<<<<<<<<<<<<<<<<<<<<<<<<<<<<<<<<<<<<<<<<<<<<<",
"<<<<<<<<<<<<<<<<<<<<<<<<<<<<<<<<<<<<<<<<<<<<<<<<<<<<<<<<<<<<<<<<<<<<<<<<<<<<<<<<<<<<<<<<<<<<<<<<<<",
"<<<<<<<<<<<<<<<<###XXX.<<<<<<<<<<<<<<<<<<<<<<<<<<<<<<<<<<<<<<<<<<<<<<<<<<<<<<<<<<<<<<<<<<<<<<<<<<<",
"<<<<<<<<<<<<<<<<<@@##X#.<<<<<<<<<<<<<<<<<<<<<<<<<<<<<<<<<<<<<<<<<<<<<<<<<<<<<<<<<<<<<<<<<<<<<<<<<<",
"<<<<<<<<<<<<<<<<@@>>>#X#.<<<<<<<<<<<<<<<<<<<<<<<<<<<<<<<<<<<<<<<<<<<<<<<<<<<<<<<<<<<<<<<<<<<<<<<<<",
"<<<<<<<<<<<<<<<<...OOOOO.<<<<<<<<<<<<<<<<<<<<<<<<<<<<<<<<<<<<<<<<<<<<<<<<<<<<<<<<<<<<<<<<<<<<<<<<<",
"<<<<<<<<<<<<<<<<..::    .<<<<<<<<<<<<<<<<<<<<<<<<<<<<<<<<<<<<<<<<<<<<<<<<<<<<<<<<<<<<<<<<<<<<<<<<<",
"<<<<<<<<<<<<<<<<@..O>## .<<<<<<<<<<<<<<<<<<<<<<<<<<<<<<<<<<<<<<<<<<<<<ooo<<<<<<<<<<<<<<<<<<<<<<<<<",
"<<<<<<<<<<<<<<<@>.>OO>  .<<<<<<<<<<<<<<<<<<<<<<<<<<<<<<<<<<<<<<<<<ooooo$$$$$$oo<<oo<<<<<<<<<<<<<<<",
"<<<<<<<<<<<<<<<@@>>>>  ##.<<<<<<<<<<<<<<<<<<<<<<<<<<<<<<<<<<<<<<ooo$$$%%$$$$$$$o+++o<<<<<<<<<<<<<<",
"<<<<<<<<<<<<<<<<O::: ># #.<<<<<<<<<<<<<<<<<<<<<<<<<<<<<<<<<<<<o<oo%%%%%%-$%%%$$$$+&&+o<<<<<<<<<<<<",
"<<<<<<<<<<<<<<<<<.       <<<<<<<<<<<<<<<<<<<<<<<<<<<<<<<<<<<<<<<<%----,,,,,-,-%%$$$&&+o<<<<<<<<<<<",
"<<<<<<<<<<<<<<..@@@@@    .<<<<<<<<<<<<<<<<<<<<<<<<<<<<<<<<<<<<%%----,,,,,,,,,,,-%$$$=&+<<<<<<<<<<<",
"<<<<<<<<<<<<@@::.**::>>.>>.<<<<<<<<<<<<<<<<<<<<<<<<<<<<<<<<<%%----,,,,,,,,,,,,,,-%$+$=+o<<<<<<<<<<",
"<<<<<<<<<<<@@#>:..*:>>>>.>>.<<<<<<<<<<<<<<o .<<<<<<<<<<<<<%%---,-,,,,,,,,,,,,,,,,-%$&;&o<<<<<<<<<<",
"<<<<<<<<<<<@##>:..*:>>>>.:>.<<<<  .<<<<    O  <<<<<<<<<<<-%--,,,,,,,,,,,,,,,,,,,,,-%&;&o<<<<<<<<<<",
"<<<<<<<<<<<@##>:..@****...:. <  OOO     OOOOO <<<<<<<<<<%%,,,,,,,,,,,,,,,,,,,,,,,,-%$=&o<<<<<<<<<<",
"<<<<<<<<<<<@##   . @*  :::. @. O...........O  <<<<<<<<%,,,,,,,,,,,,,,,,,,,,,,,,,,,,-$=&o<<<<<<<<<<",
"<<<<<<<<<<<<  ##:    ::.      .............O <<<<<<<%,,,,,,,,,,,,,,,,,,,,,,,,,,,,,,-$&&<<<<<<<<<<<",
"<<<<<<<<<<<<@###:  ::: @@@@.....            <<<<<<<,,,,,,,,,,,,,,,,,,,,,,,,,,,,,,,--$&=<<<<<<<<<<<",
"<<<<<<<<<<<<@:##:      ##XXX    ....  O <<<<<<<<<,,,,,,,,,,,,,,,,,,,,,,,,,,,,,,,,,,-$&o<<<<<<<<<<<",
"<<<<<<<<<<<<@:##  @@@@  ##X   ...       <<<<<<<<<,,,,,,,,,,,,,,,,,,,,,,,,,,,,,,,,,--$oo<<<<<<<<<<<",
"<<<<<<<<<<<<<   > ####  #XX        . OO <<<<<<<<<<,,,,,,,,,,,,,,,,,,,,,,,,,,,,,,,-,-$+o<<<<<<<<<<<",
"<<<<<<<<<<<<<X### #:::  XX    @@  <     <<<<<<<<<<<%--,,,,,,,,,,,,,,,,,,,,,,,,,,,,--$++o<<<<<<<<<<",
"<<<<<<<<<<<<<<X#  #:            <<.   <<<<<<<<<<<<<<<%--,,,,,,,,,,-,,,,,,,,,,,,,,-,$$++o<<<<<<<<<<",
"<<<<<<<<<<<<<<X   : :.      <<<<<<... <<<<<<<<<<<<<<<<<<--,,,,,,,,,,,,,,,,,,,,,,,,-$=;+o<<<<<<<<<<",
"<<<<<<<<<<<<<<<<<  .  @@@@..<<<<<<<<<<<<<<<<<<<<<<<<<<<<<%-----,,,,,,,,,,,,,,,,,,-%$=;+o<<<<<<<<<<",
"<<<<<<<<<<<<<<<<<<O@@@ >>*.<<<<<<<<<<<<<<<<<<<<<<<<<<<<<<<<%%----,,,,,,,,,,,,,,,--$+=+o<<<<<<<<<<<",
"<<<<<<<<<<<<<<<<<O::::@>>*.<<<<<<<<<<<<<<<<<<<<<<<<<<<<<<<<<<%%%---,,,,,,,,,,,,--%$++oo<<<<<<<<<<<",
"<<<<<<<<<<<<<<<<<O:>>:@:> .<<<<<<<<<<<<<<<<<<<<<<<<<<<<<<<<<<<%%%%---,,,,,-,,,-%%$o&o<<<<<<<<<<<<<",
"<<<<<<<<<<<<<<<<<O:>>:@:> @ <<<<<<<<<<<<<<<<<<<<<<<<<<<<<<<<<<<<%%%%-%-,,,,--%%%$&&+o<<<<<<<<<<<<<",
"<<<<<<<<<<<<<<<<<O:>>:@  **@ <<<<<<<<<<<<<<<<<<<<<<<<<<<<<<<<<o<o<%%%%%----%%%$$o++o<<<<<<<<<<<<<<",
"<<<<<<<<<<<<<<<<<O:>>:@*:::*@ <<<<<<<<<<<<<<<<<<<<<<<<<<<<<<<<<<ooo<%%%%%%%$$$$ooo<<<<<<<<<<<<<<<<",
"<<<<<<<<<<<<<<<<<O:>>:@*::::*@.<<<<<<<<<<<<<<<<<<<<<<<<<<<<<<<<<<<<<<<$$$$$$ooooo<<<<<<<<<<<<<<<<<",
"<<<<<<<<<<<<<<<<<O:>>:@::::::*@ <<<<<<<<<<<<<<<<<<<<<<<<<<<<<<<<<<<<<<<<<<<<<<<<<<<<<<<<<<<<<<<<<<",
"<<<<<<<<<<<<<<<<<O:>>:@ ::::::*@ <<<<<<<<<<<<<<<<<<<<<<<<<<<<<<<<<<<<<<<<<<<<<<<<<<<<<<<<<<<<<<<<<",
"<<<<<<<<<<<<<<<<<O:>>:@< ::::::* <<<<<<<<<<<<<<<<<<<<<<<<<<<<<<<<<<<<<<<<<<<<<<<<<<<<<<<<<<<<<<<<<",
"<<<<<<<<<<<<<<<<<O:>>:@<< ::::::*.<<<<<<<<<<<<<<<<<<<<<<<<<<<<<<<<<<<<<<<<<<<<<<<<<<<<<<<<<<<<<<<<",
"<<<<<<<<<<<<<<<<<O.    <<< :::::.  <<<<<<<<<<<<<<<<<<<<<<<<<<<<<<<<<<<<<<<<<<<<<<<<<<<<<<<<<<<<<<<",
"<<<<<<<<<<<<<<<<<  >>:@ <<< ::: :*@<<<<<<<<<<<<<<<<<<<<<<<<<<<<<<<<<<<<<<<<<<<<<<<<<<<<<<<<<<<<<<<",
"<<<<<<<<<<<<<<<<< >>>:@ <<<<   ::*@<<<<<<<<<<<<<<<<<<<<<<<<<<<<<<<<<<<<<<<<<<<<<<<<<<<<<<<<<<<<<<<",
"<<<<<<<<<<<<<<<<   :::@ <<<<<  ***@<<<<<<<<<<<<<<<<<<<<<<<<<<<<<<<<<<<<<<<<<<<<<<<<<<<<<<<<<<<<<<<",
"<<<<<<<<<<<<<<<.:::    <<<<<< *    <<<<<<<<<<<<<<<<<<<<<<<<<<<<<<<<<<<<<<<<<<<<<<<<<<<<<<<<<<<<<<<",
"<<<<<<<<<<<<<< :>>:@@@ <<<<< *:@@@ <<<<<<<<<<<<<<<<<<<<<<<<<<<<<<<<<<<<<<<<<<<<<<<<<<<<<<<<<<<<<<<",
"<<<<<<<<<<<<<< :>>>:@ <<<<<< *::*@ <<<<<<<<<<<<<<<<<<<<<<<<<<<<<<<<<<<<<<<<<<<<<<<<<<<<<<<<<<<<<<<",
"<<<<<<<<<<<<< :>>>:@ <<<<<<< *::*@ <<<<<<<<<<<<<<<<<<<<<<<<<<<<<<<<<<<<<<<<<<<<<<<<<<<<<<<<<<<<<<<",
"<<<<<<<<<<<<< :>>:@ <<<<<<<<< *:*@ <<<<<<<<<<<<<<<<<<<<<<<<<<<<<<<<<<<<<<<<<<<<<<<<<<<<<<<<<<<<<<<",
"<<<<<<<<<<<<< :>:@ <<<<<<<<<< *:*@ <<<<<<<<<<<<<<<<<<<<<<<<<<<<<<<<<<<<<<<<<<<<<<<<<<<<<<<<<<<<<<<",
"<<<<<<<<<<<< :>:@ <<<<<<<<<<< *:*@ <<<<<<<<<<<<<<<<<<<<<<<<<<<<<<<<<<<<<<<<<<<<<<<<<<<<<<<<<<<<<<<",
"<<<<<<<<<<<<. :@ <<<<<<<<<<<<< **@ <<<<<<<<<<<<<<<<<<<<<<<<<<<<<<<<<<<<<<<<<<<<<<<<<<<<<<<<<<<<<<<",
"<<<<<<<<<<<< >   <<<<<<<<<<<<<<     <<<<<<<<<<<<<<<<<<<<<<<<<<<<<<<<<<<<<<<<<<<<<<<<<<<<<<<<<<<<<<",
"<<<<<<<<<<< :>:@ OOOOOOOO<<<<< :::** .<<<<<<<<<<<<<<<<<<<<<<<<<<<<<<<<<<<<<<<<<<<<<<<<<<<<<<<<<<<<",
"<<<<<<<<<OO :     OOOOOOOOOOOO ******@ <<<<<<<<<<<<<<<<<<<<<<<<<<<<<<<<<<<<<<<<<<<<<<<<<<<<<<<<<<<",
"<<<<<<OOOOO  >>:@ OOOOOOOOOOOO @@@@@@@@ <<<<<<<<<<<<<<<<<<<<<<<<<<<<<<<<<<<<<<<<<<<<<<<<<<<<<<<<<<",
"<<<<OOOOOOO       OOOOOOOOOOOO          <<<<<<<<<<<<<<<<<<<<<<<<<<<<<<<<<<<<<<<<<<<<<<<<<<<<<<<<<<",
"<<<<OOOOOOOOOOOOOOOOOOOOOOOOOOOOOOOO<<<<<<<<<<<<<<<<<<<<<<<<<<<<<<<<<<<<<<<<<<<<<<<<<<<<<<<<<<<<<<",
"<<<<<<OOOOOOOOOOOOOOOOOOOOOOOOOOOO<<<<<<<<<<<<<<<<<<<<<<<<<<<<<<<<<<<<<<<<<<<<<<<<<<<<<<<<<<<<<<<<",
"<<<<<<<<<OOOOOOOOOOOOOOOOOOOOOO<<<<<<<<<<<<<<<<<<<<<<<<<<<<<<<<<<<<<<<<<<<<<<<<<<<<<<<<<<<<<<<<<<<",
"<<<<<<<<<<<<<<<OOOOOOOOOO<<<<<<<<<<<<<<<<<<<<<<<<<<<<<<<<<<<<<<<<<<<<<<<<<<<<<<<<<<<<<<<<<<<<<<<<<",
"<<<<<<<<<<<<<<<<<<<<<<<<<<<<<<<<<<<<<<<<<<<<<<<<<<<<<<<<<<<<<<<<<<<<<<<<<<<<<<<<<<<<<<<<<<<<<<<<<<",
"<<<<<<<<<<<<<<<<<<<<<<<<<<<<<<<<<<<<<<<<<<<<<<<<<<<<<<<<<<<<<<<<<<<<<<<<<<<<<<<<<<<<<<<<<<<<<<<<<<"
};
