/* XPM */
static const xpm_row_t h3_attack1[] = {
/* columns rows colors chars-per-pixel */
"83 63 22 1 ",
"  c black",
". c #282828",
"X c #780010",
"o c #484830",
"O c #585840",
"+ c #505050",
"@ c #707058",
"# c #686868",
"$ c #E00808",
"% c #D83810",
"& c #F07828",
"* c #F8D800",
"= c #F8C010",
"- c #888868",
"; c #989898",
": c #A0A080",
"> c #F8F080",
", c #C0C0A0",
"< c #C0C0C0",
"1 c #E0E0D8",
"2 c gray94",
"3 c #000000",
/* pixels */
"33333333333333333333333333333333333333333333333333333333333333333333333333333333333",
"33333333333333333333333333333333333333333333333333333333333333333333333333333333333",
"33333333333333333333333333333333333333333333333333333333333333333333333333333333333",
"33333333333333333333333333333333333333333333333333333333333333333333333333333333333",
"3333333333333333$$$XXX.333333333333333333333333333333333333333333333333333333333333",
"33333333333333333##$$X$.33333333333333333333333333333333333333333333333333333333333",
"3333333333333333##111$X$.3333333333333333333333333333333333333333333333333333333333",
"3333333333333333...+++++.3333333333333333333333333333333333333333333333333333333333",
"3333333333333333..<<    .3333333333333333333333333333333333333333333333333333333333",
"3333333333333333#..+1$$ .3333333333333333333333333333333333333333333333333333333333",
"333333333333333#1.1++1  .3333333333333333333333333333333333333333333333333333333333",
"333333333333333##1111  $$.333333333333333333333333333333333o333oooo3333333333333333",
"3333333333333333+<<< 1$ $.33333333333333333333333333333333ooo3ooOOooo33333333333333",
"33333333333333333.       3333333333333333333333333333333ooOOOoOOOOOoOo3333333333333",
"33333333333333..#####    .3333333333333333333333333333ooOOOOOOOO@@OOO@3@@3333333333",
"333333333333##<<.;;<<11.11.3333333333333333333333333oooOOOO,=OOO@@O@-:::-@333333333",
"33333333333##$1<..;<1111.11.33333333333333333333333ooo,>OO,>===oOOO@:,,::-@33333333",
"33333333333#$$1<..;<1111.<1.3333333333333333333%%%3oo,22,,22>>==ooO@:,,:,--@3333333",
"33333333333#$$1<..#;;;;...<. 33333333333333333%%%%%>,222222222>==oO--,,:-:-@@333333",
"33333333333#$$   . #;  <<<. #     .3333     .3%****%%2,,222222>==oO--::--:-:@333333",
"333333333333  $$<    <<<111 ;. ++++     ++++  *111**%%%%%222222>==oO@--::,-:@333333",
"333333333333#$$$<  <<<<.      .............++ *111**%%%%%222222>==oOO@-:,,:@3333333",
"333333333333#<$$<      ####................+  %****%%2,,2222222>==o@O@::,,:@3333333",
"333333333333#<$$  #### $$XXX                 3%%%%%222222222222>==oOO-::,,:@o333333",
"3333333333333   1 $$$$ $$X   .......  + 3333333%%% 2,,222222222>==oO@-:::,@@o333333",
"3333333333333X$$$ $<<< $XX              3333333 && 2,,222222222>==oO@-::::@@o333333",
"33333333333333X$  <    XX    ##    . ++ 33333333  3>,222222222>==ooO@@-:::@@o333333",
"33333333333333X    1<.         333     333333333333oo,222,2222>==oO@@@-:::@@3333333",
"333333333333333333..  ##   .33333.   333333333333333o,>2,,22>>==OOOO@@@@:@@o3333333",
"333333333333333333+### 11;.333333... 333333333333333oo,>oo,>===oOOO@@@@@@@@33333333",
"33333333333333333+<<<<#11;.33333333333333333333333333oo,oo,==,ooO@@O@@@@@oo33333333",
"33333333333333333+<11<#<1 .3333333333333333333333333333oooo,,oOO@:@Ooooooo333333333",
"33333333333333333+<11<#<1 # 3333333333333333333333333333oooooOOOO@Oo333333333333333",
"33333333333333333+<11<#  ;;# 33333333333333333333333333333ooo33ooOOo333333333333333",
"33333333333333333+<11<#;<<<;# 3333333333333333333333333333333333ooo3333333333333333",
"33333333333333333+<11<#;<<<<;#.3333333333333333333333333333333333333333333333333333",
"33333333333333333+<11<#<<<<<<;# 333333333333333333333333333333333333333333333333333",
"33333333333333333+<11<# <<<<<<;# 33333333333333333333333333333333333333333333333333",
"33333333333333333+<11<#3 <<<<<<; 33333333333333333333333333333333333333333333333333",
"33333333333333333+<11<#33 <<<<<<;.3333333333333333333333333333333333333333333333333",
"33333333333333333+.    333 <<<<<.  333333333333333333333333333333333333333333333333",
"33333333333333333  11<# 333 <<< <;#333333333333333333333333333333333333333333333333",
"33333333333333333 111<# 3333   <<;#333333333333333333333333333333333333333333333333",
"3333333333333333   <<<# 33333  ;;;#333333333333333333333333333333333333333333333333",
"333333333333333.<<<    333333 ;    333333333333333333333333333333333333333333333333",
"33333333333333 <11<### 33333 ;<### 333333333333333333333333333333333333333333333333",
"33333333333333 <111<# 333333 ;<<;# 333333333333333333333333333333333333333333333333",
"3333333333333 <111<# 3333333 ;<<;# 333333333333333333333333333333333333333333333333",
"3333333333333 <11<# 333333333 ;<;# 333333333333333333333333333333333333333333333333",
"3333333333333 <1<# 3333333333 ;<;# 333333333333333333333333333333333333333333333333",
"333333333333 <1<# 33333333333 ;<;# 333333333333333333333333333333333333333333333333",
"333333333333. <# 3333333333333 ;;# 333333333333333333333333333333333333333333333333",
"333333333333 1   33333333333333     33333333333333333333333333333333333333333333333",
"33333333333 <1<# ++++++++33333 <<<;; .333333333333333333333333333333333333333333333",
"333333333++ <     ++++++++++++ ;;;;;;# 33333333333333333333333333333333333333333333",
"333333+++++  11<# ++++++++++++ ######## 3333333333333333333333333333333333333333333",
"3333+++++++       ++++++++++++          3333333333333333333333333333333333333333333",
"3333++++++++++++++++++++++++++++++++33333333333333333333333333333333333333333333333",
"333333++++++++++++++++++++++++++++3333333333333333333333333333333333333333333333333",
"333333333++++++++++++++++++++++3333333333333333333333333333333333333333333333333333",
"333333333333333++++++++++3333333333333333333333333333333333333333333333333333333333",
"33333333333333333333333333333333333333333333333333333333333333333333333333333333333",
"33333333333333333333333333333333333333333333333333333333333333333333333333333333333"
};
