/* XPM */
static char *h3_run3[] = {
/* columns rows colors chars-per-pixel */
"49 66 11 1 ",
"  c black",
". c #282828",
"X c #780010",
"o c #505050",
"O c gray32",
"+ c #686868",
"@ c #E00808",
"# c #989898",
"$ c #C0C0C0",
"% c #E0E0D8",
"& c #000000",
/* pixels */
"&&&&&&&&&&&&&&&&&&&&&&&&&&&&&&&&&&&&&&&&&&&&&&&&&",
"&&&&&&&&&&&&&&&&&&&&&&&&&&&&&&&&&&&&&&&&&&&&&&&&&",
"&&&&&&&&&&&&&&&&&&&&&&&&&&&&&&&&&&&&&&&&&&&&&&&&&",
"&&&&&&&&&&&&&&&@@@XXXX.&&&&&&&&&&&&&&&&&&&&&&&&&&",
"&&&&&&&&&&&&&&&&#++@@X@.&&&&&&&&&&&&&&&&&&&&&&&&&",
"&&&&&&&&&&&&&&&&+%+%%%X@.&&&&&&&&&&&&&&&&&&&&&&&&",
"&&&&&&&&&&&&&&&&.....ooo+&&&&&&&&&&&&&&&&&&&&&&&&",
"&&&&&&&&&&&&&&&&+$.$$  o&&&&&&&&&&&&&&&&&&&&&&&&&",
"&&&&&&&&&&&&&&&&+$..o%@@.&&&&&&&&&&&&&&&&&&&&&&&&",
"&&&&&&&&&&&&&&&+$..%oo% .&&&&&&&&&&&&&&&&&&&&&&&&",
"&&&&&&&&&&&&&&&+$+%%%% @@.&&&&&&&&&&&&&&&&&&&&&&&",
"&&&&&&&&&&&&&&&&oo$$$ %X@ &&&&&&&&&&&&&&&&&&&&&&&",
"&&&&&&&&&&&&&&&&&&       &&&&&&&&&&&&&&&&&&&&&&&&",
"&&&&&&&&&&&&&...+++  .  &&&&&&&&&&&&&&&&&&&&&&&&&",
"&&&&&&&&&&&&+@$$.##+    &&&&&&&&&&&&&&&&&&&&&&&&&",
"&&&&&&&&&&&+@@$$$.##$   .&&&&&&&&&&&&&&&&&&&&&&&&",
"&&&&&&&&&&&+@@$$$.#$%%.% .&&&&&&&&&&&&&&&&&&&&&&&",
"&&&&&&&&&&&+@@$   #$%%%.%.&&&&&&&&&&&&&&&&&&&&&&&",
"&&&&&&&&&&&+@  X$ ###%%.%. &&&&&&&&&&&&&&&&&&&&&&",
"&&&&&&&&&&&& XX@$ +###..%.+ &&&&    .&&&&     .&&",
"&&&&&&&&&&&&+$@@$     $...#+ &&. oooo     oooo  &",
"&&&&&&&&&&&&+$@@$$.$$%%$$.      .............oo &",
"&&&&&&&&&&&&&+@@   .     ++++................o  &",
"&&&&&&&&&&&&&&  $$ +++++ @@XXX                 &&",
"&&&&&&&&&&&&& X@@  @@@@@ @@X   .......  o &&&&&&&",
"&&&&&&&&&&&&& +X@  @@$$$ @XX              &&&&&&&",
"&&&&&&&&&&&&&  X   $$    XX    ++    . oo &&&&&&&",
"&&&&&&&&&&&&&&&%     .+ &        &&&     &&&&&&&&",
"&&&&&&&&&&&&&&. +++++ + &&   &&&&&&.   &&&&&&&&&&",
"&&&&&&&&&&&&&&.+$$$$$+  &&&&&&&&&&&... &&&&&&&&&&",
"&&&&&&&&&&&&&& o%%%%$$+ &&&&&&&&&&&&&&&&&&&&&&&&&",
"&&&&&&&&&&&&&& o$%%%%$$+.&&&&&&&&&&&&&&&&&&&&&&&&",
"&&&&&&&&&&&&&&& o$%%%%$$+ &&&&&&&&&&&&&&&&&&&&&&&",
"&&&&&&&&&&&&&&&o o$%%%%$$ &&&&&&&&&&&&&&&&&&&&&&&",
"&&&&&&&&&&&&&&&o#$o$%%%%$+ &&&&&&&&&&&&&&&&&&&&&&",
"&&&&&&&&&&&&&&&o#$$o$$%%%$ .&&&&&&&&&&&&&&&&&&&&&",
"&&&&&&&&&&&&&&&o#$$o$$%%%$ +.&&&&&&&&&&&&&&&&&&&&",
"&&&&&&&&&&&&&&&o#$$#oo$%% $+ &&&&&&&&&&&&&&&&&&&&",
"&&&&&&&&&&&&&&&o#$+oo    $$+ &&&&&&&&&&&&&&&&&&&&",
"&&&&&&&&&&&&&&&o#o+o$$  $%%  &&&&&&&&&&&&&&&&&&&&",
"&&&&&&&&&&&&&&&&oo$$$%$$ ++ &&&&&&&&&&&&&&&&&&&&&",
"&&&&&&&&&&&&&&&&+o%%%%$$+  &&&&&&&&&&&&&&&&&&&&&&",
"&&&&&&&&&&&&&&+o+%%%$$++  &&&&&&&&&&&&&&&&&&&&&&&",
"&&&&&&&&&&&&&&+o %%$++  &&&&&&&&&&&&&&&&&&&&&&&&&",
"&&&&&&&&&&&&&+%%$ $+   &&&&&&&&&&&&&&&&&&&&&&&&&&",
"&&&&&&&&&&&&+%%$o   ++ &&&&&&&&&&&&&&&&&&&&&&&&&&",
"&&&&&&&&&&&&& %$o +   &&&&&&&&&&&&&&&&&&&&&&&&&&&",
"&&&&&&&&&&&&&& %$o ++ &&&&&&&&&&&&&&&&&&&&&&&&&&&",
"&&&&&&&&&&&&&& %$o + &&&&&&&&&&&&&&&&&&&&&&&&&&&&",
"&&&&&&&&&&&&&o$ %$o &&&&&&&&&&&&&&&&&&&&&&&&&&&&&",
"&&&&&&&&&&&&&o$# $o &&&&&&&&&&&&&&&&&&&&&&&&&&&&&",
"&&&&&&&&&&&&o$##+  &&&&&&&&&&&&&&&&&&&&&&&&&&&&&&",
"&&&&&&&&&&&&+$## &&&&&&&&&&&&&&&&&&&&&&&&&&&&&&&&",
"&&&&&&&&&&&&&     &&&&&&&&&&&&&&&&&&&&&&&&&&&&&&&",
"&&&&&&&&&&&& $$$## .oooo&&&&&&&&&&&&&&&&&&&&&&&&&",
"&&&&&&OOoooo ######+ ooooooooo&&&&&&&&&&&&&&&&&&&",
"&&&OOooooooo ++++++++ ooooooooooo&&&&&&&&&&&&&&&&",
"&OOooooooooo          ooooooooooooo&&&&&&&&&&&&&&",
"&OOoooooooooooooooooooooooooooooooo&&&&&&&&&&&&&&",
"&&&OOoooooooooooooooooooooooooooo&&&&&&&&&&&&&&&&",
"&&&&&&OOoooooooooooooooooooooo&&&&&&&&&&&&&&&&&&&",
"&&&&&&&&&&&&OOoooooooooo&&&&&&&&&&&&&&&&&&&&&&&&&",
"&&&&&&&&&&&&&&&&&&&&&&&&&&&&&&&&&&&&&&&&&&&&&&&&&",
"&&&&&&&&&&&&&&&&&&&&&&&&&&&&&&&&&&&&&&&&&&&&&&&&&",
"&&&&&&&&&&&&&&&&&&&&&&&&&&&&&&&&&&&&&&&&&&&&&&&&&",
"&&&&&&&&&&&&&&&&&&&&&&&&&&&&&&&&&&&&&&&&&&&&&&&&&"
};
