/* XPM */
static char * bg2_death1_xpm[] = {
"51 60 15 1",
" 	c #000000",
".	c #B04828",
"+	c #A04830",
"@	c #C06048",
"#	c #B85030",
"$	c #F88870",
"%	c #F8E0B8",
"&	c #F8F800",
"*	c #F86848",
"=	c #983820",
"-	c #704840",
";	c #684038",
">	c #E08060",
",	c #B88070",
"'	c #502018",
"                                                   ",
"                                                   ",
"                                        .+         ",
"                                        @##.       ",
"                                       $%@+&&      ",
"                                      *$$*=#       ",
"                                     **@@=-        ",
"                                    #$$@=#         ",
"                                    @@+ =*         ",
"                                   @@=  +$         ",
"                                  .@=   #@         ",
"                                  .=   +#          ",
"                        ;;=            $$          ",
"                       ;;;;;        @@$$$          ",
"                        ;;;;;;    +@#@$*@$         ",
"                         ;;;;;;;;;=+@$$@$>@,       ",
"                         ;;;;;;;;  *$,@**,@#       ",
"                           ;+-';;;@@,@$>@###       ",
"                            $>.;';;$**%*>%>+       ",
"                            ,@$@>;.$@$$*$%%        ",
"                               @*,$$@$$$%$         ",
"                                  $%%$$*%,         ",
"                                  @@>%%@>@         ",
"                                  .#+*$,@          ",
"                                  ...+#>>          ",
"                      @+          #+#+@+           ",
"                    @+-;=          +=#             ",
"                    +;;;-         @+-              ",
"                    ++;;;'=+,,    @.-              ",
"                   =,@.=#@+--#@,  *@=              ",
"                   @,,,   ,,#=;+@@$$.#             ",
"                  +,=,     =#,@+;-#*>>             ",
"                  @=+        -+@-@$%>>,            ",
"                 @#;            >%>@@##            ",
"                 ,,             %>@@###            ",
"                ,,         %$$>>@@@@@@             ",
"               ,,,        %$$##@@@#                ",
"              @,,         $>>+@@                   ",
"           ,,+;+          $>@#                     ",
"         ;-++-;           ,>@                      ",
"         @@=@@#           *@@                      ",
"             +#          >>@@                      ",
"             @+          >,@                       ",
"                        ,>@                        ",
"                        >>@                        ",
"                        $@                         ",
"                       %,                          ",
"                       $@                          ",
"                      %@                           ",
"                     %>@                           ",
"                    %$#                            ",
"                    $>+                            ",
"                   %$#+                            ",
"                 @*>@+@                            ",
"                @@@@@#@                            ",
"                @@@,                               ",
"                                                   ",
"                                                   ",
"                                                   ",
"                                                   "};
