/* XPM */
static const xpm_row_t bg2_attack1_xpm[] = {
"36 68 15 1",
" 	c #000000",
".	c #903018",
"+	c #B88070",
"@	c #B85030",
"#	c #A04830",
"$	c #F88870",
"%	c #B04828",
"&	c #F8F800",
"*	c #E08060",
"=	c #C06048",
"-	c #F86848",
";	c #F8E0B8",
">	c #684038",
",	c #704840",
"'	c #502018",
"                                    ",
"                                    ",
"                   .                ",
"                  +@@#@             ",
"                  $$@%&             ",
"                 $$$$               ",
"                 +**@               ",
"                $$$.#               ",
"               =+- .@               ",
"               +*# .%               ",
"              $=@  .%               ",
"              @+   =%               ",
"              @    $-               ",
"                 %-$-=              ",
"               .=@*;$=*#@@          ",
"              ..+=*$==-.=@@         ",
"              #@$***=**==@#         ",
"         &   >#+$=;$=$$ #.@         ",
"         &&  #. $=;;@$$  .*;        ",
"        &;&&&. =+=**@$*   %=        ",
"      &&&;&&>>>.>>>>.%@    $*       ",
"   &&&&&;;;;>>>>>>>>>>>>   =*+      ",
"       &&;&@, '>>>>,,>,>.@@====     ",
"         & @   >#.+*$=@.#..=*.      ",
"          #=     .@=#==             ",
"                  .=#               ",
"                  .=.               ",
"                  @=#               ",
"                  $$@               ",
"                  $$*$              ",
"                 =*@$;*             ",
"                @@-.$;=             ",
"                .@$.=*=             ",
"               +@,++$;=             ",
"               +,@# ;;;             ",
"              +@#+,  ;;             ",
"              +,=@   ;;;            ",
"              #.+,   ;;;            ",
"             =,=@    ;;;            ",
"             .@+      ;;            ",
"            =,+       ;;            ",
"            #@+       ;;            ",
"          =@,@        ;;            ",
"          =.>,        ;;            ",
"          @,>>        $$*           ",
"          .@>>        $$=           ",
"          .+=.        $$==          ",
"           +++        $*+++         ",
"           =+=          +*$         ",
"           =@.          =*;         ",
"           @#.           +;*        ",
"           @#,           **$        ",
"           @+=            =$=       ",
"           +++             *+       ",
"           +++             $*=      ",
"           +++              $+      ",
"           +++              ;$=     ",
"           ++=              ;*=     ",
"           @.>              ;;+     ",
"           =.>              ;;%     ",
"          =#..@             **@     ",
"         ># =.=             ==*     ",
"        >>#  ==             ===     ",
"                                    ",
"                                    ",
"                                    ",
"                                    ",
"                                    "};
