/* XPM */
static char * bg2_death3_xpm[] = {
"71 24 14 1",
" 	c #000000",
".	c #C06048",
"+	c #B85030",
"@	c #F88870",
"#	c #A04830",
"$	c #B88070",
"%	c #684038",
"&	c #983820",
"*	c #F86848",
"=	c #B04828",
"-	c #704840",
";	c #E08060",
">	c #F8E0B8",
",	c #F8F800",
"                                                                       ",
"                                                                       ",
"                                                                       ",
"                                                                       ",
"                                                                       ",
"                                                                       ",
"                                                                       ",
"                                                             .+        ",
"                                                             ..@       ",
"                                       #++                    $.       ",
"     %                                 .&&%                   +$*      ",
"     +=                                ...%+$                  *.@     ",
"     %+-%.$                            ..$++.+.=#**.;@         .@@     ",
"      .&-#$$$$$..$$$.%%&.....##+..+@*.*@@***@*+*.@@@;+*         @**    ",
"     &=.%#....&&&.$$+%%+##&&##&&#-.@==$$.....+.$*@@@@@**@       $*@@   ",
"     -#........#+.++&&#=........;;;>>@@**.;**...@@@@*@;*.@@++..$+@@@*  ",
"          ..@>>.&==#&.$;>>>$$;;@>>>>@;;;     #+@@.++++.;$;@#+*@*+@@@+  ",
"         ..+.;@@>>>*;$;;@;*;@@@;.....+       +@@$++$@>;@;        .++#  ",
"         ...=.;;;;**@;;$$..$                  .*.+*>>$++.....    =+#   ",
"          ............                         *@>@>+*;#%%%%%    ,##   ",
"                                                                       ",
"                                                                       ",
"                                                                       ",
"                                                                       "};
