/* XPM */
static const xpm_row_t h2_attack1[] = {
/* columns rows colors chars-per-pixel */
"54 60 57 1 ",
"  c #000000",     // black
". c #050505",     // gray2
"X c #0A0A0A",     // gray4
"o c #0D0D0D",     // gray5
"O c #001805",
"+ c #121212",     // gray7
"@ c #171717",     // gray9
"# c #1B1B1A",
"$ c #242424",     // gray14
"% c #292929",     // gray16
"& c #2E2E2E",     // gray18
"* c #243D29",
"= c #313131",
"- c #363636",     // gray21
"; c #3B3B3B",     // gray23
": c #3F3F3E",
"> c #484848",
", c #4D4D4D",     // gray30
"< c #525252",     // gray32
"1 c #5E5E5E",     // gray37
"2 c #48614D",
"3 c #636362",
"4 c #636363",     // gray39
"5 c #686868",
"6 c #6B6B6B",     // gray42
"7 c #717171",
"8 c #767676",
"9 c #7A7A78",
"0 c #C4320E",
"q c #DE3910",
"w c #C44B13",
"e c #E24C0E",
"r c #E1C400",
"t c #FBCB02",
"y c #FFDE00",
"u c #FCDF1A",
"i c #8A8A8A",     // gray54
"p c #8F8F8F",     // gray56
"a c #969696",     // gray59
"s c #9C9C9C",     // gray61
"d c #A1A1A1",     // gray63
"f c #A5A5A4",
"g c #AFAFAF",
"h c #B4B4B4",
"j c #B8B8B8",     // gray72
"k c #BBBBBB",
"l c #C1C1C1",
"z c #C6C6C6",
"x c #CCCCC4",
"c c #CACAC9",
"v c #D1D1C9",
"b c #D6D6CE",
"n c #D8D8D1",
"m c #EAE6C4",
"M c #E3E3DB",
"N c #E7E7DE",
"B c #000000",     // black (repetition)
/* pixels */
"BBBBBBBBBBBBBBBBBBBBBBBBBBBBBBBBBBBBBBBBBBBBBBBBBBBBBB",
"BBBBBBBBBBBBBB966=BBBBBBBBBBBBBBBBBBBBBBBBBBBBBBBBBBBB",
"BBBBBBBBBBBBBBnN9n:BBBBBBBBBBBBBBBBBBBBBBBBBBBBBBBBBBB",
"BBBBBBBBBBBBBnNNN9n:BBBBBBBBBBBBBBBBBBBBBBBBBBBBBBBBBB",
"BBBBBBBBBBBB%%,<<<<&BBBBBBBBBBBBBBBBBBBBBBBBBBBBBBBBBB",
"BBBBBBBBBBBB%hz@   $BBBBBBBBBBBBBBBBBBBBBBBBBBBBBBBBBB",
"BBBBBBBBBBBBB%,bNN#$BBBBBBBBBBBBBBBBBBBBBBBBBBBBBBBBBB",
"BBBBBBBBBBBn:v3<b# $BBBBBBBBBBBBBBBBBBBBBBBBBBBBBBBBBB",
"BBBBBBBBBBBBnNNN# xN:BBBBBBBBBBBBBBBBBBBBBBBBBBBBBBBBB",
"BBBBBBBBBBBBjzz@xN#x:BBBBBBBBBBBBBBBBBBBBBBBBBBBBBBBBB",
"BBBBBBBBBBBBB.      BBBBBBBBBBBBBBBBBBBBBBBBBBBBBBBBBB",
"BBBBBBBBBB%46666o   $BBBBBBBBBBBBBBBBBBBBBBBBBBBBBBBBB",
"BBBBBBBBBkz;pslzMN:vN:BBBBBBBBBBBBBBBBBBBBBBBBBBBBBBBB",
"BBBBBBBBnNc;%plMNNN:vN:BBBBBBBBBBBBBBBBBBBBBBBBBBBBBBB",
"BBBBBBBnNNc;%plMNNN:hM:BBBBBBBBBBBBBBBBBBBwqqBBBBBBBBB",
"BBBBBBBnNNc;%4asss-%%h;.BBBBBBBBBBBBBBBBBwqqqqBBBBBBBB",
"BBBBBBBnN#  $.1a+ gzz;.1o    $BBBBO    $BwtyyyeqBBBBBB",
"BBBBBBBO xNc@   gzzMNN#i-.><<<X    ><<<X rmNNuyeqqqqBB",
"BBBBBBBBnNNc@ gzzz;.     $%%%%%%%%%%%%,<XrmNNuyeqqqqBB",
"BBBBBBBBkMNc@     1666=%%%%%%%%%%%%%%%,X 0tyyyeqBBBBBB",
"BBBBBBBBkMN# 1666oxN966o                BwqqqqBBBBBBBB",
"BBBBBBBBO  x#xNNN#xN9o  $%%%%%%. >XBBBBBBBwqqBBBBBBBBB",
"BBBBBBBBBnNN#xczz@x96o             BBBBBBBBBBBBBBBBBBB",
"BBBBBBBBBBn# g@   16o   16o   $.><XBBBBBBBBBBBBBBBBBBB",
"BBBBBBBBBBo   xc;.        BBBO    BBBBBBBBBBBBBBBBBBBB",
"BBBBBBBBBBBBBB%. 16o  $BBBBBB.  BBBBBBBBBBBBBBBBBBBBBB",
"BBBBBBBBBBBBBB566oxNf-BBBBBBB%%.BBBBBBBBBBBBBBBBBBBBBB",
"BBBBBBBBBBBBBjzzz8nNf-BBBBBBBBBBBBBBBBBBBBBBBBBBBBBBBB",
"BBBBBBBBBBBBBjMNc8kM#$BBBBBBBBBBBBBBBBBBBBBBBBBBBBBBBB",
"BBBBBBBBBBBBBjMNc8kM#1oBBBBBBBBBBBBBBBBBBBBBBBBBBBBBBB",
"BBBBBBBBBBBBBjMNc8o is7oBBBBBBBBBBBBBBBBBBBBBBBBBBBBBB",
"BBBBBBBBBBBBBjMNc8alzzd7oBBBBBBBBBBBBBBBBBBBBBBBBBBBBB",
"BBBBBBBBBBBBBjMNc8alzzzd7=BBBBBBBBBBBBBBBBBBBBBBBBBBBB",
"BBBBBBBBBBBBBjMNc8kzzzzzd7oBBBBBBBBBBBBBBBBBBBBBBBBBBB",
"BBBBBBBBBBBBBjMNc8ogzzzzzd7oBBBBBBBBBBBBBBBBBBBBBBBBBB",
"BBBBBBBBBBBBBjMNc8BOgzzzzzd+BBBBBBBBBBBBBBBBBBBBBBBBBB",
"BBBBBBBBBBBBBjMNc8BBOgzzzzzd-BBBBBBBBBBBBBBBBBBBBBBBBB",
"BBBBBBBBBBBBB&.   BBBOgzzzz;. BBBBBBBBBBBBBBBBBBBBBBBB",
"BBBBBBBBBBBBO xNc8oBBBOgzz@gd7BBBBBBBBBBBBBBBBBBBBBBBB",
"BBBBBBBBBBBBOxNNc8oBBBBO  gzd7BBBBBBBBBBBBBBBBBBBBBBBB",
"BBBBBBBBBBBO  gzz8oBBBBBO iss7BBBBBBBBBBBBBBBBBBBBBBBB",
"BBBBBBBBBBBhzz@   BBBBBBOi+   BBBBBBBBBBBBBBBBBBBBBBBB",
"BBBBBBBBBOgMNc866oBBBBBOil866oBBBBBBBBBBBBBBBBBBBBBBBB",
"BBBBBBBBBOgMNNc8oBBBBBBOilzd7oBBBBBBBBBBBBBBBBBBBBBBBB",
"BBBBBBBBOgMNNc8oBBBBBBBOilzd7oBBBBBBBBBBBBBBBBBBBBBBBB",
"BBBBBBBBOgMNc8oBBBBBBBBBOild7oBBBBBBBBBBBBBBBBBBBBBBBB",
"BBBBBBBBOgMc8oBBBBBBBBBBOild7oBBBBBBBBBBBBBBBBBBBBBBBB",
"BBBBBBBOgMc8oBBBBBBBBBBBOild7oBBBBBBBBBBBBBBBBBBBBBBBB",
"BBBBBBB*.g8oBBBBBBBBBBBBBOis7oBBBBBBBBBBBBBBBBBBBBBBBB",
"BBBBBBBOx#  BBBBBBBBBBBBBBO    BBBBBBBBBBBBBBBBBBBBBBB",
"BBBBBBOgMc8o><<<<<<<<<BBBOgzzds+$BBBBBBBBBBBBBBBBBBBBB",
"BBBBBBOg@    ><<<<<<<<<<<Xisssss7oBBBBBBBBBBBBBBBBBBBB",
"BBB2<<X xNc8o><<<<<<<<<<<X16666666oBBBBBBBBBBBBBBBBBBB",
"B2<<<<X      ><<<<<<<<<<<X         BBBBBBBBBBBBBBBBBBB",
"B2<<<<<<<<<<<<<<<<<<<<<<<<<<<<<<<BBBBBBBBBBBBBBBBBBBBB",
"BBB2<<<<<<<<<<<<<<<<<<<<<<<<<<<BBBBBBBBBBBBBBBBBBBBBBB",
"BBBBBB2<<<<<<<<<<<<<<<<<<<<<BBBBBBBBBBBBBBBBBBBBBBBBBB",
"BBBBBBBBBBBB2<<<<<<<<<BBBBBBBBBBBBBBBBBBBBBBBBBBBBBBBB",
"BBBBBBBBBBBBBBBBBBBBBBBBBBBBBBBBBBBBBBBBBBBBBBBBBBBBBB",
"BBBBBBBBBBBBBBBBBBBBBBBBBBBBBBBBBBBBBBBBBBBBBBBBBBBBBB"
};
