/* XPM */
static char *h2_death2[] = {
/* columns rows colors chars-per-pixel */
"63 37 8 1 ",
"  c black",
". c gray16",
"X c gray32",
"o c gray42",
"O c gray61",
"+ c #C6C6C6",
"@ c #E7E7DE",
"# c #000000",
/* pixels */
"###############################################################",
"###############################################################",
"###############################################################",
"###################################################  ##########",
"################################################### o #########",
"################################################### O #########",
"################################################## OO #########",
"################################################## OOo#########",
"#############################.   .#############.   +Oo#########",
"########################### . ooX  ###   #.    ooo O+O#########",
"##########################.XX .  X #  ooo ooooo++O  +O#########",
"##########################  Xo  ... O OOo OOO++++OX XX ########",
"#########################. .XoX.X  +O +OO O+++++OX#############",
"#########################oo ..X .+++O.+O O+++++OX##############",
"###############...####   OO  X +++++OO O XOOOOXX###############",
"#######oo####..@@@.#. oooOoo  ++++OOo #  XXXoX#################",
"######o@oo##.+++++@...OOOo   +++OOooo ##     ###.    .####. ###",
"####oo.o@   OO    +.OO.o  . o    ..o... XXXX     XXXX  ## o ###",
"##oX @@@o   O ...o....      oooo.      .............XX ## + ###",
"#o@X @+@@   O..@+ @@@+           ooo................X  # o+ ###",
"#@@X.+X@@+ @O.@@@ @@@@ @@@ ooooo @@@@                 o oo@ ###",
"#@O@.+..@+ @+.ooo oooo oo@.@@@@@ @@oo .......  +@@@@@@@ o@+ ###",
"#@+@.....o  +..ooo oooo oo @@@++ @@o          +++@@++++ @@+ ###",
"#@Oo..O@@@X   ..........   +++XX @o   XXXXX      ++     @@o ###",
"#@o+@.+++@X#.    OOO   oO            XXXXXXXXX###  #####XX  ###",
"#o#oo.oooo## @@++   X    XXXXXXXX   XXXXXXXXXXXX###############",
"#############     XXXXXXXXXXXXXXXXXXXXXXXXXXXXXX###############",
"##################XXXXXXXXXXXXXXXXXXXXXXXXXXXX#################",
"#####################XXXXXXXXXXXXXXXXXXXXXX####################",
"###########################XXXXXXXXXX##########################",
"###############################################################",
"###############################################################",
"###############################################################",
"###############################################################",
"###############################################################",
"###############################################################",
"###############################################################"
};
