/* XPM */
static char *h2_run3[] = {
/* columns rows colors chars-per-pixel */
"49 65 8 1 ",
"  c black",
". c gray16",
"X c gray32",
"o c gray42",
"O c gray61",
"+ c #C6C6C6",
"@ c #E7E7DE",
"# c #000000",
/* pixels */
"#################################################",
"#################################################",
"###############@@@oooo.##########################",
"################Ooo@@o@.#########################",
"################o@o@@@o@.########################",
"################.....XXXo########################",
"################o+.++  X#########################",
"################o+..X@@@.########################",
"###############o+..@XX@ .########################",
"###############o+o@@@@ @@.#######################",
"################XX+++ @o@ #######################",
"##################       ########################",
"#############...ooo  .  #########################",
"############o@++.OOo    #########################",
"###########o@@+++.OO+   .########################",
"###########o@@+++.O+@@.@ .#######################",
"###########o@@+   O+@@@.@.#######################",
"###########o@  o+ OOO@@.@. ######################",
"############ oo@+ oOOO..@.o ####    .####     .##",
"############o+@@+     +...Oo ##. XXXX     XXXX  #",
"############o+@@++.++@@++.      .............XX #",
"#############o@@   .     oooo................X  #",
"##############  ++ ooooo @@ooo                 ##",
"############# o@@  @@@@@ @@o   .......  X #######",
"############# oo@  @@+++ @oo              #######",
"#############  o   ++    oo    oo    . XX #######",
"###############@     .o #        ###     ########",
"##############. ooooo o ##   ######.   ##########",
"##############.o+++++o  ###########... ##########",
"############## X@@@@++o #########################",
"############## X+@@@@++o.########################",
"############### X+@@@@++o #######################",
"###############X X+@@@@++ #######################",
"###############XO+X+@@@@+o ######################",
"###############XO++X++@@@+ .#####################",
"###############XO++X++@@@+ o.####################",
"###############XO++OXX+@@ +o ####################",
"###############XO+oXX    ++o ####################",
"###############XOXoX++  +@@  ####################",
"################XX+++@++ oo #####################",
"################oX@@@@++o  ######################",
"##############oXo@@@++oo  #######################",
"##############oX @@+oo  #########################",
"#############o@@+ +o   ##########################",
"############o@@+X   oo ##########################",
"############# @+X o   ###########################",
"############## @+X oo ###########################",
"############## @+X o ############################",
"#############X+ @+X #############################",
"#############X+O +X #############################",
"############X+OOo  ##############################",
"############o+OO ################################",
"#############     ###############################",
"############ +++OO .XX###########################",
"######XXXXXX OOOOOOo XXXXXXX#####################",
"###XXXXXXXXX oooooooo XXXXXXXXX##################",
"#XXXXXXXXXXX          XXXXXXXXXXX################",
"#XXXXXXXXXXXXXXXXXXXXXXXXXXXXXXXX################",
"###XXXXXXXXXXXXXXXXXXXXXXXXXXXX##################",
"######XXXXXXXXXXXXXXXXXXXXXX#####################",
"############XXXXXXXXXX###########################",
"#################################################",
"#################################################",
"#################################################",
"#################################################"
};
