/* XPM */
static char * bg3_run2_xpm[] = {
"47 44 11 1",
" 	c #000000",
".	c #A8A8A8",
"+	c #585858",
"@	c #787878",
"#	c #909090",
"$	c #101010",
"%	c #480000",
"&	c #781010",
"*	c #983838",
"=	c #B07028",
"-	c #C8C8C8",
"                                               ",
"                                               ",
"                                               ",
"                                               ",
"                   .. +@+@+                    ",
"                  +@@#+@$++@@+$                ",
"                 @+++#++@@@++@@++              ",
"                  +++@@+@@@++@+++@             ",
"                  $$%%&%%%%++@++++@+           ",
"                  %%%&&&&&&%%$++@@+$.          ",
"          @      %%%%&&&&&&%%%   $#@@#         ",
"       &#@$$$#    %%&&&%&&&%%&    @+++@        ",
"       .+#+@....@ %&&&&%&&*&%%%    $@+.        ",
"       ++..++++ +%.@@+&&&*=*&%%    @+  @       ",
"       +.$++$++++$+++@+++@++&%%     - @+@      ",
"       .++$++++++++++++++++@@++      @@@@      ",
"       +$$$$+++$$$+@@+++++$++++@--    +@++     ",
"      . $$$++$$$$$+++++@@++++$$$#.--- $$-@     ",
"      . ++++$$$$$$$$$$+++++++@$$##.. $$$++     ",
"      #@++$++$$$$$+$$$%$$$$$+++---.+@+$++++    ",
"      #$++$$$+++++++$$%$$$$$$$$#@@.- $$$ %+    ",
"       ++ $  $$++++$%&%&+$$$+$$$@###$$$.+++    ",
"       .+      ++++%%%$%%%%%$$$+   $+$$$+#     ",
"        .      @$$%%&%%&&%&%$$$+$  $$$.++@     ",
"         .+   @@$$ $&%%%%%%%$$$$++ + $@+++     ",
"          .##@@+$$ $$$$%%%%%$$$$+$+$+++++%%    ",
"      ++    $$$ $$+$$$$$$$$$$$$$++$+.+@+$%%    ",
"      +%         $$$$$$ $++$+$++++++++ $$%%    ",
"      +%        $$$$$$$$$+#$+$+++++++ .$$%%    ",
"       %$       +$+$$$$$$++ +$$+++@$$++ $%     ",
"       +%        +$$+++$$$  +$$ $+@+@#$$$$     ",
"        %$        ++$+++$$  $$+  $++@@ $$      ",
"        +%         ++++@+$$$+++    $$$+$%      ",
"         $%         +$$#++$+++#       ++       ",
"         $%$         $$$$+$++@@      &%$       ",
"          +%$         $  $$ $++     &%$        ",
"           +%&            +  ++    &%$         ",
"            +$%           $  $   $%$$          ",
"             $+$&         +    +%$$$           ",
"               $$$%       + ++%$$$             ",
"                 $$$$$$%%%$$$$$$               ",
"                    $$$$$$$$$                  ",
"                                               ",
"                                               "};
