/* XPM */
static char * bg3_attack2_xpm[] = {
"81 82 13 1",
" 	c #000000",
".	c #480000",
"+	c #781010",
"@	c #585858",
"#	c #101010",
"$	c #C8C8C8",
"%	c #E0E0E0",
"&	c #787878",
"*	c #909090",
"=	c #A8A8A8",
"-	c #F8C048",
";	c #F8F858",
">	c #983838",
"                                                                                 ",
"                                                                                 ",
"                                                                                 ",
"                                                                                 ",
"                                                                                 ",
"                                                                                 ",
"                                                                                 ",
"                                                                                 ",
"                                                                                 ",
"                                     . +@@.+++....                               ",
"                                .+.+++@@@@@@##@@#+...                            ",
"                             +$$+@@#+.@@#       @#@@+.                           ",
"                           $%+..&@@#               &@+..                         ",
"                         %**@   @@              @@&  @@..                        ",
"                         *                     *%@@   &&+.                       ",
"                                              &%%&#  @@ @..                      ",
"                                              &@@&@ $@   &..                     ",
"                                             &@&&&&#@     &.                     ",
"                                            &@@@@@&&@     &+.                    ",
"                                            &&#  &@&@      +.                    ",
"                                        .  &&*   @&$*@@    +..                   ",
"                                       ...+&*&=@@@&%&@@     +.                   ",
"                                       .++.@@%%%@@@&&@@     +.                   ",
"                                      .++++@@@&@@@@&@@@      ..                  ",
"                                      &++++# ###@#@@@@@      +@                  ",
"                                      &+++@@#&@@@@#@@@@      +&                  ",
"                                      *@@.# =@@@@@@#@@@      +@                  ",
"                                      @@@@#  # ##*@&@@@      +@                  ",
"                                      @@@@#    ## @&*#@      +&                  ",
"                                      #@@@#    @# #@@#@      +@                  ",
"                                     @#@&@===      ###       .@                  ",
"                                     @@@@@&@*$     ###       ..                  ",
"          -                          $=@&#   %$    ###       .                   ",
"         -;-                         &#@&@    $    ###      +@                   ",
"          -;-                        #$@##   =&    ####     .@                   ",
"       ----;;-                      = @###@@=&     ####    .@                    ",
"     --;;;;;;;-          @       ## @ @@## &$#     ###     .@                    ",
"   --;;;;;;;;;;;=*$$$@@@@&&&@@&@@@@@@@### =$&&     ####   .@                     ",
"     --;;;;;;;;***===@@@@@@@@@@@@@@@@@##@*@&       ##@.                          ",
"       ---;;;;;-       ###############*&@@    *    ##...                         ",
"       ----;--         ###########*@##@@@     &  $*#@.@..                        ",
"     --;;;;;;;;  = ==@@############### %##    &  $&=@....                        ",
"   --;;;;;;;;;;*==*==@@@@@@@@@@@@@@##&#@@#    @  =*###@@.@                       ",
"     --;;;;;;;;- --     ###########  @ @@    *@ ##@###...                        ",
"       ----;;;  -;;-                %# @@   %@.....###@..@                       ",
"          -;; --;;;;-      =      ##%# @    +++....###@..                        ",
"          -;-;;;;;;;;%%%%%%%@@@@@@@@%#@@   @+.++....##$.                         ",
"          ;-;;;;;;;;;&@%%*&@@@@@@@@@*@#  %@=&#++++++...  @                       ",
"         -   --;;;--     *&%@@@@@@@@@@#@@@@=@@>+++>>>.. @@@@= @                  ",
"          --;;;;;;;;;%%%%$=*@@#@@@@@#@@@#@@&@@+..++>>...@$@&@@@@@@@              ",
"        --;;;;;;;;;;;&@#@@@@######@@@@@@@@@@@#..........@=@@@@@@@@#@@            ",
"          --;;;;;;;;-              &@@@@@@@@#@..........###@@@@@@@@##@           ",
"            -----;--              @@@@@@@@@###..........#   @@@@@@@#@@@@         ",
"               -;-               &@@@@@@%@+..##.#.......       #@@@@@@##@        ",
"              -;-               &&@@@@%@@ +..###....#..           #@@#@@@@       ",
"               -                %$@@%%&#   ..#########               #@@@@       ",
"                               %%&@%%@#     .########                  #@##      ",
"                               $$@@%&#        #####                     %&&*     ",
"                               &@#@%@#                                  =@@@     ",
"                               &@#@#%#                                  &@&@     ",
"                                   %%#                                  &        ",
"                               &@@@%                                    *  *     ",
"                               @@@@%%#                                  &&@&     ",
"                               @@@ %%#                                  &&@&     ",
"                               @@* %#                                   %@@&     ",
"                               @@@ %@                                   %&@      ",
"                                @@ %@                                   %&*      ",
"                                @@  @                                   $##      ",
"                                @$ %@                                   $@       ",
"                                #@  =                                   &@       ",
"                                 #  &#                                  @        ",
"                                                                                 ",
"                                                                                 ",
"                                                                                 ",
"                                                                                 ",
"                                                                                 ",
"                                                                                 ",
"                                                                                 ",
"                                                                                 ",
"                                                                                 ",
"                                                                                 ",
"                                                                                 "};
