/* XPM */
static char *result[] = {
/* columns rows colors chars-per-pixel */
"54 48 19 1 ",
"  c black",
". c #100800",
"X c #080810",
"o c #201008",
"O c #401808",
"+ c #502810",
"@ c #783820",
"# c #282840",
"$ c #484068",
"% c #B85838",
"& c #C84820",
"* c #F87830",
"= c #F08840",
"- c #F8A850",
"; c #2880A0",
": c #48C8E8",
"> c #78F8F8",
", c #F8F8F8",
"< c None",
/* pixels */
"<<<<<<<<<<<<<<<<<<<++<<<<<<<<<<<<<<<<<<<<<<<<<<<<<<<<<",
"<<<<<<<<<<<<<<<<<+@&&@+<<<<<<<<<<<<<<<<<<<<<<<<<<<<<<<",
"<<<<<<<<<<<<<<<++******++<<<<<<<<<<<<<<<<<<<<<<<<<<<<<",
"<<<<<<<<<<<<<<<O+&****&@O+<<<<<<<<<<<<<<<<<<<<<<<<<<<<",
"<<<<<<<<<<<<<<<OOOO+@+++&&+;;;;<<<<<<<<<<<<<<<<<<<<<<<",
"<<<<<<<<<<<<<<<O@@OOO@--+O:::::;;;;<<<<<<<<<<<<<<<<<<<",
"<<<<<<<<<<<<<+@@&@&@%-%%O>>>>>>::::::;<<<<<<<<<<<<<<<<",
"<<<<<<<<<<<<<O@*+++==,$#;:>>>>>>>>>>>::;;<<<<<<<<<<<<<",
"<<<<<<<<<<<<<<OO@@+==-%+<;:>>>>>>>>>>>>:::;;<<<<<<<<<<",
"<<<<<<<   X X#+++%+@=--+<<;:>>>>>>>>>>>>>>::;;<<<<<<<<",
"<<<<<<< o@%+X#$@+@-o%=@<<<<;:>>>>>>>>>>>>>>>::;;<<<<<<",
"<<<<<<< o@%@++X#$+%@++<<<<<<::>>>>>>>>>>>>>>>>::;<<<<<",
"<<<<<<<  oo@%%@o++oo##<<<<<<;::>>>>>>>>>>>>>>>>>:;;<<<",
"<<<<<<<< ooo@%%%@#####X o+o ;::>>>>>>>>>>>>>>>>>>::;<<",
"<<<<<<<< oooo++%+#####X$#+#;:::>>>>>>>>>>>>>>>>>>>>:;<",
"<<<<<<<<<   oXooo#XXX X$# ;:::>>>>>>>>>>>>>>>>>>>>>:;<",
"<<<<<<<<<<  o Xo Xo<<%$##;;;;::::::::::::::::::::::::;",
"<<<<<<<<<<< ooo X#X%$$#X ;;::;;;;;;;;;;;;;;;;;;;;;;;;;",
"<<<<<<<<<<< oooo###+#$#< .o.o.+o<<<<<<<<<<<<<<<<<<<<<<",
"<<<<<<<<<<<< .oXX#Xo##X<< .oo +o<<<<<<<<<<<<<<<<<<<<<<",
"<<<<<<<<<<<<    ###X## <<<    <<<<<<<<<<<<<<<<<<<<<<<<",
"<<<<<<<<<<< o   XX  XX<<<<<<<<<<<<<<<<<<<<<<<<<<<<<<<<",
"<<<<<<<<<<<+@@+   ##  <<<<<<<<<<<<<<<<<<<<<<<<<<<<<<<<",
"<<<<<<<<<< @@%@###X#  <<<<<<<<<<<<<<<<<<<<<<<<<<<<<<<<",
"<<<<<<<<<<+@@+#$$##$X<<<<<<<<<<<<<<<<<<<<<<<<<<<<<<<<<",
"<<<<<<<<< @%%%o$$##$#@<<<<<<<<<<<<<<<<<<<<<<<<<<<<<<<<",
"<<<<<<<<<.@%%%%X$X$$++@<<<<<<<<<<<<<<<<<<<<<<<<<<<<<<<",
"<<<<<<<<<o@%%%%+.o+@%%%@<<<<<<<<<<<<<<<<<<<<<<<<<<<<<<",
"<<<<<<<<< @%%%%o oo@@%%%@<<<<<<<<<<<<<<<<<<<<<<<<<<<<<",
"<<<<<<<<<o@%%%%.oooo@@@%%@<<<<<<<<<<<<<<<<<<<<<<<<<<<<",
"<<<<<<<<<.@%%%@  oooo+@@%%@<<<<<<<<<<<<<<<<<<<<<<<<<<<",
"<<<<<<<<< @%%%+<<  .ooo+@%@@<<<<<<<<<<<<<<<<<<<<<<<<<<",
"<<<<<<<<<o@%%%+<<<<< ..o+@%@<<<<<<<<<<<<<<<<<<<<<<<<<<",
"<<<<<<<< +@%%@<<<<<<<< .o%%+<<<<<<<<<<<<<<<<<<<<<<<<<<",
"<<<<<< XX+@%@+<<<<<<<<X##XXX<<<<<<<<<<<<<<<<<<<<<<<<<<",
"<<<<< X#X X+o<<<<<<<<X#####X<<<<<<<<<<<<<<<<<<<<<<<<<<",
"<<<<<XXXX#X  <<<<<<<<X####X<<<<<<<<<<<<<<<<<<<<<<<<<<<",
"<<<< XXXX##X<<<<<<<< X####X<<<<<<<<<<<<<<<<<<<<<<<<<<<",
"<<<< XXX##X<<<<<<<<< X###X<<<<<<<<<<<<<<<<<<<<<<<<<<<<",
"<<< XXXX#X<<<<<<<<<< X##X<<<<<<<<<<<<<<<<<<<<<<<<<<<<<",
"<<<XXXXXX<<<<<<<<<< X###X<<<<<<<<<<<<<<<<<<<<<<<<<<<<<",
"<<X$X XX<<<<<<<<<<< X##XX<<<<<<<<<<<<<<<<<<<<<<<<<<<<<",
"<##$$#X <<<<<<<<<<< XX##X<<<<<<<<<<<<<<<<<<<<<<<<<<<<<",
"X##$$$$<<<<<<<<<<<<X##$$$##<<<<<<<<<<<<<<<<<<<<<<<<<<<",
"X##$$$# <<<<<<<<<<<X##$$$$$##<<<<<<<<<<<<<<<<<<<<<<<<<",
" #####X <<<<<<<<<<<X#####$$#X<<<<<<<<<<<<<<<<<<<<<<<<<",
"< ##$$$X<<<<<<<<<<< XXXXX##X <<<<<<<<<<<<<<<<<<<<<<<<<",
"<< X##X <<<<<<<<<<<<<<<<<<<<<<<<<<<<<<<<<<<<<<<<<<<<<<"
};
