/* XPM */
static const char *player1_xpm[] = {
/* columns rows colors chars-per-pixel */
"394 72 239 2 ",
"   c #030403",
".  c #030A03",
"X  c #070A09",
"o  c #0A0D0A",
"O  c #080907",
"+  c #021501",
"@  c #031B02",
"#  c #0D110E",
"$  c #0B1E0C",
"%  c #10120F",
"&  c #0E1310",
"*  c #06111B",
"=  c #121512",
"-  c #151B16",
";  c #171D18",
":  c #191E1A",
">  c #181C17",
",  c #070E14",
"<  c #052303",
"1  c #062B04",
"2  c #082C05",
"3  c #0A2D0A",
"4  c #082507",
"5  c #063304",
"6  c #093406",
"7  c #063B03",
"8  c #0A3C05",
"9  c #0B3409",
"0  c #0C3C09",
"q  c #073508",
"w  c #172119",
"e  c #1C221D",
"r  c #1C291E",
"t  c #162017",
"y  c #173814",
"u  c #20251F",
"i  c #091825",
"p  c #1E2520",
"a  c #1E2B21",
"s  c #162B2E",
"d  c #212622",
"f  c #232B24",
"g  c #282C27",
"h  c #272C28",
"j  c #292D29",
"k  c #233325",
"l  c #263529",
"z  c #2B342C",
"x  c #273929",
"c  c #2B3A2D",
"v  c #253826",
"b  c #30352F",
"n  c #2E3630",
"m  c #2E3C31",
"M  c #313632",
"N  c #333B34",
"B  c #373C38",
"V  c #393D3A",
"C  c #383C36",
"Z  c #0B4305",
"A  c #0E4209",
"S  c #0B4806",
"D  c #11440B",
"F  c #134C0C",
"G  c #104107",
"H  c #0D5507",
"J  c #14530C",
"K  c #145C0B",
"L  c #145909",
"P  c #195A10",
"I  c #14630A",
"U  c #19640E",
"Y  c #176809",
"T  c #1C770C",
"R  c #1D6A13",
"E  c #1E7513",
"W  c #227415",
"Q  c #247C15",
"!  c #267B18",
"~  c #297C19",
"^  c #267917",
"/  c #207A0F",
"(  c #2E4132",
")  c #324134",
"_  c #3C443D",
"`  c #39433B",
"'  c #235E17",
"]  c #11334E",
"[  c #3E4641",
"{  c #3F4941",
"}  c #174876",
"|  c #18446A",
" . c #424642",
".. c #424B44",
"X. c #494E4A",
"o. c #464C48",
"O. c #4D524E",
"+. c #47514D",
"@. c #4F5450",
"#. c #4E5A52",
"$. c #515551",
"%. c #535955",
"&. c #585D5A",
"*. c #50534F",
"=. c #5D625D",
"-. c #57615A",
";. c #5E6561",
":. c #636B65",
">. c #666D68",
",. c #667269",
"<. c #6A746C",
"1. c #6C796E",
"2. c #667167",
"3. c #6E7B71",
"4. c #6E7471",
"5. c #747A75",
"6. c #757A76",
"7. c #61635F",
"8. c #268215",
"9. c #298415",
"0. c #298319",
"q. c #298A15",
"w. c #2D9C15",
"e. c #2C9716",
"r. c #309D16",
"t. c #339D1B",
"y. c #34961D",
"u. c #278D11",
"i. c #2EA314",
"p. c #2FA914",
"a. c #32A416",
"s. c #33AC16",
"d. c #34A41A",
"f. c #3AA41E",
"g. c #35AC1A",
"h. c #39AC1C",
"j. c #38AB17",
"k. c #35B316",
"l. c #36BA16",
"z. c #39BC16",
"x. c #36B319",
"c. c #39B41B",
"v. c #37B919",
"b. c #3ABC1A",
"n. c #38B617",
"m. c #2DA80E",
"M. c #399B23",
"N. c #358A23",
"B. c #3BA423",
"V. c #3CAB22",
"C. c #39A525",
"Z. c #3EB323",
"A. c #3EBA22",
"S. c #1E810F",
"D. c #42BA1E",
"F. c #42A829",
"G. c #42B425",
"H. c #43BB25",
"J. c #43B529",
"K. c #45BB29",
"L. c #49BB2C",
"P. c #49B734",
"I. c #52B733",
"U. c #4BAB32",
"Y. c #419E2A",
"T. c #3CC316",
"R. c #3DC31A",
"E. c #3DC917",
"W. c #3FD116",
"Q. c #3FC122",
"!. c #41C51C",
"~. c #44CB1C",
"^. c #4ACE1E",
"/. c #41CA16",
"(. c #45D11C",
"). c #4BD21E",
"_. c #49D81C",
"`. c #52D91F",
"'. c #43C423",
"]. c #46CA22",
"[. c #4ACD22",
"{. c #4BC52C",
"}. c #4DCB2C",
"|. c #47C329",
" X c #51CD2D",
".X c #52CD27",
"XX c #4DD322",
"oX c #4DD527",
"OX c #54D422",
"+X c #59D625",
"@X c #53DB24",
"#X c #5CDA26",
"$X c #53D42C",
"%X c #54DB2B",
"&X c #5CDC2A",
"*X c #4DC832",
"=X c #52CB32",
"-X c #51C835",
";X c #56D633",
":X c #4FD132",
">X c #64DD2A",
",X c #6ADE2C",
"<X c #61DC27",
"1X c #57E429",
"2X c #5CE436",
"3X c #66E12C",
"4X c #6CE22E",
"5X c #71E32F",
"6X c #6DE330",
"7X c #63EC36",
"8X c #74E533",
"9X c #79E635",
"0X c #7BE936",
"qX c #7DEA39",
"wX c #79E836",
"eX c #67F237",
"rX c #7B827D",
"tX c #83EC3C",
"yX c #88EE3F",
"uX c #89EF41",
"iX c #87EE40",
"pX c #8BF142",
"aX c #19528A",
"sX c #1C5A99",
"dX c #164D83",
"fX c #1D63AA",
"gX c #2165AF",
"hX c #1D5CA1",
"jX c #2472C1",
"kX c #7F8581",
"lX c #838A85",
"zX c #898F8B",
"xX c #848B87",
"cX c #8B928D",
"vX c #87908A",
"bX c #8D9490",
"nX c #929A96",
"mX c #9EA7A2",
"MX c #000001",
/* pixels */
"MXMXMXMXMXMXMXMXMXMXMXMXMXM 6.<.>.7.;.;.>.:.:.:.:.:.;.;.&.&.;.;.&.&.&.=.=.;.>.<.4.5.;.MXMXMXMXMXMXMXMXMXMXMXMXMXMXMXMXMXMXMXMXMXMXMXMXMXMXMXMXMXMXMXMXMXMXMXMXMXMXMXMXMXMXMXMXMXMXMXMXMXMXMXMXMXMXMXMXMXMXMXMXMXMXMXMXMXMXMXMXMXMXMXMXMXMXMXMXMXMXMXMXMXMXMXMXMXMXMXMXMXMXMXMXMXMXMXMXMXMXMXMXMXMXMXMXMXMXMXMXMXMXMXMXMXMXMXMXMXMXMXMXMXMXMXMXMXMXMXMXMXMXMXMXMXMXMXMXMXMXMXMXMXMXMXMXMXMXMXMXMXMXMXMXMXMXMXMXMXMXMXMXMXMXMXMXMXMXMXMXMXMXMXMXMXMXMXMXMXMXMXMXMXMXMXMXMXMXMXMXMXMXMXMXMXMXMXMXMXMXMXMXMXMXMXMXMXMXMXMXMXMXMXMXMXMXMXMXMXMXMXMXMXMXMXMXMXMXMXMXMXMXMXMXMXMXMXMXMXMXMXMXMXMXMXMXMXMXMXMXMXMXMXMXMXMXMXMXMXMXMXMXMXMXMXMXMXMXMXMXMXMXMXMXMXMXMXMXMXMXMXMXMXMXMXMXMXMXMXMXMXMXMXMXMXMXMXMXMXMXMXMXMXMXMXMXMXMXMXMXMXMXMXMXMXMXMXMXMXMXMXMXMXMXMXMXMXMXMXMXMXMXMXMXMXMXMXMXMXMXMXMXMXMXMXMXMXMXMXMXMXMXMX",
"MXMXMXMXMXMXMXMXMXMXMXMXM 4.kXkXrXrX6.6.rX6.6.rX6.rXkXrXrXlX6.kXkXkX6.rXlXlXxXkXkXnXmX;.MXMXMXMXMXMXMXMXMXMXMXMXMXMXMXMXMXMXMXMXMXMXMXMXMXMXMXMXMXMXMXMXMXMXMXMXMXMXMXMXMXMXMXMXMXMXMXMXMXMXMXMXMXMXMXMXMXMXMXMXMXMXMXMXMXMXMXMXMXMXMXMXMXMXMXMXMXMXMXMXMXMXMXMXMXMXMXMXMXMXMXMXMXMXMXMXMXMXMXMXMXMXMXMXMXMXMXMXMXMXMXMXMXMXMXMXMXMXMXMXMXMXMXMXMXMXMXMXMXMXMXMXMXMXMXMXMXMXMXMXMXMXMXMXMXMXMXMXMXMXMXMXMXMXMXMXMXMXMXMXMXMXMXMXMXMXMXMXMXMXMXMXMXMXMXMXMXMXMXMXMXMXMXMXMXMXMXMXMXMXMXMXMXMXMXMXMXMXMXMXMXMXMXMXMXMXMXMXMXMXMXMXMXMXMXMXMXMXMXMXMXMXMXMXMXMXMXMXMXMXMXMXMXMXMXMXMXMXMXMXMXMXMXMXMXMXMXMXMXMXMXMXMXMXMXMXMXMXMXMXMXMXMXMXMXMXMXMXMXMXMXMXMXMXMXMXMXMXMXMXMXMXMXMXMXMXMXMXMXMXMXMXMXMXMXMXMXMXMXMXMXMXMXMXMXMXMXMXMXMXMXMXMXMXMXMXMXMXMXMXMXMXMXMXMXMXMXMXMXMXMXMXMXMXMXMXMXMXMXMXMXMXMXMXMXMXMXMXMXMX",
"MXMXMXMXMXMXMXMXMXMXMXB 1.;.o.[  . . . .o.[ [ [  .[  .o. .X. . .o.o.{ o. .o.o.{ o.+.kXmX4.MXMXMXMXMXMXMXMXMXMXMXMXMXMXMXMXMXMXMXMXMXMXMXMXMXMXMXMXMXMXMXMXMXMXMXMXMXMXMXMXMXMXMXMXMXMXMXMXMXMXMXMXMXMXMXMXMXMXMXMXMXMXMXMXMXMXMXMXMXMXMXMXMXMXMXMXMXMXMXMXMXMXMXMXMXMXMXMXMXMXMXMXMXMXMXMXMXMXMXMXMXMXMXMXMXMXMXMXMXMXMXMXMXMXMXMXMXMXMXMXMXMXMXMXMXMXMXMXMXMXMXMXMXMXMXMXMXMXMXMXMXMXMXMXMXMXMXMXMXMXMXMXMXMXMXMXMXMXMXMXMXMXMXMXMXMXMXMXMXMXMXMXMXMXMXMXMXMXMXMXMXMXMXMXMXMXMXMXMXMXMXMXMXMXMXMXMXMXMXMXMXMXMXMXMXMXMXMXMXMXMXMXMXMXMXMXMXMXMXMXMXMXMXMXMXMXMXMXMXMXMXMXMXMXMXMXMXMXMXMXMXMXMXMXMXMXMXMXMXMXMXMXMXMXMXMXMXMXMXMXMXMXMXMXMXMXMXMXMXMXMXMXMXMXMXMXMXMXMXMXMXMXMXMXMXMXMXMXMXMXMXMXMXMXMXMXMXMXMXMXMXMXMXMXMXMXMXMXMXMXMXMXMXMXMXMXMXMXMXMXMXMXMXMXMXMXMXMXMXMXMXMXMXMXMXMXMXMXMXMXMXMXMXMXMXMXMXMXMX",
"MXMXMXMXMXMXMXMXMXMX[ :.-.B n h j j b j M j j n n j h n b M M j z z z n n n n n n n { kXmX>.MXMXMXMXMXMXMXMXMXMXMXMXMXMXMXMXMXMXMXMXMXMXMXMXMXMXMXMXMXMXMXMXMXMXMXMXMXMXMXMXMXMXMXMXMXMXMXMXMXMXMXMXMXMXMXMXMXMXMXMXMXMXMXMXMXMXMXMXMXMXMXMXMXMXMXMXMXMXMXMXMXMXMXMXMXMXMXMXMXMXMXMXMXMXMXMXMXMXMXMXMXMXMXMXMXMXMXMXMXMXMXMXMXMXMXMXMXMXMXMXMXMXMXMXMXMXMXMXMXMXMXMXMXMXMXMXMXMXMXMXMXMXMXMXMXMXMXMXMXMXMXMXMXMXMXMXMXMXMXMXMXMXMXMXMXMXMXMXMXMXMXMXMXMXMXMXMXMXMXMXMXMXMXMXMXMXMXMXMXMXMXMXMXMXMXMXMXMXMXMXMXMXMXMXMXMXMXMXMXMXMXMXMXMXMXMXMXMXMXMXMXMXMXMXMXMXMXMXMXMXMXMXMXMXMXMXMXMXMXMXMXMXMXMXMXMXMXMXMXMXMXMXMXMXMXMXMXMXMXMXMXMXMXMXMXMXMXMXMXMXMXMXMXMXMXMXMXMXMXMXMXMXMXMXMXMXMXMXMXMXMXMXMXMXMXMXMXMXMXMXMXMXMXMXMXMXMXMXMXMXMXMXMXMXMXMXMXMXMXMXMXMXMXMXMXMXMXMXMXMXMXMXMXMXMXMXMXMXMXMXMXMXMXMXMXMXMXMX",
"MXMXMXMXMXMXMXMXMX[ ;.+.N z n z M M M M M b n M n n M M z M M M M b M M n N n M n z h B cXmX4.MXMXMXMXMXMXMXMXMXMXMXMXMXMXMXMXMXMXMXMXMXMXMXMXMXMXMXMXMXMXMXMXMXMXMXMXMXMXMXMXMXMXMXMXMXMXMXMXMXMXMXMXMXMXMXMXMXMXMXMXMXMXMXMXMXMXMXMXMXMXMXMXMXMXMXMXMXMXMXMXMXMXMXMXMXMXMXMXMXMXMXMXMXMXMXMXMXMXMXMXMXMXMXMXMXMXMXMXMXMXMXMXMXMXMXMXMXMXMXMXMXMXMXMXMXMXMXMXMXMXMXMXMXMXMXMXMXMXMXMXMXMXMXMXMXMXMXMXMXMXMXMXMXMXMXMXMXMXMXMXMXMXMXMXMXMXMXMXMXMXMXMXMXMXMXMXMXMXMXMXMXMXMXMXMXMXMXMXMXMXMXMXMXMXMXMXMXMXMXMXMXMXMXMXMXMXMXMXMXMXMXMXMXMXMXMXMXMXMXMXMXMXMXMXMXMXMXMXMXMXMXMXMXMXMXMXMXMXMXMXMXMXMXMXMXMXMXMXMXMXMXMXMXMXMXMXMXMXMXMXMXMXMXMXMXMXMXMXMXMXMXMXMXMXMXMXMXMXMXM V V V M V V M M C B B M V B M B M M V C C M C M M C M C B V M M M C C V C M C M M M C M M M C M M M C M C C V V MXMXMXMXMXMXMXMXMXMXMX",
"MXMXMXMXMXMXMXMXn ;.{ n z z h , % o X o o o , o o , o O o % o o % o o % o o & = : h h f n nXmX>.MXMXMXMXMXMXMXMXMXMXMXMXMXMXMXMXMXMXMXMXMXMXMXMXMXMXMXMXMXMXMXMXMXMXMXMXMXMXMXMXMXMXMXMXMXMXMXMXMXMXMXMXMXMXMXMXMXMXMXMXMXMXMXMXMXMXMXMXMXMXMXMXMXMXMXMXMXMXMXMXMXMXMXMXMXMXMXMXMXMXMXMXMXMXMXMXMXMXMXMXMXMXMXMXMXMXMXMXMXMXMXMXMXMXMXMXMXMXMXMXMXMXMXMXMXMXMXMXMXMXMXMXMXMXMXMXMXMXMXMXMXMXMXMXMXMXMXMXMXMXMXMXMXMXMXMXMXMXMXMXMXMXMXMXMXMXMXMXMXMXMXMXMXMXMXMXMXMXMXMXMXMXMXMXMXMXMXMXMXMXMXMXMXMXMXMXMXMXMXMXMXMXMXMXMXMXMXMXMXMXMXMXMXMXMXMXMXMXMXMXMXMXMXMXMXMXMXMXMXMXMXMXMXMXMXMXMXMXMXMXMXMXMXMXMXMXMXMXMXMXMXMXMXMXMXMXMXMXMXMXMXMXMXMXMXMXMXMXMXMXMXMXMXMXMXMXMX$.lX4.4.>.>.4.4.>.<.2.>.<.<.,.<.<.>.>.>.>.>.>.<.4.>.>.4.<.>.4.4.>.>.<.4.<.<.>.>.>.<.>.>.>.>.>.<.<.>.4.>.<.>.4.>.>.4.O.MXMXMXMXMXMXMXMXMXMX",
"MXMXMXMXMXMXMXj %.{ h h j h = [ *.X.o.o.o.o. . . .o. . . . . . . .X. . .o.o.o.:   f l h p N bXmX:.MXMXMXMXd h h j h h h g g h j g j h j j h h j j h h g j j h j j g h h h h j j j h h g j h h h j h h g h h h h g g h h d g g h j h g g g j j j j j j j j h h h h j h h h h h j h h g j j j h h h g h h j j j j j j h h h g h h h h h j h j h h j j j z j j j j j j j j j j g h g h j h g g h j j g g h j h g h h h j h j j h h j h g j j j h j h j j h h g g h h h g g h h g h h h j j h h j j h h h g j h h d h h g g h h h h j j h g j h d g j j j h h h h g h h g h g h h h h h h h g g h h h g g g h j g h h h h d h g h d j h h g h g h g h h d d g h d d d MXMXMX .o.B j z c M C C M C B B M N M M N N N V B M C C C V C B C B M M N b N M M M C M M M C C C C C C C M M M C C M M b b V C MXMXMXMXMXMXMXMXMX",
"MXMXMXMXMXMXz @.[ z h h h d d %.7.&.&.=.7.7.7.7.7.7.7.&.7.&.7.7.7.7.=.7.7.7.>. .  s h h h p { kXnX4.MXj o.+.X.O.$.X.X.O.X.$.X.O.O.O.*.X.$.*.+.@.@.@.X.O.@.@.@.X.*.*.O.*.$.O.$.$.*.$.$.$.$.O.@.@.*.$.*.*.O.O.X.@.X.O.O.O.O.O.$.O.$.O.+.O.O.*.$.$.O.@.@.$.$.@.@.O.O.O.O.$.O.@.O.$.@.@.@.O.O.O.@.@.$.$.*.$.$.$.O.$.$.$.@.$.O.O.*.$.$.@.*.$.$.@.@.@.@.$.$.$.$.$.%.$.$.$.%.$.$.*.$.$.$.$.O.@.$.@.$.@.$.#.+.@.$.@.*.O.@.$.$.*.O.*.$.$.$.$.@.$.$.$.O.O.@.@.$.@.$.$.$.$.@.O.O.*.O.X.$.$.@.O.@.@.O.O.O.O.*.O.*.O.O.O.$.$.*.$.*.$.$.$.$.$.$.*.X.O.$.O.@.X.@.@.@.$.@.O.@.@.X.$.$.X.O.@.$.@.@.O.O.O.X.X.O.X.X.@.X.O.X.X.X.O.O.X.X.X.X.@.X.X.X.O.X.O.O.X.X.X.X.X.X.X.X.X.X.X.X. .M c N z j j j j M b b z M c M M M M M M n M j n M M z j M z z z z M M M b j h j j M M M b j j g b z j z z j j j j j g g j M V b MXMXMXMXMXMXMXMX",
"MXMXMXMXMXM +.V f f h h f d h j n n n M n N N M n N N M M M N N B B B M N n V +.  p h f h h a [ zXmXrXf p h h h h j z j j j z l z h n z z h z h z z l z j z z z j z b z c c z b b b c c n n n z c z z z z z n z z z z z z z z z z z z z z z m c z z n z z n n z c z c n n n z n n n n z z z n n z n n m n z z c c n c M m c n n n n m N m n n z c z m c M m n n b M m n M c c b b z b z m c n z n n m z n n n n z n z b z c n n m m l n c n z z z z z c n m b c z z M z z z c z z z n z z z z z c c z z z z c z z z b b c b M z n n n n n z c z z c M c z z z c z z z z z c z z z z n z n z z n z n j j l z j z b z z z z z z b z n n z n z b z z z j j z z z z n j g p u u f u b C b z M M M b N M M b M M M M M M b z M b b b M b b M M M z z b z g z z b z j z z z b j b j j j j j j j j j g b M j MXMXMXMXMXMXMX",
"MXMXMXMXM @.M p p h p f p s p p p f d d d h f p d f g f f g j f h f d h h p h {   e f f f h h a _ nXmXkX{ B B B N N M N M M M n n n N M N N V N N B N N N B N N N N N N N B N N N N N M N n N M M M M m M M m m N M N N N N n n n n M N M M N M N M m n n N N m M N N M N m n N m n N n N n n N N M m N m N m m N n m N N M M N n m N N N N N n N N M N N m M N N N N M M B N N M N N b N N n M n n M m n n N M M M M c M M N N n n N n M N M c n n n n N M M M M N M b m m M N M M n n m m M M M N b M M M M b b M b b c M M M M M M M N n N n M M M M N N M M M M M M M N M M M M n M M M M M M M M n n M M M M M n M M M M b N n z n M M z n b z z z j j z c z j h h j g j g > j z j j b M z z b b z b M M j M z b b b j z z j j j j j j j g z k g g g j j h j j g g j g j j j g j g j d d g g j M b MXMXMXMXMXMX",
"MXMXMXn +.h p p p a p f p f j j j h j j h h h n j z z j z j j z j j j n h p h [   e a f h h f f h n kXvXxXzXzXkXzXcXcXcXcXcXzXzXvXvXbXkXzXxXcXcXcXcXbXcXzXcXvXvXvXcXcXzXvXcXcXcXcXcXzXcXbXcXbXbXcXzXzXvXcXcXcXcXcXcXcXcXcXcXcXvXvXcXbXbXcXbXcXcXcXcXbXcXcXbXcXcXcXbXzXcXbXbXcXcXbXbXbXbXbXbXcXcXcXcXcXbXzXbXbXbXbXbXbXnXbXcXbXbXbXbXbXbXcXbXzXzXzXbXbXbXcXcXcXbXcXcXbXcXcXcXcXbXcXcXcXvXcXcXcXvXbXcXbXcXcXvXzXvXzXcXcXcXcXcXbXbXcXcXcXcXcXcXcXcXzXcXbXcXbXcXcXcXcXcXcXzXcXcXcXbXcXbXzXcXvXcXcXcXbXbXcXcXcXcXcXcXzXcXzXzXzXzXcXcXcXbXcXbXcXbXcXcXbXcXzXcXbXbXcXcXzXzXcXbXvXcXcXcXcXcXzXzXvXbXbXcXcXvXxXzXxXxXzXzXvXzXxXlXlXzXlXzXzXxXlXlXlXlXlXlXlXlXlXlXlXlXlXrXkXlXlXlXkXlXlXlX&.> f b j c j z z b b z b z M b M M z b z j b g b g j j j j j g g g g g g j g g g h g g d d j g g h j h g g g d d g g N C MXMXMXMXMX",
"MX, j { z : p d p p p a d p = & & = % % = = = ; - = = = = = = = - = = - p p h [   e p p a a h a h e B V V [ [ [ _  .{ [ { { .._ { { { { { [ { { [ ..{ ..` [ { { [ _ { [ { [ { { _  ..._ { { { { _ _ _ _ ..{ { _ { [ ` { ..{ ..[ [ { { { ..{ ..{ { { { o.{ { { { { ..{ ..+.{ { { { { { { { { { [ [ { { ..{ ....{ ....o.{ { { o...+.{ { { ..{ { { _ ......{ ............o.......{ ................o.{ ..{ { { { { _ ....{ { ..{ ..{ { { [ _ ....{ { [ ..{ { ..................o.{ ..{ { ....{ ..{  .o.......o.............` ..o...........[ ........o....... .{ ..[ [ _ o._ ..{ { { [ o...{ { { [ ..{ [ { [ { { ..{  .[ [ _ .. .[  ...{ [  . . . . . ._  ._ [ _ _ _ [ [  ... . ...O.o.> u j z j h z j b j z j z j j b z j g z j h j j j g g g g g g g g g g j d g g d g g j g j g d d h g g d j g d f g j C b MXMXMXMX",
"MXX M n p e d e p p e d : o     X X X X X X O X o X X X X O O O o X     : p f [   > p a a f h h s f k z l l z l l l l z z l l l x l l l l l l l z c c c k x x k v l c v z k v k c c l l l x k x l l l z c l l x x x l l c l x z l l l x c l l c c m l z x c x c x l v x x m c x x c x c x l x m c c c x m m c c m x m x ( m ( m m ( v v l x x c c c c x c c c x c c x c c c m m ( x x c c c c c c x x c x m x x m c m c c m c m x x l c x m c l z l m x z c c c c z c c c m c c m z z c c l c c c ( c c m m c c n m m m n c c c m m c z c z z c z m c c c c z z z z c z z c c z n m m m n m m m z c z z z c c c z z z c z c c b z n z n z m z c z z c z z z l z j z z z z z b b c C N g e u d : d d d d d g d d u g f u d d f d d d d d u e d e u e d e u d : p e e e u u : d : d e : e e u : : e e e u u b MXMXMXMX",
"o X p p e p p e e p d > o       - = - - > > > - - - > > - - - - : =     : p a [   > p p p f f a h h h l z n m c l c c c m c m m m m m m m m m m c m ( c m m m m c c c c c c m m c ( m m m m ( m ( ( ( c ( m c ( m x m m c ( c m m m m m ( ( m ( m ( ( m ( m m m ( ( c m m ( ( ( ( ( ( ( ( ( ( ( ( ( m ( ( ( ( ( ( ( ( ( ( ( ( ( ( ( m c c m ( ( c ( m ( ( m ( ( c ) ( c ( ) ( ( ( ( ( ( ( ( c ( ( c ( c ( ( ( ( ( ( ( ( ( ( ( m ( ( ( ) ( ( ( m m ( ) ( ( ( ( ( ( ( c ( ( ) ) ) ( m m ( ( m m ( N ) ) ( ) ) ) N m ) ) ) ( ) m ) ) ( N ) ( ) ) ) m ) ) N N N m m m N N m N m c ( m m ( m m m N ( ) ) N m c ) N ) b m ) N m N N N m m m m m N m N M N N N c N c b c M m N b m c N z z b N N M C C M M V V V V V V V V V  .V B V V V V V V V V V  .B B V V V V B B B V V V V V V V V V C B B V B B C V V V V V V MXMXMX",
"o   = d e p p : : p : X   o   X : : p : d e e p e e e p p p e e f :     : p f [   - e a a f a a a h k l m k k f l h z k l l m l l z l m c z c l l l x v v k k k l l z x l k k v x l x l v l l l x x k x x l x x l x x x l c k k l l l x x c x l c c x x c x l v c x x x x x x x x x x x x c c x x x c c c x c c m x x m c c v m c x c c x c c x x ( c c x x c x x c l c c x x c x x ( x x x c c x c x x c x c c c c m m c x l x x c c m m c m c m x m x x c c c c c x c c c x c c x c l x l l k l l l c m c m m m m m m c c z c l m c z c x c c m c c c c c c c c c z z c z k z n l z z z m l z z z z c z z c c c c c c m b c m c z z c z m z m z c c z z c z z z z z z b z l c z z h j [ >.5.4.4.6.6.6.6.6.6.6.6.6.6.6.6.6.6.6.6.6.rX6.6.6.6.6.6.6.6.6.5.6.6.5.4.6.6.6.6.6.6.4.4.6.6.6.4.4.6.4.4.4.4.>.4.4.4.:.g MX",
"MXX o p f d p p d -     & :   X p : p p d e p e p p p d d a p d h e     : d f V   - w p p a h p a a h z a # o X X , o o o o o o o o o o o # o o # o o o # X # o o o o o X # o # o o o o o o o o o # X # o , o o X X o o o o o o o o o o o o # X o , o o o o X o o # o o o o o o , o o # o , # X , # o o o o o o o , o o o o o X o o o X # # # + o o o # # X # X # o o # # o o o o # o o # # o o o o o o o o o o o o o o o o o o o o # # X # o o o o # o o o # o o o o o o o o # o o o o o X o o o o o o o o o o # o o # o o o o o o o o o o o o o o o o o o o o o o o o # o X o o o o o o o o o # o o o o o o # o o o o # o # # o o o o o o # o o o # o o o o o o o o o o o o : b j k g g j M M M M z M M M M M b M M M C M M M M M M M V M M M C M M z N M M b M M M M M M b M M M z M b M b b M b M b b j j b _ MX",
"o X   o = - - - = O   = > =   X d d p e d p p p d d p p p p e d f p     ; p a V   - w p a a a a k a l a o   . . .     . . . . . X   . . . . . . . . . . . . . . . . . . . . . . . . . O . . . . . . . . . . . . . . . . . . . . . . . . . . . . . . . . . . . . . . . . . . .   . . . . . . . X . . . . . . . . + .   . . . . . . . .   . . . . . . . . . . . . . . . . . . . . . . . . . . . . . . . . .   . . . . . . . . . . + . . . . . . .     .     . . . . . . . . . . . . . . . . . . . . . . . . . . . . . . . . . . . . . . . . . . . . . . . . . .             .   X .   . . . . . . . .     .   .       .       .   . . . . . .   . .   .     .   .         .     . u c b k g f f k g g g g f h h f g g j g j g g g f f g u j g j u g k g g g g f f g f f f j f d h f d f d g g d d g d g d d d u u j M ",
"X X       . . O     O g - = . X d e e p e p d p d d a e p d p p h p     : f a `   - w p p a a a a c p o . . . + + + + + + + + + @ + + + + @ @ @ @ @ + @ + + @ + @ + + + @ + + @ @ + @ @ @ @ @ @ @ @ @ @ @ @ + @ + + + + + + + + @ @ + @ @ + + @ + @ @ @ + @ @ @ @ + @ + + + + + + + + @ @ @ @ @ @ @ @ @ @ @ @ @ @ @ @ @ @ + + @ @ + + + + + + + @ + @ + + + @ @ @ @ @ @ @ @ @ @ @ @ + + + + + + + + + + @ @ @ @ @ + @ + @ @ @ @ @ @ @ @ + + + + + + + + . + + + + @ + + + + + + + + @ + + + @ @ @ @ + + + + + + + + . + + + + @ + + @ + @ + + + @ + + + + + + + + + + + + . + + + + + + + + + + + + + + + + + + + + + + + + . + + + + + + + . + . + + + + + + + + + + + + . . . O w b j g k g z j j g z z z z k z z j z z c z g j j b j j z j b j z g j k g g h g g g g j f f h g g g j h g g g g g d g g g g d f g ",
"X O                 # j & -   X d e d e p p d p p p d d d d u d h f     : f f B   - ; w p p a a l a X . . . + + + + + + + + + + + @ @ + @ @ < @ @ < @ @ @ @ @ @ @ @ @ < + @ @ @ @ @ @ @ @ @ @ @ @ @ @ @ @ @ @ @ < @ @ @ @ < @ @ @ @ @ @ @ @ @ @ < @ @ @ < @ @ @ @ @ @ < @ < @ @ @ @ < @ @ @ $ @ @ @ @ @ @ < < @ @ @ @ @ @ @ @ < @ @ @ @ @ @ @ @ @ @ @ @ @ @ @ @ @ @ < @ @ @ < @ @ @ @ < @ @ @ @ @ @ @ @ @ @ @ @ @ @ @ @ @ @ @ @ @ @ @ @ @ @ @ @ @ @ + @ @ @ @ @ @ @ @ + @ @ @ @ @ @ @ @ @ @ @ < @ @ @ < @ < @ < @ @ @ @ @ @ @ @ @ @ @ @ @ @ @ @ @ @ @ @ @ @ @ @ @ + @ @ @ @ @ + + + @ + + + @ + + @ @ @ @ @ @ + @ @ @ @ @ @ @ @ @ @ @ + @ + + + + + + @ + + + + @ + + @ + + + . . . > g h u u u d d e f h h d g g f d d f f g f f f f g u u u u u f u f e f d d f u u f u u e d p d p d d p d d d d d d g d d d u u ",
"O X o .     X .     o h = -   X d e u d p p d f d g j d d e e d h h X   : f f `   = p p a a a a k o . + + + + 1 0 0 y 0 D D D D F D F F D F F F F D F 5 < < < < < < < 3 A S F F F J J J J F J J J J J J J F 8 1 < @ @ < @ < < q F F D F F D F J J J J J L J F F F S S 1 < < < < < < < 0 J D F J J J J F F F J H J J F J J F Z < < < < < < < < 8 D D F F F F F F F D F F D S D F F F S 1 < < @ < < < 1 8 F F J J J J P P J J J J J F J F F F 8 < < < @ < < < < 8 F F F F F F F J D S F F F S F F F S 5 < @ < < < 1 < 1 S F D F J J D F J J J F J F J F D J G < < < @ @ @ @ < q D D D F F F D F F F F D D D D S D D 8 1 @ @ @ @ @ < @ 5 0 0 A 8 D D A D G A 0 D G A A D 0 8 4 + + +   O # # # o o o o o # o o # o o o o % o o o o o o o o % # % % % o o o o # # o o # o # o # o o o o o o o o o o o o % o o O % O % o ",
": g N =   M j : &   % h - - O O d p p e d e X # o = = : d d p p n h X   : f f `   - e e s r r k p   . + + @ q N.M.C.C.V.F.G.V.F.V.Z.Z.Z.Z.A.A.Z.Z.H.J.M.F 1 4 < 1 1 8 y.C.Z.Z.A.H.A.H.J.A.A.K.K.K.|.H.H.H.H.J.N.5 < < 4 < 4 H t.Z.A.Z.Z.H.Z.K.Z.A.Z.L.A.K.A.K.A.K.J.H.N.0 1 1 < < 1 S B.Z.Z.Z.Z.Z.Z.K.K.J.K.K.K.A.K.K.K.H.J.J.~ 6 4 1 < 1 1 K F.H.G.G.J.J.J.J.J.K.G.H.H.G.H.H.G.|.H.K.~ 1 1 1 < 4 1 U C.J.J.V.Z.Z.Z.K.Z.A.A.J.K.J.K.K.K.H.L.V.P < < < < < 1 R B.V.Z.Z.J.J.H.Z.c.A.Z.K.K.Z.Z.J.L.J.J.F.F 4 < < 1 1 q ~ Z.V.H.H.H.H.H.H.K.|.|.K.K.K.K.L.L.H.L.N.5 < < @ < 1 K M.C.J.V.J.J.C.Z.Z.K.H.J.J.J.J.H.V.J.Z.J.0.6 < < < < < L M.J.G.G.G.G.J.F.G.F.G.V.G.G.G.G.G.J.G.C.' @ + .     o O O . O .                                                                                                                 ",
"% = z =   z u = o   % h - >   O d e p : g e . X X o . = p d p p h f     : f f `   & w w w p r k a   + + + < N.i.e.d.d.a.s.g.k.s.d.s.g.g.d.V.Z.x.g.g.g.c.t.8 1 1 1 1 ~ a.r.w.d.x.j.g.c.h.Z.x.V.Z.c.h.x.c.c.g.g.[.Q < 2 1 1 5 M.h.C.a.h.x.g.k.x.g.x.g.h.Z.x.n.Z.V.c.c.n.H.E 4 1 4 4 7 V.g.i.g.C.g.j.g.g.g.g.h.c.c.x.g.g.x.x.c.h.L.U 1 1 1 1 F B.i.a.g.g.h.h.x.c.b.c.k.n.c.c.g.c.c.c.s.n.;XH 4 1 1 4 S C.d.d.h.x.g.g.g.g.d.C.g.V.d.h.g.x.h.x.x.A.J.7 4 < < < J J.r.d.d.a.Z.g.x.k.j.n.p.g.c.h.c.h.h.c.j.c.F.8 2 < < 4 R C.t.a.j.h.c.s.c.j.c.h.a.g.h.h.b.j.c.c.j..X^ 1 1 1 < 0 C.g.i.d.a.d.d.d.s.g.d.g.g.g.h.j.g.g.g.i.g.|.R < 1 < < 0 K.s.d.j.g.h.d.g.j.j.d.h.a.f.g.h.a.a.d.d.d.F.P + + . . $ # o # # o         . . . . . . O O     . . .     .           O     o o o O   O O .   O . . .     .                         ",
"o . j -   z - o X   % j - -   O d e p p d p o - - : X = p p p e f f .   : f f `   - w r p a a k k   + @ @ 1 F.e.u.e.r.r.r.w.a.g.s.d.p.d.d.d.g.g.i.a.M.s.H.D 1 1 1 0 C.w.t.e.t.d.d.d.d.g.d.V.d.p.d.h.g.d.j.d.t.!.J.4 1 1 1 Z K.t.w.w.t.d.g.h.d.d.x.d.a.V.d.d.g.s.g.h.d.'.r.< 2 2 1 H :Xe.w.t.t.i.d.a.g.s.a.d.s.p.a.d.g.a.d.a.t.'.0.2 1 2 1 R H.u.t.t.a.h.d.V.g.d.a.g.a.h.g.a.A.a.g.g.w.%XS.3 1 5 $ U A.y.w.t.d.d.s.g.d.d.a.d.d.i.a.d.d.a.g.d.g.}.H 4 1 < < e.A.u.r.r.w.d.d.g.g.a.a.d.d.d.d.V.d.i.f.d.s.L.J 4 2 1 2 y.d.q.d.d.d.d.d.h.g.d.i.C.g.g.j.g.d.g.h.r.~.U.1 5 1 < H K.e.e.t.w.d.t.t.w.t.d.a.a.d.d.d.d.d.a.a.w.R.N.< 1 4 < U =Xe.r.r.a.d.d.d.d.r.r.r.d.d.r.d.r.r.r.t.0.j.0.@ + . . t - - - - #   o . o o o X o o o o # o o # o o # o o X O o O O o o # # # # # # # # # o # o o o o o X X X O O O O O           ",
"o X j =   j > # ,   % j > :   O d p p e g p & : : d X - p e d : h f     : f a `   - w w a w a x f   + @ @ 1 P.e.e.e.d.d.a.g.d.g.p.Z.C.s.Z.g.g.g.g.a.V.s.H.G 2 1 3 A C.r.e.d.a.h.a.h.g.c.g.g.g.g.h.h.g.c.j.s.B.z.-X1 1 q 1 Z |.w.w.C.i.s.V.d.c.x.V.g.s.x.h.h.Z.g.g.h.d.!.M.4 3 3 1 I oXe.t.d.g.g.d.Z.h.V.g.g.g.Z.x.c.g.g.h.n.t.R.y.2 5 2 1 T c.r.d.a.d.c.h.x.x.x.g.g.s.n.c.x.c.h.j.g.w.@XN.< 2 5 $ R '.e.w.d.g.a.g.V.g.x.g.h.d.s.d.h.g.h.g.a.d. XH 1 1 1 < r.v.u.d.d.h.d.d.g.h.g.g.g.c.j.c.Z.g.g.g.d.a.|.J 3 4 1 3 y.p.M.a.d.d.c.g.c.g.x.g.g.h.x.g.c.a.j.h.r.!.I.1 1 1 @ H |.e.r.f.i.d.d.d.g.d.g.d.d.h.a.a.c.x.a.h.a.D.y.< 1 1 < R }.e.f.a.g.d.a.g.d.d.d.h.d.d.h.d.d.d.d.g.0.s.N.< @ + o u t > w - -   X # # # # # # % # # % = = # # # % % # = = % # % = = = = = - - = - - = = - = = = = & % % % # # o o o     o o O ",
"o O g =   h - o o   & j > >   X d e e e g e # : p p X : e e d d h h .   : f a [   = t r w a a v k   @ @ @ q Z.e.e.w.d.p.g.x.g.g.p.Z.x.g.x.x.g.s.g.p.h.m.H.G 2 1 1 S C.i.t.d.Z.k.s.A.x.p.x.k.x.g.x.v.c.g.k.k.C.l.*X5 5 5 2 S {.d.w.V.p.c.x.Z.p.x.g.v.g.p.A.g.x.x.c.g.g.].d.@ 3 2 1 I %Xu.i.d.g.Z.g.A.x.g.p.A.x.x.x.c.k.a.k.k.V.~.y.3 6 9 1 W H.a.g.V.V.x.s.g.x.v.b.c.c.x.x.x.x.p.x.g.w.oXq.4 9 5 4 E '.t.a.C.i.s.g.p.s.V.c.x.x.k.c.x.g.c.x.g.h.}.K 1 2 2 < t.R.e.d.V.a.p.x.c.A.s.k.g.k.g.x.x.Z.x.g.g.s.{.J 2 2 1 1 t.p.C.s.s.g.Z.k.x.x.g.x.c.x.n.x.k.k.k.g.i.!.I.1 5 2 4 H K.w.a.d.i.d.i.Z.x.g.x.c.c.g.a.a.c.c.s.V.s.'.M.< 1 1 < R }.w.d.p.s.C.g.g.g.A.p.c.h.g.h.g.x.g.g.a.e.p.N.4 @ @ o u u w w e >     . . O X O O O O O O O O X X X O O O X X X X o O > > > : : e : : : : : : > > > > = > = = = % = # = O = X.o. .",
"o O h =   g - & o   & z > >   X g e e e f d & : e e O : d p d e h a     : h f `   = t w t a a v k   @ @ 4 q P.d.e.i.d.g.g.x.x.s.p.v.x.x.v.x.x.s.g.s.h.m.K.F 1 1 2 S Z.i.g.d.x.k.v.k.v.A.A.x.x.v.n.c.x.k.A.v.g.T.*X5 6 9 5 H |.d.i.x.p.k.v.v.k.v.v.A.x.x.x.k.k.x.c.c.h.[.d.4 9 q 3 I ;Xp.x.g.x.Z.x.x.p.x.v.v.v.k.c.b.c.x.x.p.C.R.M.9 6 6 2 T H.w.s.p.v.x.A.v.v.k.v.x.n.v.v.k.A.v.v.c.i.oXy.3 q q 4 ^ '.e.s.s.p.x.x.x.p.k.k.c.A.s.v.n.n.k.n.c.x.}.H q 5 q < y.Q.w.p.i.h.g.c.c.b.v.x.c.x.x.x.k.v.x.x.g.s.{.P 2 9 5 q M.x.t.p.x.x.k.Z.c.A.b.c.h.c.v.x.x.v.x.c.s.!.U.1 5 5 < H *Xr.i.d.i.s.A.x.p.g.x.s.b.n.x.k.g.c.p.k.i.].N.1 1 5 4 E :Xe.a.g.p.s.g.p.A.x.p.c.c.x.c.x.g.n.g.p.d.V.M.2 @ + o k r u w e : X                                                   : : > : : : : e d : : e p p : : > > > > - = = - = O = [ g j ",
"o . g =   d - & o   & j > =   O f d d e g d & : : p O : d e d e h a X   e f f [   - w e e p a ( k   + @ < q A.C.w.g.g.p.x.x.x.v.x.v.l.v.x.v.v.v.n.n.j.j.|.D 2 6 3 H Z.a.s.g.s.A.A.v.v.v.l.v.x.A.v.v.v.x.T.v.p.T.-X5 6 6 5 S |.h.g.g.Z.v.v.v.A.R.v.A.v.A.Q.v.v.v.b.v.h.].d.4 9 9 5 Y ;Xi.g.g.x.x.v.x.v.A.R.v.A.l.v.v.v.v.l.k.s.Q.M.9 q 9 6 E H.s.V.x.v.v.v.l.R.l.b.z.v.v.k.x.k.R.l.v.p.oXy.3 q q 4 S.'.s.p.V.c.c.x.v.v.v.v.v.v.x.v.z.v.n.v.n.g.$XL 3 5 q < d.'.w.a.a.c.n.c.k.c.v.v.A.x.v.k.v.c.v.k.g.s.}.P 6 2 5 q t.x.C.x.p.x.k.c.b.v.b.v.k.z.b.c.c.v.x.c.s.~.I.5 5 5 < H *Xw.w.g.x.g.v.c.g.k.x.p.k.c.v.n.x.x.c.p.g.].M.1 6 5 < E oXm.i.g.k.x.x.v.v.k.x.c.b.c.c.c.n.k.x.p.h.b.M.2 < @ + y u u w e e O .     .         O   .         . .                 : d : d e : e : d d : : : : : : : : : : > - - # : X = M f f ",
"o . g =   d : # o   & n : > O O d e p p h p & e : :   d d d : e h f .   e p a [   t w w a a r x v   @ < < q P.p.i.d.x.x.x.x.v.v.v.v.R.v.v.v.v.v.v.v.D.n.|.F 6 q q F Z.g.s.g.k.v.x.v.R.x.l.T.v.v.v.z.A.k.A.x.g.T.=Xq 6 8 5 H }.g.p.x.k.x.v.k.R.b.v.R.b.v.v.R.R.v.A.c.j.].d.4 9 5 5 Y 2Xd.g.x.x.x.v.v.v.R.R.v.R.v.z.v.v.v.v.k.Z.E.t.6 8 9 5 / '.s.s.p.v.v.A.v.R.E.R.b.R.b.l.R.v.v.l.l.s.oXy.3 q 7 4 E ].d.k.Z.n.b.v.R.v.R.R.v.v.z.v.R.b.Q.b.v.n.oXK 9 5 3 1 C.].w.a.x.c.v.b.n.b.v.v.v.b.v.c.b.z.v.v.c.s. XP 6 6 5 q t.n.V.s.A.x.x.v.v.n.v.b.b.b.n.z.v.n.n.v.s.~.I.5 5 5 < H }.i.a.g.x.k.x.x.k.v.Q.v.v.b.x.n.x.x.b.s.s.|.M.1 9 5 4 E :Xi.g.x.k.x.v.v.v.k.A.v.v.n.n.c.b.v.n.x.V.A.M.2 @ @ # u u r u d e . o = : e e e d d d d d d d d d d d d d d d d p d : j : : : e e u : = > : d d h d > = : e : : - - - : X = N f f ",
"o X g =   g : o o   % n - =   O g e p e h e # e e e   d d d e e f f     : f p [   - t e r r a x l   @ < 4 q P.s.p.p.p.x.v.v.v.v.R.z.R.R.R.b.z.b.v.v.c.b.|.F q q q J A.s.d.g.A.v.x.R.R.R.b.R.R.v.R.v.Q.v.R.z.x.T. X0 8 8 0 S }.g.p.A.l.v.A.T.v.R.R.Q.Q.R.R.R.R.R.v.v.c.].B.1 q 8 q Y 1Xs.g.k.x.R.A.v.v.R.b.R.R.R.v.v.v.v.x.l.A.E.t.0 8 q 7 / ].p.x.x.v.v.R.E.b.Q.T.R.R.R.R.R.v.v.v.v.x.oXt.3 q 8 3 E ].s.x.A.n.n.v.Q.b.R.R.R.R.R.R.Q.b.R.b.v.c.$XI q 6 6 < f.].i.j.j.v.D.Q.b.z.v.Q.z.R.R.b.R.b.b.v.A.k.}.P 6 6 5 0 C.l.V.k.Z.x.l.v.b.b.v.v.R.v.n.v.R.x.v.b.k.^.I.5 5 q < K :Xp.p.x.x.n.c.n.n.R.R.b.Q.R.v.b.v.v.v.k.s.[.t.5 6 6 1 E 2Xp.s.x.x.A.v.A.v.v.z.R.b.b.c.v.b.b.n.v.n.b.M.1 4 @ o v r d e f u O ; k V  ._ o...X.o.X.X.X.*.@.X.+.X.X.X. .X.X. . . .V : : : d d > : C  .o. . . . . .M > > : e > - = : o % M d u ",
"o . g =   g : & X   = j : :   X g d d p j e o e : u X e d d e : h f O   : f p [   - t w w a a x v   @ < 1 7 *Xk.d.x.x.x.Q.x.v.v.R.R.v.R.R.b.z.b.v.v.D.b.}.J 5 8 q J A.k.A.p.v.v.z.Q.v.v.R.b.E.v.R.R.v.v.R.v.Z.E.=X8 0 8 8 H }.c.s.x.v.l.A.T.T.E.T.E.~.v.].R.R.R.v.v.v.].f.1 8 8 q Y 1Xp.k.Z.v.v.v.v.R.R.b.b.Q.E.R.R.R.R.v.l.A.Q.t.0 6 9 8 / }.s.A.k.A.R.R.R.R.Q.T.R.Q.R.T.T.Q.R.l.z.s.@XM.9 0 8 3 E oXg.c.x.b.R.b.R.R.R.R.].].R.R.R.R.R.R.b.l.$XI 6 8 9 1 d.oXa.c.b.b.v.k.v.b.R.z.R.R.~.!.b.R.R.v.b.k.}.P 6 9 8 0 d.l.C.k.v.v.v.k.Q.R.~.b.v.z.R.R.R.R.b.b.k.~.I.5 5 q 4 K :Xp.g.h.k.v.b.b.b.b.b.v.R.R.R.b.v.R.v.l.k..Xt.5 8 6 1 W ;Xp.x.x.x.v.R.v.R.R.b.].R.v.R.!.b.b.v.v.x.'.Y.5 < @ o k u e p e e . t e d d g d g g g j h h h j h h j h h h h g h d h d : : d : % j *. .j d h j j j b V X.d o > : > - : O = M f d ",
"o   d -   d : & o   & z - -   X f e d : j p # e : e O e e : e d f d     e p f `   = w w p r k x v   @ < 4 q *Xv.p.C.v.x.v.v.Q.T.R.R.R.E.R.R.T.b.R.z.G.z.}.L 9 7 9 K A.x.x.x.v.v.R.v.R.R.R.R.R.R.R.b.R.l.R.v.k.E.=XZ 8 8 5 H .Xc.A.x.l.A.R.Q.E.Q.Q.~.R.v.].E.R.R.R.R.v.oXd.5 0 8 5 T 1Xi.g.x.Q.v.R.R.(.Q.E.~.~.R.R.~.Q.E.T.T.x.E.M.D 7 D q / |.s.b.A.v.Q.R.v.R.E.R.E.W.~.(.Q.Q.T.T.R.s.oXf.2 9 7 3 Q oXg.v.Z.v.R.R.R.].~.].].(.~.R.R.E.].R.z.b.%XI 6 7 8 1 d.oXp.b.b.b.c.R.'.R.R.R.E.'.E.R.R.!.b.b.b.n. XP 8 q 8 0 d.v.V.k.c.b.R.x.R.R.E.R.b.R.R.R.~.Q.l.R.k.(.I.7 7 7 1 K :Xk.x.c.c.b.R.R.!.!.z.R.R.R.R.R.b.b.b.b.v.XXy.5 8 6 1 E 2Xp.Z.v.k.v.R.z.R.R.R.b.R.R.R.b.'.!.n.b.n.R.Y.5 1 < o v e d e u : . : > > : : : : : : : : : : : : : : : : : - : : : - : : : : % V %.j e p e d : u u d d j X.M O = : - e O % M f d ",
"o X d =   g - o o   & j - :   X f : p e j p & : : e O e d e e e h f X   : f f `   t w p w r a x l . @ < 3 A P.v.p.x.v.v.Q.v.E.E.].E.R.R.R.R.!.b.l.T.D.R.}.J 9 8 8 H Q.k.x.A.v.v.E.R.].R.R.R.].E.R.E.~.v.b.R.n.E.$XG 8 8 7 H .Xc.v.x.l.R.Q.E.E.].W.~.].E.].E.Q.R.z.R.z.XXB.2 0 8 q T 2Xk.x.v.v.R.R.E.].W.Q.~.(.E.].E.E.v.l.R.A.].t.0 8 0 8 Q oXk.c.v.R.E.R.~.~.].].~.].(.oX(.Q.E.R.R.k.oXC.q 8 7 3 S.}.k.v.v.z.R.E.~.].(.(.^.~.].~.R.R.R.R.R.R.%XI 6 8 8 1 j.oXs.c.b.b.v.R.b.E.~.^.~.~.!.R.~.!.b.l.b.k. XU q 9 8 8 Z.v.x.l.A.R.R.E.].R.E.R.].E.~.R.R.R.R.b.l.).I.8 8 q 3 H ;Xx.x.b.v.R.R.R.!.^.~.].E.R.XXE.b.b.b.b.n.oXt.5 7 6 2 ! 2Xp.v.v.Q.T.R.R.R.Q.~.E.R.!.R.R.!.b.b.v.s.R.Y.6 4 @ o v r e e d u . : e > : : : : : : : - > : > > - : > > : - - : : : : : : =  .X.u > > : e u u u u u u u d [ b o = > : O % M d f ",
"o . g =   h > # o   , n : - O O h e d p j e % : e e X : e p e e h f .   : f f V   & t r w a a ( k . < < 1 7 *Xn.x.x.c.z.!.~.[.^.~.).).^.^.^.~.R.R.R.v.z.{.L 6 8 8 L |.l.n.c.b.!.!.[.^.^.[.OX[.^.^.).^.R.R.T.R.W. XA 8 A 8 H :Xb.b.v.R.~.~.XX).).XXOXOX^.OX^.^./.R.R.v.oXf.5 A A q T 1Xl.b.b.z.!.~.^.^.XX~.OX@X(.).~.~.~.R.T.H.~.C.8 7 8 8 S.+Xn.l.b.!.^.^.+XOX#X1X`.`.`.OX`.).R.E.E.n.%Xf.q 0 8 9 S.oXn.z.b.R.~.).).OX@X^.^.^..X`.~.~.!.R.T.!.%XI 9 8 7 1 f.XXc.c.R.l.!.].^.^.^.#X).).OX^.^.!.!.b.b.!. XU 8 q 8 0 V.R.Z.k.b.E.R..X^..X^.^.+X^.^.^.^.!.z./.z._.I.8 7 6 1 K $Xz.b.b.v.~.[.^.^.+X).OXOX[.XX^.^.!.b.!.v.OXM.7 8 8 5 W 2Xm.l.z.R.l.^.^.^.^..X^.^.^.^.[.~.b.D.l.n.!.F.6 4 @ # v w u w u r O > t ; t > > ; : - : - - - : : - : - - : - : : : : : : = B  .e - : : : - - - > : p u u : u B d o > : X % M d d ",
"o . f -   h > # X   % n - :   O d e d p j e & : e e   d p p e e h h .   : f f [   - > w w r a x k . < < 1 Z *Xv.c.c.R.R.^.OX#X#X1X3X&X&X@XOXOX!.!./.!.z..XL 8 8 0 L |.b.l.l.R.~.$X>X+X#X<X&X#X&X#XOXOX~.R.T.R./. XS Z S A L oX'.b.R.!.XX+X<X&X#X>X3X>X3X&X#X^.~.R.E.T.oXh.5 8 8 q T 2Xn.R.!.E.XXOX#X#X<X#X3X3X3X#X<XOX~.E.E.b.).f.A Z 0 8 9.XXk.b.R.~.OX#X,X3X3X8X3X3X5X>X#XXX~.E.~.z.1XB.8 0 Z 3 8.@Xb.R.D.~.`.#X3X<X3X<X,X<X<X<X#X).~.E.E.~.%XY 8 8 8 5 D.%Xb.R.R.R.OX#X#X>X#X4X1X<X3X+X+X[.E.R.R.~.$XU 8 0 A A G.T.c.l.R.!.OX.X>X>X<X<X<X<X>X>X<X^.R.T.T.`.I.Z 8 8 1 I 2Xz.b.b.R.).#X#X>X>X<X<X3X>X<X#XOX~.R.!.R.@Xt.7 8 6 1 W 7Xk.b.l.R..X+X<X+X+X>X<X#X#X#X#X).~.T.z.c.T.F.6 1 < # v u u u u u O ; > > > - - - ; : : - - - = - - - : - - - - : : - - = :  .d ; : e : , O O , X O , : u e : p M = O :   o j d d ",
"o X h =   f > # o   % j - :   O d e p : j e & : : p . p p p e e f a X   : f a V   = w t r r a x k   < < 2 Z *XR.n.b.!.~.>X>X,X6X3X8X5X5X,X,X&X^.~.!.!.z.}.L 7 Z G K [.R.D.R.R.^. X8X,X5X,X4X8X8X3X3X3X).T.T.D.(. XS G G Z L %X!.R.R.!.OX3X8XwXwX9X9X8X8X4X3X#X(.E.~.R.oXf.q A 8 q T 7Xz.!.~.^.&X<X8X8X4X6X8X9X8X8X4X<X).E.E.b.XXh.F 7 0 Z 9.OXT.~.z.^.<X,X8X9XqX0X8X8XqX9X8X#X(./.~.T.1Xf.8 0 S 9 S.XXb.R.!.OX#X6X8X5X5X9X8XtX5X8X3X@X~.].~.!.&XY 8 Z 8 5 j.@Xz.!.R.^.&X,X,X5X9X0X8X8X8X8X<XOX^.!.!.D.$XU A 8 Z A G./.D.R.!.~.<X<X,X,X,X,X,X,X5X,X>X).!./.(.`.I.Z Z 8 1 I 2XT.!.b.^.#X,X8X5X8X5X9XwX5X8X4X<X^.z.~.!.@Xf.7 8 8 2 W 7Xl.R.!.~.+X,X,X5X5X9X5X5X5X4X>X#X~.R.z.v./.Y.6 1 @ o v u w u u e . > t : > - : : - : : - : - : - : - = - - : - : : : : o C z ; ; : - X   i s ] ] s , X > d e : h d O - O % n d d ",
"& . h =   h - # o   % j - -   O g d e e j d % : : p X e p e p : h a     : p a B   $ - w w a a x k   < 1 1 Z *XD.k.b.~.XX6X9X8X8X8XwX0X0X8XwX4X`.~.!.].^..XU 8 A A K }.R.z.z.R.[.,X8X8X8X9XqXqX9XwX9X6XOX^.T.D.(.;XS Z F S L %X!.b.R.!.&X9X9XqXqXqXwXtX0X0X4X<X).].~.E.oXh.8 S 8 8 / 7XT.!.~.^.<X8X0XqXqXwX8XwXtXwX0X4X@X^./.R.@Xf.D 8 0 8 9.%XT.!.~.^.3X8X9XqXtXtXqXqXtXwXwX3X).~.(./.7Xf.8 0 Z 9 S.OXb.R.~.#X4XwXwXqX9XtX9XtX9XqX8X&X).~.~.~.&XY 0 Z A 7 j.1Xz.~.R.).>X8X0X9XtXqXqX0X0X8X>X<X^.D.~./..XU 0 8 Z Z D.!.D.~.].).3XtX8XtX8X9X9XtX9X5X4XOX^.(.(.1XI.S 8 Z 1 I 2XR.R./.XX>X9XtXtXtX9XtXqX8XqX5X4X+X^.!.!.@XF.8 6 8 5 W 2Xl.!.R.^.OX,X9X9X8XtX8X8X9X5X,X#X).T.z.c.^.F.6 2 @ # v w u t e e   - t > > > - : - - : = : - : - - - : = : - : : - : % =  .u ; ; : X X ] | aXaXdXdX| * X e e : e g % % O % j e d ",
"o X d >   g - & o   % h - -   O d : d e h p % : : : X e e : p : f f     : p f `   = - t r r a x v . < < 1 Z *X!.k.b.~.@X,XwX9XqXqX0XqX0X8XqX>X).~.~.~.~..XU S Z 8 K }.R.T.R.].OX8X9XiXtXiXiXtX9XqX9X3X@X(./.^.(.;XG G D S L %X!.b.R.(.>XwXqXwXqXtXtXqXtX0X8X3X_.(.^.~.@Xh.8 D Z A T eXT.~.~.).3X9XtXqXiXtXtXtXtXtXtX8X1X(./.!.XXh.D 8 8 Z 9.%Xz.R.^.).4XwXqXtXyXpXyXpXyXtX0X5X).(._./.1XF.7 0 A 9 9.#XE.~.~.OX4XqXtXtXtXtXyXtXtXtXqX3X^.~.(.~.1XY D F G 5 D.1Xz.~.~.`.8X9XtXqXtXqXtXqX0X8X8X4X)./././.=XU G A 8 0 D.^.'.T.~.`.4X9XtXtX5XtXtXtXtX0X0XOX^./.~.1X{.Z G 8 2 I 7XR.R./.^.>X0XtXtXyXtXtXqXtXtX9X4X&X(./.R.@XF.7 0 8 q W eXT.R.E.XX<X8X9X9X9XtXwX9X9X8X5X#X).~.!.z.~.Y.8 2 @ # v t u u e e O > : - ; > - - - > > > : : > = = : = - - - : > - :   : M : ; e &   ] aXdXsXhXaXsXhX| * = f e : h > O X % j e e ",
"o   g -   g - o X   % j > =   O d p p : g g o e : e   d d e e e h f     - f f `   = t t w w r x k   < < 1 7 *X!.l.b.~.#X,XqXqXtXtXqXqXqX0X8X<X^./.~.^./..XU S S 0 K [.!.E.~.XX@X9XtXtXiXiXtXtXtXqXqX5XOX^.(.!.(.;XG S F S L &X~.!.~.(.&XwXqXqXtXpXtXtXpXtX9X#X_.~.(.E.@Xh.8 G A A T eXR.!.~.).3XqXqXiXuXtXpXiXtXtXtX8X#X(./.R.).h.G S 0 S 9.+XT.E.).).3X9XtXyXpXyXyXpXyXtXqX4X@X(././.1XF.8 8 Z 9 q.&XR.~.(.+X8XtXtXpXpXtXyXtXtXqXwX3X(.(.(./.1XY 0 S D 5 G.1XD.~.~.).8X9XtXtXtXtXpXyXqX8X9X3X`.~.!.~.$XU 0 G Z G D.(.'.T.(.OX4X8XtXtXtXtXtXtXtX0XqX`.~.~./.@XI.Z G 8 6 I 2X!.R.!.).>XtXtXyXyXuXyXyXyXqX0X4X`.~.^.!.`.f.7 A 8 5 ~ eXE.R.E.).3X8X9XtXtXqXtXtXqX9X5X3X).~./.b.~.Y.6 2 @ o v r t r e e O % # # # # & & & & & & % = = = % = o & = : - - : =   g j - ; p X i | aXdXgXfXfXsXsXsX] o d e : d :   . o n e p ",
"o O d >   g - # X   % j > >   X V z g d j d = : : e O e u e e e f d X   - f f `   = w w w r a v k . @ 1 1 8 }.!.z.R.R.%X,XqXqXtXtXqXqX0XqX8X3X).(.(.~./.$XU G S A K  XE.R.~.^.+X8XiXtXiXiXiXtXtXtXwX3X).(.~.!._.;XS G D S L %X^.!.R.^.#X8XqXyXtXpXpXyXyX0X9X&X(.(.~.E.1XD.8 D Z 0 T 8Xb.E.^.).3X9XtXyXyXtXpXyXyXtXtX8X@X(././.(.h.S S 8 Z u.OXT.E.~.(.>XqXtXtXpXyXyXpXyXqX0X4X_.(./.!.1XF.8 G S 9 q.&XR./.oX@X8XtXtXpXpXuXyXuXtXqX9X>X~.).(.~.3XR 0 S G 7 G.%Xz.~.(.`.4X9XtXyXtXyXpXyXtX0X8X<X(.~.].E.$XR G G Z D D.(.!.~.~.).3X8XtXtXtXuXyXtXtXtX0X@X(.).T.`.I.Z 8 8 6 I 2X/.R.^.).<X0XtXyXiXpXpXyXpXyX9X4XOX/.^./.`.Y.7 8 A 5 8.eXT.E.T.).,X9X0XtX9X9XqX9X9X9X5X<X)./.D.b.~.F.6 2 @ o v t u u e e X o .         X                         o : - - - =   n d : : :   i } aXgXfXgXjXhXsXsX} , p e : : d     & h : p ",
"o   h =   g - o X   = j - :     : : = & : : = : : e   d u e e e f f     : d p ` . * $ w w r a x k . < < 1 8 =XE.k.!.~.+X6XwXqXqXtXtXtXqX0XqX3XOX~.~.^.~.$XU D Z A K }.E.~.~.(.#X5XtXtXuXuXtXtXiXqXwX3X).)./.D./.;XS Z A A L %X'.D.E.E.&X8XqXtXtXiXiXyXwX0X0X#X(.(.~.!.1Xh.q D S A / 7Xv.E.^.).>XqX9XyXiXtXyXyXyXpXtX4X`.(./.^.~.F.G Z 8 8 u.$X!.~.~.(.3XqXyXyXyXpXpXtXyXqX8X3X).^.^.R.1Xf.7 0 S 9 q.1XR.E.).#X4XwXpXyXpXuXyXiXtX9X5X#X~.(./.~.1XY D S G 7 G.@XT.~.(.).,X0XtXtX0XyXtXqXyX8X5X#X(./.[.E.$XR G G G G G.(.D./.~.^.>X8XtXtXyXuXtXtXtX9X4X@X(.~.~.@XI.Z A 8 1 I 2XR.~.~.^.+X9XyXyXiXiXyXtXpXtX9X,X).^.~.T.`.f.7 8 8 5 W eXz.!.!.^.4X8X9XyXyXiXtXtX9X8X,XOX^.^./.l.!.F.6 2 @ . v r u r e e O o X . O . .       . . O .   X .     X % : - - : o   M p : : i X ] dXhXgXhXgXjXgXhXsXdX, d p > u d .   o j : p ",
"o O g -   d - o o   o z - =   o M d > = e j % : : : X d u : e e h f X   : p p `   = - t r w r v k   < 4 2 8 -X!.l.T.^.OX9XtXqXtXtXtXiXiX9X9X6X^.(./.]./..XU Z Z 0 K [.~.R.!.(.#X8XtXiXuXiXiXtXtXqXwX8X~.W.E.'.(.=XG S D Z L &X].R.R./.#X9X0XtXtXyXtXyXqXtXwX#X).].E.E.@Xc.9 D S S / 7XT./.~.(.3XtX9XuXiXiXiXyXyXyXtX4X1X~.W.]._.f.Z G 7 Z q.%XT.~.~.OX3XtXtXtXyXpXpXpXyXtXwX3X`.(.~.).1XC.9 0 Z 0 0.1X!./.~.@X5X9X0XyXiXuXpXtXtX0X9X#X_./.~.).1XY D S A 7 D.@XT.~.E.oX4XtXtXtXtXpXtXtXtXqX5X@X_./.~./.;XR D D S G G.^.!./.!.^.,XtX5XtXyXtXtXtXtX8X>X@X~./.~.@XI.7 8 Z 6 U 2XE.~.~.^.,X9XyXpXyXiXyXyXyXtXwX4X#X).^.!.@Xf.7 8 8 1 Q eXl.~.E.~.<X5XqXiX9XtXtX9XwX8X<X#X^./.~.b.!.Y.8 2 @ # k t w w : e O = # o # o o o o , o O o X o # o o X o = : : - - o   z p : : : X s aXaXaXgXgXgXhXhXaX} * p : > e u     % g e p ",
"o   d -   g - # o   & j : -   X n d d : g e & e : : X d u : e e f f     : p d `   & - t r w r v k   @ 2 2 7 =X!.z.z.~.OX8XtXqXtXtXtXqXtXqXwX3XXX(.~.].!..XP A 8 A K }.~.R.].^.#X8X9XiXuXtXuXtXtXqX0X6X).~.R.E._.;XZ G G Z L ;X!.'.!.(.&XwXtXtXtXyXtXyXtXqX8X<X(.(.(.R.@XV.9 F D S / eXT.~.~.(.3XqX9XuXiXiXuXyXtXtX0X5X#X(.(.!.@Xf.A Z A 8 9.$XT.R.~.).,XtXtXyXyXpXyXpXpXqX8X4X_.XXE.~.1Xd.0 S Z 0 q.&XD.^.^.@X8XtXtXtXtXuXuXtXtXqXwX<X(.~./.^.&XR 0 S A 7 F.1Xz.R.~.).>X9XtXtXtXpXtX9XtXqX5X@X(.~.~./.;XU 0 A 8 G D./.L./.~.OX,XtXtXtXtXtXtXtXtX0X5XOX~.(./.`.I.Z S A 9 U 2X!.R.~.^.>XwXyXyXtXyXiXqXtXtXqX8XOX~.~.R.@XB.8 0 8 5 Q eXl.R.~.^.#X5X9XwX9XtXtX9X9X9X4X<X).!.D.b.^.U.6 1 @ o k r w u u u O = - = = = = & % & = = = % # & # = X & - : : = = o   g d - > p , i } aXdXaXhXgXhXaXdX] X b > > : u     o d e : ",
"o   d =   g - # o   & j - -   X h p p e g : & : d :   p e e e e h d .   : f a `   & - t w a a v k   @ 4 2 Z =XR.l.z.~.OX4X9XqXqX9XtXtXtXqX9X3X).~./.'.!. XK A Z A K }.!.E.~.~.#XwXwXtXiXiXqXtXtXqXwX4X@X~.W.R._.;XS Z Z Z L $X!.!.].~.&X8XtXqXtXyXtXtXtXqXwX1X).E.~.R.@XV.8 S D 0 8.7XR.!.^.).,X9X9XtXtXyXiXyXtX9X8X8X#X).W.R.XXF.S Z A Z Q oXT.!.~.XX3XtXtXtXyXyXyXtXtX0X8X3X_.)./.!.1Xf.0 A S q u.<X!./.XX#X8XtXtXtXtXtXiXtXtXqX8X3X(.^.!.~.1XY D G S 5 h.1Xl.!.~.OX>X9X9X9XtXtXtXtX8X5X8X#X(.~.^./.$XU G D 8 D D./.!./.!.OX5XtXtXtXtXtXtXtXtX0X9XOX(.~.R.`.I.S G 8 q I 2X!.~.^.~.#X8XtX0XtXtXyXtXtXqXqX3XOXT.~.!.@XB.7 G 8 5 Q eXR.Q.~.^.#XwX9XwX9X9X9X9X9X8X5X<X^.~.!.b.!.F.8 4 @ o v w u w e :   : > - = = = & = & % = % = & # & # X o - - - - = o   : d - = e = , ] dX} dXaXaXdXdX| i > M = > e :   O o d : : ",
"o O f -   g > # o   & j - - . X d p p : h e & : : : X d e e : : f d .   : p a [   $ - - w r w v r . @ 1 1 7 =XD.k.R.~.#X>X8X8XwXwX9XtX9X9X9X4XOX~.T.!./..XP A Z A K }.E.].~.R.+X9X9XtX9XtXqXwXtX0XwX4XOX~.~.Q.W.;XS 8 8 Z L %X^.!.].~.#X8XtXtXqXtXqXtXtX8X8X3X_.E.~.R.@XZ.9 S A 0 T eXz.R.^.).<X9X8X9X9XtXtX0XtXtX8X4X#X).~.~.`.h.G 8 Z Z 9.%Xl.R.R.XX>X0X9XqXqXtX9X9X9X0X8X3X_.~.~.E.1Xd.8 A Z 0 q.2X~.~.^.#X5X9XtXtXtXtXtXtXtX9X5X&X_.~.E.~.3XY 0 D A 7 c.#Xv.!.E.OX>X8X9X9XtX8X5XtX8X5X5X+X^.!.^.~.$XR S 8 Z D L./.L./.!.OX,X8X8X9XtXtXtXtX5X9X4XXXR.E.R.`.I.Z G A 6 K 7XE.b.!.^.+X4XqX0XqXtXqXqXqXtXwX,XOX/.!.E.OXM.8 8 8 5 Q 7XT.R.E.!.<X8X9X9X9X9X9X9X8X6X>X+X~.!.R.D.'.F.6 1 @ o k r w u u : X : - g C .. . . . . . .X. ...[ V M j B h - - - = &   o h - = > e , * ] } } dX} } } s i B e > > : %     % d : : ",
"o . f -   h - o o   & j - -   O f : p : h e % : e - X p e : e : f f .   - p a `   # = w w w w k a . @ 1 4 7 -X!.n.b.b.~.,X8X6X,X9X8X9X9X8X9X<X^.E.R.R.E..XU D 8 D K [.R.'.b.!.OX6X8XwX9X5X9XwXwX8X6X,X^.R./.R.(.=XS A Z A H %X^.!.b.~.#X4X9X0X9XtX0X0XwX,X8X#X^.E.!.R.@XF.5 S S 8 T eXD.b.!.!.<X8X8X9X9X0X9X0X0X0X5X4X#X~.W.R.XXf.D Z 0 8 9.+XT.!.R.!.+X8X5X5X9XwX8X8X9X8X4X+X].!.~.R.1Xf.0 Z 0 6 u.@XD.R.R.OX3X9X8X0X0X9X9X9X8X5X4X#X^.].E.~.;XY 8 G 8 5 h.1Xk.b.b.^.#X,X5X9X9X9X9XtX5X5X5XOX/.!.!./.$XR 8 Z A D G.~.'.z.^.^.>X5X8XtX8X9X8X9X5X5X>X^.R.!.b.@XI.Z 7 A 6 K 2XR.b.R.~.OX4X8X8X9X9X9X9X9X9X5X<X[.R.!./.+Xf.7 A Z 5 Q 7Xz.b.v.^.+X,X8X8X6X,X9X8X6X,X>X+X~.D.!.c.!.F.6 4 @ o v w u r e e . : - e j B B B M B B B B V V N M j j n p : : - = &     d : = : : d , * s ] ] ] ] i % V M > = > : O O   o g > e ",
"o   d =   d : # o   & g = >   X h p e : h : % : : > O d e : e : h f X   - p p `   # $ t w r r k k   @ < 1 7 =Xz.n.b.b.~.<X8X,X,X,X<X,X3X4X4XOX~.R.R.!.R..XK 0 Z S H |.z.b.n.v.[.,X<X,X8X6X9X8X8X,X<X+X~.R.E.R.(.$X8 A A 8 H ;X!.b.b.R.^.<X3X8X8X5X5X,X6X,X&X+X!.R.R.R.oXG.6 G G 8 T 7X!.!.!.b.OX3X,X6X,X9X8X9X8X4X4X#X`.R.E.b.XXf.F Z 8 Z ~ OXk.!.b.!.#X3X3X5X4X8X8X4X4X<X#X[.E.!.R.l.1Xf.0 0 S 9 S.%Xb.z.T.~.OX6X8X,X,X8X8X4X,X>X+XOX!.~.T.!.1XY 0 A 8 1 h.oXk.b.b.!.OX+X,X,X,X5X8X8X,X,X,X).D.l.b.z.;XR 0 A 8 G G.z.A.T.D.!.+X<X5X,X<X,X,X,X,X#XOX/.!.!.z._.I.Z 7 8 1 I %Xv.R.z.!.[.<X,X,X,X3X,X5X>X,X<X#X~.z.R.D.OXM.8 8 Z 5 Q 7Xk.b.!.'..X<X6X,X6X<X#X#X,X#X#XOX!.l.!.b.~.F.8 2 @ o v t t u e e . = ; ; : e : p : : : : : e e : : : : : = : = - = = X   = p : > = d j = , % * * , *  . .: > = : =   O O O g > e ",
"o O d =   d - & o   = j : >   X h : p : h e & e : > O p e e : e f p X   : p d `   # = - w w r k k   @ 4 1 7 -Xl.s.c.v.!.^.OXOX+XOX.XOX+X+XOX^.D.b.v.A.z..XL 8 Z G H |.R.n.k.b.!.[.OXOXOX+XOX+XOXOXOX^.'.z.R.z.W.;X8 8 Z 8 H ;XD.b.b.b.!.^.OX#X#X+X+X#X@X+X^.!.!.R.T.R.XXh.8 A A 8 T 1Xl.b.b.l.^.#X[.+X+X#X#X+X#X<X#X^.^.R.T.Q.XXf.D S 8 8 S.[.k.v.b.!.^.OXOX#X&X#XOX@XOXOXXX~.E.T.R.l.1XC.7 A S 9 9.@Xc.z.b.R.^.OX<XOX+X<X<X+XOX).^.~.R.!.z.b.;XI 8 8 7 5 j.oXk.b.b.'.!.].OX#XOX.X+X<X+X.XOX~.!.b.b.z. XU 8 D Z G D.R.D.z.D.D.^.^.+XOXOX.XOX+X+X^.~.b.!.b.z._.I.7 8 8 1 I %Xv.b.n.b.!.^.OXOXOX+X.X#X+XOX).^.!.!.b.n.@XM.8 Z 8 5 E 2Xn.n.n.b.!.^.OXOXOXOX[..X[.~.^.D.b.b.b.c.!.F.5 1 @ o v w t u p > X = ; - - : - - - : = - - - - - - = - = - = - - = # o   X d : > > : g M V j d j B  .V u > > : : X   %   o g : u ",
"o O d =   d : o o   % j > =   X h e : ; h e & : : = O p p : : e f f     > p f V   # - t w w r x u   @ 1 1 7 -Xn.s.n.c.b.b.~.~.~.^.~.~.^.^.~.!.b.b.c.b.z.}.P 8 Z G K |.z.n.n.R.R.'.~.^.^.!.[.~.^.^.!.E.!.b.z.v.E. X7 8 8 8 H $Xb.n.n.b.R.!.~.~.OX).~.~.~.^.!.!.R.v.T.v.oXh.q A Z 7 T 7Xn.v.k.n.R.~.~.~.^.~.^.^.^.~.[.!.!.z.l.A.].f.G Z D Z Q }.n.H.b.D.!./.~.).).^.^.~.^.^.~.R.R.z.z.T._.C.8 0 Z 9 S.oXc.b.v.z.!.!.^.~.^.^.^.~.^.^.~.R.R.b.b.v.%XI 8 8 8 5 d.oXs.b.!.b.~.~.!.^.^.!.^.^.^./.D.z.z.b.'.z..XR 0 G 8 0 G.!.G.l.b.b.!.!.!.!.!.^./.~.^.!.!.l.b.D.l.(.I.Z 8 A 5 K :Xk.v.k.v.b.~.^.^.!.^.^.^.^.^.~.~.!.b.b.b.XXt.8 8 8 5 8.2Xm.g.n.b.!.b.!.!.!./.^.~.~.R.!.b.b.n.c.s.!.F.5 4 @ + u w t u e :   - : = - ; - - - - - > = - - - - - - = - - - = = = o .   = d : : : > d j M M M b d > > > > e %     = O O g : u ",
"o . f =   d - & o   % j = -   X f p e : h p & > : - X p p e : e f f     ; d d N   * $ - w w r v k . @ < 1 7 *Xk.p.x.v.R.z.R.E.].E.].~.~.~.R.R.b.v.v.c.b..XJ 8 8 A K |.n.c.k.b.R.].R.~.~.~.~.R.!.!.R.!.v.A.T.x.E.:X7 A 0 A S oXv.k.c.z.v.R.].R.~.(.].~.~.E.R.R.!.l.z.v.oXV.q A Z 7 Y 2Xk.v.l.z.v.R.E.~.~.Q.E.~.~.E.R.Q.R.v.z.c.W.f.D Z 0 8 / [.s.v.v.v.Q.E.~.(.^.E.!.R.~.R.v.R.Q.R.v.x.1Xi.7 0 Z 9 / OXk.v.v.b.R.R.R.R.R.E.E.~.~.~.R.R.R.k.z.v.$XI 0 8 8 5 a.oXs.b.b.b.R.R.R.^.!.!.!.~.!.~.b.D.b.b.!.b. XR 8 D 8 0 V.b.G.l.c.b.R.b.R.~.~.].E.!.R.R.R.v.b.b.c.(.I.Z 0 A 2 K ;Xk.x.b.b.b.b.E.~.!.~.!.!.~.R.!.R.b.b.'.c.XXM.8 8 8 6 W 2Xi.g.x.Q.R.Q.R.R.R.R.~.R.R.R.z.b.v.c.x.x.!.F.7 4 @ o k t u t u >   - - = > > : - - - - - - - - - - - - - = - = > = = o o     = e p > : > > : u e : : : : e : o     O =   o d > e ",
"#   f -   d = & X   & z - -   X d : p : h e = : e = X p : : d : f p .   ; e a B   $ - t w w w k a . @ < 1 7 -Xk.p.x.v.A.z.R.R.E.R.R.R.b.v.R.].b.b.k.x.l.[.U 0 8 A H |.b.x.g.b.z.].R.R.~.E.!.!.!.R.R.R.n.v.v.g.T.:X7 7 7 8 H }.n.n.v.x.R.E.(.R.b.E.E.E.~.R.b.!.'.v.z.z.oXg.5 A 8 8 Y 2Xk.k.s.A.v.v.R.R.R.E.R.~.Q.R.R.E.v.R.l.v.].f.D 8 9 8 / }.k.p.x.A.R.R.R.R.R.R.R.R.R.R.R.R.v.z.R.k.oXC.q q 7 9 Q XXg.k.Z.z.R.b.R.R.Q.R.R.E.!.].R.R.R.z.v.n.:XI 8 8 0 5 a.oXp.c.b.x.k.R.b.z.b.R.!.!.!.!.R.b.b.n.n.z. XU 8 0 8 8 G.l.V.n.c.b.v.Q.b.R.R.R.R.E.R.b.Q.z.b.b.b.(.I.7 A 7 q H :Xn.k.n.b.b.!.v.R.!.~.!.!.!.b.].v.k.Q.b.v.+Xy.7 8 7 1 W 2Xi.g.x.v.R.Q.b.R.v.v.R.R.R.R.b.n.x.j.g.g.'.M.5 4 @ o k t w u w >   - - - > - - - - - > * > - - - - - - - - - > > = % % o .     o : e : = : > > > > : : : > o     O o >   % h : e ",
"o   d =   d - # X   % j = >   X h p d : g p = : : = . e : p e : f d O   ; e p N   # - t w w r k k . < < 1 5 *Xk.p.x.n.b.l.v.R.R.Q.v.z.R.b.!.b.v.c.x.x.b.{.K 0 8 A H A.A.s.k.b.b.R.v.R.v.b.!.R.v.R.D.v.R.v.v.x.T.:X7 7 7 7 S :Xv.x.s.v.R.R.R.v.R.R.R.b.R.R.R.Q.v.v.R.x.].h.q 7 Z 8 Y 2Xg.k.x.n.p.A.R.R.R.R.R.R.R.z.R.R.v.v.R.x.].t.G A 0 7 / |.s.s.A.A.z.'.R.R.R.R.R.R.R.v.Q.R.v.v.v.p.oXC.q 8 A 3 8.oXd.x.x.b.b.v.v.R.R.R.R.v.R.b.z.v.n.b.A.k.oXK 0 8 0 1 s.}.i.k.b.v.n.b.b.b.'.n.!.b.!.v.b.v.v.n.n.k.}.U 0 0 8 8 h.z.V.k.b.v.v.b.v.c.R.z.Q.k.b.v.x.R.b.b.b.(.U.7 A 7 1 K :Xk.k.n.v.b.v.b.!.R.D.R.b.z.b.b.v.k.A.k.c.XXt.8 0 8 6 E 2Xp.g.x.v.x.v.A.v.v.v.c.b.v.Q.n.n.b.c.n.a.v.C.5 1 4 o y r t w w >   - - = - - - - - - > - - > - = = - - = > - > > > * % & o       X = p : : : : : e e : % O     O o % >   % j : : ",
"o O f =   d = # o   = j = >   X d : p : h e o : : - X e p e e : h d O   - u a N   & - t r w r k u   @ 4 1 7 P.x.i.a.x.n.v.x.z.v.R.v.v.b.b.D.c.n.c.k.x.v.{.K 0 8 0 H A.g.k.g.x.v.v.v.b.b.b.b.v.v.b.b.v.c.v.v.g.R.:XZ 7 0 7 H :Xc.g.n.v.A.v.v.R.v.T.v.R.v.R.R.b.x.v.Q.k.oXf.q 8 8 5 Y 2Xi.k.x.k.k.v.v.R.v.l.R.v.v.z.v.z.l.v.z.V.W.t.0 8 8 8 E [.s.x.p.v.v.R.R.b.R.x.z.R.v.v.v.z.n.v.x.p.oXd.q 0 0 2 / oXg.k.k.c.n.b.c.b.b.R.R.Q.b.n.v.b.x.k.c.x.:XK 0 8 9 5 d.oXp.h.x.c.c.b.v.R.v.k.c.b.b.v.c.b.c.x.c.n.[.U 0 9 q 8 F.z.V.p.c.c.b.n.n.v.b.v.b.b.v.n.n.b.v.c.k.(.I.7 7 0 7 K :Xx.k.n.c.b.v.c.b.b.n.b.R.v.c.x.x.x.x.c.c.XXt.q 8 8 2 R 2Xm.C.g.x.x.x.v.v.x.v.v.v.x.x.b.c.c.b.x.a.c.F.5 1 < . k r w w u >   - - - = - : - - - = : > = - = - - = - - - = > > = = % & X .       X % = > = = = % O O     O o # % >   % g e e ",
"# O f -   u = o X   = j - -   X d e : : j d % : e - X d e e e : f d .   - p p B   = - t w w a k k . @ < 1 7 -XA.i.p.s.k.v.k.x.v.v.c.v.v.x.n.x.v.x.g.c.k.|.L 8 8 9 F K.p.a.x.g.c.b.s.n.b.c.k.c.v.c.b.k.b.c.k.s.R.=X7 q 8 7 S }.k.s.x.x.x.n.n.b.v.v.v.v.v.b.Q.b.n.x.v.k.].f.1 8 7 q Y 2Xi.s.g.x.x.v.x.v.v.v.x.v.v.v.v.b.g.k.l.Z.E.t.0 8 6 7 T |.s.g.g.v.k.n.x.n.v.b.k.b.l.b.v.v.n.n.x.g.XXC.9 8 8 3 T oXd.a.x.c.c.c.x.p.c.n.n.b.x.x.v.x.b.s.g.g.$XK 9 8 6 6 d.|.a.s.x.g.c.c.c.b.n.k.c.v.b.c.n.x.x.x.c.n.}.I 8 0 8 8 V.l.B.k.c.c.b.k.c.c.c.c.v.b.n.n.v.x.v.c.p.~.L.Z 8 0 2 K :Xx.Z.j.s.c.c.n.c.c.k.v.b.x.x.x.n.x.g.j.n..Xy.q 8 8 2 R 7Xi.d.a.x.g.n.k.k.s.A.v.v.x.k.A.c.c.x.g.s.A.C.5 4 @ o k r e > : -   > ; - - - - - - = - - - = - - - = > > : = - = > : = = % , O . .               .       O O o # # = - O % d > e ",
"o O u -   d = % o   % j = :   O d p p : g d % : e -   d e p : e h d     = p a B   # - t w w r x v   @ < 1 5 P.n.i.g.s.k.A.x.x.x.n.n.n.c.s.g.n.c.g.k.g.p.|.J 6 8 q S Z.s.a.g.k.g.c.g.k.c.n.s.v.c.x.v.k.c.c.n.s.T.}.7 8 8 0 H }.s.d.h.k.x.c.n.A.c.v.v.v.x.n.b.n.k.k.n.g.].f.< 8 7 q Y 1Xi.i.s.g.k.Z.x.v.v.v.x.v.v.v.v.A.k.k.k.d.].t.0 7 6 5 Q |.a.g.x.x.A.b.k.x.x.c.b.v.c.n.c.v.c.n.g.d.].f.6 0 8 9 S.].i.s.C.x.c.x.x.k.n.n.k.b.k.c.n.k.c.k.x.g. XL 3 8 8 1 t.].w.g.g.k.Z.c.x.b.c.s.x.c.c.c.x.x.g.g.h.k.{.P q 6 5 0 d.k.B.m.x.g.c.c.n.n.c.x.c.c.j.k.A.x.A.c.k.~.P.7 q 7 1 P :Xi.g.a.i.g.n.c.g.k.x.c.x.x.x.g.g.x.g.n.a.^.t.5 5 8 5 R 2Xi.d.a.h.c.g.g.s.p.x.x.x.c.c.k.x.g.x.g.d.Z.C.q < < o r w e w : : . = - - > - - - - - - : - - - - - - > = : > > > = = = % % % o o O                     O O % # % = % - O o f > : ",
"o O u -   g = % o   = g > >   O d : : : j d % : e > O p p p : e f d X   = p r `   = $ - w w a v k   @ < 1 5 P.n.e.V.x.s.k.x.x.x.c.n.n.a.s.g.x.g.x.s.f.p.|.J 6 8 3 S Z.a.r.a.g.h.g.c.s.c.k.c.k.g.g.j.g.s.c.n.s.R.=X7 q 8 q H *Xi.d.a.x.g.x.x.b.c.A.v.x.x.c.c.x.g.Z.k.h.].f.2 0 8 9 T 2Xe.d.a.p.g.s.p.A.x.p.x.A.s.c.x.x.x.g.p.B.R.M.0 8 8 8 T |.w.g.g.g.g.A.g.x.Z.c.x.c.g.x.x.x.c.b.g.d.].f.5 9 A 9 S.oXt.g.h.g.j.x.s.Z.k.x.x.x.x.n.x.x.g.s.b.c.:XK 9 q 5 1 r.].d.a.g.x.g.c.g.s.x.g.g.c.g.c.g.j.a.g.d.n.}.U 9 6 7 8 V.s.B.p.h.c.c.k.a.c.x.c.s.j.c.x.x.h.x.g.g.].P.8 q 8 5 I :Xa.d.h.a.a.k.s.s.k.n.x.g.s.c.k.g.g.g.s.a.'.y.q 5 6 2 R 2Xw.d.a.h.h.g.g.g.s.V.a.V.x.s.s.g.i.g.i.d.A.C.6 < @ + y t t : : : . = - = = > - - - - - : : > : = > - i > > > > = = = = = = % # # o o O O O O O O   X O o % % # % = = =   o u > > ",
"# O u -   d = o X   = h = >   O d : p : j h % : e -   d e e : : h d     - p r N   = - t w w r y k . @ < 1 5 L.x.e.p.V.i.s.g.g.g.g.x.g.g.c.s.g.c.x.i.C.p.|.J 5 5 q F Z.a.w.d.s.g.g.b.s.s.g.c.g.c.s.s.c.s.g.p.d.R.-X7 q 7 7 H |.d.e.i.s.g.s.g.h.j.p.s.x.x.c.v.Z.x.x.g.a.R.C.2 0 8 7 Y %Xw.d.s.g.w.g.g.s.p.A.x.k.x.V.x.k.c.k.s.V.].f.0 q q 8 T H.w.i.i.s.x.x.a.h.x.j.x.s.x.s.g.g.h.a.g.d.~.C.q 8 8 3 E ].a.s.g.h.g.V.s.x.g.h.g.a.g.g.c.a.g.g.a.a.}.H 9 8 q 1 a.'.w.g.g.V.g.g.g.j.g.g.h.c.g.s.g.x.a.g.h.p.}.P 9 9 q q V.k.B.i.g.x.h.s.a.h.a.j.a.g.h.d.h.a.a.x.a.R.P.7 q 8 2 K =Xa.g.d.h.x.a.g.g.g.j.g.d.x.a.h.s.g.g.g.a.!.y.5 6 6 5 R ;Xu.d.C.d.d.d.i.g.A.s.g.g.g.g.g.g.V.d.d.d.Z.M.6 4 < o u t e t e : O = - > > = : > - > - - = > - - : = > > > > > > > > = > > = = # # # o o O O O X o o % % % % = = = = - O o f > = ",
"# X d =   f = % o   = h = -   X d p p e j d , : : > O e e e d : f d     - p r B   # - t w w a s k   @ < 1 5 P.g.e.i.i.i.d.d.h.a.g.g.a.g.h.d.f.h.d.a.f.s.{.J 6 5 9 A J.d.y.y.a.g.c.a.d.g.d.s.j.j.g.h.h.g.c.a.t.b.|.5 5 6 6 S {.d.t.d.r.h.h.f.a.c.h.h.g.c.c.c.h.g.g.h.d.|.d.2 6 8 6 Y 2Xr.d.t.a.i.p.d.C.p.c.g.a.d.h.c.g.c.c.x.V.R.t.0 5 6 7 Q {.e.d.d.d.h.d.d.d.c.d.h.g.h.h.d.h.V.a.x.d.~.f.q q 8 3 T [.d.a.f.d.f.g.a.j.h.h.d.a.h.h.h.d.h.h.t.r.}.J 3 6 q 1 f.D.e.d.i.h.r.d.d.h.f.h.d.d.d.g.h.h.h.d.h.m.-XU 6 9 5 6 F.s.t.d.d.d.j.d.Z.g.d.d.h.c.h.h.h.a.d.h.d.b.I.5 6 6 2 L =Xe.d.d.h.h.d.d.h.h.d.d.j.g.d.d.d.h.a.d.d.'.N.5 5 5 1 W ;Xq.M.t.t.d.r.r.d.f.d.d.d.f.f.C.i.C.a.d.t.c.C.9 4 @ o r r w t > >   - - - > - > > > > : : = - : : - - - : - - : - : - * > > = - = = = * % % % % % % % % = = > = > = = > O O d > = ",
"o X p =   d - % %   & j - =   X d : e : h M : d d : % d e e e e f f     = p r `   & - - w w w k l   + 4 1 2 C.K.e.t.e.t.d.d.d.d.a.a.a.d.g.i.d.d.d.r.f.j.K.S 6 q q A F.c.y.e.t.d.d.a.d.d.g.d.g.g.d.g.a.a.d.a.a.$Xh.5 6 6 6 8 J.H.r.d.r.f.f.d.d.j.d.h.g.x.j.j.g.s.d.d.g.}.q.2 6 8 6 H ;Xg.w.w.i.V.d.g.h.a.h.a.d.g.g.g.g.g.g.g.d.[.0.q q 6 5 R *Xj.r.f.f.d.a.d.d.V.d.d.d.h.h.d.a.d.g.V.g.%Xq.2 q 6 9 I {.h.d.t.d.t.d.d.d.j.h.a.d.g.d.a.g.d.f.i.D.H.S 3 6 6 1 q. Xr.y.e.d.t.f.d.d.f.B.d.d.d.d.f.d.g.j.f.a.*XL 8 2 q 9 t.H.q.r.t.h.j.j.h.j.h.d.h.h.h.f.h.d.d.d.g.OXY.8 q 6 2 H *Xd.r.r.d.d.r.r.h.d.f.r.d.a.j.h.h.d.d.d.g.[.8.q 5 6 1 U ;Xi.t.e.w.f.r.d.r.d.t.r.t.d.t.r.r.r.r.t.t.D.N.2 < @ o r w w e e :   - - - e : : : : > : : : : : : : - : : > - > - = , p : : : : : : : : : : : : : : > : i : : > : : : : > > : > MX",
"X . o .   & O X     & j = >   X d p : p e  .$.$.*.X.h p e e e : g d X   - a p N   & $ - w w w a ` & . < 1 1 K Z.A.K.*X*X{.*X=X}.*X-X{.}.{.}.{.{.{.{.'.H.9.8 q q 2 q E H.J.K.|.{.{.}.|.}.{.}.}.}.}.}.|.}.}.|.'.H.I 5 6 2 5 q E L.{.{.{.}.}.}.{. X}.:X=X}.=X$X=X}.}.=X}.h.K 9 q q 5 Z M.}.{.*X}.:X}.}.:X}.}.}.}.}.}.}.}.[.}.].'.Z.L 6 6 6 6 S t.|.K.*X}. X}.}. X X}.}.=X X}.}.}.|.}.}.}.Z.L q q 3 3 A y.{. X{.|.{.*X*X{.}.=X}.=X}.}.}.}.}.}.|.A.Q 8 6 2 6 1 L J.}.|.{.-X*X*X X X}.}.*X*X*X}.{.*X-X}.{.H.q.D 6 2 q 2 U L.K.|.{.}.}. X X X X X{. X}. X}.}.}.}.|.c.U 8 q 6 2 7 y.{.|.|.{.{.{.{.}.{.}.{.}.*X*X{.*X}.}.{.|.f.J 2 1 2 2 8 N.|.H.|.|.{.L.L.{.{.{.{.{.{.{.L.P.*XK.L.L.V.J 1 @ @ o r e e e e :   - > e : p e e e e : : : : : : : : : : : e : % = X.&.$.$.$.*.*.*.*.X.*.*.*.*.X.*.X.X.X.X.X.X.X.*.X.X.X. . .V MX",
"      X             % h = =   O d : d : e d j j j j p p e e e : f p     - d a B   = = - - w w w c #.o . @ < 1 J E ! ! ! E ^ ^ ^ ! ! ! W ! ! ! ~ ~ ~ ~ U Z 5 2 1 2 3 7 K ^ ! ! Q Q ~ ! ! Q ~ ^ ~ 9.9.Q 8.8.Q R L q 1 2 2 3 2 8 U 0.9.Q Q Q 8.~ 0.8.0.0.0.0.0.0.0.8.0.E L 8 6 5 9 5 q H E q.0.9.9.q.9.0.q.q.q.9.9.q.0.9.q.q.8.E H 6 6 6 9 5 5 J Q q.q.0.0.~ 0.Q 0.~ 0.9.0.0.0.~ Q 0.~ E P q 5 q 2 3 2 S R ~ ~ ~ ~ Q 0.0.0.0.0.8.8.0.8.0.0.Q Q K 8 6 2 < 2 1 5 J Q 0.~ ~ ~ ^ Q ~ Q 8.~ ~ ! ~ ~ 9.~ ~ 9.U D 2 6 2 1 2 8 P Q Q 8.~ 9.0.^ ^ ^ ~ ^ Q ^ ^ Q 8.Q 8.R J 5 6 6 6 2 1 S W ~ ~ 9.^ ^ ~ ~ ^ ~ ^ ^ ~ Q ~ Q Q Q W E D 5 < < 1 1 1 8 R Q ^ Q ^ ^ ^ ^ ^ W ^ ^ W W W W ^ W W R F 2 < @ o . o o O X X .   O X o X X X X X X X X X X X O O X X O O X O > &.X.d h d d h d d p d p d d d d d d d d : d d d : p d p d d : MX",
"        o = = = X   > j = =   o d : p p d : : p p : d : e d : : g d     - d d B   & - w w w w w w { #.# . @ < < < 1 1 4 2 1 1 < < 1 1 1 1 1 1 1 1 5 1 1 < < < 4 < < < 1 2 1 1 2 2 6 2 1 2 2 2 2 1 5 1 5 5 1 1 4 < < 4 2 < < 1 1 5 1 1 5 1 5 5 1 5 5 5 5 5 2 5 5 5 5 q 2 2 1 1 1 1 1 1 6 q 6 5 5 5 5 5 5 5 5 5 5 q q 5 5 5 5 1 1 1 2 2 1 4 < 1 1 6 6 5 5 1 6 5 1 2 6 5 2 2 5 2 5 5 2 2 1 1 1 1 4 4 < < 2 1 5 2 1 2 5 5 2 5 5 1 5 2 6 2 5 1 1 2 2 2 2 < < < < < 1 1 2 6 2 1 2 1 5 2 2 2 5 2 2 6 2 2 5 4 < 4 < 4 4 4 2 2 2 2 5 5 6 6 1 1 5 1 6 2 2 1 1 1 1 1 2 < < 4 2 1 4 4 1 2 2 1 1 1 1 1 1 2 2 1 1 2 4 1 1 2 1 2 1 4 4 < < 4 < @ < 4 1 1 1 4 1 4 1 4 4 4 1 1 4 3 4 < 4 < < @ @ @ o B >.&.=.;.;.=.&.-.-.=.&.&.&.%.%.@.%.%.%.%.%.$.*.@.X.X.O.X.X.*.>.$.d : : : : : : > - - = : = > > > > = : = > = = = = = = = MXMXMX",
".   . : V  . .%.p   o d : =   o d : p p p p p p : p : d p e d e f e O   : d d `   & - - ; w p w a p ` { - + + @ @ + @ + @ @ + @ @ + @ + @ @ @ @ @ @ @ < < @ < 4 < < @ < @ @ @ @ @ @ @ + @ @ @ @ @ < @ @ @ @ @ < < @ < < @ @ @ @ @ @ @ @ @ @ @ @ @ < @ @ < @ < @ @ @ < < < < 4 < < 4 < < @ @ @ < < @ @ @ < @ < @ < < @ < @ @ < < < < 1 1 < < < @ < @ < @ @ @ @ @ @ @ < @ @ @ < @ @ < < < < < 4 < < @ @ < @ @ @ < @ @ @ @ @ @ @ @ @ @ @ @ @ < @ @ < 4 @ < < @ @ @ @ @ @ @ @ @ @ @ @ @ @ @ @ @ @ @ @ @ < @ < < < @ 4 @ < @ @ @ @ @ @ @ @ @ @ @ @ @ @ @ @ @ @ @ < < @ < @ < @ @ @ @ @ @ + @ @ @ + @ @ + + @ $ @ @ @ @ @ @ @ @ @ < @ @ @ @ @ @ + @ @ @ + + + + @ + @ @ + @ + + + + + # z O.&.%.%.&.&.%.$.%.$.%.@.@.@.@.@.@.@.+.@.O.X.X.X.X.X.o.X.X.X.X. .d : : : : : > - > - - - > > > > > > = : = > > = = > = : = MXMXMX",
"MXMX- n j j h  .X.:   % : >   O d e e e p : : : p : : p p e e : f p     - f a B   & - t - w w p p p p N ..; . @ @ @ + @ + @ @ @ @ @ @ @ @ @ @ @ @ @ @ @ @ < < @ < @ @ @ @ @ @ @ @ @ @ @ @ @ @ @ @ @ < @ @ @ @ < @ < < @ < @ @ < @ @ @ @ < @ < @ < @ < @ < @ < < < < < < 4 < 4 < < < < @ < < @ < < < @ < @ @ < @ @ @ @ @ < @ < < 4 < 4 < < < < @ @ < @ @ @ < @ @ @ < @ @ @ @ < @ < < < < < < < < < < 4 < < @ @ @ @ < @ < @ @ @ < @ @ @ @ < < @ 4 < 4 4 @ @ < @ @ < @ @ @ @ @ @ @ @ < @ @ @ @ @ @ @ @ @ < 4 @ 4 @ @ 4 @ @ @ @ @ < @ @ @ @ @ < @ 4 @ @ @ @ @ @ @ @ @ $ @ $ < @ @ @ @ $ @ @ @ @ @ @ @ @ @ @ @ @ @ @ @ < @ @ @ @ @ @ $ @ @ @ @ + @ + @ + @ @ @ @ @ + + + + @ @ @ + = M ` j l z k j d h h g d d f d p p p p p : p e e e e e e p e e e : : : : : : > > > = - - - = - - * = = = = = = > = = = = = MXMXMXMXMX",
"MXMXd j : : - d V *.%   % >   o d : e e p : p : : : : : e e e : g p     - d a N   & - - - w ; w w w p a ) +.= . . + + + + + + + + + @ @ @ @ + @ @ @ @ @ + @ @ @ @ @ @ + @ @ + @ + @ + @ + @ @ @ @ @ @ @ @ @ @ @ @ @ @ @ @ @ + @ @ + @ @ @ @ @ + @ + @ @ @ @ @ @ @ @ @ @ < @ @ @ @ @ @ @ @ @ @ @ @ @ @ @ @ @ @ @ @ @ @ @ @ @ @ @ @ @ @ @ @ @ @ @ @ @ @ @ @ @ @ @ @ @ @ + @ @ @ @ @ @ @ @ @ < @ @ @ @ @ @ + @ @ @ @ @ @ @ @ @ + @ @ @ @ @ + @ @ @ @ @ @ @ + @ @ @ @ @ @ @ @ @ @ @ @ @ @ @ @ @ @ @ @ @ + @ + @ @ @ @ @ @ @ @ + @ + + + @ @ + @ + @ @ + @ @ @ @ @ @ @ @ + @ @ + @ @ + + @ + + @ + @ + + + + + @ + + + + + @ @ + $ + @ + + + + + + + + + + + . + + + + + + o . . % _ ) h e e e e u e e e e t : : : : : > - - - - - - - - = > - * > = - : > : - > > > > = - - - - - - > > > = = : > = : = : MXMXMXMXMXMXMX",
"MXMXMXh d : : e p B &.%   X   , d : : : : e : : : : : e e e : : f d     = d p N   & ; - ; w ; p w p s e a ` -.c h k h l k l z z z z l l l l z k l z z c c c c z z z c l z l z l l z c b c z c c z c c c c c c c c x x c c c c c c c c z c c c c c z c x c c c c c c v v c c c c c x c x c c c c x c c b c c c c c c c m N c c c c c c c c m c m c z m c c c c x c c z c c c c c x x c c c x c c z z c c c c z c c c c c z c b c m m z m c c c c b x c c c c c c c c c c c c c c c z c x z c z x z c c c c c z c z v z z z c z l l z z l z l z v z l c l c z z z c l l l z z z c z z z k z z z c z z k z z k z k j z z z l k z k j z z k j z g k k g g k g k g z k h g g g k O.N k r d e e e e e e : : e - : : : : : : - - - - > - - - - - - - - - - - > - - - - - - = - = - = - - = - # = - - = = = = MXMXMXMXMXMXMX",
"MXMXMX- g e : e p : V &.-     o d : e : e e : e e e e : : : : : h p X   - d f N   = - - ; p w w w w $ a e r { >.:.>.:.;.:.>.2.,.,.2.,.2.>.,.2.>.2.2.<.,.<.<.<.,.<.,.1.<.,.1.1.,.2.<.1.1.1.5.1.<.1.,.,.,.,.1.1.1.rX,.,.,.,.,.3.1.3.3.1.,.1.4.3.<.1.1.1.1.1.1.3.1.1.1.1.rX1.,.1.1.1.1.rX1.1.1.3.1.1.1.rX1.3.1.1.1.1.1.rX3.5.3.1.3.3.3.5.3.4.3.3.3.3.3.3.3.1.1.5.1.3.3.3.3.3.3.3.3.1.1.rX5.rX5.1.1.3.3.3.3.3.1.1.1.<.1.1.1.1.1.1.1.3.3.3.3.3.3.5.1.1.rX1.1.1.<.1.1.1.5.3.1.1.<.<.1.1.1.1.1.1.,.1.1.,.<.<.<.1.<.<.<.<.<.1.<.<.<.<.<.2.,.2.2.,.,.<.2.<.<.<.2.,.>.2.,.2.,.<.,.2.<.<.2.<.,.,.,.2.:.2.2.:.2.2.2.>.2.2.:.2.:.2.,.:.:.:.:.>.>.>.:.:.:.:.:.>.7.:.>.:.>.:.:.>.;.:.:.:.:.) r u u u d d e e e p p e e p e e p p : e p e e : : : : : : > > > : : : : : : > : : : - : : > - - - - - = - - & & = : MXMXMXMXMXMXMXMXMX",
"MXMXMXMX= p p : : e : V X.:   o d : e : p : e : e e : : e e : : h p     = p p B   - t - ; w ; w p p w p r e e z z c z z c z z c c z c n c M c c z c m m b c m c c b m c m m N c c m m ) c N m N N N m c m m m m N ) m m m m N m N ) m m N m ) N ) m m m m m ( ) N ) ) ) ) N ( ( N ) ) ) m ) ) ) ) ) m m ) ) ) ) m ( m ) ) ) ( ` ) N ) N ) ) m ) ` m m ) ) ( ) ) ) ) ) ) ) B ) ) ) ) ) ) ( ( ) N N ) ) B ) N ) ) ) ) ) N ) N C N N ) N N N ) ) N N N N N ) N N N M ) ) ) N N N c N N N N N ( N ) ) ) N N N m ) N N N N m N ( N N M m m m c m m b N N b N m m m N b ) N N b N b b M c m M b m b c M c b M c c m c b m b c b b b b c z b c z z b c M c j z z z z c c z c b j g e e e u f : MXMXMXMXMXMXMXMXMXMXMXMXMXMXMXMXMXMXMXMXMXMXMXMXMXMXMXMXMXMXMXMXMXMXMXMXMXMXMXMXMXMXMXMXMXMXMXMXMXMXMXMXMXMXMXMXMXMXMXMXMXMX",
"MXMXMXMXMXMXp : : e e e V X.- X = = = = = = % , % % = = % % % , - &     = p p N   = - w ; ; w p w w w p w p w w t e e e e e e r r e e r e e r a r r r r r r u r r r u r r d a r r r r r u k r r a a a r a f a a r u r r a a k a a f a a a r k f a k f r a k a a a k a v a a a a f v a k r k a k u k k k k u a a u k k k k k a k a k k k f k k k k a k k a a k a f k k k k a k a v k k k u k a k k k a k f k k f k f k k k v k u a k k a a f k a a k k u f a f a f r f u f k f a a f k a k u k u f u k u u k u u u k u k k u u k f d r a u k u k f u r d a p f f f u u u u k u u d d d r f u u r r f u f f f d u u u u r f u u u u u e e e e u u u u e u u d u e u d e u e t e e r d - MXMXMXMXMXMXMXMXMXMXMXMXMXMXMXMXMXMXMXMXMXMXMXMXMXMXMXMXMXMXMXMXMXMXMXMXMXMXMXMXMXMXMXMXMXMXMXMXMXMXMXMXMXMXMXMXMXMXMXMXMXMXMX",
"MXMXMXMXMXMXMXe e : e e e V $.n M j j j j j h h h d d h h h h d h h d : > e e n   # - - t w w w e e e e a a a a r r f r r a a a a a r a r r k a f k r a u k k k f a k a a k a k k a a k v v f f k f k k k k k k k k k a k l l k l k f v k k k k l l k k k k k k k a k v k k k k k k k k k k k l v k k k c v k k k v k v v k l k k k k k k k v k k k k v k l k k k k v v l v v k k v k v k x v v v k v k k l k v v v l l v l v k l k l k f v l v v k k k k k l l k l k v v k a k k h k k k k l l l k v h k k k k f k z k v k k k k f k k f k k k k k k k h k k l f f k h k k f f h k k f k k f a f k h f k d f f f f f f k u k f f r k d f u u f u d d f f f f f d d d d d r e d u = MXMXMXMXMXMXMXMXMXMXMXMXMXMXMXMXMXMXMXMXMXMXMXMXMXMXMXMXMXMXMXMXMXMXMXMXMXMXMXMXMXMXMXMXMXMXMXMXMXMXMXMXMXMXMXMXMXMXMXMXMXMXMXMX",
"MXMXMXMXMXMXMXMXe p : : : e V 7.&.%.*.%.$.*.X.X.O.*.O.$.*.*.*.*.X.+.X. .: : d M   # - - w - w ; t t a : > - - & - - - - - - - > - - - - - - ; t ; ; - - t ; - t - t t ; > t ; ; - t ; ; t t > t t t ; ; - - ; ; t ; t ; t t e t t > t t w t w t t t t ; w t > t t t $ - ; t - t t t $ t t t t t t t t t t t - ; t t - > e t - t t t t - > t - t w w - w t t t t t t t t e t > - > e t ; t e e w t > t > t > ; > ; > > > > t w : t > ; ; ; ; ; ; t t ; ; - - > t > > > e ; ; > t > > > ; > > > w > - ; > ; ; ; > ; ; : : : > : : t > > > t > ; ; ; ; : > > ; > > > - ; t ; - t > > > : ; : > t e ; > ; ; ; ; ; ; ; ; ; ; - ; > > ; ; > - - - ; ; ; > ; ; ; t ; ; > > ; ; - > - - MXMXMXMXMXMXMXMXMXMXMXMXMXMXMXMXMXMXMXMXMXMXMXMXMXMXMXMXMXMXMXMXMXMXMXMXMXMXMXMXMXMXMXMXMXMXMXMXMXMXMXMXMXMXMXMXMXMXMXMXMXMXMXMXMXMX",
"MXMXMXMXMXMXMXMXMXp e : e ; : d d d d d d d d d d d d d d d d d d p p p : : d M   # - - - ; w - e w & MXMXMXMXMXMXMXMXMXMXMXMXMXMXMXMXMXMXMXMXMXMXMXMXMXMXMXMXMXMXMXMXMXMXMXMXMXMXMXMXMXMXMXMXMXMXMXMXMXMXMXMXMXMXMXMXMXMXMXMXMXMXMXMXMXMXMXMXMXMXMXMXMXMXMXMXMXMXMXMXMXMXMXMXMXMXMXMXMXMXMXMXMXMXMXMXMXMXMXMXMXMXMXMXMXMXMXMXMXMXMXMXMXMXMXMXMXMXMXMXMXMXMXMXMXMXMXMXMXMXMXMXMXMXMXMXMXMXMXMXMXMXMXMXMXMXMXMXMXMXMXMXMXMXMXMXMXMXMXMXMXMXMXMXMXMXMXMXMXMXMXMXMXMXMXMXMXMXMXMXMXMXMXMXMXMXMXMXMXMXMXMXMXMXMXMXMXMXMXMXMXMXMXMXMXMXMXMXMXMXMXMXMXMXMXMXMXMXMXMXMXMXMXMXMXMXMXMXMXMXMXMXMXMXMXMXMXMXMXMXMXMXMXMXMXMXMXMXMXMXMXMXMXMXMXMXMXMXMXMXMXMXMXMXMXMXMXMXMXMXMXMXMXMXMXMXMXMXMXMXMXMXMXMXMXMXMXMXMXMXMXMXMXMXMXMXMXMXMXMXMXMXMXMXMXMXMXMXMXMXMXMXMXMXMXMXMXMXMXMXMXMXMXMXMXMXMXMXMXMXMXMXMXMXMXMXMXMXMXMXMXMXMX",
"MXMXMXMXMXMXMXMXMXMXe : ; e : : : : : : : : : : : : : : : : : = : : : : e e d M   o - - - - ; p w MXMXMXMXMXMXMXMXMXMXMXMXMXMXMXMXMXMXMXMXMXMXMXMXMXMXMXMXMXMXMXMXMXMXMXMXMXMXMXMXMXMXMXMXMXMXMXMXMXMXMXMXMXMXMXMXMXMXMXMXMXMXMXMXMXMXMXMXMXMXMXMXMXMXMXMXMXMXMXMXMXMXMXMXMXMXMXMXMXMXMXMXMXMXMXMXMXMXMXMXMXMXMXMXMXMXMXMXMXMXMXMXMXMXMXMXMXMXMXMXMXMXMXMXMXMXMXMXMXMXMXMXMXMXMXMXMXMXMXMXMXMXMXMXMXMXMXMXMXMXMXMXMXMXMXMXMXMXMXMXMXMXMXMXMXMXMXMXMXMXMXMXMXMXMXMXMXMXMXMXMXMXMXMXMXMXMXMXMXMXMXMXMXMXMXMXMXMXMXMXMXMXMXMXMXMXMXMXMXMXMXMXMXMXMXMXMXMXMXMXMXMXMXMXMXMXMXMXMXMXMXMXMXMXMXMXMXMXMXMXMXMXMXMXMXMXMXMXMXMXMXMXMXMXMXMXMXMXMXMXMXMXMXMXMXMXMXMXMXMXMXMXMXMXMXMXMXMXMXMXMXMXMXMXMXMXMXMXMXMXMXMXMXMXMXMXMXMXMXMXMXMXMXMXMXMXMXMXMXMXMXMXMXMXMXMXMXMXMXMXMXMXMXMXMXMXMXMXMXMXMXMXMXMXMXMXMXMXMXMXMXMXMXMXMX"
};
