/* XPM */
static const char *player10_xpm[] = {
/* columns rows colors chars-per-pixel */
"399 81 207 2 ",
"   c #030503",
".  c #040A04",
"X  c #080A07",
"o  c #070B08",
"O  c #0A0E0A",
"+  c #040709",
"@  c #140E06",
"#  c #1C0A07",
"$  c #1B0C09",
"%  c #041304",
"&  c #0B1605",
"*  c #041A04",
"=  c #091A06",
"-  c #071208",
";  c #0B130C",
":  c #071908",
">  c #0C1A0D",
",  c #10140F",
"<  c #111305",
"1  c #050E12",
"2  c #0A0F10",
"3  c #0F1410",
"4  c #0E1B10",
"5  c #08131A",
"6  c #111612",
"7  c #141A15",
"8  c #181C17",
"9  c #171D18",
"0  c #191E19",
"q  c #230604",
"w  c #290605",
"e  c #220907",
"r  c #260A08",
"t  c #2C0B09",
"y  c #330D0B",
"u  c #3B0E0C",
"i  c #24130A",
"p  c #2A150B",
"a  c #291D0C",
"s  c #301410",
"d  c #062304",
"f  c #082506",
"g  c #072A05",
"h  c #092C06",
"j  c #0D220E",
"k  c #092B08",
"l  c #072308",
"z  c #132C0A",
"x  c #112508",
"c  c #093306",
"v  c #093406",
"b  c #16320B",
"n  c #18330B",
"m  c #0F2411",
"M  c #0F2811",
"N  c #122414",
"B  c #1A2115",
"V  c #132816",
"C  c #162319",
"Z  c #1B231C",
"A  c #152919",
"S  c #1B2B1D",
"D  c #1B331E",
"F  c #29251D",
"G  c #0A1B25",
"H  c #091925",
"J  c #0C222E",
"K  c #1F2620",
"L  c #1D2B21",
"P  c #1C3420",
"I  c #1D3821",
"U  c #0C2434",
"Y  c #0D2A3E",
"T  c #0D273A",
"R  c #102B3F",
"E  c #212522",
"W  c #242924",
"Q  c #272B28",
"!  c #292D2A",
"~  c #282D27",
"^  c #2D322D",
"/  c #28352A",
"(  c #2F3430",
")  c #2E3A31",
"_  c #313532",
"`  c #343B35",
"'  c #373E39",
"]  c #393E3B",
"[  c #383D37",
"{  c #410E0B",
"}  c #47110F",
"|  c #491310",
" . c #561815",
".. c #631D1A",
"X. c #681F1C",
"o. c #4E2D1D",
"O. c #492819",
"+. c #4E301D",
"@. c #6C211D",
"#. c #64211C",
"$. c #71221E",
"%. c #7D322E",
"&. c #712824",
"*. c #354436",
"=. c #364439",
"-. c #3B433C",
";. c #3A4A3D",
":. c #374638",
">. c #0D2C43",
",. c #0E2F48",
"<. c #112E44",
"1. c #0F3048",
"2. c #11324C",
"3. c #123553",
"4. c #133857",
"5. c #3E4440",
"6. c #3E4D42",
"7. c #3F5243",
"8. c #414641",
"9. c #434B45",
"0. c #464D48",
"q. c #494E4A",
"w. c #425345",
"e. c #445649",
"r. c #4B534D",
"t. c #445849",
"y. c #4C594E",
"u. c #435847",
"i. c #4D5650",
"p. c #4E5C52",
"a. c #515652",
"s. c #525D55",
"d. c #565D59",
"f. c #595F5A",
"g. c #4F6054",
"h. c #526156",
"j. c #546358",
"k. c #5A615C",
"l. c #59695E",
"z. c #5C6B60",
"x. c #83332F",
"c. c #8D332F",
"v. c #8C3631",
"b. c #8E3934",
"n. c #933A35",
"m. c #9A3E3A",
"M. c #943834",
"N. c #90302C",
"B. c #A73832",
"V. c #D63632",
"C. c #D53A35",
"Z. c #DC3A35",
"A. c #DC3D39",
"S. c #DA3733",
"D. c #CF3733",
"F. c #E33A36",
"G. c #EA3B37",
"H. c #E53D39",
"J. c #EC3D39",
"K. c #F33E3A",
"L. c #C7433D",
"P. c #D9433D",
"I. c #EC413D",
"U. c #E1403C",
"Y. c #F5413D",
"T. c #F9433E",
"R. c #BD4842",
"E. c #CE4943",
"W. c #C74741",
"Q. c #D34B44",
"!. c #DA4B45",
"~. c #DB524C",
"^. c #D4524B",
"/. c #DD5C54",
"(. c #DE5F58",
"). c #C7524B",
"_. c #EB4A46",
"`. c #E64742",
"'. c #FA4641",
"]. c #FC4B45",
"[. c #F34F4A",
"{. c #FC4E48",
"}. c #F34843",
"|. c #E2544F",
" X c #FD534C",
".X c #F6524D",
"XX c #E45A54",
"oX c #FE5B54",
"OX c #FD5A53",
"+X c #E6615A",
"@X c #EA645C",
"#X c #FE635B",
"$X c #FF6057",
"%X c #EA6B63",
"&X c #FF6B63",
"*X c #EB746C",
"=X c #FF746C",
"-X c #FF7067",
";X c #FF7B74",
":X c #FF837C",
">X c #FF8780",
",X c #FF8A85",
"<X c #FF8E89",
"1X c #FF928D",
"2X c #FF9591",
"3X c #FF9894",
"4X c #000001",
/* pixels */
"4X4X4X4X4X4X4X4X4X4X4X4X4X4XO 0 ' ] ' ' ' ] ] ' ' 5.5.' ] ' ' ] 5.5.9.5.5.5.0.0.0.0.r.p.z.i.K 4X4X4X4X4X4X4X4X4X4X4X4X4X4X4X4X4X4X4X4X4X4X4X4X4X4X4X4X4X4X4X4X4X4X4X4X4X4X4X4X4X4X4X4X4X4X4X4X4X4X4X4X4X4X4X4X4X4X4X4X4X4X4X4X4X4X4X4X4X4X4X4X4X4X4X4X4X4X4X4X4X4X4X4X4X4X4X4X4X4X4X4X4X4X4X4X4X4X4X4X4X4X4X4X4X4X4X4X4X4X4X4X4X4X4X4X4X4X4X4X4X4X4X4X4X4X4X4X4X4X4X4X4X4X4X4X4X4X4X4X4X4X4X4X4X4X4X4X4X4X4X4X4X4X4X4X4X4X4X4X4X4X4X4X4X4X4X4X4X4X4X4X4X4X4X4X4X4X4X4X4X4X4X4X4X4X4X4X4X4X4X4X4X4X4X4X4X4X4X4X4X4X4X4X4X4X4X4X4X4X4X4X4X4X4X4X4X4X4X4X4X4X4X4X4X4X4X4X4X4X4X4X4X4X4X4X4X4X4X4X4X4X4X4X4X4X4X4X4X4X4X4X4X4X4X4X4X4X4X4X4X4X4X4X4X4X4X4X4X4X4X4X4X4X4X4X4X4X4X4X4X4X4X4X4X4X4X4X4X4X4X4X4X4X4X4X4X4X4X4X4X4X4X4X4X4X4X4X4X4X4X4X4X4X4X4X4X4X4X4X4X4X4X4X4X4X4X4X4X4X4X4X4X4X4X4X4X4X4X4X4X4X4X4X4X4X4X4X4X4X4X4X",
"4X4X4X4X4X4X4X4X4X4X4X4X4XO Z _ E 6 6 6 6 6 3 6 7 7 7 9 0 7 7 7 9 9 0 0 K Z K K W W K L ] z.i.0 4X4X4X4X4X4X4X4X4X4X4X4X4X4X4X4X4X4X4X4X4X4X4X4X4X4X4X4X4X4X4X4X4X4X4X4X4X4X4X4X4X4X4X4X4X4X4X4X4X4X4X4X4X4X4X4X4X4X4X4X4X4X4X4X4X4X4X4X4X4X4X4X4X4X4X4X4X4X4X4X4X4X4X4X4X4X4X4X4X4X4X4X4X4X4X4X4X4X4X4X4X4X4X4X4X4X4X4X4X4X4X4X4X4X4X4X4X4X4X4X4X4X4X4X4X4X4X4X4X4X4X4X4X4X4X4X4X4X4X4X4X4X4X4X4X4X4X4X4X4X4X4X4X4X4X4X4X4X4X4X4X4X4X4X4X4X4X4X4X4X4X4X4X4X4X4X4X4X4X4X4X4X4X4X4X4X4X4X4X4X4X4X4X4X4X4X4X4X4X4X4X4X4X4X4X4X4X4X4X4X4X4X4X4X4X4X4X4X4X4X4X4X4X4X4X4X4X4X4X4X4X4X4X4X4X4X4X4X4X4X4X4X4X4X4X4X4X4X4X4X4X4X4X4X4X4X4X4X4X4X4X4X4X4X4X4X4X4X4X4X4X4X4X4X4X4X4X4X4X4X4X4X4X4X4X4X4X4X4X4X4X4X4X4X4X4X4X4X4X4X4X4X4X4X4X4X4X4X4X4X4X4X4X4X4X4X4X4X4X4X4X4X4X4X4X4X4X4X4X4X4X4X4X4X4X4X4X4X4X4X4X4X4X4X4X4X4X4X4X4X4X",
"4X4X4X4X4X4X4X4X4X4X4X4XO K _ W 9 9 6 6 6 6 6 6 6 6 6 6 5 6 6 6 3 3 3 6 6 6 5 7 6 7 7 7 G ' z.e.0 4X4X4X4X4X4X4X4X4X4X4X4X4X4X4X4X4X4X4X4X4X4X4X4X4X4X4X4X4X4X4X4X4X4X4X4X4X4X4X4X4X4X4X4X4X4X4X4X4X4X4X4X4X4X4X4X4X4X4X4X4X4X4X4X4X4X4X4X4X4X4X4X4X4X4X4X4X4X4X4X4X4X4X4X4X4X4X4X4X4X4X4X4X4X4X4X4X4X4X4X4X4X4X4X4X4X4X4X4X4X4X4X4X4X4X4X4X4X4X4X4X4X4X4X4X4X4X4X4X4X4X4X4X4X4X4X4X4X4X4X4X4X4X4X4X4X4X4X4X4X4X4X4X4X4X4X4X4X4X4X4X4X4X4X4X4X4X4X4X4X4X4X4X4X4X4X4X4X4X4X4X4X4X4X4X4X4X4X4X4X4X4X4X4X4X4X4X4X4X4X4X4X4X4X4X4X4X4X4X4X4X4X4X4X4X4X4X4X4X4X4X4X4X4X4X4X4X4X4X4X4X4X4X4X4X4X4X4X4X4X4X4X4X4X4X4X4X4X4X4X4X4X4X4X4X4X4X4X4X4X4X4X4X4X4X4X4X4X4X4X4X4X4X4X4X4X4X4X4X4X4X4X4X4X4X4X4X4X4X4X4X4X4X4X4X4X4X4X4X4X4X4X4X4X4X4X4X4X4X4X4X4X4X4X4X4X4X4X4X4X4X4X4X4X4X4X4X4X4X4X4X4X4X4X4X4X4X4X4X4X4X4X4X4X4X4X4X4X4X4X",
"4X4X4X4X4X4X4X4X4X4X4X; E _ W 7 5 7 0 E K 0 K K K 0 K K 0 E E E K K K Z K 0 K K E K 6 6 9 Z ` j.i.K 4X4X4X4X4X4X4X4X4X4X4X4X4X4X4X4X4X4X4X4X4X4X4X4X4X4X4X4X4X4X4X4X4X4X4X4X4X4X4X4X4X4X4X4X4X4X4X4X4X4X4X4X4X4X4X4X4X4X4X4X4X4X4X4X4X4X4X4X4X4X4X4X4X4X4X4X4X4X4X4X4X4X4X4X4X4X4X4X4X4X4X4X4X4X4X4X4X4X4X4X4X4X4X4X4X4X4X4X4X4X4X4X4X4X4X4X4X4X4X4X4X4X4X4X4X4X4X4X4X4X4X4X4X4X4X4X4X4X4X4X4X4X4X4X4X4X4X4X4X4X4X4X4X4X4X4X4X4X4X4X4X4X4X4X4X4X4X4X4X4X4X4X4X4X4X4X4X4X4X4X4X4X4X4X4X4X4X4X4X4X4X4X4X4X4X4X4X4X4X4X4X4X4X4X4X4X4X4X4X4X4X4X4X4X4X4X4X4X4X4X4X4X4X4X4X4X4X4X4X4X4X4X4X4X4X4X4X4X4X4X4X4X4X4X4X4X4X4X4X4X4X4X4X4X4X4X4X4X4X4X4X4X4X4X4X4X4X4X4X4X4X4X4X4X4X4X4X4X4X6 9 6 7 7 7 7 8 6 7 7 6 7 7 6 8 7 7 7 7 6 7 7 9 6 7 6 7 6 7 6 7 6 6 6 6 6 6 6 7 6 6 6 6 2 , 6 2 , 6 2 , , 6 , 6 , 4X4X4X4X4X4X4X4X4X4X4X4X4X",
"4X4X4X4X4X4X4X4X4X4X2 E _ Z 7 8 9 E q.a.a.a.a.a.d.a.a.d.d.d.f.a.d.d.d.d.a.a.d.a.d.q.0 X 7 7 C ) l.p.W 4X4X4X4X4X4X4X4X4X4X4X4X4X4X4X4X4X4X4X4X4X4X4X4X4X4X4X4X4X4X4X4X4X4X4X4X4X4X4X4X4X4X4X4X4X4X4X4X4X4X4X4X4X4X4X4X4X4X4X4X4X4X4X4X4X4X4X4X4X4X4X4X4X4X4X4X4X4X4X4X4X4X4X4X4X4X4X4X4X4X4X4X4X4X4X4X4X4X4X4X4X4X4X4X4X4X4X4X4X4X4X4X4X4X4X4X4X4X4X4X4X4X4X4X4X4X4X4X4X4X4X4X4X4X4X4X4X4X4X4X4X4X4X4X4X4X4X4X4X4X4X4X4X4X4X4X4X4X4X4X4X4X4X4X4X4X4X4X4X4X4X4X4X4X4X4X4X4X4X4X4X4X4X4X4X4X4X4X4X4X4X4X4X4X4X4X4X4X4X4X4X4X4X4X4X4X4X4X4X4X4X4X4X4X4X4X4X4X4X4X4X4X4X4X4X4X4X4X4X4X4X4X4X4X4X4X4X4X4X4X4X4X4X4X4X4X4X4X4X4X4X4X4X4X4X4X4X4X4X4X4X4X4X4X4X4X4X4X4X4X4X4X4X4X4X4X4X6 ( 8.8.8.5.5.5.8.5.] 5.] ] ] ] ] ] 5.] ] [ ` ' ] ] ' ' ] _ _ _ [ _ _ _ _ ( _ _ _ _ _ _ ( ( ! ^ ! Q ! ! ! ! ! ! ! F 4X4X4X4X4X4X4X4X4X4X4X4X4X",
"4X4X4X4X4X4X4X4X4XO E _ K 6 8 7 6 ! a.a.a.d.d.d.d.d.d.d.f.k.f.f.k.f.d.j.f.d.f.f.j.d._ X 9 7 9 7 ) z.s.W 4X4X4X0 0 Z 0 Z Z 0 0 K 9 9 0 K Z K Z Z K Z Z Z K K S K K K K K K K K K K K K K K K K K K W K K K K W K K K E W W W K K K L W K W K W K K W L L L W L K W K K L K K K K K W W K K K E E K K L K K W K K L K K K W L K E L L K K K K K L K W W K K K K K L K E E W L L K K W K L E K K E K W L K W W L L Q W L L L W K K K L K K K K W K K K K L K W K K K K K L K K K K K E K K K K K K K K K K K K K K K K K Z K K K Z K C Z Z K 0 Z Z 0 0 Z 9 0 K 9 9 0 0 9 9 0 0 0 0 9 9 0 0 0 0 Z 0 K 0 9 9 0 0 9 Z 0 0 0 9 0 9 0 0 9 9 0 9 0 7 0 8 9 7 7 6 7 7 6 7 7 6 6 6 3 O O 6 Q ' ] ] ] ] ] ] ] [ [ ] [ [ [ _ ' [ [ _ [ [ _ _ _ [ _ _ _ _ _ _ ( ( ( ( ^ ^ ^ _ _ ( ^ ^ ! ! ! ! Q Q Q Q ! ! ! ! ! E 7 4X4X4X4X4X4X4X4X4X4X4X4X",
"4X4X4X4X4X4X4X4X2 K ( E 6 9 7 7 7 9 7 2 6 7 6 8 6 6 7 9 7 6 7 7 7 7 9 9 9 9 9 9 9 K ~ + 7 N 9 7 7 ) z.p.Q 4XZ ) ` -.=.=.=.=.-.-.=.*.` =.5.6.;.5.-.=.5.;.6.6.6.6.6.6.7.7.w.9.6.7.7.7.7.7.e.7.7.7.7.w.w.7.w.7.w.7.w.w.w.t.t.w.w.w.7.t.t.7.w.7.7.w.t.7.t.7.e.7.t.7.7.7.7.7.7.7.7.t.w.t.w.7.w.u.e.w.t.7.t.7.t.t.e.w.t.w.t.t.t.w.t.t.7.7.7.7.7.7.6.6.7.e.t.t.t.w.w.w.t.t.w.t.t.t.t.w.w.w.t.w.t.u.w.u.w.7.t.7.e.t.t.7.e.e.7.7.7.7.7.w.7.7.7.7.w.t.t.w.e.7.7.7.e.t.e.t.w.w.7.7.7.t.t.w.t.w.w.w.w.e.7.7.6.7.7.7.6.6.6.6.9.6.6.6.6.6.5.6.6.5.6.=.5.6.;.=.-.-.=.=.5.6.-.=.-.` ` =.=.=.5.' -.-.=.' 5.-.-.-.5.5.-.-.5.=.' ' 5.' ' ' ` ` ' ` ` ` ` ` ' ` ` ` ( ( ( ) ( ( ( ( ( ! Q Q E 7 6 K Z 7 6 6 6 6 6 6 6 8 7 6 7 6 8 7 7 9 8 8 6 9 9 6 6 7 8 7 7 6 6 9 6 6 6 6 6 7 6 6 , 6 6 7 6 6 , , 7 6 2 6 6 6 6 6 6 0 K 6 4X4X4X4X4X4X4X4X4X4X4X",
"4X4X4X4X4X4X4XO E ! E 6 6 6 8 7 8 9 Z E 0 E E Z Z E E 0 E E E E K K K K K K K K S W W + 3 7 7 7 9 Z ) l.l.^ 4 3 4 7 7 7 7 7 7 C 7 7 C N C C C C Z C C C C C C C A Z C C S A A Z A Z K A L K K A L A S Z L S L A S S S L S S S S A S L L L L L A L P L L L L L L L P S L P S P L L P L S S P P S D L P S P L L L L P L P S P L P P L P L L P P S L P L L P L P L W P P P L D L L P L L P S L D D P L P L L L L L P L P L P L L P P L P L L L L K L L L P L L L L L L L L L L L L L L L L L K F S K K K L K S K L K S K L Z L Z Z K A L K Z Z Z Z Z Z Z C Z Z Z C Z Z C 9 K Z Z K Z Z Z Z Z K 0 S K Z Z K K Z K C Z Z Z Z Z 9 Z 9 C 9 Z Z 9 9 9 C 9 9 9 9 7 6 3 3 7 7 7 6 O O 6 7 6 6 7 7 7 0 0 0 0 E Z E Z E E E 0 E Z E E Z Z E E Z 0 0 E 0 0 0 Z 0 0 0 0 0 0 0 0 0 0 Z 8 Z 0 8 0 0 8 8 9 0 0 0 7 0 0 Z 6 4X4X4X4X4X4X4X4X4X4X",
"4X4X4X4X4X4X2 E ! Z 6 7 9 9 6 9 7 0 0 0 Z Z Z Z 0 0 0 0 0 0 0 0 0 Z K Z 0 0 E Z 0 E W . > 7 7 9 9 Z Z ) z.z.( 7 7 7 0 8 9 9 9 C 9 Z 0 Z B C Z C Z Z Z Z Z Z C Z Z Z Z C Z S C Z Z Z Z A K Z Z Z Z S Z L Z S Z L Z S Z S Z S Z L L K A K A J L Z C L C L L C L A S L S Z S A Z S Z Z A L Z A S Z Z K A Z Z L Z S L L L L A K A L L A K K A L K K S S S K S Z S S S S S S S S S S S K K S A S S S S L S L S S Z S L L S S S S S S S A S S S S L A Z S S S S S S S L L L Z S Z S S Z Z Z S Z A Z A S Z Z Z Z S S Z Z Z Z Z Z Z Z Z Z Z Z C Z C Z 9 0 0 0 8 0 0 0 Z Z 9 Z 9 0 Z 0 0 9 0 0 0 8 0 0 0 0 0 0 0 0 9 B 0 9 9 9 0 0 8 0 0 9 8 0 0 0 0 0 0 0 8 0 7 8 7 7 9 7 9 0 7 8 6 0 0 0 8 7 2 , 8 8 8 0 0 Z 0 F 0 0 E 0 Z 0 E 0 0 Z 0 0 0 0 0 0 8 9 0 9 9 8 8 8 8 0 8 8 8 8 8 8 8 0 8 0 0 6 0 6 0 8 6 7 8 8 0 0 6 4X4X4X4X4X4X4X4X4X",
"4X4X4X4X4X2 E ! 0 6 6 7 9 6 6 9 8 8 6 6 6 6 6 6 6 6 6 6 6 6 6 6 6 6 6 6 6 6 6 0 Z E E + 3 4 7 9 9 9 C 9 ) l.z.y.r.i.r.y.y.r.r.y.r.y.y.a.i.i.y.i.y.p.y.p.y.y.t.s.p.i.s.g.p.h.p.s.p.p.s.s.p.s.p.h.s.s.h.s.h.g.g.s.p.p.p.h.s.p.p.p.p.p.p.p.g.g.p.g.g.p.g.g.g.p.p.p.g.p.p.g.j.g.g.h.h.h.s.s.h.h.h.h.h.j.j.j.h.h.h.j.h.j.j.j.h.h.h.h.h.h.h.h.h.h.j.j.j.j.j.j.j.h.h.h.j.j.j.j.h.j.j.j.d.h.h.h.h.h.j.j.h.j.h.h.h.h.h.h.h.p.g.g.j.h.s.s.s.h.h.h.s.d.s.h.g.s.h.h.s.s.s.s.g.h.g.h.h.s.h.h.d.d.h.s.s.s.p.s.s.p.p.i.a.p.i.s.p.y.i.p.p.i.y.p.a.i.i.p.i.y.i.r.y.r.y.i.i.y.y.r.r.i.i.i.r.r.r.r.r.r.y.r.r.r.q.r.q.r.r.q.r.r.q.r.q.e.r.q.r.e.q.q.r.0.0.9.9.q.q.q.0.0.9.9.0.0.0.9.q.q.0.q.9.9.8.0.0.8.5.! 6 , 8 8 0 0 0 F 0 Z 0 0 0 Z 0 E 0 0 Z 0 6 0 0 0 8 8 9 9 9 8 8 8 8 8 8 6 8 8 8 7 0 0 6 0 6 0 0 6 8 0 6 9 6 6 8 8 0 0 6 4X4X4X4X4X4X4X4X",
"4X4X4X4X2 E ! 0 7 7 6 6 6 9 7 7 7 X     +       +   +     +   +   +         + 7 C K W   > 3 7 7 7 C C C 9 / ;.y.r.y.y.t.r.e.e.r.y.y.y.y.y.y.y.y.y.y.t.y.y.y.t.y.y.y.y.p.i.s.p.p.g.p.p.p.p.p.p.p.g.p.p.s.g.p.p.p.h.p.p.p.p.p.p.p.y.p.p.p.p.y.p.p.p.g.p.p.p.p.p.p.g.p.g.g.g.g.p.p.g.j.h.h.h.h.h.h.h.g.h.h.h.j.j.g.h.j.j.g.j.g.j.g.h.h.h.h.p.h.h.j.j.h.h.h.j.h.g.h.j.j.j.j.g.g.g.h.h.h.h.h.h.h.h.h.h.j.h.h.g.h.h.g.g.h.p.g.h.h.h.s.s.h.g.p.h.h.s.h.h.g.p.p.s.s.g.h.h.h.g.h.s.h.h.h.s.s.p.h.p.i.s.s.s.a.p.p.s.p.i.i.y.y.i.p.a.y.y.a.y.i.i.y.i.y.r.y.i.r.y.i.i.i.r.r.y.i.r.r.r.r.r.r.r.r.r.r.i.r.r.i.r.r.y.r.r.q.r.r.i.q.q.i.r.q.r.r.r.0.r.q.q.r.q.r.0.0.q.0.0.q.q.0.0.q.0.0.9.9.9.0.q.9.9.9._ 2 6 0 0 0 0 0 0 0 0 E Z 0 0 0 8 0 0 0 9 9 9 7 8 9 6 8 9 9 0 0 0 8 6 0 6 8 7 8 8 6 8 8 0 6 8 6 8 6 6 8 6 8 7 6 8 8 0 2 4X4X4X4X4X4X4X",
"4X4X4X4XO Q Z 6 7 7 7 7 7 9 6 6 X     X O O O X O O O O 2 @ 2 2 , O 2 O +     6 C K W   3 4 7 C C 9 C C C 7 4 7 6 7 7 7 7 N 6 4 > 7 9 N N N 7 m N B N N 7 N 7 j 7 N M N N N M m N N N N C m m m N N N N N N N N C N N N N 4 m m N N m m N M m N M N N N N N m V m C N m C N m m V N N N N N V m A N m N m m m m m C m N V A N V N A V V N N N N N N N N m N M j N N N N V C m M V N N V V N V V N N N 4 N N N N m m N C N N N N N N N C N C N N C N N N N N 7 N C 7 N N N N 7 C N N N 7 N 7 7 C 7 N N 7 C 7 N 7 7 7 7 7 7 7 7 6 7 6 7 7 7 4 3 6 7 7 6 , 6 , 6 > 6 3 3 3 6 6 6 6 7 7 6 6 6 6 , 6 , , 6 6 6 6 6 , 3 3 6 6 6 ; 6 6 6 6 3 , , 6 , 6 7 6 6 6 6 6 6 ; 6 3 6 6 6 6 6 6 6 8 6 E _ E 6 6 8 0 0 0 0 0 0 0 0 0 0 0 8 8 0 0 9 9 8 8 8 7 8 8 9 6 8 6 8 8 0 0 8 7 7 7 8 8 8 6 8 0 6 8 6 8 0 6 7 7 7 7 7 7 0 0 O 4X4X4X4X4X4X",
"4X4X4X4XO 0 8 8 7 6 6 8 6 7 2 X     + ; 2 6 6 6 6 6 7 7 6 6 6 6 6 6 6 7 2   + 7 Z K W . > 4 4 7 7 7 C 7 C A Z A A S S A S S S A A D S D A D D S D D D S D A A S D D A D D S D S D D D A D D S D P D P D S D D P I D D D P D D P P D P S D D P P P P P P P D D D P P D D P D P D P P D D D D I P P I P P D P P P D D D P P D P D D D D I D D D D D D D D D D D D D D P P D D D D D D D D D D D I I P D S D D D D D D D D D P P S S D D P D W I S D P P D D A D D S P D S S D L S L S S L S P S S L S S S S F S S Z S S Z S Z S S S S Z Z Z Z Z Z Z Z 0 Z Z Z Z Z Z 0 0 Z Z 0 9 Z Z Z Z 0 Z Z Z Z Z Z 0 Z 0 Z Z Z Z Z Z 0 0 9 8 Z 0 0 0 0 8 Z 0 0 0 0 0 0 8 0 0 0 7 0 8 8 7 0 8 0 0 0 0 9 0 ! E 6 6 7 6 7 6 8 6 6 6 6 6 , 6 6 6 6 $ 6 7 6 2 , 6 6 6 , , 2 6 6 6 6 6 6 6 6 2 6 6 6 6 6 $ 6 6 6 6 , 6 6 6 2 6 6 6 6 6 X 4X4X4X4X4X",
"4X4X4X4X4X6 6 6 7 6 8 6 9 6 + +     X , 6 6 6 7 6 8 7 6 9 7 9 7 7 7 7 7 O   + 7 C L E   > 6 7 7 7 C C C C C C A S A D D A S A D S A D S D S D S D S D D D S D D A D D S D A S D D D D D D D D S D P D D P D I P D D D D P P D D P S D D D D D P P P P P D D D D P P P D I I D P P P D P D D D D P P D P D P I I I I D P P I I P D D D D D D D D D D P P D D D D D D P P P P D D I P D D D D D D I P D D D D D D S P I D I D D I D D S D D P P D I D D D D D D S P D D S S D D S S P A S L S S S P L P S A S S S S S S S S S Z S A Z Z Z Z Z Z Z Z Z C B Z Z Z B Z Z Z 0 Z Z B 8 F Z Z 0 Z Z 0 0 Z F Z Z Z 0 8 8 8 0 8 0 8 9 9 8 8 8 0 0 0 0 0 8 0 0 8 8 8 7 0 7 8 7 8 7 0 7 8 8 0 0 0 7 7 0 W W E Q ! Q W ! ! ! ! ! ! ! Q Q Q W F Q ! Q Q Q Q ! ! Q Q Q W W ! Q E Q Q F Q Q E F E E E E E E E E E E E E E E E E E 0 O 4X4X4X4X",
"4X4X4XX + , 8 6 6 9 8 6 , X   X O   X 6 6 6 7 6 7 7 7 8 9 6 8 6 6 6 7 7 2     6 9 K K + > 4 7 7 6 9 7 C C C A Z B 6 > 7 N 4 N 7 > N N N N 7 m N 7 N j N N 4 4 j m m 7 m j j 7 j 4 > N N N N 7 m N N N N m N N N N N N N N m m N M m C m m m m C N m m m M N N N N m A m V m m m m M N m m V V V m V M M M N V V A A m N V m V m N N N N A V M N N N A B M N N M V V V M V V V V N V V V A V V V B N N N N N N m N N N N N N C C N N N M N C N N N N C 7 N N N m N N N N N N N N C N N N C 7 C N 7 N 9 C 7 N N 7 7 7 6 7 7 6 7 7 6 6 4 , 4 7 6 6 6 > 3 6 6 6 6 > 6 6 7 6 , 3 6 6 6 6 6 6 , 6 6 6 6 6 6 , ; 6 6 ; , , O 6 6 ; , 6 , , 6 O 6 6 , ; 6 ; 6 6 , , 6 O 6 2 6 6 6 6 6 2 6 6 0 0 7 7 0 W [ q.q.q.q.q.q.q.a.q.q.q.q.q.q.0.0.q.q.q.q.q.0.0.q.q.q.0.9.9.9.9.0.0.8.0.0.8.8.0.0.8.8.5.8.8.8.8.5.] 5.5.8.8.8.8.5.] E O 4X4X4X",
"4X4X4X+ + O 6 6 6 6 6 , +   + 6 6 + X 6 6 6 6 6 7 6 7 7 7 7 7 9 8 7 8 8 6     7 C Z K + 3 6 4 6 7 N 7 N C C Z N X .           .           .     .           . . .   .   . . . . . . . . . . . .   .   + . . . . . . .   . . . . . . . . . . . . . . . + . . . . . . . . . . . . . . . . . . . . . . . + . . . . . . . . . . . . . . . . . . . . . . . .   . . . . . . . . . . . . . . . % . . . .   . .   . . . . . . . . . . . . .   . . .   . .   . .   .     .     . .       .       .   .   .                                                                                                                                                                                   $ 7 9 8 8 0 0 W Q W ! F Q Q Q ! ! ! Q ! ! W Q Q ! ! Q Q ! ! ! ! Q F Q E Q Q Q Q Q W Q Q Q Q E E Q W E Q E E E E E E E E Q E Q Q Q 8 O 4X4X",
"4XX +       + O O O O       6 8 O   O 6 6 6 7 7 7 7 8 8 7 7 9 8 7 7 7 8 ,     7 0 Z K   > 4 7 > 7 N 7 N A A 7 X . . . . % . . % % . % . % % % % % % . % % . % % . % % . % % % % . % % % % % % % % % % % . % . % % % % % % . % . % % % % % % % % % % % % % % % % % % % % . % % % % % % % % % % % % % % . % . % % % % % % % % % % % % . % . % % . % % % % % % % % % % % % % % % % % % % % % % % % % . % . % % % % % % % % . % % . % % % % % % % % % . % % . . . % . % % . % . . % . % % . . % % . . % . . . % . . .     .                                                                                                                                                               O 7 8 8 8 6 6 8 8 8 8 6 0 0 6 0 8 0 0 0 0 8 8 7 8 7 6 6 0 6 6 0 8 8 8 6 8 8 8 6 0 0 0 8 8 8 8 8 8 8 8 8 8 $ 9 9 6 7 7 6 9 8 6 8 E 6 @ 4X",
"4X+ X                     O 0 6 O   O 9 6 6 6 6 6 6 6 7 6 7 6 6 7 7 6 8 6     7 Z S E   > 7 4 7 7 N 7 C A 4 X . . % . % % % % % d d * * % * * * * * * * * * * * * * % % % . . . % % . . . % . . . . % . . % . . . . . % % % * % % % . . . % % . % . . . % . . . . . . . . % . . . % % % % . % . . % % . % . % . . . . . . . % . . . % . . % % % % . % . % . . % % . % . . % . . . % . . . . % . % % % . . % . . . . . % . . % . % . % . . . . . % . . . % % % . . . . . . % . . . . . . . . . . . . . % . . . . % . . . . . .   . .           .           .                                                                                                                             2 8 0 8 0 Z 0 0 Z 0 0 Z F 0 0 Z E 0 F 0 E Z 0 E Z E E 0 E E E 0 0 0 E 0 0 0 F 0 Z 0 0 0 0 0 0 E 0 0 0 0 0 0 0 0 0 0 0 0 0 0 0 0 E 7 O ",
"4X  X     X     X X       2 Z O O   O 9 6 2 O O O X X X 1 X O X X 2 2 8 6   + 7 0 S E   ; 6 > 7 6 N C A 8 # i s O.O.o.o.o.o.o.o.+.+.+.+.+.+.+.+.+.+.O.a < & < = * * * % . - > 1 ; ; ; ; o ; O O - O O O O ; % O o .     . % * % % : ; > ; : ; ; ; O ; O o O O O % O O O % X   . . % * % % - ; ; ; : ; ; ; O ; O - O O ; O O X ; O X   . . % * % % : - ; ; 3 ; 1 o ; O O - O O ; % O ; O % X .   . % % % ; ; - ; > ; ; O - O O O o O O O o ; - O .     . % % . ; - : ; ; ; ; ; O - ; O O - ; O O O ; X X .   . . % . % % X % % ; ; - ; ; X O O X O o X X o o o o +     .       .   + X X + X o X + X X X X . + + X X + X   +               X + + X X + X + + X X + + + X     +             2 6 8 8 6 6 8 7 8 7 6 6 8 8 0 6 0 6 6 8 8 6 7 8 0 6 8 8 0 6 0 8 8 8 6 8 6 6 0 8 6 6 8 6 0 8 6 8 7 7 6 6 6 6 $ 8 6 6 6 6 8 7 7 7 8 @ ",
"X +   X 2 8 X X 0 8 , X   2 Z @ O   O 9 6 0 E Q ! Q Q Q ! ! Q Q Q E 6 6 6     6 0 Z E + > 6 7 7 C C Z Z # u ..B.L.L.Q.Q.Q.Q.Q.Q.~.L.P.P.L.Q.Q.E.E.E.L.x.u e e # * d * % > A C C C C Z C C C C 9 C C C 9 9 7 9 C 7 ; . . . * * % - V C C Z C Z C C 9 C 9 C C C C 9 C 9 9 7 > +   . . * % = C Z A Z C Z C C C 9 C C C C 9 C 7 N 7 9 ; .   . % * . > C A C A Z Z C C C C C 9 C C 9 N 9 7 9 9 ;   . . . % : N A A Z C Z Z C C C C 9 C C C 9 N 7 9 9 ; .   . % % * N A C S A C C C C C C C 9 C C C 7 7 9 9 > .     . * % % % : N C C Z C Z Z C N C 9 C 9 C 9 9 4 C 9 7 >   .     .   X > 7 7 7 7 9 7 6 7 7 7 7 7 7 7 6 7 6 7 6 X   .       . > 6 7 , 6 6 6 6 6 6 6 6 6 6 6 6 6 O O O             +   X     X   + +   +   +   X X X X     X     + X X +   X X   X + + + X + X   X +   X + +   +       + + X X X + X + X   +   + + + ",
"+     2 6 E O X E 7 O X   O 0 ; O   X 9 0 ( 0.a.a.a.a.y.r.a.a.q.q.5.E 8 6     6 0 K K   > 3 7 7 7 C S 8 e | B.L.D.C.C.C.Z.Z.P.Z.U.U.F.V.V.S.P.S.C.C.U.^.#.r r $ = f * & m > > > > > > ; ; ; ; ; ; ; ; ; ; ; - ; ; ; X   . * d - > 4 3 > 3 > ; 3 > > ; > ; > > ; : ; ; ; > ; o   . . * % m > 5 4 3 > > ; 3 > ; ; ; ; > ; ; > O ; > ; O   . % * : m 4 > 3 3 ; 3 > > > ; ; ; ; > ; ; ; ; ; : ; X   . . - m 4 > > 3 1 > > ; ; 3 > 1 ; ; ; > ; ; ; > ; X   . % % > 4 > > 3 > ; > > ; ; ; ; > ; ; ; ; ; ; > 3 O + . . * * % . > N 7 4 4 N 4 4 4 4 4 4 > 3 4 4 3 3 3 3 6 , O   . .   . X > 3 6 3 6 7 3 3 3 6 > , > 6 , > , ; , 6 , .     .   O , , , ; ; ; 3 ; ; 3 > 3 , , , , ; O O ; O +                                                                                                                                           ",
"      X X 8 X X 8 O X +   6 0 6 O   2 8 6 0 0 0 0 Z W E F W E E 0 E F 0 7     7 9 S K   ; 4 4 5 4 N A 7 #  .L.P.D.V.V.V.F.F.Z.S.S.F.S.S.U.F.F.S.Z.V.Z.|.%.i r i x g * : m ; - - ; ; - O ; - ; - - ; o ; X - ; o - ; o   . * d - m ; ; - : ; ; O 1 o ; o O O O - O o o X X ; >   . % d * > : - - ; ; ; o ; O ; o o ; O o o o O o o o ;   . - = : m ; - - ; - - : O ; ; o ; o o ; O o o X X ; O + . % : m ; - ; - : - ; - ; - O - - ; o o o o X O ; o   . % % > > ; - - ; ; - O ; - O ; o ; - o - - X o O ;     . * * % : > : o - o - o o ; o o . X o - o o . . . X ; :           ; X X X . X . X X . X X X X X X X X X + X O +   .   X ; X + X X X X X X X X X X . + + X X + X X X X           +     X +                                                             X   . +                                                 X ",
"X     X X 8 O X 0 , X X   2 0 ; O   2 0 8 6 6 6 7 7 9 0 9 K 0 Z 0 0 8 0 7   + 7 9 K K   > 3 7 4 7 N S 8 # | L.P.D.S.Z.G.G.J.G.F.G.G.S.F.F.I.G.Y.I.Z.F.XX%.r t i z g d j m - ; ; ; ; > ; ; ; ; ; ; - - ; O - - o O ; X   . * f : m : > - - ; ; ; ; : ; ; ; ; o ; ; o ; - o ; > . . % d : m ; ; ; : ; > > ; ; ; ; ; ; ; ; ; o - ; ; ; ;   . % l > m - > ; ; ; ; ; ; ; ; ; ; - - ; ; O - - o ; O   . % > m > ; ; > ; ; ; ; ; ; ; - ; - ; ; O - - ; ; O + . X : j > > > ; > ; ; ; - ; - ; - o ; ; o - ; - ; >     % d * % : m > > - > 1 : ; ; ; ; ; ; ; ; ; ; ; - ; O ; >   .   + . 3 o o ; o ; o O o ; O O o ; o O X O ; X O ; +     . + , o O O X O o O o o O o o X O X O O o o o X X         + @ O X X O +     +       . . . +   X   X X   + X X X + X X   + X X X X X X X X X O X O X X X + X X   + X X X X                   ",
"    + X O 0 X X 0 ; X     , 0 , O   X 0 6 8 0 0 9 7 9 0 9 Z Z Z Z 0 8 K 6     6 C K E   3 4 4 4 N C S 9 #  .L._.V.F.G.G.G.J.K.I.G.G.G.I.F.G.G.I.I.G.U.XX%.t y i z g d > m > > - ; > ; ; ; ; ; - ; ; o ; ; ; ; - ; ; %   . d d : m ; 4 ; ; > ; : ; ; O ; ; - - - : ; ; - ; O ;     % d > m : > ; ; ; - ; ; ; - ; ; - - - ; ; ; - O % ; . . % d > M ; > ; > ; : ; - ; ; - ; ; - o ; - ; ; ; - ;   . % 4 M : ; > - > ; ; - ; ; ; ; - o o ; ; ; - O ; -   . % - M j > - - ; ; ; > ; ; ; ; ; - - ; ; ; o o > ; +   . d d * - m > > ; : ; ; ; ; ; ; ; ; - - - ; - O ; ; ; ;         X ; ; O O ; o ; O o o o O - o O O O O X X ; ; X   X   + > o o O O O O o o O X O O O O X O O o O X O X         + , , O O O X     X X X X X X X X X X X X X X X X O X X X X X X X X O X O O O O O O O O O @ O O O O X X o X X X X X       +     X ",
"      O 2 8 X X 0 2 1 +   2 0 6 2   O 0 7 9 6 9 7 9 6 9 9 9 9 9 0 0 9 K 6   + 6 C K K   ; > 7 N N B S B i  .Q.I.F.G.G.K.K.Y.Y.K.Y.Y.Y.Y.K.I.I.Y.Y.F.I.@Xx.t t i z d * j V ; > ; ; > ; ; ; > ; ; ; ; ; o O 1 ; - ; ; o   . d d - m > 4 > > ; ; ; > ; ; ; - ; ; ; O ; ; ; o O ; .   % d > M > > ; > > > ; ; ; ; ; - ; ; o - ; ; - ; O ;   . % d > M - > > > > ; ; > ; ; ; ; ; ; o ; ; ; ; ; ; ;   . - > M > > 1 ; > ; ; ; ; ; ; : > ; o ; ; O ; ; ; o + . - - M > 3 ; > > ; ; ; > 1 ; - ; - ; ; ; ; ; ; ; >     % d d * - M > 3 > ; ; ; ; ; ; ; ; ; ; ; o - ; O ; ; ; >     .   X 3 O O ; o ; O ; ; ; o O O o O O O ; O O O ; X   . X + ; O O O X O O O O O O O O O O ; o o ; o o O O         X 6 , O 6 O O       +       +     X +       + X +   X           X 2 O , @ 2 2 , , , 2 2 , 2 $ 2 , O O O O O O O O 2 + @ 0 E E 2   ",
"      X X 8 X X 0 $ X   + @ 0 2 O   X 0 6 6 9 9 9 7 9 9 8 9 9 8 7 0 7 0 6 + + 6 C Z K + ; 3 4 7 4 A S B e  .Q._.G.J.K.K.I.T.T.T.T.T.Y.I.K.Y.Y.Y.K.G.I.+Xx.y y i z g d j M > 4 > > 3 ; ; > ; ; ; ; - ; ; - ; ; ; O ; o   . * g : m > > > ; > 3 ; ; > ; > ; ; - 1 ; o O ; ; ; ; + . - g = M ; 4 > > > ; ; ; > > ; ; ; ; - ; O 1 O ; o ;   . * f j V > 5 > > > ; > > 3 ; ; ; - ; ; o ; ; o ; o o   . % j V > > 4 ; > > ; > > ; ; ; O ; ; ; O ; ; O ; o   . - : N > 4 > 1 > ; > ; ; > > ; ; - ; ; - O ; O O ; .   X d d - : M > > > > > > ; ; > ; ; ; - ; - ; o ; ; - O ;     . + X 6 O ; O ; O O O ; o O ; O O ; o O O O O ; ; X       X , O O O ; O O O O O ; O O O O X O O o O o O O         X 7 3 , ; O @                                                   + 6 , 2 , 2 6 2 2 , 6 5 , , 6 2 6 2 , , O , O , 2 @ + 8 _ ( _ 0   ",
"      O 2 8 X X 0 @ X +   , Z O O   X 0 6 9 6 7 9 6 9 9 9 7 9 9 8 9 0 K 7     7 9 Z S   ; 3 4 4 7 A D B e  .!._.G.J.K.T.T.T.T.T.T.T.T.T.Y.Y.Y.T.Y.K.I.@Xx.y y i z h d j m > > > 1 > > ; ; > 1 ; ; ; - ; ; o ; O O ; o . . d g > M > > > > > > 1 ; ; 3 ; ; - - ; ; ; O ; O ; ;     * h > m 4 4 > > 1 ; ; > ; > ; - ; ; ; ; ; ; ; O ; ;   . * d > M > > > ; 3 > 1 ; ; ; > ; ; - ; ; O ; ; - ; O   X - = V > > > > ; 3 ; > ; ; ; ; ; - - ; O ; - ; : X   . - * N 4 4 > > > > 1 ; > ; ; ; - ; ; ; o ; O ; ; >   . % d d * : m 4 4 > 1 3 > ; ; > > ; ; ; ; ; ; O - O O O >     .   X > X O O o ; o ; O ; ; O O ; - ; ; O O O O ; .   X   + , ; O O O O X O O O O O O o O O o o X o ; O O         X 7 ; O , , 2         +                                         + 6 , , , , 6 6 , , 2 $ 2 $ , 2 2 3 , , 2 , O O O 2   2 9 2 2 6   ",
"+     X X 0 X X 8 , O +   2 0 , X   X 0 9 6 9 9 9 9 9 6 9 6 8 9 7 7 7 0 6     6 9 K E + > 3 4 7 N C A B t ..^.[.J.G.K.T.T.T.T.].]. X].T.T.Y.T.T.T.Y.}.%Xx.u y r z c d > m > > > > > > > ; > > ; ; ; ; - ; ; ; O ; > o   X d g : m > > > 3 > > > > ; ; ; ; ; ; ; ; ; ; O ; ; >   . * h = M > > ; > > 4 ; 3 ; ; ; ; ; : ; - ; ; o ; ; ; + . * f > M > > > ; > > > > ; ; ; ; ; ; - - ; ; o ; ; ; + . * > M > > > ; 4 > > 1 ; ; ; ; ; ; ; ; ; ; O ; ; ; . . - * j j > ; > > > > 3 ; ; ; ; ; ; ; ; ; ; ; O ; , +   % d * % * M > 3 > > > > > > ; 1 > ; - ; ; ; ; ; ; ; ; 3 +   .   X > ; O O ; o ; O o O ; O O ; O o o o O O O O X   .   . , O ; O ; ; O ; O o O O O O O O o O O O X O O         O 7 3 6 , 6 2   X O O O , , 2 2 , , , , , , , , , , 6 O , 2 2 @ 6 9 , 2 , , 6 2 @ 2 0 0 0 6 8 6 $ 2 O , 2 , , , 2 @ + 6 0 7 7 6   ",
"      X X 0 2 X 8 2 X X   @ 0 O 2   O 0 6 6 7 9 6 9 9 7 6 9 9 6 7 6 7 0 6     6 9 K K   ; 3 4 4 7 N A B t #.~.[.Y.I.Y.T.T.Y.T. X XOX{.T. X].'.'.'.Y._.%Xc.u y i k v d m m > 4 ; ; 4 ; ; > > 1 : : ; 1 ; > ; ; - ; ; O   . d h = M 4 4 > > 5 > ; > 1 : ; ; ; ; ; ; ; ; - ; ; ; + + % h > m ; 4 > ; > > 1 > 1 1 ; ; ; ; ; ; ; ; - ; ; O   . : f j M > > > > 3 ; ; > > ; : ; ; ; - ; ; - O ; ; ;   . * j M > > ; > > ; ; > > O - ; ; - ; ; ; ; o ; ; O   . - : j j 4 1 > > > ; ; ; ; ; ; ; - ; ; ; ; - ; ; ,     . d d * : M 4 > > > > ; ; > ; ; ; ; ; ; ; ; ; ; ; ; ; , . . .   X 3 o ; ; O ; O ; ; o O O O ; ; o ; O O ; O ; +   .   X ; O ; O O O O O O O O O o ; o O o O X O o O O         X 7 ; , , 6 2 X , 0 E E E E E E E E E E E E Q E E E E Z E E E E E Z 2 6 6 2 , , E Q _ _ ^ ! ! Q 0 6 @ 2 , , , @ , O   2 0 6 6 2   ",
"      X X 8 X X 0 2 O     2 0 O @   X 8 6 7 7 7 6 8 9 7 9 9 9 9 7 7 0 0 6     7 C K W   ; > 4 7 N C S B w #.~.[.Y.T.T.T. X X X XOXoX X XOX X].T.].Y.I.%Xv.y y p z c d m V > 4 > 4 > > ; ; ; ; ; - ; - ; ; ; O ; ; ; X   . d h > m > 4 > > > 1 > ; > ; ; ; - - ; : O ; ; O ; ;   . % h = m > 4 > > > > > : ; > ; ; - ; ; ; ; ; ; ; O o . . : g > m 3 4 3 > > ; ; ; 1 ; ; ; - ; ; ; ; ; ; ; ; X   X * > M > 4 > > > > > ; > 1 ; ; O ; > 1 ; ; ; ; ; O   . & : N > 4 > > > ; 3 > ; ; ; ; : ; ; ; ; o ; O ; ;     & g d : > m > 4 > > > ; 3 ; ; ; ; ; - - ; ; ; ; X ; ; ;     .   X 3 ; O O ; ; O O ; ; O ; ; O O ; O O O O O ; X   X . X , O O O O o O O O O O O O O o O O o ; O ; O O         X 7 6 O , 6 O X 2 8 7 0 7 8 0 0 8 0 0 8 0 0 0 9 9 9 8 8 0 6 8 8 0 6 , 6 6 $ 0 _ ] ^ E F E 0 0 E ! E 0 6 O 2 2 2 , 2   , 0 6 9 $   ",
"X     X X 8 X X 0 2 O X   2 0 O 1   X 0 6 6 7 8 9 0 8 8 9 9 9 9 7 7 7 0 6   X 6 Z K E   ; > 4 6 7 B S B t @./.[.K.T.{. X$X#X#X$X$X#X$XoXoX$X X]. X}.}.%Xb.u y a b v g m m > > 4 > 1 > ; ; ; ; ; ; ; ; ; - ; O ; O ; X   . d h = m > > 4 4 > ; > > ; ; ; 1 - > ; O ; O ; O ; ;   . : g > M > > 4 4 > ; > ; > ; ; ; - ; ; ; - O ; ; ; ; + . * f m m > > 4 4 > > > ; ; ; ; ; - - 1 ; ; O ; ; ; O   . : j M > > 3 4 > > 1 ; ; ; ; ; ; ; ; - o - ; O ; O + . % : j j > 4 4 ; > 1 ; ; ; ; ; - ; ; - ; ; O ; ; ; +   - d d * : m > 4 4 5 > : > ; ; ; ; ; ; ; ; - ; ; O O ; ;     . + X 6 ; O O o O O O O O ; O o O O o O ; X O O O X       X , ; O O O O O O ; O o O O X X O O O O X O O O         X 7 6 ; O 6 O X O O 2 2 O O O 2 O O O O X @ 2 X @ O X 2 X O O , 2 2 $ 6 2 E 5.] 0 $ 2 , , 6 6 2 , 8 Q E 6 X , , , 2 X , 0 6 6 2 + ",
"      X X 8 X + 8 2 X X   2 0 , X   2 0 8 6 6 6 6 6 6 6 6 9 9 7 7 7 7 0 6   X 6 C K F + O > 4 N > A A B w #./.OXT.T. X$X&X=X=X=X=X=X=X=X&X&XoX X]. X].%Xb.u u p n v d m m > > > > > > > ; ; ; ; ; ; - O O ; ; ; ; ; O + % d h = m > 4 > > ; > ; ; ; ; ; ; ; ; ; O ; ; ; ; ; ; + . * c : M > > > > ; 3 ; ; ; ; ; ; ; ; - ; o ; ; O ; ; + . * f l m > 4 > > > 1 > ; ; ; ; ; ; ; ; O ; ; ; O ; O . X * > M > > > 4 ; > > ; ; ; > ; ; - - O ; ; ; ; ; O   . * : N > > > 4 > 3 > > : ; ; ; ; ; - ; o ; ; ; ; > X   % g d * : m > 4 > > > > ; > ; > 1 - ; : ; ; ; - ; ; ; , .   . + X 4 O O ; O ; ; O ; O O ; ; O ; O ; o - O ; ; X   X . + ; O ; O ; O O O O O O O o o O O o ; o X ; O O       X O 7 , 6 , 6 , X 2 2 2 @ 6 O 2 @ , , 6 2 2 2 2 2 , 2 2 @ , 2 , 2 2 6 6 6 E [ ^ 2 2 6 , , 2 6 6 6 8 6 6 0 E 2 X 2 , @   , 0 6 9 6   ",
"    + X X 8 X X 8 2 X X   , 0 O O   X 0 7 6 7 7 6 X O O 2 6 9 9 7 7 9 0 6   + 6 Z Z K   ; > 4 4 7 C S B y @.XXOX'. X X#X=X:X:X:X>X;X>X>X;X;X&XOX{.{.{.%Xn.{ u p n v d m M > 4 > > > 3 > > 1 ; ; ; ; ; O - ; - ; O ; ;   % f c = m 4 4 > > > 4 1 ; > ; ; O ; 1 - ; ; - ; O ; , + . * c > j > 4 > > > 3 3 ; ; ; ; ; ; ; - o - ; ; O ; ; + . = h m m > > > > ; 3 > ; > ; ; ; ; ; ; - ; - ; ; ; O   . : l m 4 4 ; > > 3 > > ; ; ; ; ; ; ; o O - ; ; ; ;   % * : M 4 4 > > > 3 > > 1 ; ; ; ; ; ; ; - ; ; ; ; , .   % k d = = M > 4 > > > > > ; ; ; 1 > ; ; ; ; - ; ; ; ; > +   .   O 6 ; ; X % O ; O O O O O ; O ; O O O ; O O ; +   . X X , O O O O ; O O O O O O O O o O O O O O O ; O         X 7 6 , 2 , O X O 2 , O , O @ ; 3 O , , , O O 6 O O 6 O , O O , @ 2 @ 0 ^ E O 2 6 , , @ 2 2 2 6 6 8 6 6 0 0 , O 2 @ + $ 0 6 6 6   ",
"      X X 6 2 X 8 O X +   O 8 O X   2 0 6 6 7 7 2 X X X + + 9 9 7 7 0 0 7 + + 7 C Z K + O > 4 4 4 C A N t $.(.$X{. X$X#X:X,X1X1X,X<X,X,X,X,X;X&XOX].{.*Xn.u u p n v g m m > > > > > 4 ; ; > ; ; ; ; > ; ; o ; O O > O + X f v = m > 4 > > > 4 > > ; ; 3 ; > > ; ; O - O O ; > X . : c 4 j 4 4 > 3 > > > > ; ; 3 ; ; > ; ; ; ; ; O ; 3 . . = h l N ; > > > > 4 3 1 > ; ; ; ; 4 ; ; o - ; ; ; ; + % - m m > > > > > 3 > 1 ; ; > ; ; > ; ; ; ; - O ; ; X . : * M > > > ; > > 3 > > ; > O ; ; ; 1 - o ; o ; 4 +   & h g = : M > > > 4 1 3 > 3 ; ; > ; ; ; ; ; o o ; ; ; 4     X . O 6 O O ; ; O O O O , O ; O ; O ; 3 O O ; ; ; X   .   X , ; O ; ; O O ; O O O O O O O O O O O O O ; O         X 8 ; 6 , 6 ,   , O , , O , O , O 6 O 2 O , 6 O O 6 2 2 6 2 2 , 6 2 , E E 2 6 6 2 O X   O X + + 2 6 9 9 6 9 6 X X O   2 0 6 6 ,   ",
"      X X 8 X X 8 3 O +   @ 8 O O   X 0 7 6 7 7 6 O 2 6 X X 7 7 7 8 6 Z 7     6 9 K Z   ; 3 4 4 m C S B t $.XX@X'. X$X-X:X<X1X3X1X2X1X<X<X,X;X&XOXOX.X*Xn.u u p n v v z M > > ; > ; 3 ; ; ; ; ; ; ; ; ; ; O ; ; ; > %   % d c > M > > > > 3 > > ; ; ; ; ; ; ; ; ; ; ; ; ; ; > +   * c l N > > > 3 > > > > ; ; ; ; ; 1 > ; o O ; O ; ; + . d k j z > > 3 > ; > ; > ; ; ; - ; ; - ; O 1 ; O ; ;   . : m m ; > > > > 3 > > ; ; ; - ; ; ; ; O ; ; ; ; ;   X - = M 4 > > > 4 > 3 ; ; ; ; - ; > ; ; ; O ; ; > > X   - h g = l M 4 4 > > > > 3 ; ; ; ; - ; ; ; ; ; O ; O 1 > +   .   O 6 ; O ; O ; O O ; O O O O O O O O ; O O O ; X   . + + , O O O O O O ; O O O O O O O O O O O O O O O         O 7 O ; 6 O O   2 , , , 2 2 , O 3 2 O , , O O 6 2 O , , , 6 6 2 , O 6 Q 6 O , 6 X + O 5 H H 5 1 + O 6 8 7 6 8 2 X O + 2 0 6 6 6   ",
"+   + X X 9 O X 8 2 O X   2 8 O X   1 0 6 6 6 0 6 O 6 6 O X 9 7 7 7 7 0 6   + 7 9 Z K   O 4 4 7 7 C S B t @./.$X XoX#X-X:X,X1X1X2X2X2X2X2X<X,X&XOXoXoX*Xn.{ u p n v c j m > 4 3 > ; 4 > ; ; ; ; ; ; > o ; ; ; ; O ; ;   X f c > M > 4 > ; ; > ; ; ; ; ; ; - ; ; O ; O ; O ; ,   . : b l j > > > > > 1 > ; ; ; ; ; - > O ; ; ; ; ; ; :   . = k j N > > > > > 3 ; ; ; ; ; ; ; ; ; - ; ; ; ; ; ;   X : M m > > > > ; > ; ; ; ; 1 ; ; > ; O - ; ; ; ; O . . : = M j 4 > > ; > > ; ; > 1 ; ; ; ; o ; ; ; O ; , .   % h d * = M > 4 > > > > > > ; ; ; ; ; ; : ; o ; ; ; ; > +   X   X 6 O ; O ; O ; O O ; , ; , O ; O O ; O O O ; +   .   X 6 O ; O O O O O O O O O O O O O ; O O O O O ;   + X   X 7 6 , , 6 2 X , , @ , , , , 2 2 @ , 2 O , , , , , , , O O 2 3 @   0 0 , 6 O O + 1 J R <.>.>.U 5 + 2 6 6 7 6 $ X O + @ 0 6 6 ,   ",
"      X O 9 2 X 0 O O X   2 0 O @   O 0 6 7 7 7 6 O 6 6 @ O 7 7 7 7 8 0 6   + 8 Z K K   ; 3 4 4 N B A B t @./.$X].oX#X&X:X<X3X3X2X3X2X1X2X<X>X-XoXOXOX*Xn.} u s n v g m m > > : ; > > > ; ; > ; ; ; - ; ; ; - ; ; ; O   X g c l M > > > > ; > ; > ; ; > ; - ; ; ; ; ; - ; O > + X * c j V > > > > > ; ; ; ; ; ; ; ; ; o ; ; ; - ; O ;   . = k j M > > 5 > > > 1 ; ; ; ; > - ; O ; ; o ; ; ; ;   . = M M > > > 1 ; > > 1 ; ; ; > ; O o ; ; O ; ; ; ;   . : = V > > > ; ; 3 ; ; > ; > ; ; ; - - ; ; O ; ; > +   & g g : l M > 4 > > > ; ; ; ; > ; ; - - O ; ; O ; ; ; 4   . X . X 6 ; O ; O ; O O O O ; O ; O O O O O O O ; @ X   +   X , O ; O ; ; O O O O O O O O O O ; O O O O O O         O 8 , O 6 6 O X 6 O 2 2 , , , @ O , O 2 O 6 O 6 , O , , O , , 6 X X K 6 O 6 ; + 2 J <.3.3.2.<.1.>.H X 6 6 6 6 6 X     2 0 , 6 ,   ",
"      X X 9 O X 8 2 X X   2 8 , 1   X 9 6 7 6 8 7 O 6 6 2 X 7 7 7 7 7 0 6   + 7 C K K   ; 3 4 4 N N A 8 t @.(.oX].OX$X=X:X3X1X3X2X3X2X2X1X,X;X&X#XoXoX*Xn.{ u p b v k m V > > > > > > 1 ; ; ; ; ; ; - ; O ; ; O ; ; ;   % f c = M 4 > > > ; > ; ; ; 1 - ; ; ; - ; ; ; o ; ; ;   . * c > M : > > ; > > > ; ; ; ; ; ; ; - ; - ; o ; ; ; + . = k m M > > > > ; > > ; ; ; ; ; ; ; ; O ; ; ; ; - -   . = M m > > > > ; > 3 > ; ; ; - ; ; ; ; ; - ; o ; O . X : > M j > > > > ; ; ; ; ; ; ; ; ; O ; ; ; ; o ; > + . - h g d = M 4 > > 1 > ; > 3 ; ; ; ; ; ; ; ; ; ; - ; ; ,     X   X 6 O O ; ; O ; ; O ; O O O O 2 O O ; O O O ; X   .   X > O ; O O O O O O O O O O O O O O O O O O O O         X 6 , , O 6 O + O , , , 2 O 2 2 , , 2 , 3 O O 6 6 O , 2 , , , O + X Z 3 2 6 O + H R ,.4.3.3.3.3.>.T 2 2 8 6 8 6 X +   2 8 , 6 ,   ",
"+     X 2 8 O X 8 ; X X   O 0 O X   2 0 6 6 7 7 6 O 6 3 O O 8 7 7 7 7 0 6     6 C Z Z   ; 3 7 4 4 N S B y @./.$X XoX#X;X:X3X1X3X2X1X2X2X1X,X;X&XoXOXOX*Xn.{ u p b v k m M > > 4 4 - ; 3 > ; ; ; 1 - ; ; ; ; ; ; ; ; O   % g c l V > > > 4 > ; 3 ; > > ; - ; ; - o ; ; ; O ; > +   * h l V > > > > ; ; > ; > O ; ; ; ; ; ; ; ; ; O ; ; . . * c m m 4 > > > ; ; > > ; ; ; ; ; ; ; ; ; ; O ; ; ; + X : m m > > 4 4 > ; ; ; ; ; ; - ; ; ; ; ; ; - ; ; ; + . * = M j > > 4 > > ; > > ; - ; ; ; - ; ; ; O ; ; > +   % h g * > V > > > > > ; > ; ; ; ; - ; ; ; - ; ; ; O ; , +   .   O 6 ; ; O O ; ; O O ; ; O ; O ; O ; O O O O ; +   X     2 O O ; O ; O O O O O O 2 O O O O O O O ; O ;         X 6 O , O , , + O O , , , , O 6 , 6 , O 6 6 6 , ; , @ 2 , O 2 2   X F 3 O , X 1 J <.,.4.3.4.4.2.>.>.5 O 0 2 6 6 X   + 2 8 , 6 ,   ",
"      O X 8 O X 0 3 X +   O 9 3 X + X 8 7 7 7 9 6 O 6 6 2 X 6 7 7 7 7 0 6   + 8 Z Z K   ; > 4 4 7 N S A t @.+X#XoX$X#X=X,X<X1X3X2X1X1X2X1X<X;X&X#XOXoX*Xn.{ u p n v k m M > > > > > ; > ; ; ; : ; ; O ; - O ; ; ; ; O . X g c > M > m > 4 > ; > ; ; > ; ; ; ; ; - ; ; ; ; ; ; + X * c j M 4 4 > 4 > > 1 > > > ; ; - ; ; - ; O ; ; ; ;   % = c m V > > > 4 > > ; ; > ; ; > o ; O ; O ; ; ; O O + X : m m m > > > ; ; > > > > ; ; ; ; ; - O ; ; ; ; - . X - : M 4 4 > > > ; > > 1 ; ; ; ; ; ; ; o ; ; ; ; ; + . - g d l = M m 4 > 4 > ; > > ; ; ; > 1 ; - ; o ; ; ; ; > . X . + X 6 3 O ; O O ; O O O O ; O ; O O O O O ; ; O X   + X   6 ; O O O O O O O O O O O O O O 2 O O O O ; O   X     X 8 , , 6 , ,   , O O 2 , , 6 O O 2 @ 3 2 O O 6 2 , 2 2 , , , @ + O 0 O , , + 1 U R <.3.3.3.3.,.T >.H , 0 2 6 6 X     @ 6 O 2 ,   ",
"      O O 8 O X 8 2 X +   O 8 O X + O 0 6 7 6 8 7 O 7 6 X X 7 7 0 7 7 0 6   + 7 0 K K   - 3 3 4 7 B A B t @./.#X X$X#X=X:X<X1X1X1X1X<X2X<X,X:X#XOXOXOX*Xn.{ u p n v c M m 4 4 4 > ; > ; ; ; > ; > ; ; ; ; O ; O ; ; O . X g v > M > m > > 4 > ; > ; ; ; - > ; ; ; ; o ; ; ; ;   X % c = N > > > > > 3 > ; ; > ; ; ; ; ; ; ; ; ; ; - ; + X d v j m > 4 > > > > 1 > ; ; ; ; ; > ; O ; O ; O ; ;   . = m M > 4 > > > 3 ; ; ; > ; ; ; ; ; o ; ; o ; O -   X : = V j > > > > > ; ; > ; ; ; > ; ; - ; ; ; ; ; >     & g g d = V m 4 > 4 > > > > 1 > - ; ; > ; o ; O ; X ; :   X .   X 6 ; ; O o ; O ; ; O O ; O O ; O O O O O 3 ; X   .     , X ; O O O O ; O O ; O O O O O ; - O O O O O         X 7 6 O 6 6 O + , , , , O , , 2 @ , , 2 , O , 2 2 , , , , O @ O   X 0 , @ 2 X 1 G T >.<.2.,.3.>.T U 5 @ 8 O 6 6 X     O 8 2 6 ,   ",
"      X O 6 O + 8 3 O X   2 8 O O   X 0 8 6 6 8 7 O 6 , O O 7 8 7 7 7 0 6     7 0 K K   O 3 4 4 7 A A B y @.(.oXT. X X-X:X,X,X<X<X<X<X<X<X>X;X&XOX XOX*Xn.u y p b v g M m > > > > > > ; > ; ; ; ; ; ; ; ; ; ; ; O ; O   % f c l M > > > > 5 > ; ; ; ; ; ; ; ; ; - ; ; ; X ; , + . * c j V > > > > ; > ; ; ; ; ; - ; ; ; ; ; O O X ; ;   . = c j M > > > > > > > - ; > ; ; ; - ; ; ; ; ; O ; ;   . = m m > > 3 > ; > > ; ; ; > ; ; ; ; ; ; ; ; o ; ;   X * = M > > 4 ; > > ; ; ; ; ; ; ; ; ; ; ; ; ; X ; , .   - g g : > m 4 > > > ; > ; ; > ; ; ; ; ; ; ; ; ; ; ; ; > +   .   X 7 ; ; O O ; ; O O O ; O O O O O ; O ; O O ; X   X   + , ; O O O O , O O O O O ; ; O O O O O O O O O         O 7 6 O O 6 2   O , O 6 2 O ; 2 2 , , O , 6 O , , O O , , , 2 O   + 8 6 2 6 2   H G U T >.>.>.>.T H 1 8 8 6 6 , +   + @ 8 2 6 2   ",
"+     X X 0 O X 8 O X +   2 8 O X   O 0 7 6 6 7 6 ; 6 ; O O 8 7 9 7 7 9 6   + 7 9 Z Z + ; > 4 7 m N S B t @.(.oXT.T. X#X;X:X:X,X>X>X>X,X,X:X=XoX X]. X*Xn.u s p b v g m m 4 4 > ; 4 > > ; ; ; ; ; - > ; ; O ; o X : ;   . f h > M > > > ; > > 4 ; > ; ; ; ; ; ; ; O ; ; X ; > X . * h > V > 4 > > > > > > ; ; ; ; ; ; ; ; O O ; O ; ; + . = v m m > > > > > > > > ; ; > ; ; ; ; ; O ; O O ; ;   % : M M > 4 > > > > > > ; ; > ; ; - ; ; ; O ; o O ;   % : = V > > 4 > > > > ; ; ; ; : ; ; ; ; O O ; O O > X   - g d * l V 4 > > > > > ; ; ; ; > ; ; O ; ; ; ; O O ; > X   . . X 6 ; ; O O O ; O O O O O O O O O O O O O O ; X   .   X , O O O O O O ; O O O O O O O ; X O O O O 3 ;         O 6 , , , 6 ,   2 O O 2 , , 6 O 2 , , O O 2 , 2 , , 2 , O 2 @ O +   6 2 O 6 6 X O H J U T T U U U 5 6 E 6 2 6 ,       2 8 2 6 ,   ",
"      O X 6 X X 8 2 X X   @ 8 O O   O 0 6 6 6 8 6 O 6 6 X O 7 7 6 7 7 9 6     7 9 Z S   O > 3 4 7 N A B p @.(..XT.T. XoX#X;X;X:X;X;X;X:X;X;X&XOX].].{.%Xn.u u p b v g M m > > > > > > ; > : ; ; ; ; ; ; ; ; ; ; ; ; X . % f c = M > > 4 > > > > > > ; ; ; ; ; ; ; ; ; X ; ; ;   . & c j m = 4 > > 3 > 3 > > - > ; ; ; ; ; ; ; - - ; ; . . d v j M > 4 > ; 3 > ; > ; ; ; ; ; ; ; ; ; O O & ; ;   . * j N - 4 > > ; > > 3 ; - ; ; ; ; ; ; ; ; ; ; ; ; . . : : j j > > ; 4 3 > > > ; ; ; ; ; ; ; ; O ; ; O > +   & g d = = m l > 4 ; > > 3 > ; - > ; ; > 1 - ; ; ; O O ,   . X   X 6 O ; O ; O O O O ; ; O ; ; O O O ; O O ; 6 X + X   + , O ; O ; O O O O 2 O O O O O X ; O O O O O O   +     X 7 , O , O @ + , , , , 6 2 O , O , 2 @ O , , , , O 6 , , O 2 O X   O 6 , O 2 6 + 1 H H H J J H 5 6 E 0 2 6 , X       2 7 6 6 ,   ",
"    + X O 6 2 X 7 O O +   2 9 O O   O 9 6 6 9 9 6 , 6 6 X O 7 7 7 6 9 9 6 +   7 9 Z K   - 4 3 4 7 C S C t #./.[.T.T.T. X#X#X#X=X&X&XoX-XoX&XOX{.'.'.{.%Xn.u u p b v g M m 4 > > ; > > > 3 ; > ; > ; ; ; O ; - ; ; ; o   . d c > V > > > 3 ; > ; ; > ; > > ; ; ; ; - ; O O ; > + . % k l M > > > > ; > ; > > ; ; ; ; ; ; ; O ; ; O O ;   . = h j m > > > 3 > ; > > ; > ; ; ; ; ; O O ; O ; ; ; . X * M m > > > > > > > ; > > ; ; ; ; ; ; O o ; ; ; O . . : = M > > > ; > > ; ; > > ; ; : 1 ; ; O ; ; O ; ; X   % g g = = V > > > > ; > > ; 3 > ; ; ; ; ; - ; O o ; ; , +   .   X 6 ; O ; O O ; O - O O O O X O O O O O ; ; ; X   . . + , ; O O ; O O O ; O O O ; O O O O O O O O O O       X X 7 O O 6 , O X , , , , O , 2 2 , O O , O , O 2 , , , 6 6 O O O O   X 6 , 2 6 7 6 1 + 1 5 5 1 1 $ ! E 6 2 6 2 +   +   @ 9 2 6 2   ",
"+     O X 9 O X 7 2 X X   2 8 O O   O 9 6 6 7 7 6 O 6 2 O X 7 6 6 9 7 9 3   + 6 9 Z Z   ; > 4 4 4 C A N t #.~..XY.T.T.].oXoXoX$XOX#XoXOXOX{.].].K.'.{.%Xb.u y i c v g V m > 4 > 4 ; ; > > ; > 1 ; ; - ; ; o ; o O ; O + % d c > M > 4 4 ; > ; 4 > ; ; ; ; ; ; ; ; o ; - O ; ; + . * k j V > 4 > > ; > ; > ; > ; ; ; ; ; ; O ; o ; ; ; . . * h j V > 4 3 > > 3 ; ; > ; ; ; ; ; ; ; ; - ; O ; O   X - M M > 4 4 > > ; ; > ; > - ; o ; ; ; ; ; ; o ; O + . : = V j 4 > > ; > > > > ; ; ; ; O > ; - - O O ; > +   - g g = > M > > 4 > ; > ; > > ; ; ; ; ; - ; ; ; ; O ; >     . + X , ; ; ; ; O O ; ; O O O O O O O O O ; O O 3 X   X   + ; O ; O O O O O O O O O O O O O O O O O O O ,         X 7 6 O 6 6 O + O O O , 2 O 2 @ , , 2 6 2 O , , , O , 2 O 6 O O X +   , 6 $ 2 6 0 E 6 @ O O , Z _ _ 6 , 6 2 @     X + O 6 6 6 2   ",
"      X X 8 2 X 7 O X +   2 7 O O   O 8 6 6 6 9 6 , 6 6 + 2 8 7 7 8 9 0 6   + 6 C Z Z   ; 3 4 4 N C A B r ..~.[.K.T.]. X XoXOX X{.OXOX X{.].'.'.'.K.}.%Xb.y y p b c g V V > > > > > 3 ; ; ; > : ; - ; O ; O O ; ; ; o . % d h l V > > > ; > > > ; > > ; - ; ; O O ; O ; ; ; >   . * k j V ; > > > > 3 ; 1 > ; ; ; ; - ; ; - ; O ; ; O + . = k j m > > > > 3 > ; ; ; ; ; - ; ; O ; O O ; O ; O . . = M N ; > > > > 3 4 ; ; ; ; ; ; ; O ; ; o O ; ; O . . : = V > 4 > 4 > 3 ; > ; ; ; : ; ; o ; O O ; ; ; ; + + : g d = l V > m > 3 > > ; 3 ; ; ; ; ; ; ; ; o ; ; O ; ; +   .   X 6 O ; ; ; ; O ; O O O - O ; O O ; O O O O 6 X   .   . , O ; O O O O ; O O O O O O o O O O O O O @ O         X 6 3 6 2 6 O X O , 6 2 , , O , , 2 2 O , , , O 2 O O O 2 O , O O     X 6 6 2 2 $ E ! E E ! ^ _ Q 6 , , 6 ,       X   O 8 6 6 ,   ",
"    + X X 8 X X 8 O X +   $ 8 O X   2 0 6 6 6 7 6 2 6 6 X X 7 6 6 7 9 9 3 +   6 9 Z K   O > 4 4 > C S B i #.~.}.K.Y.T.T.T. X X]. X X X].{.'.'.'.K.K.'.XXn.u y i z c f m m 4 4 ; > > ; > > ; ; ; ; ; ; o ; ; ; O ; > X   X d c > M > 4 ; > > > > ; > ; ; ; - ; - ; ; ; O O ; ; + . - k l m > 4 > > > > > ; > ; ; - ; ; - ; o ; ; X ; ;   X * h M N > > > > > ; > > ; > ; ; : ; O ; ; ; O ; ; ;   . * j N > > > > > > ; > ; ; ; ; ; - - O ; ; ; ; > o + o : = V > > > > > ; > ; 3 > ; ; - ; ; ; ; ; O ; ; >     - d g = = M > 4 > > > > > ; ; > ; - ; ; - ; O - o ; ; >   X .   X 4 ; ; O O O O O O ; O ; O O O O O O ; O O 3 X   X . + , O O O O O O O O O O O O O O O O O O O O O ;         O 6 6 O 6 3 @   , O , 2 2 @ , , O O , , , O O , , , O , 2 @ O O O X     O 6 , , , 2 6 E Q E E 6 O O , , 2       X O + @ 7 2 , ,   ",
"+     X O 7 X + 0 @ X +   @ 7 O X   X 8 6 6 6 7 6 2 6 6 O O 8 6 6 7 7 8 3   + 6 9 Z Z   ; 3 4 4 7 C A A t ..~.[.G.Y.Y.Y.T.'.].'.].{.].'.].K.T.T.K.K.I.XXb.y y i z c f M m > > > > > ; > ; > > ; ; ; - ; ; ; ; o ; ; -   X d h = V > > > > > o > > 3 > ; 1 ; ; ; ; ; ; o ; ; ;   . * k > V : 4 > > > o > > > ; ; ; ; - - ; ; O ; ; ; ;   . = h j V > 4 > ; > o > 3 > ; ; ; - ; - ; ; ; ; O ; O   . : M N > > > > ; ; > > > > ; ; - ; O ; O ; ; - ; ; + . & : V j > 4 > > ; ; > > ; ; ; ; ; ; ; ; ; ; O ; ; +   - f d = = V m > > > ; ; > ; > 1 > ; ; - ; O ; ; ; O ; ; X . .   X 3 O O ; O O O ; O ; O O ; X ; O O O O O ; ; X + X . + > O O ; O o O O O O O O O ; O O O O O O O O O         O 6 , , , , O X O 6 , O , 2 , , O , , O , O 6 , O 2 @ 2 2 6 , O X X       X 2 2 6 , , O O X O O @ 6 , O       + X O   @ 8 2 6 2   ",
"      X X 7 O X 8 2 X X   O 7 1 X   O 8 6 6 7 7 6 2 6 6 X O 7 6 6 6 7 7 6     7 9 Z S   ; 3 4 4 4 N S B r X.~._.G.G.Y.Y.K.T.T.T.T.'.].T.K.T.T.T.K.K.Y.%Xv.y t i z h g M m > 4 > ; ; > ; > ; ; ; ; ; ; o o ; ; O ; ; O   % d h j N > > 4 > > > > ; ; ; ; - ; - ; ; X - ; ; ; >   X * c j N > 4 > > ; > > ; ; ; ; ; - ; O o ; - ; & ; ;   . = c j m > 4 > > > > > > ; 3 ; ; ; - ; o ; - O ; ; ; . % : j N > 4 > ; > > ; > 1 ; ; - ; ; ; ; O - o ; ; O . . : : V > > 3 > 1 > ; > ; ; ; ; - - ; - O - O ; ; >   X % d d = > V = 4 4 ; > > ; > > > - ; ; - ; - ; O ; ; ; >     . + O 4 O 3 ; ; 3 O O ; X ; O X O X ; O - ; O ; ; X   X .   , O @ O ; ; o o O O O O O O O O O O O O O , O   + .   O 6 O , 2 6 O X 6 O , , O 2 O , , O , O O 2 2 , , , , O ; 2 O O O X +       X , , , , , , , 2 , , , X       + + X O   2 0 , , @   ",
"+     O O 7 O X 7 O O     O 7 X X   O 8 6 6 7 7 6 O 2 6 O 2 7 6 7 7 7 9 3     6 9 Z Z + - 4 4 4 7 7 A B r ..^._.G.J.Y.Y.Y.Y.Y.T.K.T.K.K.K.K.T.K.J.F.I.XXx.t y $ z g d m N 4 4 > > 3 > ; ; ; ; O ; ; ; ; ; ; ; ; ; ; o   . d h = M > > 3 3 ; > ; > ; ; ; : ; ; ; ; ; O O ; ; ; X . * h > N > > 4 3 ; > ; > ; ; ; ; ; ; ; ; ; O O ; ; ;   . * k j m 4 > > > > > ; ; ; ; O ; ; ; O ; ; ; ; - ; O   . : j N > 4 3 > ; ; ; ; ; ; ; ; - ; ; ; ; O ; ; ; ; . . * : N j 4 > > > ; ; > ; ; ; ; ; ; ; - ; ; ; ; ; , X . X d d * = M > > 4 > ; > ; ; ; ; ; ; ; O ; ; ; ; ; ; ; , . . .   X 3 ; 3 O 3 O ; O ; O O O X ; o O O O O O O , X   X   + ; O ; o o O O O O 3 O O O O ; X ; O O O O O O         X 6 6 6 O O O   O , O 2 O , , , , , , , , 2 , , , , , , 2 O , O O O X           X @ 2 , , O , , O           X X X O   2 8 2 6 O   ",
"      X X 7 O X 7 2 O X   2 8 O + + O 7 6 6 6 7 6 O 6 3 O ; 7 7 7 7 7 9 3   X 6 9 Z Z + - ; 4 7 7 A A B r ..~._.F.F.J.Y.G.I.I.T.T.T.K.K.K.K.K.K.J.F.U.@Xx.t t i z v d m m 4 > > > > ; > 3 ; > ; ; ; ; - - ; o ; ; ; - + % d c > N > 4 > > > ; ; ; ; ; ; ; ; ; - - - ; ; O O > + X * h j N = > > > > ; ; ; ; ; ; ; ; ; ; ; - ; ; O ; ; + X - k j m > 4 ; > 1 ; ; ; ; > ; ; ; ; ; - ; o ; ; ; ;   X : j N > > ; > > ; ; > ; ; ; ; ; ; ; - - ; ; O ; ; . . - : M 4 > > > > > ; ; > ; ; ; ; ; O ; O ; o ; ; > + . % d * % = N 4 > > > > ; ; ; 3 ; ; ; ; ; ; - ; o ; O ; ,   . .   X 3 ; O O 3 O O O O O ; O ; O O O O ; O ; O ; +   . + + ; O O O O ; ; o O O O O ; X O X O X O O O , O   X   . X 6 O 6 6 6 O X O , O , , , O 2 O , O 2 , @ @ , O O O , , , O 6 , O O X                 +                 + X O O X + @ 8 2 2 O   ",
"      X o 7 O X 7 O X     2 7 O +   X 8 6 6 6 9 6 ; 7 6 O O 7 6 6 7 7 9 3   + 6 9 Z K + ; > 3 4 N N A B t ..~.`.F.Z.G.J.G.F.J.Y.I.J.K.J.J.J.F.J.I.F.H.XX%.t t i k g g j m > 3 ; ; ; ; > ; ; ; ; ; ; 1 ; - ; ; o X ; O   % * h = m > > > ; > ; ; ; ; ; ; ; ; ; ; ; ; O % ; ; ;   X % g > m > 4 ; ; ; > ; ; ; > ; ; ; ; O % ; ; - ; O ; X . * h j m ; 4 > > ; ; ; ; ; ; > ; - ; ; ; ; - o O O ; + . : j B > > ; > ; ; - > ; ; ; ; ; ; - O ; ; ; o O ; + X * : N > 4 ; > ; > ; ; ; ; ; ; - ; ; - ; ; X O ; , X   % d d * > N > > > > ; ; ; ; ; > ; ; ; ; o ; - ; o - ; , . + .   X 3 ; ; ; 3 O O O o O O O O O O O O O O O ; ; X   X   X 3 O ; O O O O O O O O O O o ; o O O ; O O O O         X 6 6 O 6 2 2 X @ 2 O 6 , 6 @ , , O , 2 @ , 2 6 O , @ 2 2 , 2 2 2 2 O X X +                             X X X X O X + O 8 2 , O   ",
"      X O 7 O + 8 2 O +   @ 7 O O   O 8 6 6 6 7 , ; O 6 O O 7 6 6 6 6 9 6   + 6 9 Z Z   ; ; 3 4 > 7 A B t X.^.`.S.Z.F.F.F.F.F.J.H.F.H.H.J.J.F.F.H.F.!.XXx.t t i z h l z M > > ; > ; 3 ; ; ; - ; - ; ; ; O - O ; ; ; ; + X d h > N > > ; 3 > ; ; ; ; - ; ; ; ; ; o O ; ; O ; , X . * g m M > > ; 3 > ; ; ; ; ; ; ; ; ; - O ; O O O ; ;   . = f j m > > ; > ; > ; ; ; - ; ; ; ; O o ; O ; & ; ;   . : j j > > ; > 3 > > ; ; ; ; - ; ; O ; O O % ; ; ;   % : : N > > ; 4 > ; ; ; ; ; ; ; ; ; ; O ; ; % O ; > . X X d * * > M > > > > 3 ; 3 ; ; ; ; ; - ; ; - O ; ; O ; , + . .   X 6 ; ; O O ; O ; ; O o - O O O O O O O ; O ; X + . + . ; O O O O O O O ; O O O O O O O o O o O O O ,       + X 6 2 , , , ,   2 2 6 2 O 2 2 2 O , , O 2 2 2 O 6 O , O O 2 6 2 @ @ O X X +                           + X X O X O X   X 8 6 , O   ",
"      X O 7 O X 7 O X + + X 7 O X   O 9 7 6 6 9 7 , , O 2 , 6 6 6 7 7 9 6 + + 7 9 Z S   ; > 3 3 7 7 A B e ..^.`.S.Z.S.Z.F.F.Z.Z.Z.F.F.F.Z.F.F.Z.S.V.A.XX%.t t i z g d m m ; > 4 > > ; > ; > ; ; ; ; ; ; ; ; O - ; ; O . - * h = m > 3 > 4 > ; > ; ; ; ; ; ; ; 1 ; - ; o O ; , . . - h > m ; > 3 4 > ; > > ; ; ; ; ; > ; ; O ; ; ; ; ; + X : h m m ; > 4 3 > ; > > ; ; ; ; ; ; ; - ; O - O ; ; X % : m m : > 3 3 ; > 3 ; ; > ; ; ; ; ; - O ; ; O ; ; + X : & N > > > 4 ; > ; ; > ; ; > ; 3 ; O ; O - O ; 6 X . - = d - = m > > 3 3 ; > ; ; > > O ; ; ; ; O o ; o ; ; , . . X + o 3 O O ; O ; O ; O O O O O O O O O O O O O , X + X . + 3 O ; O O o O O O O O ; O O O ; X O o O O O O   X X   X 6 , O O 6 @ X , , @ 2 , 2 6 2 2 , O , , O 6 2 O , , O , ; O 6 2 2 O O X X X X       X + +           X X X X O O ,   O 7 O O X   ",
"+     + O 7 O + 8 2 O X   O 8 2 X + + 9 7 6 6 9 E E E E E 8 6 6 6 6 7 9 3   + 6 9 0 K   O > 4 4 m N A Z r  .R.|.A.Z.C.A.Z.P.A.A.U.U.U.A.A.A.A.Z.A.C.`.^.#.r r i z g = m 4 ; > 1 > ; ; ; - ; ; O ; ; - o - O o ; ; ; ; + % d g > m > ; > > ; ; > ; ; : ; : ; ; o - O ; o O > 6 . . : g > m - > > > ; ; ; ; - > o ; ; O o - O O O O ; > . X * f > m > ; ; 3 ; > > ; - ; - ; 1 - - X ; O ; O , ; . X : > N ; > > > ; ; ; - ; ; - - ; ; O ; - o O O ; ;   X : ; M > 1 : > ; ; ; ; - ; - - ; O - ; O O ; o > 6 X   % d * % : m > > ; > > ; > ; ; ; O ; ; ; ; ; ; ; - X ; 6 . . X   X 3 ; O ; ; O 3 O O O X ; ; O X ; O O O O ; ; X   X   X 6 O O O O O O O O ; o o O O O O O o O O O O O     X   X 8 O 6 , 6 2   O , , O , O 6 O O , , O O , , O 6 O , , O O O O @ , 2 O O O O X X X X O X X X X X X O X O O O O O 2 X X O X 4X4X4X",
"      + X O X   , +       2 8 O X   X 8 6 6 6 6 8 E E E K 9 7 6 7 6 7 7 6     7 9 Z K   o > > 4 4 7 A C e | x.).~.~.~.|.|.|.|.XX|.|.|.|.|.~.~.|.|.~.Q.B.| r e i f h d > C 7 4 7 7 4 4 4 4 4 > > > > > ; ; > ; > ; > X   % d f - N N > 6 7 m > 4 > > > > 3 > 3 > ; 3 ; 3 ; 3 > + . - g : N m 4 7 4 4 4 4 > > > > 3 > ; 3 ; ; > ; , , ;   X * d > C 4 7 m 6 6 4 4 > 3 4 3 > ; 3 > ; 3 > 3 ; > O   % - = V 7 N 4 7 4 4 > 4 4 > > 3 > ; ; > ; ; > ; > O X % ; : m N 4 4 4 4 4 4 4 > > > > > 3 3 : ; ; > > 3 >   X % * * * - M 4 4 4 > 4 3 3 > > > ; ; > ; ; ; ; ; ; ; > 4   X .   X 3 > ; > O ; O O ; O O ; O ; O O ; ; ; O ; , X   X   . , ; O O ; O O O O ; O O O o - O O O O O ; O X +   X   X 6 6 6 O , O   2 $ 2 , O , 2 @ 6 2 O 2 , 2 2 2 2 2 , 2 , , O O 8 Q W E E E 0 Z E 0 0 0 0 0 0 0 0 0 0 0 0 0 0 0 0 0 6 8 9 2 4X4X4X",
"                          O 8 O X   2 8 6 6 7 6 3 3 3 6 6 7 6 7 6 7 7 9 6   + 6 9 Z Z + O ; 3 3 m N C F i u } @.b.n.m.m.m.m.m.m.m.m.m.n.M.M.b.N.b.v.&.} t e e # x g d % m A A A Z Z C C C C C C 0 9 9 9 9 9 9 9 6 O .   X d g % > V A S A Z C C 0 C Z C C C 9 7 9 C 9 9 6 > X   X % d % 7 A Z A Z A C Z C C Z 0 Z C 9 7 9 C 9 9 6 > X   . * * % N A A Z Z S C C C C C C C C 9 9 7 0 9 7 4 ; + + . - - j A Z A Z A C C C Z C C Z C 9 9 9 9 9 C 6 O .   . % % : A Z S Z C Z C C C C C 0 0 C 7 9 9 9 9 7 > +   . . * * * - 4 N 7 N N C 7 m 4 7 N 6 7 4 7 6 3 7 4 6 6 > ;   . X . + > 3 6 3 3 3 > 6 3 6 6 6 3 6 6 > 6 3 6 6 6 O   X X     O 6 6 ; 3 6 ; , , ; 3 6 ; 3 3 3 3 ; ; 3 O O +   X     X 2 O O O O X   , O O O O O 2 X X 2 O O O , @ 2 , @ O O O X O 0 ! _ _ ! ! Q W Q W Q Q Q Q ! W E Q Q Q W W E E E E E 0 E E 9 4X4X4X",
"              X X O X     , 8 O +   X 7 6 6 6 7 6 6 6 6 7 7 6 6 7 7 7 7 6     7 9 K 0   - ; 3 3 4 4 7 W F y t e w w w w w w w w w w w w q q # # q q w e e e # @ & d * . . - ; , : ; ; ; ; ; ; ; ; ; ; O O ; ; O X     . . * l % . X ; ; > ; > ; ; ; ; ; ; O ; O ; ; ; ; X .   . . % d . . % ; : ; : 3 ; ; ; ; ; ; ; ; O ; ; ; ; X     . . * * % . X ; ; : ; ; ; ; ; > O ; ; O O O ; ; O X   . . X % . . - ; : ; 3 ; ; ; ; ; O ; ; ; O ; ; ; O O +   . . % % . . > ; ; > ; ; ; ; ; ; ; ; O O ; ; O ; O       . % * * % % o > 4 6 4 6 4 > 4 3 6 4 3 3 > , 3 6 > 3 O X     . X .   X O ; ; 3 O 2 ; 3 ; O ; ; O ; O ; O O O O X   . . X .   X O O O O O O O O O O O O O O O O X X X     .       + X X X O O X X O X X X O O O @ O O X X X X X X X X X X O , W ^ E 6 6 6 7 6 , 6 2 6 $ 2 , 2 6 6 , 6 6 , 6 , , , , 2 6 $ 6 4X4X4X4X",
"X +         2 W _ ] E +   O 8 O O   2 7 6 6 6 6 6 6 7 6 7 5 7 6 6 6 7 7 2   + 6 7 K K   O > > > 4 7 7 7 F F i @ @ @ @ # @ @ @ @ @ @ X X < @ @ @ @ @ @ @ O @ @ & = d * % . . . .   .   . .     .         .     . . . . . % * * % . . . . +         +   .   +               . . . % % = % . .   .   .   +   .   .                 .   . . . * * % . . . .   .       .       .       .   + .   . . % % % . . .   . . +       .             +         . . X % % % .   .   .   .   + .       +         +     . . . . - % % % . . . . X   . . + + .   + X       +     +     . . . . .     +       +             +         +         . . X .       +     +       +           +         .   .   X 2 ! ( _ _ _ _ _ _ _ _ ( _ ^ _ ^ ^ ^ ^ ^ ^ ^ ^ ^ ! ^ ! ^ ^ ^ _ ] E O O 2 O , , , , , ; 6 , , , , , , , 2 O 2 O , O , 2 6 O 4X4X4X4X4X",
"      X + O E _ ] 9.5.0   O 8 2 O   O 7 3 6 6 6 3 3 7 6 6 9 6 7 6 7 7 7 6     7 9 K K   ; ; 3 3 4 7 4 4 4 ) / ; % % % % % % % % % % % % % * % % % * * % * * * * * * * % % % % % % % % % % % % % X % % % % % % % % % % % % % * * % % % % % % % % % % % % % % . % % . % % % % % % % * * * * % % % % % % % % % % . % % % % % . % % % . % % % % * % * % % % % % % % % % % % . % % % % % % % % . % % % * % * % % % % % % % % % % % % % % % % % % % % % % % % % * % % % % % % % % % % % % . % % . % . . . % . . % . % % % % % % % . . . . . . . . . . .   .     . . . .   . . . . . . . . .     . .       .   .   . . .         .   . .   .     .     + .       +     +     .     .         X @ W ] 0.r.q.0.q.q.q.q.q.q.0.q.9.0.8.9.9.0.8.q.0.8.8.9.9.q.8.9.] W @ 6 , 6 , 2 , , O 6 6 6 2 2 2 , , O 2 , , , O O O 6 6 2 4X4X4X4X4X4X",
"4X      X 8 E 2 O 6 E _ 0 X , 2 O   O 6 6 6 7 6 3 6 4 6 7 6 6 6 9 7 7 7 ,     6 7 Z K   o > 3 4 3 4 4 7 4 C / L : % . % . % % % . % % % % % % % % % % % % % % % * % * * * * * % * % % % % % % * % % % % % * * % * * * * * * * * * * * * * * % % % % % % * % % * % * % * % * * * * * * * * * * * % % * % % % * % % % % * % * % % % * % * * * * * % * * * * % * * * % * % * % % * % % * * * * * = * * * * * * * % * % % * % % * % % % % % % % % * % * * % % * * * % * * % % % % % % % % % % % % % % % % % % % % % . % % . . % % . . . . . . . . . . . . . . . .   . . . . . . . . . .   . .     +   .   .   +       .   + .         + .     .   +     .                     .   + .   X 2 E 0 6 6 6 6 6 6 6 , , , 2 6 6 2 , 2 , , 6 $ 2 2 $ 2 2 2 , 2 2 O O 2 , 2 , O O , O , O 6 2 2 2 @ 2 O , 2 , O O , , O O O 4X4X4X4X4X4X4X",
"4X4X.   X 0 7 3 6 6 7 E _ 0 X O X   O 7 3 6 6 7 6 6 6 6 6 9 6 6 6 6 6 0 6     6 7 Z Z   - 3 3 4 4 7 9 4 4 7 C ~ W 9 - : : - - : - * : - * : : : - * = = * : = : = > > = = = * : - : : : * : > > > = * = = = j = = : = > = j * = l = > l = = > l > : * : : > : : = l = l = l = > > j > > = j = > = l = = * = > l = l > j = l = > = = > j = l > = = = l = = = = l * : : > = = = = = = > = * = > = > = * = = = > = = = = = > = * = > : : l = = : > > > * : = = > = = = , > : > - * & > & > * : ; > ; : * : : : & - - - % X ; ; % O X X ; O % o o O X X X X O O X X X X ; X X O X X O X X X X X X X X X X X X X o O X X X O O o X X X X X X X X X X X X X X X O X X X X X X X o X X X O 6 0 9 6 6 7 6 6 6 6 6 6 6 6 6 6 6 6 6 6 6 , 6 2 6 6 6 2 6 6 , 2 6 6 6 , O O O , O 6 , , O O 2 O O O , O , O O O O , O , X   4X4X4X4X4X4X4X",
"4X4X4X4X+ 6 7 6 6 6 6 6 E _ 0 X +   O 7 3 6 6 6 7 6 6 7 6 6 9 9 6 8 6 8 6     6 7 C K   o ; 3 4 4 4 4 7 7 N 4 B / *.*.` ` *.*.` *.) ` *.` *.*.) *.*.*.*.*.*.*.*.*.*.*.*.*.*.*.*.*.*.*.*.*.:.*.*.*.*.*.*.*.*.*.:.*.*.*.*.:.:.:.:.:.:.:.*.:.*.*.*.*.*.*.*.:.:.*.*.*.*.:.*.*.*.:.*.:.:.:.:.:.*.:.:.:.:.:.*.*.*.:.*.*.:.:.*.*.:.:.:.*.:.:.:.*.:.:.:.*.:.:.:.*.*.:.:.:.:.:.:.:.*.:.:.*.:.:.:.:.;.;.:.:.:.:.:.:.:.:.;.:.:.:.:.;.:.;.;.-.:.:.:.:.:.*.*.:.=.:.:.:.;.:.:.:.*.*.*.*.*.*.*.*.-.*.*.*.=.*.*.*.=.` ' =.` ` *.` ` ` ` ` ` ` ` ` ` ` ` ` ` ` ` ` ` ` ` ` _ ` ` ( ) _ ^ ` _ ( _ _ ^ ` ` ( ^ _ _ ( ( ( ( ^ _ ^ ^ _ ( ! ( ( ( ^ ^ _ ^ ^ ^ _ ! ( ^ ^ ^ ^ ! ^ ^ ( ! ! ! ! ! ~ ! ! ! W Z 0 8 2 6 6 7 8 8 6 6 6 , 6 6 6 6 6 6 6 6 6 6 6 6 6 6 6 6 6 2 , @ 2 2 2 O O 6 O O O 2 ; O , O , , 2 , O , O O O O , O O     4X4X4X4X4X4X4X4X",
"4X4X4X4X4XO , 6 6 6 6 3 6 Z _ 0 X   X 6 6 6 6 6 6 6 8 6 6 6 6 8 8 6 7 8 6     6 8 0 Z   X > ; > 6 6 7 4 7 7 7 7 C / =.:.;.;.;.6.=.=.;.;.;.;.:.:.;.;.;.;.:.:.;.:.;.;.;.;.;.;.;.;.;.;.;.;.6.;.;.9.;.7.;.;.;.6.6.6.6.;.;.7.7.w.;.w.7.6.w.7.9.9.7.;.6.;.w.9.7.7.w.7.w.w.u.;.7.7.;.7.w.w.w.w.w.w.w.w.7.7.7.7.;.w.w.w.w.w.7.7.w.w.w.w.w.w.9.w.w.w.7.w.w.w.7.w.w.9.7.w.w.9.w.w.w.w.w.w.w.w.w.w.e.w.w.w.w.e.w.w.w.w.w.w.w.w.w.9.w.w.w.w.w.9.w.9.w.9.9.6.w.9.9.w.w.9.w.w.q.9.w.9.w.9.w.9.9.9.9.9.9.9.9.;.w.9.9.9.9.9.;.;.9.9.9.5.9.9.9.8.9.9.8.9.9.9.9.9.5.9.5.8.9.5.5.5.;.-.;.] 8.-.] 8.5.5.5.5.5.5.5.5.] ] ] 5.;.] ] ] 8.5.-.-.-.] -.-.] ] ] ] ] ] =.] ] ] ] ] ] ] ] ] ] _ ` _ _ ' _ [ _ E 7 6 6 6 6 , , , , ; @ , O O O , O , , , O O , O @ O O O @ O O O O X O X X X O X O X O O O X O O O O O O O X O O O O   4X4X4X4X4X4X4X4X4X4X",
"4X4X4X4X4X4XX 6 6 6 6 6 6 ; 0 ( 8 + X 6 6 $ 6 6 6 6 6 6 7 6 6 6 6 7 6 8 6   + 6 8 0 Z   O > > 6 3 6 4 4 4 N N N 6 : ; o - - o ; - ; - - - - : ; - - ; - ; > - ; : ; > : : & : : : > & - : ; ; : : : : ; : : : * : > > : - - = : ; : : : : : ; : : : & : : : : : : : = : > : : : : : > : = > : : > > > = : - & : : : : : : : : : > : - : : : : - : : : : : : : : - > : : : ; > : > > = : ; : ; : : : & ; - > - : > : > : - ; ; : : - : > : : ; : : > > ; : : > : : : : - : ; ; : ; : : > : - ; % ; - - - ; ; ; O % O O % % O o ; ; X - O O - o % - O - X - o O X X O O - O X X O O - X X O . . & X O O X X X O X X X X X o o X X X X X X X O X ; X X X O X X X X X X X X X X O X O O 6 6 ; , ; +             +   X           +       +   + +     +                                                       4X4X4X4X4X4X4X4X4X4X4X",
"4X4X4X4X4X4X  O 6 6 6 6 6 3 6 E ^ 0 + X 2 , 2 2 2 6 2 2 2 6 6 2 2 2 2 3 O + + 6 7 0 0 + ; ; ; 3 4 4 6 7 4 7 4 7 7 N N 7 7 m 4 m m C m C N N N 7 N m N C N N N m N N N N N N C N C N N N N N N N V V N V C V V V A C N C V V V V N N N A C A A A A N A V N A A A C A V A V V V V A A A V A A A A A A V S A A A A A A V V Z A A A C A V A C C A V A N N A A A A A S V A A C A A A A A V V A A A N N A A A V m V A N N A A V A N C A C C A C C N A C A A Z A C C N C N C C A C C C N C A C C B N N C B C N C N N 7 9 N 7 N 7 C N 9 N 9 9 C 7 7 7 7 7 7 7 7 7 7 7 9 7 7 7 4 N 7 7 9 7 7 7 6 6 6 7 7 4 6 6 7 7 7 6 6 7 6 6 7 4 7 7 6 6 7 6 6 7 6 6 6 6 6 7 6 6 6 6 6 6 6 , 6 6 6 6 6 7 6 , 6 6 O                                                                                                       4X4X4X4X4X4X4X4X4X4X4X4X4X4X",
"4X4X4X4X4X4X4X  X 6 6 6 6 3 2 6 E ^ 0 8 6 0 0 6 9 6 6 8 6 8 6 6 6 7 0 9 6 6 6 8 7 0 0   ; 3 3 4 3 6 4 6 4 m 7 7 7 N 7 9 m 7 4 C N 4 m 4 4 m N N 7 j 7 N N N N 7 m 7 N N N j N 4 N N N N N N N N N N V V B M N N V m N N N N N V M M N N N N V N V N N N V V N A V V V V V V V V V C V A A A V V A V V V B V N V A A V V A C A A V V V V V V N N V V V V V V V A V V V V A N V C V A V V B V N N V V V N V N V V C N A N A V N N A A V N C C N N V N V C N N N C B m N N N N C N N N B B C N N N C N 7 N N N N 7 N 7 4 7 4 m 4 7 4 N 7 7 7 N N 7 4 N 7 7 N 4 7 6 7 6 4 7 > 4 7 6 4 7 4 6 4 4 6 4 4 4 4 7 > 7 6 , 6 6 6 6 3 6 3 7 , 4 6 6 6 6 6 4 6 > 6 > , 3 ; > , ; , , , ; ; , 6 6 6 6 O             +   + . +       +     .         .             X                         .                   4X4X4X4X4X4X4X4X4X4X4X4X4X4X",
"4X4X4X4X4X4X4X4X  X 6 6 6 3 6 6 6 Q ^ ! ! ! ! Q ! E ! ! ! Q E Q W ! ! ^ ! ! W 7 7 0 9   ; 3 3 4 > 3 4 6 7 7 4 3 > ; ; > 3 > ; > > ; > > > > > , > > ; > > > > : 3 3 > > > > : > > > > > > 4 > > > 7 > 7 4 4 > > 4 4 4 > 4 > > > > > > > > > 7 > > > > 4 7 > j > > > 7 > > > > > > > 4 4 j > j 7 m 4 m 4 > > > 4 > > 4 4 > > N 4 m > 4 4 : 4 > > > 4 > m = 4 4 > > 4 4 m > 4 > > j 4 4 4 > 4 > > > > > > 4 > : > 4 > > > 4 4 > 4 > 4 4 4 6 > > : > 4 4 7 > > > > 4 : > > > > 4 4 > > 4 > > > > > > > , 4 7 > > > ; ; > > 4 > ; ; > ; 3 3 > 3 ; > > > : ; 6 > ; : ; ; ; ; ; ; , > ; ; ; O ; O ; ; < ; , ; O , O ; ; O ; O ; O 3 O O O O O O O O O ; O X O O O O X O X O O X X O X O O O X         + . . X X . + . X . .   X + . . X .   X . + . . X .   X X X + + X X . + . . X             X     4X4X4X4X4X4X4X4X4X4X4X4X4X4X4X",
"4X4X4X4X4X4X4X4X4X4XX 6 6 3 6 6 6 6 8 9 0 0 0 0 9 9 9 0 0 9 9 9 0 0 0 0 0 0 7 6 7 K 9   O 3 4 3 6 4 3 4 4 ; + +                         +               +     . .                       .     +     .   . .     .     .   .   . .     . .   . . . . . . .   . . .   . . .   . . . . . . . . . .   .   . . . . . . .   . . .   .     . . . . . . .   .   . . . . . . .     . . . .   . .     . .   X   . . .   . .   . . .   . .   . . . . +   .   .           .                         +                       +             +                                                                                                                                                           . + X X X X X X X X X X + X X X X X X X + X X . X + . X X X X X X . X   X X X X X . + X X X X X +   4X4X4X4X4X4X4X4X4X4X4X4X4X4X4X4X",
"4X4X4X4X4X4X4X4X4X4X4XX 6 6 6 6 6 9 6 9 6 6 6 2 6 6 6 9 7 6 6 6 6 9 6 7 7 7 6 7 6 9 9   ; 3 4 3 6 4 3 3 O       . . . .   . . .     . . . . . . . .   . . . . . . . . . . . . . . . .   .   . . . . . . . . . . . . . . . . . . . . . . . . . . . . . . . . . . . . . . . % . . . . . . . . . . . . . . . . . . . . . . . . . . . . . . . . . . . . . . . . . . . . . . . . . . . . . . . . . . . . . . . . . . . . . . . . . . . . . . . . . . . . . . . . . . .   . . . . . . .   . .   . . . .       .   . .     .   .           .                               .                                                                                                                   X . X X O O X o O O O X O X X X X X X X X X X O o X X o X O X X X X X X X X X X o o X X X X X X X   4X4X4X4X4X4X4X4X4X4X4X4X4X4X4X4X4X",
"4X4X4X4X4X4X4X4X4X4X4X4XO 6 6 6 6 6 6 6 6 6 6 8 6 9 6 7 6 6 7 7 7 7 7 7 7 7 7 7 7 Z Z + o 3 > ; 3 3 > ;     . . . . % . % . % % X % % % % % - - % % % - % % - - % % . % . % % % % % % % % % % % % % % % % % - % % % % % % % % % - % * - % * - % - * % - * % - - * - % % - * * - * - * % - % % % % : : % - % * - % - & % * - % - % % % % - - % * % - - % - * % - * - % % * % % % * - % % % % % % % - % % % - % % % % - - * - % % % * % - - % - - % % % % % - * % % % % X % % % . % X % X % % - - % % % % % % X % % . . % . % % X % % X % . X % % X . . . X . . . . . . . . . .   . . . . . . . . . . . . . . . . .   . . .   . + . .   . X   . .   .   .   .                       + X X o o O ; O O O ; ; O O ; O O ; O O O O O O O O O O O O O O O O O O O O O O O O O o o o O O O O X   4X4X4X4X4X4X4X4X4X4X4X4X4X4X4X4X4X4X",
"4X4X4X4X4X4X4X4X4X4X4X4X4XX ; 6 6 6 7 6 6 7 6 6 6 9 6 7 7 7 7 7 6 7 7 8 7 7 7 7 7 C 7   O ; ; ; 3 > O +     X X . X . X X X . X X % O X X % o o X % X % O X - X % X X o % X % X X % X % X X % X - o % o % o X % o % X O % X - o % % O o % O % ; X % o o % - X - % X % o ; - - X % ; X % O X % ; % ; - o % O - X - o - % O - - o % o - X % ; X % o ; % ; X % % O % o % o - X % - - o % ; X % X % o - % X % ; o % % o - - - - o ; ; X % - o - % o % X O % X - O % O X % O o X % o % O X X % o X X % X X o - o % X X X X % o o X X X X % o o X X X X X X X X X X X X X X . X . X X X X X . X X . X X X X X . X . X     X .   X   X X .   X .   X +   X   X + X . +   . +   .       X X O O O O O O ; O ; O O O O O O O O O O O O O O O O O O X O O O O O O O , O O O O O O X X X O O X O     4X4X4X4X4X4X4X4X4X4X4X4X4X4X4X4X4X4X",
"4X4X4X4X4X4X4X4X4X4X4X4X4X  + O 3 O 3 @ O ; ; ; 2 2 , O , O O O ; O ; O , O , O O 3 O   O ; ; 6 > O     4X4X4X4X4X4X4X4X4X4X4X4X4X4X4X4X4X4X4X4X4X4X4X4X4X4X4X4X4X4X4X4X4X4X4X4X4X4X4X4X4X4X4X4X4X4X4X4X4X4X4X4X4X4X4X4X4X4X4X4X4X4X4X4X4X4X4X4X4X4X4X4X4X4X4X4X4X4X4X4X4X4X4X4X4X4X4X4X4X4X4X4X4X4X4X4X4X4X4X4X4X4X4X4X4X4X4X4X4X4X4X4X4X4X4X4X4X4X4X4X4X4X4X4X4X4X4X4X4X4X4X4X4X4X4X4X4X4X4X4X4X4X4X4X4X4X4X4X4X4X4X4X4X4X4X4X4X4X4X4X4X4X4X4X4X4X4X4X4X4X4X4X4X4X4X4X4X4X4X4X4X4X4X4X4X4X4X4X4X4X4X4X4X4X4X4X4X4X4X4X4X4X4X4X4X4X4X4X4X4X4X4X4X4X4X4X4X4X4X4X4X4X4X4X4X4X4X4X4X4X4X4X4X4X4X4X4X4X4X4X4X4X4X4X4X4X4X4X4X4X4X4X4X4X4X4X4X4X4X4X4X4X4X4X4X4X4X4X4X4X4X4X4X4X4X4X. +   X   + X   + +   . +     X X   +     + +     +     +     + +           +     +     +     +         4X4X4X4X4X4X4X4X4X4X4X4X4X4X4X4X4X4X4X",
"4X4X4X4X4X4X4X4X4X4X4X4X4X              +     +             X           +       + +   X ; ; ; > X   4X4X4X4X4X4X4X4X4X4X4X4X4X4X4X4X4X4X4X4X4X4X4X4X4X4X4X4X4X4X4X4X4X4X4X4X4X4X4X4X4X4X4X4X4X4X4X4X4X4X4X4X4X4X4X4X4X4X4X4X4X4X4X4X4X4X4X4X4X4X4X4X4X4X4X4X4X4X4X4X4X4X4X4X4X4X4X4X4X4X4X4X4X4X4X4X4X4X4X4X4X4X4X4X4X4X4X4X4X4X4X4X4X4X4X4X4X4X4X4X4X4X4X4X4X4X4X4X4X4X4X4X4X4X4X4X4X4X4X4X4X4X4X4X4X4X4X4X4X4X4X4X4X4X4X4X4X4X4X4X4X4X4X4X4X4X4X4X4X4X4X4X4X4X4X4X4X4X4X4X4X4X4X4X4X4X4X4X4X4X4X4X4X4X4X4X4X4X4X4X4X4X4X4X4X4X4X4X4X4X4X4X4X4X4X4X4X4X4X4X4X4X4X4X4X4X4X4X4X4X4X4X4X4X4X4X4X4X4X4X4X4X4X4X4X4X4X4X4X4X4X4X4X4X4X4X4X4X4X4X4X4X4X4X4X4X4X4X4X4X4X4X4X4X4X4X4X4X4X4X                                                                                                  4X4X4X4X4X4X4X4X4X4X4X4X4X4X4X4X4X4X4X4X",
"4X4X4X4X4X4X4X4X4X4X4X4X4X4X        .   .     X + X   + . . + +   . . X . . X X X X X ; ; O ; X 4X4X4X4X4X4X4X4X4X4X4X4X4X4X4X4X4X4X4X4X4X4X4X4X4X4X4X4X4X4X4X4X4X4X4X4X4X4X4X4X4X4X4X4X4X4X4X4X4X4X4X4X4X4X4X4X4X4X4X4X4X4X4X4X4X4X4X4X4X4X4X4X4X4X4X4X4X4X4X4X4X4X4X4X4X4X4X4X4X4X4X4X4X4X4X4X4X4X4X4X4X4X4X4X4X4X4X4X4X4X4X4X4X4X4X4X4X4X4X4X4X4X4X4X4X4X4X4X4X4X4X4X4X4X4X4X4X4X4X4X4X4X4X4X4X4X4X4X4X4X4X4X4X4X4X4X4X4X4X4X4X4X4X4X4X4X4X4X4X4X4X4X4X4X4X4X4X4X4X4X4X4X4X4X4X4X4X4X4X4X4X4X4X4X4X4X4X4X4X4X4X4X4X4X4X4X4X4X4X4X4X4X4X4X4X4X4X4X4X4X4X4X4X4X4X4X4X4X4X4X4X4X4X4X4X4X4X4X4X4X4X4X4X4X4X4X4X4X4X4X4X4X4X4X4X4X4X4X4X4X4X4X4X4X4X4X4X4X4X4X4X4X4X4X4X4X4X4X4X4X4X4X4X4X4X4X4X4X4X4X4X4X4X4X4X4X4X4X4X4X4X4X4X4X4X4X4X4X4X4X4X4X4X4X4X4X4X4X4X4X4X4X4X4X4X4X4X4X4X4X4X4X4X4X4X4X4X4X4X4X4X4X4X4X4X4X4X4X4X4X4X",
"4X4X4X4X4X4X4X4X4X4X4X4X4X4X4X4X  +   . . + . .   X   X   X . . X . + X . X . X X X X X o X X   4X4X4X4X4X4X4X4X4X4X4X4X4X4X4X4X4X4X4X4X4X4X4X4X4X4X4X4X4X4X4X4X4X4X4X4X4X4X4X4X4X4X4X4X4X4X4X4X4X4X4X4X4X4X4X4X4X4X4X4X4X4X4X4X4X4X4X4X4X4X4X4X4X4X4X4X4X4X4X4X4X4X4X4X4X4X4X4X4X4X4X4X4X4X4X4X4X4X4X4X4X4X4X4X4X4X4X4X4X4X4X4X4X4X4X4X4X4X4X4X4X4X4X4X4X4X4X4X4X4X4X4X4X4X4X4X4X4X4X4X4X4X4X4X4X4X4X4X4X4X4X4X4X4X4X4X4X4X4X4X4X4X4X4X4X4X4X4X4X4X4X4X4X4X4X4X4X4X4X4X4X4X4X4X4X4X4X4X4X4X4X4X4X4X4X4X4X4X4X4X4X4X4X4X4X4X4X4X4X4X4X4X4X4X4X4X4X4X4X4X4X4X4X4X4X4X4X4X4X4X4X4X4X4X4X4X4X4X4X4X4X4X4X4X4X4X4X4X4X4X4X4X4X4X4X4X4X4X4X4X4X4X4X4X4X4X4X4X4X4X4X4X4X4X4X4X4X4X4X4X4X4X4X4X4X4X4X4X4X4X4X4X4X4X4X4X4X4X4X4X4X4X4X4X4X4X4X4X4X4X4X4X4X4X4X4X4X4X4X4X4X4X4X4X4X4X4X4X4X4X4X4X4X4X4X4X4X4X4X4X4X4X4X4X4X4X4X4X4X4X4X",
"4X4X4X4X4X4X4X4X4X4X4X4X4X4X4X4X4X4X4X4X4X4X4X4X4X4X4X4X4X4X4X4X4X4X4X4X4X4X4X4X4X4X4X4X4X4X4X4X4X4X4X4X4X4X4X4X4X4X4X4X4X4X4X4X4X4X4X4X4X4X4X4X4X4X4X4X4X4X4X4X4X4X4X4X4X4X4X4X4X4X4X4X4X4X4X4X4X4X4X4X4X4X4X4X4X4X4X4X4X4X4X4X4X4X4X4X4X4X4X4X4X4X4X4X4X4X4X4X4X4X4X4X4X4X4X4X4X4X4X4X4X4X4X4X4X4X4X4X4X4X4X4X4X4X4X4X4X4X4X4X4X4X4X4X4X4X4X4X4X4X4X4X4X4X4X4X4X4X4X4X4X4X4X4X4X4X4X4X4X4X4X4X4X4X4X4X4X4X4X4X4X4X4X4X4X4X4X4X4X4X4X4X4X4X4X4X4X4X4X4X4X4X4X4X4X4X4X4X4X4X4X4X4X4X4X4X4X4X4X4X4X4X4X4X4X4X4X4X4X4X4X4X4X4X4X4X4X4X4X4X4X4X4X4X4X4X4X4X4X4X4X4X4X4X4X4X4X4X4X4X4X4X4X4X4X4X4X4X4X4X4X4X4X4X4X4X4X4X4X4X4X4X4X4X4X4X4X4X4X4X4X4X4X4X4X4X4X4X4X4X4X4X4X4X4X4X4X4X4X4X4X4X4X4X4X4X4X4X4X4X4X4X4X4X4X4X4X4X4X4X4X4X4X4X4X4X4X4X4X4X4X4X4X4X4X4X4X4X4X4X4X4X4X4X4X4X4X4X4X4X4X4X4X4X4X4X4X4X4X4X4X4X4X4X4X4X4X4X4X",
"4X4X4X4X4X4X4X4X4X4X4X4X4X4X4X4X4X4X4X4X4X4X4X4X4X4X4X4X4X4X4X4X4X4X4X4X4X4X4X4X4X4X4X4X4X4X4X4X4X4X4X4X4X4X4X4X4X4X4X4X4X4X4X4X4X4X4X4X4X4X4X4X4X4X4X4X4X4X4X4X4X4X4X4X4X4X4X4X4X4X4X4X4X4X4X4X4X4X4X4X4X4X4X4X4X4X4X4X4X4X4X4X4X4X4X4X4X4X4X4X4X4X4X4X4X4X4X4X4X4X4X4X4X4X4X4X4X4X4X4X4X4X4X4X4X4X4X4X4X4X4X4X4X4X4X4X4X4X4X4X4X4X4X4X4X4X4X4X4X4X4X4X4X4X4X4X4X4X4X4X4X4X4X4X4X4X4X4X4X4X4X4X4X4X4X4X4X4X4X4X4X4X4X4X4X4X4X4X4X4X4X4X4X4X4X4X4X4X4X4X4X4X4X4X4X4X4X4X4X4X4X4X4X4X4X4X4X4X4X4X4X4X4X4X4X4X4X4X4X4X4X4X4X4X4X4X4X4X4X4X4X4X4X4X4X4X4X4X4X4X4X4X4X4X4X4X4X4X4X4X4X4X4X4X4X4X4X4X4X4X4X4X4X4X4X4X4X4X4X4X4X4X4X4X4X4X4X4X4X4X4X4X4X4X4X4X4X4X4X4X4X4X4X4X4X4X4X4X4X4X4X4X4X4X4X4X4X4X4X4X4X4X4X4X4X4X4X4X4X4X4X4X4X4X4X4X4X4X4X4X4X4X4X4X4X4X4X4X4X4X4X4X4X4X4X4X4X4X4X4X4X4X4X4X4X4X4X4X4X4X4X4X4X4X4X4X4X4X4X",
"4X4X4X4X4X4X4X4X4X4X4X4X4X4X4X4X4X4X4X4X4X4X4X4X4X4X4X4X4X4X4X4X4X4X4X4X4X4X4X4X4X4X4X4X4X4X4X4X4X4X4X4X4X4X4X4X4X4X4X4X4X4X4X4X4X4X4X4X4X4X4X4X4X4X4X4X4X4X4X4X4X4X4X4X4X4X4X4X4X4X4X4X4X4X4X4X4X4X4X4X4X4X4X4X4X4X4X4X4X4X4X4X4X4X4X4X4X4X4X4X4X4X4X4X4X4X4X4X4X4X4X4X4X4X4X4X4X4X4X4X4X4X4X4X4X4X4X4X4X4X4X4X4X4X4X4X4X4X4X4X4X4X4X4X4X4X4X4X4X4X4X4X4X4X4X4X4X4X4X4X4X4X4X4X4X4X4X4X4X4X4X4X4X4X4X4X4X4X4X4X4X4X4X4X4X4X4X4X4X4X4X4X4X4X4X4X4X4X4X4X4X4X4X4X4X4X4X4X4X4X4X4X4X4X4X4X4X4X4X4X4X4X4X4X4X4X4X4X4X4X4X4X4X4X4X4X4X4X4X4X4X4X4X4X4X4X4X4X4X4X4X4X4X4X4X4X4X4X4X4X4X4X4X4X4X4X4X4X4X4X4X4X4X4X4X4X4X4X4X4X4X4X4X4X4X4X4X4X4X4X4X4X4X4X4X4X4X4X4X4X4X4X4X4X4X4X4X4X4X4X4X4X4X4X4X4X4X4X4X4X4X4X4X4X4X4X4X4X4X4X4X4X4X4X4X4X4X4X4X4X4X4X4X4X4X4X4X4X4X4X4X4X4X4X4X4X4X4X4X4X4X4X4X4X4X4X4X4X4X4X4X4X4X4X4X4X4X4X4X",
"4X4X4X4X4X4X4X4X4X4X4X4X4X4X4X4X4X4X4X4X4X4X4X4X4X4X4X4X4X4X4X4X4X4X4X4X4X4X4X4X4X4X4X4X4X4X4X4X4X4X4X4X4X4X4X4X4X4X4X4X4X4X4X4X4X4X4X4X4X4X4X4X4X4X4X4X4X4X4X4X4X4X4X4X4X4X4X4X4X4X4X4X4X4X4X4X4X4X4X4X4X4X4X4X4X4X4X4X4X4X4X4X4X4X4X4X4X4X4X4X4X4X4X4X4X4X4X4X4X4X4X4X4X4X4X4X4X4X4X4X4X4X4X4X4X4X4X4X4X4X4X4X4X4X4X4X4X4X4X4X4X4X4X4X4X4X4X4X4X4X4X4X4X4X4X4X4X4X4X4X4X4X4X4X4X4X4X4X4X4X4X4X4X4X4X4X4X4X4X4X4X4X4X4X4X4X4X4X4X4X4X4X4X4X4X4X4X4X4X4X4X4X4X4X4X4X4X4X4X4X4X4X4X4X4X4X4X4X4X4X4X4X4X4X4X4X4X4X4X4X4X4X4X4X4X4X4X4X4X4X4X4X4X4X4X4X4X4X4X4X4X4X4X4X4X4X4X4X4X4X4X4X4X4X4X4X4X4X4X4X4X4X4X4X4X4X4X4X4X4X4X4X4X4X4X4X4X4X4X4X4X4X4X4X4X4X4X4X4X4X4X4X4X4X4X4X4X4X4X4X4X4X4X4X4X4X4X4X4X4X4X4X4X4X4X4X4X4X4X4X4X4X4X4X4X4X4X4X4X4X4X4X4X4X4X4X4X4X4X4X4X4X4X4X4X4X4X4X4X4X4X4X4X4X4X4X4X4X4X4X4X4X4X4X4X4X4X4X4X"
};
