/* XPM */
static const char *player11_xpm[] = {
/* columns rows colors chars-per-pixel */
"397 80 160 2 ",
"   c #020402",
".  c #040B04",
"X  c #080B07",
"o  c #030709",
"O  c #070D08",
"+  c #0A0E0A",
"@  c #031303",
"#  c #081107",
"$  c #031A03",
"%  c #081F06",
"&  c #071309",
"*  c #0B130C",
"=  c #071909",
"-  c #0C1A0E",
";  c #10140F",
":  c #060E12",
">  c #0F1510",
",  c #0E1A10",
"<  c #07131B",
"1  c #08141B",
"2  c #0B181F",
"3  c #111612",
"4  c #131A14",
"5  c #181C17",
"6  c #171D18",
"7  c #191E19",
"8  c #052303",
"9  c #082206",
"0  c #072B04",
"q  c #082C05",
"w  c #0C210E",
"e  c #082B08",
"r  c #063205",
"t  c #093405",
"y  c #063804",
"u  c #0A3B06",
"i  c #073308",
"p  c #0B3509",
"a  c #0C3B08",
"s  c #0E2311",
"d  c #0F2811",
"f  c #132415",
"g  c #182317",
"h  c #132914",
"j  c #162319",
"k  c #1B231C",
"l  c #162A19",
"z  c #1B2B1D",
"x  c #17321E",
"c  c #1B321E",
"v  c #1B381F",
"b  c #21251F",
"n  c #0B1B23",
"m  c #0A1D2A",
"M  c #0C212E",
"N  c #1E2520",
"B  c #1E2C21",
"V  c #1D3420",
"C  c #1E3921",
"Z  c #0C2535",
"A  c #0C2639",
"S  c #0D293C",
"D  c #10293B",
"F  c #212522",
"G  c #232B24",
"H  c #282D27",
"J  c #262D28",
"K  c #2A2E2A",
"L  c #223325",
"P  c #203A23",
"I  c #263429",
"U  c #2C332D",
"Y  c #263A2B",
"T  c #293B2D",
"R  c #30332E",
"E  c #2F3430",
"W  c #2F3C32",
"Q  c #313632",
"!  c #343A35",
"~  c #383C37",
"^  c #363D38",
"/  c #393D3A",
"(  c #0B4105",
")  c #0E4108",
"_  c #2B4030",
"`  c #354236",
"'  c #37423A",
"]  c #3A453C",
"[  c #3A483E",
"{  c #0D2C43",
"}  c #0D2E49",
"|  c #112F44",
" . c #0F324B",
".. c #103046",
"X. c #13344F",
"o. c #0F3350",
"O. c #133653",
"+. c #143955",
"@. c #103758",
"#. c #133A5B",
"$. c #3E4741",
"%. c #3E4A42",
"&. c #414641",
"*. c #434B45",
"=. c #454E48",
"-. c #494F4A",
";. c #435147",
":. c #45534A",
">. c #4B534D",
",. c #49594E",
"<. c #51564F",
"1. c #4E5450",
"2. c #4D5C52",
"3. c #515753",
"4. c #535B55",
"5. c #565D59",
"6. c #595E5A",
"7. c #4E6254",
"8. c #516456",
"9. c #536659",
"0. c #5C625E",
"q. c #55695A",
"w. c #5A6D5D",
"e. c #5B715F",
"r. c #5E6461",
"t. c #5D6E62",
"y. c #5D7262",
"u. c #616662",
"i. c #646B65",
"p. c #676E69",
"a. c #686E6A",
"s. c #617565",
"d. c #647966",
"f. c #667569",
"g. c #6A736C",
"h. c #667B6A",
"j. c #6A7B6C",
"k. c #6E7671",
"l. c #6D7B72",
"z. c #717771",
"x. c #727C75",
"c. c #757E78",
"v. c #6E8072",
"b. c #728075",
"n. c #75847A",
"m. c #78867D",
"M. c #76887C",
"N. c #7A8A7E",
"B. c #7B907F",
"V. c #7F8682",
"C. c #7D8D82",
"Z. c #7D9183",
"A. c #818682",
"S. c #828B85",
"D. c #878F89",
"F. c #888F8B",
"G. c #819386",
"H. c #879089",
"J. c #8A918B",
"K. c #000001",
/* pixels */
"K.K.K.K.K.K.K.K.K.K.K.K.K.F >.2.1.1.4.5.1.2.1.6.4.1.1.:.1.1.2.9.5.5.5.9.9.6.4.9.r.x.t.N K.K.K.K.K.K.K.K.K.K.K.K.K.K.K.K.K.K.K.K.K.K.K.K.K.K.K.K.K.K.K.K.K.K.K.K.K.K.K.K.K.K.K.K.K.K.K.K.K.K.K.K.K.K.K.K.K.K.K.K.K.K.K.K.K.K.K.K.K.K.K.K.K.K.K.K.K.K.K.K.K.K.K.K.K.K.K.K.K.K.K.K.K.K.K.K.K.K.K.K.K.K.K.K.K.K.K.K.K.K.K.K.K.K.K.K.K.K.K.K.K.K.K.K.K.K.K.K.K.K.K.K.K.K.K.K.K.K.K.K.K.K.K.K.K.K.K.K.K.K.K.K.K.K.K.K.K.K.K.K.K.K.K.K.K.K.K.K.K.K.K.K.K.K.K.K.K.K.K.K.K.K.K.K.K.K.K.K.K.K.K.K.K.K.K.K.K.K.K.K.K.K.K.K.K.K.K.K.K.K.K.K.K.K.K.K.K.K.K.K.K.K.K.K.K.K.K.K.K.K.K.K.K.K.K.K.K.K.K.K.K.K.K.K.K.K.K.K.K.K.K.K.K.K.K.K.K.K.K.K.K.K.K.K.K.K.K.K.K.K.K.K.K.K.K.K.K.K.K.K.K.K.K.K.K.K.K.K.K.K.K.K.K.K.K.K.K.K.K.K.K.K.K.K.K.K.K.K.K.K.K.K.K.K.K.K.K.K.K.K.K.K.K.K.K.K.K.K.K.K.K.K.K.K.K.K.K.K.K.K.K.K.K.K.K.K.K.K.K.K.K.K.K.",
"K.K.K.K.K.K.K.K.K.K.K.K.K.&.6 ; > > > > > 4 3 3 6 6 6 4 4 7 7 N N N N F K E E K J U x.t.7 K.K.K.K.K.K.K.K.K.K.K.K.K.K.K.K.K.K.K.K.K.K.K.K.K.K.K.K.K.K.K.K.K.K.K.K.K.K.K.K.K.K.K.K.K.K.K.K.K.K.K.K.K.K.K.K.K.K.K.K.K.K.K.K.K.K.K.K.K.K.K.K.K.K.K.K.K.K.K.K.K.K.K.K.K.K.K.K.K.K.K.K.K.K.K.K.K.K.K.K.K.K.K.K.K.K.K.K.K.K.K.K.K.K.K.K.K.K.K.K.K.K.K.K.K.K.K.K.K.K.K.K.K.K.K.K.K.K.K.K.K.K.K.K.K.K.K.K.K.K.K.K.K.K.K.K.K.K.K.K.K.K.K.K.K.K.K.K.K.K.K.K.K.K.K.K.K.K.K.K.K.K.K.K.K.K.K.K.K.K.K.K.K.K.K.K.K.K.K.K.K.K.K.K.K.K.K.K.K.K.K.K.K.K.K.K.K.K.K.K.K.K.K.K.K.K.K.K.K.K.K.K.K.K.K.K.K.K.K.K.K.K.K.K.K.K.K.K.K.K.K.K.K.K.K.K.K.K.K.K.K.K.K.K.K.K.K.K.K.K.K.K.K.K.K.K.K.K.K.K.K.K.K.K.K.K.K.K.K.K.K.K.K.K.K.K.K.K.K.K.K.K.K.K.K.K.K.K.K.K.K.K.K.K.K.K.K.K.K.K.K.K.K.K.K.K.K.K.K.K.K.K.K.K.K.K.K.K.K.K.K.K.K.K.K.K.K.K.K.K.K.K.",
"K.K.K.K.K.K.K.K.K.K.K.J *.6 4 6 6 3 6 6 6 4 6 6 4 4 4 4 6 4 4 3 > > , 3 4 4 6 4 6 > N j.9.6 K.K.K.K.K.K.K.K.K.K.K.K.K.K.K.K.K.K.K.K.K.K.K.K.K.K.K.K.K.K.K.K.K.K.K.K.K.K.K.K.K.K.K.K.K.K.K.K.K.K.K.K.K.K.K.K.K.K.K.K.K.K.K.K.K.K.K.K.K.K.K.K.K.K.K.K.K.K.K.K.K.K.K.K.K.K.K.K.K.K.K.K.K.K.K.K.K.K.K.K.K.K.K.K.K.K.K.K.K.K.K.K.K.K.K.K.K.K.K.K.K.K.K.K.K.K.K.K.K.K.K.K.K.K.K.K.K.K.K.K.K.K.K.K.K.K.K.K.K.K.K.K.K.K.K.K.K.K.K.K.K.K.K.K.K.K.K.K.K.K.K.K.K.K.K.K.K.K.K.K.K.K.K.K.K.K.K.K.K.K.K.K.K.K.K.K.K.K.K.K.K.K.K.K.K.K.K.K.K.K.K.K.K.K.K.K.K.K.K.K.K.K.K.K.K.K.K.K.K.K.K.K.K.K.K.K.K.K.K.K.K.K.K.K.K.K.K.K.K.K.K.K.K.K.K.K.K.K.K.K.K.K.K.K.K.K.K.K.K.K.K.K.K.K.K.K.K.K.K.K.K.K.K.K.K.K.K.K.K.K.K.K.K.K.K.K.K.K.K.K.K.K.K.K.K.K.K.K.K.K.K.K.K.K.K.K.K.K.K.K.K.K.K.K.K.K.K.K.K.K.K.K.K.K.K.K.K.K.K.K.K.K.K.K.K.K.K.K.K.K.K.",
"K.K.K.K.K.K.K.K.K.K.K ' 4 > 6 3 3 + + + + > + > * : > * > + > > > > > > * > 3 1 4 N , J f.2.3 K.K.K.K.K.K.K.K.K.K.K.K.K.K.K.K.K.K.K.K.K.K.K.K.K.K.K.K.K.K.K.K.K.K.K.K.K.K.K.K.K.K.K.K.K.K.K.K.K.K.K.K.K.K.K.K.K.K.K.K.K.K.K.K.K.K.K.K.K.K.K.K.K.K.K.K.K.K.K.K.K.K.K.K.K.K.K.K.K.K.K.K.K.K.K.K.K.K.K.K.K.K.K.K.K.K.K.K.K.K.K.K.K.K.K.K.K.K.K.K.K.K.K.K.K.K.K.K.K.K.K.K.K.K.K.K.K.K.K.K.K.K.K.K.K.K.K.K.K.K.K.K.K.K.K.K.K.K.K.K.K.K.K.K.K.K.K.K.K.K.K.K.K.K.K.K.K.K.K.K.K.K.K.K.K.K.K.K.K.K.K.K.K.K.K.K.K.K.K.K.K.K.K.K.K.K.K.K.K.K.K.K.K.K.K.K.K.K.K.K.K.K.K.K.K.K.K.K.K.K.K.K.K.K.K.K.K.K.K.K.K.K.K.K.K.K.K.K.K.K.K.K.K.K.K.K.K.K.K.K.K.K.K.K.K.K.K.K.K.K.K.K.K.K.K.K.K.K.K.K.K.K.K.K.K.K.K.K.K.K.K.K.K.K.K.K.K.K.K.K.K.K.K.K.K.K.K.K.K.K.K.K.K.K.K.K.K.K.K.K.K.K.K.K.K.K.K.K.K.K.K.K.K.K.K.K.K.K.K.K.K.K.K.K.K.K.K.K.K.K.",
"K.K.K.K.K.K.K.K.K.K Q 6 6 6 > N / ! / ! / / / ! / / / / / ~ ^ / / / ! / / / ] 7   4 6 3 J f.y.7 K.K.K.K.K.K.K.K.K.K.K.K.K.K.K.K.K.K.K.K.K.K.K.K.K.K.K.K.K.K.K.K.K.K.K.K.K.K.K.K.K.K.K.K.K.K.K.K.K.K.K.K.K.K.K.K.K.K.K.K.K.K.K.K.K.K.K.K.K.K.K.K.K.K.K.K.K.K.K.K.K.K.K.K.K.K.K.K.K.K.K.K.K.K.K.K.K.K.K.K.K.K.K.K.K.K.K.K.K.K.K.K.K.K.K.K.K.K.K.K.K.K.K.K.K.K.K.K.K.K.K.K.K.K.K.K.K.K.K.K.K.K.K.K.K.K.K.K.K.K.K.K.K.K.K.K.K.K.K.K.K.K.K.K.K.K.K.K.K.K.K.K.K.K.K.K.K.K.K.K.K.K.K.K.K.K.K.K.K.K.K.K.K.K.K.K.K.K.K.K.K.K.K.K.K.K.K.K.K.K.K.K.K.K.K.K.K.K.K.K.K.K.K.K.K.K.K.K.K.K.K.K.K.K.K.K.K.K.K.K.K.K.K.K.K.K.K.K.K.K.K.K.K.K.K.K.K.K.K.K.K.K.K.K.K.K.K.K.K.K.K.K.K.K.K.K.K.K.> Q Q Q ! Q R Q R R Q Q Q E K Q Q Q Q Q K K U U E E K K K R K K K K K K K H K K K K H F H F H F F F F F F F F F F + K.K.K.K.K.K.K.K.K.K.K.K.K.",
"K.K.K.K.K.K.K.  K / 6 6 4 4 6 0.A.A.V.A.A.A.A.A.S.S.F.F.S.F.J.S.F.S.S.V.S.S.S.u.> 4 4 6 , N n.l.N K.K.K.                                                                                                                                                                                            K.                                                      K.                  K.                                                                                                                                                                                                                                                                                        4 &.5.6.6.6.5.3.4.3.3.1.3.>.-.>.>.1.1.-.1.-.-.-.>.-.-.-.-.=.&.&.&.&.&.&.&.&./ &.*.&.&.&.&./ / / / ! / / / / / / / / 7 K.K.K.K.K.K.K.K.K.K.K.K.K.",
"K.K.K.K.K.K.  J $.3 3 7 6 3 6 3 + + + ; 3 > > > 3 3 3 3 3 3 3 3 > > 3 4 3 > 3 E 3 4 6 6 7 > 6 h.g.N K.K.' *.:.>.:.:.:.:.>.2.%.%.:.,.2.2.>.,.,.,.:.,.7.7.,.2.2.7.7.2.8.2.7.7.8.2.8.9.2.9.8.8.9.9.2.8.7.q.8.9.9.7.9.q.w.q.8.7.9.q.q.9.7.9.9.9.q.8.9.q.8.8.7.8.8.9.8.8.8.7.7.8.q.q.9.7.7.9.9.8.q.9.8.q.q.7.7.q.8.q.9.8.9.9.8.9.7.7.9.7.7.8.2.7.9.9.9.9.9.8.7.9.q.9.9.9.q.q.8.9.9.9.q.8.q.7.8.8.8.8.9.9.9.q.9.q.q.8.7.8.8.8.7.7.8.7.8.9.9.9.8.8.7.2.7.8.9.9.9.9.8.7.2.7.8.9.8.8.4.7.7.2.9.2.2.2.2.2.2.2.2.2.2.7.2.2.,.,.2.2.>.1.:.:.:.>.>.:.;.*.%.:.*.:.>.=.%.*.&.%.%.%.*.;.*.=.*.*.*.*.=.:.*.:.>.*.*.*.=.*.*.*.*.%.*.$.%.%.$.$.[ &.$.%.$.%.&.$.] ^ ^ ] ^ ^ ! ! ^ W E K F 3 6 K 7 X + + + > > + > 3 * * ; ; 3 > 3 > 3 3 3 3 ; ; > > > ; ; ; 3 3 : ; 3 > + > ; + ; ; 3 + ; + ; * + * + + + ; ; ; ; F 3 X K.K.K.K.K.K.K.K.K.K.K.",
"K.K.K.K.K.K.K $.3 3 3 6 3 6 6 7 N 7 N N F 7 7 N 7 F k F F F 7 F N G F N B N B E : > , , 6 6 4 L t.g.J K.4 k k k z k B k B B N z N V N B L B L b G G L G L L L I L I I L L L I L I Y I I L L L L L I Y I L I I Y Y Y L T L L Y Y Y Y I I I Y _ Y Y Y T T T T L T L T Y Y Y T Y Y Y Y Y W Y Y C _ Y Y T W T T _ T T Y _ Y _ Y Y Y _ Y Y Y Y Y Y Y T Y T T T T _ T _ T Y Y Y Y Y Y T T Y Y _ Y Y T Y T T T I Y T Y Y _ T Y Y T Y Y Y Y Y E T Y Y Y T T T Y Y Y U T Y T Y Y U T T T W I W Y W Y U Y I Y I I I U U Y U I I I I I I Y I I I I I I J G B J I I I G L G G G J J L G I J I G J J J I I I I K I J J J G J G G F G G B F F G N G F G k N k k k k 7 6 k k 7 7 4 > * 6 3 6 7 7 7 7 7 7 N F F F F F F F k F N F k N F 7 N N 7 N F 7 F 7 7 F 7 7 7 N 7 6 7 7 7 7 5 7 7 5 7 7 7 5 7 6 6 7 7 7 7 F ; X K.K.K.K.K.K.K.K.K.K.",
"K.K.K.K.K.J E 3 3 6 3 4 6 6 3 7 7 N 7 N N 7 7 N 7 k 7 N N 7 N F N k k N N 7 k U + + 3 6 4 6 k 4 B t.b.F   .   . .   . . . . . # X X @ . X O # X O & @ O @ # # @ @ & = O = # # # # = # # & . = = & = * = # # = & # & = & = & & & & & & & & = = & & & = & = = = * * = & & = = & & = @ & = @ * & & @ & & * * = = - - = = = = = = & = = = * = * = = = = = & = = = * = - = * = - = - = - = = = - = = = - = = = = = = & = = = = = = * = * = - = & = = = = = * * = = * * = * * * = # * * & & * * = # * * * * * * * * # * = * # # * * * & O & & & O # * X # X # # + * + # + # * + + * X + + * + # + # + + + + + + + # # + * X * * X + + * + + * X * + + + O O X O O + + + + o X > * + + 3 3 5 4 5 5 7 7 F 7 b 7 F 7 7 7 7 7 7 7 7 k 7 7 7 7 7 5 5 5 7 7 5 5 7 7 6 5 5 3 5 7 5 7 6 6 6 5 5 5 5 5 5 5 5 3 7 F 3 o K.K.K.K.K.K.K.K.K.",
"K.K.K.K.K E 3 4 3 4 6 4 6 3 7 N 7 7 7 7 7 7 7 7 7 7 7 5 7 7 7 5 k k 7 7 k 6 k I + > 3 4 4 j k 6 4 B y.N.&.R ! ^ / ' ' ^ ' ' ~ ' ] ' ' ' ' ' ] ] ] ] ` ' ] ' ' ' ] ] ] ] ' ' ' ] ' ' [ $.] ' ] $.] ] [ $.$.[ ' ] ' ] ] ] $.$.' ' ' [ [ ' [ ' ' ' ' %.' ' ^ ] ] [ [ [ [ ` ' [ ] ' ] ] ] %.[ [ [ ] %.[ [ ] ] ] [ [ $.[ ' ' %.] ' %.] [ ] ] ' %.[ [ %.%.[ [ $.[ [ $.[ [ ' [ $.[ ] $.] [ [ ] ' [ %.[ [ ] ] [ [ [ [ [ [ [ [ ' ] ] [ %.[ [ ] ] ] ] ] [ $.$.] ] [ [ [ ' ' [ ' [ [ ] ] ] ] ' ' ' ' ' ] ^ ` ' ' ] ' ' ` ~ ' ^ ^ / ' ' ^ ^ ^ ^ ^ ^ ! ^ ! ^ ^ ! ^ ~ ^ ! ! ! ^ ^ ! ! ! Q ! ! ~ ! Q Q Q ! ! ! ! ! Q ! ! ! ! Q Q Q ! ! Q ! ! R R R Q Q Q Q Q R E E E E E Q Q Q E Q U U R U R K 7 X 3 5 5 5 7 7 7 7 5 b 7 7 F 7 b 7 7 N 7 7 7 5 7 5 5 7 5 5 6 6 5 5 7 5 5 5 5 5 5 5 6 5 5 5 5 6 5 3 5 5 5 3 3 5 4 4 b 3 + K.K.K.K.K.K.K.K.",
"K.K.  J E 4 3 3 4 4 6 6 3 5 6 o                                         > 7 6 U + + , 4 4 4 j k k 4 J ;.x.b.x.x.x.x.l.l.j.l.x.x.n.x.v.x.b.b.b.v.l.b.b.l.x.n.b.n.n.n.n.M.M.n.M.M.n.n.m.n.V.C.M.n.n.C.M.n.M.M.M.n.N.m.n.n.n.n.M.M.n.M.n.M.M.M.M.M.M.M.n.M.M.M.M.M.M.N.C.N.M.C.C.C.C.C.C.C.Z.C.C.C.C.C.Z.C.C.C.G.Z.C.Z.C.C.Z.Z.Z.C.C.N.N.S.Z.Z.Z.Z.N.Z.Z.C.C.Z.Z.Z.Z.Z.Z.C.Z.Z.Z.C.C.C.C.C.Z.G.Z.S.C.C.C.C.S.N.N.N.M.Z.Z.N.C.M.C.C.M.C.C.N.C.C.M.M.M.M.M.C.M.C.C.N.N.C.C.C.V.Z.V.N.C.C.C.n.M.N.m.N.M.M.m.n.n.n.n.n.n.m.n.n.c.n.n.c.n.c.n.n.x.c.x.x.n.c.n.c.x.c.c.c.c.x.x.x.z.x.x.x.c.c.c.g.z.c.z.c.x.z.x.z.x.x.z.z.x.x.j.z.k.z.g.j.x.g.z.z.x.z.a.a.a.g.k.g.g.g.z.k.g.a.g.u.i.a.p.i.i.&.X 5 7 5 7 5 7 7 7 7 b 7 F 7 7 7 k 7 5 5 5 7 5 7 5 5 3 5 6 7 5 6 7 5 3 5 5 5 5 6 5 3 3 5 3 5 6 5 3 5 5 3 3 5 5 3 4 F 3 K.K.K.K.K.K.K.K.",
"K.K.F / > 4 6 6 3 4 4 3 4 5       X     o O   X X X X   o O o + X       > k 4 I + & > 4 4 j 6 6 k j f - & * * * * * * * * * * - - - * , , - - - - - - - - * - - - - , , * - - * , - - - = - , - * , - - - , , - - - - * = = , = - - , = - - - - - - - , - > - - - - - - - - - , = , - = = - - - = = - - - = * - = - s , = , , - - - - - - = , , - - - = - - - = - - = - - - = - = w - - - = - * * , = - = - - - - - = - - - * = - - - * = , , - - - - - * , - 4 = - - * - - * - = * * * ; * 3 > * ; * - * # * - * * * + ; * # * * > * # # * > * # + + * + # # + + + + + + ; ; + + + * * ; + + + * + + * + + + + * + + + + ; + ; + + + X + ; * ; + > + > + + + + + ; + * 3 3 ; ; 5 / K   6 7 5 7 b 7 b 7 7 5 7 7 7 5 5 5 7 7 7 5 5 5 5 3 6 5 5 3 5 5 3 5 6 5 5 3 3 5 6 6 5 5 5 5 3 3 3 5 5 5 3 3 5 4 5 5 k K.K.K.K.K.K.K.K.",
"K.K.N 6 3 6 3 3 3 4 3 4 3       : > > 3 > 3 > 3 3 3 3 4 3 3 4 3 3 3     + k 6 I > + , 4 4 4 4 f f j j k z j z z z z z c z z z z z V z c c z c v c z z c z c c l c c c c c z v c c V V c c B V V V c c z V V V V c c c c V B V V c c c z V V V c C V V V c c V V x C V c x c c c V C c v V c C V V V V x V x v v V c c v V V V V V v c V V c V v c V z c c c V V c V c c c V c c V V v v V L V c c c c V c c c c c V c L V V V B V V V L V L V c V V V z c c V c c B B V z V L z B B B B B B z z b z b V z k b F k z b z k b z z k b j k k k k k k k 7 k 4 k k g k 7 k 7 k k b k k k b k k k k 5 k b k b k k 7 k g k k 7 7 7 k k 7 7 7 k k 7 b 7 7 7 7 7 5 5 7 7 7 5 7 7 7 7 7 k 7 5 U K + 3 7 5 7 5 7 7 5 5 7 5 5 5 3 3 6 5 5 5 5 5 3 5 3 5 5 3 3 5 5 5 5 5 3 5 5 5 5 5 3 5 5 5 5 3 7 5 3 6 3 5 4 3 5 3 5 5 o X K.K.K.K.K.",
"K.K.3 6 3 4 6 3 4 4 6 3         3 > 3 3 4 3 3 6 3 6 4 3 4 6 3 6 4 6     > N 6 I + * , , 4 4 6 j 4 j j j z j z z c h z z z l x l z z c z z c z z c z z l l l z x x l c l l c z x x c l x z x V c x x c c C c V c c c c x V V h x c x x c x x V c V V x x c x c c c c x c c c v l x x x c c c c c V x c V v c v z z c c v V V V x c v c z v c z c c c x c c c c c c c c c c c c c c c v c v C c c x c V c c z c z c c c c c c c z c c z P z V z c V z x z c z z z c z z c B B z z z B z z z z z z c z z z z z z j k k z k z k k k k k j k f k k g g g k k k k k k k k k 5 4 k k 7 k 7 k 5 k 7 b 7 k 7 7 5 k 7 7 7 7 7 4 4 7 7 7 5 7 7 7 7 5 5 5 5 5 6 6 6 5 4 6 4 5 5 5 4 4 5 7 5 6 6 4 K R > + + + + ; ; + ; ; + + + ; ; + o + + + X + + ; + + o + + : + X ; + + + + + + o + + + + o o + o + + + X + + + + +     X K.K.K.K.",
"K.K.3 6 > 3 3 6 3 6 >           3 3 > 4 4 4 4 4 6 4 3 4 3 3 3 3 3 7 o   : k 5 U > + 4 4 4 4 6 j 4 j j k g z z z l z z z z z c c V c c z c v c z v c c x c c c c z c c x v v z v c V c c c c c V V V V C P V v P v c C c v C x V c V C C C C v c v x C V v C v v v C C v v x v c c c C C C C C C C C C C P P C C C C c C C v C V v v P v V v v v v c v v v v c C C v C C C v C C C C C v P P v v v v V V v V P v P P v C C V V V V V v v V C V V V v x v v V V v c V c c v B V V c V B V V z B V L c b V z B B B G z z k z z k k k z k b k k k k k k k k k k k k k k k 7 k k k b k k b 7 k k b k k k 7 5 7 5 7 5 5 k 5 7 7 7 7 7 5 7 k 7 7 7 7 7 7 5 5 7 7 6 5 6 7 7 7 7 7 7 k 7 5 5 4 4 F / 3.0.6.4.4.6.6.6.6.6.6.5.6.5.4.4.6.6.5.5.5.3.3.6.6.5.6.3.1.3.3.3.3.4.3.3.3.3.3.3.1.-.1.-.-.-.1.-.-.-.-.-.-.1.1.*.1.E   X K.K.K.",
"K.K.  6 6 3 6 3 7 >       7 >   3 > > > 3 4 3 4 4 6 6 4 6 6 6 4 6 7     + k 4 G + + 3 4 , f 4 4 f j j j c 5 .                                                                     .     .           .                 .       o .       .     .   .   o .   .   .   . .   . . . .   . .     .   .     .   . . .   . .   .   o .   . .     .   . . .         .   . o .   . . .   .     .       .       . .           .   o . .           o   .                       .                     o                                 o                                                                                                                                                 + 5 6 5 5 3 7 K Q R R ! Q Q R ~ Q ! Q Q Q Q Q Q ! ! ! ! Q Q ~ ~ Q E Q R Q Q Q Q Q Q E Q R R Q R K R E E R R K K K R K R R R E ! / F X K.K.K.",
"K.K.    3 3 > 3 +       N 5   X 4 3 3 3 4 3 3 6 6 4 6 3 6 3 6 4 3 k     > k 6 J : + , , 4 , j , j j f V 4   . .   . . . . . . . . . . . . . . . . . . . . . @ . @ . . . . @ . . . @ . . . @ @ . @ . . . @ . @ . @ . . . @ @ @ @ @ @ @ @ . . @ . @ . @ @ . . @ . . @ . . . @ @ . . @ @ . . @ @ . . @ . . @ . . . @ . . @ . @ . . . . . . . . . . @ . @ @ @ . @ @ @ . . @ . @ @ . @ @ . @ @ @ . . . . @ . @ @ . . @ . . . @ . @ @ . . . @ . @ . . . . . . . . . . . . . . . . . . . . . . . . .   . . . .                                                                                                                                                                         + 6 6 5 7 5 3 3 3 3 3 3 4 3 3 3 5 5 3 5 3 3 3 3 3 3 3 3 4 3 3 5 3 5 3 ; 3 3 3 3 3 3 5 3 3 3 3 3 3 5 5 3 3 ; 3 3 ; > 3 3 3 5 3 ; F 5 X K.K.",
"K.K.                  4 5 +     6 3 3 4 4 4 4 6 7 7 6 6 6 6 5 3 3 F     + k j J + * , 4 , , 6 6 4 j z 3   . . @ @ @ . @ @ @ @ @ @ @ @ @ @ @ @ @ $ @ @ @ @ @ @ @ @ @ @ @ @ $ @ @ @ @ $ @ @ @ @ @ @ $ @ @ @ @ @ @ @ @ @ $ @ @ @ @ @ @ @ @ @ $ @ $ @ @ @ @ $ @ @ @ @ @ @ @ @ @ @ @ @ @ @ @ @ @ @ @ @ @ @ $ @ @ $ @ $ @ @ @ $ @ @ @ @ @ @ @ @ @ @ @ $ @ @ @ @ @ $ @ @ $ @ @ @ $ @ @ @ @ @ @ @ @ @ @ @ @ @ @ @ @ @ $ @ @ @ @ $ @ @ @ @ $ @ @ @ @ @ @ @ @ @ @ @ @ @ @ @ @ @ @ @ @ @ @ @ @ @ . @ @ @ @ @ . @ . @ . . . . . . .   . .   .                         .                                                                                                                       + 5 5 5 5 7 k b 7 7 F 7 F b 5 b F F 7 F F F 7 7 N 7 b 7 b 7 b 7 7 7 7 b 7 7 b 7 F 7 5 b 7 b 7 b 7 7 7 b 7 7 7 7 7 7 7 7 7 7 7 5 F 3 X K.",
"K.K.                  F + >     6 3 3 + 3 + + + + + ; + * 3 3 3 > N o   3 k 6 G + * , > 4 , , j j z > . . . @ @                                           .   . . .                                           .   . . $ @ . .                                         . .   . $ @ @ .                                         .   . . $ @ @                                           .     . @ @ .                                         .     . @ @                                           .       @ @ . @ . .                                               . .   .                 o                               .                                                       ; 7 b 5 7 7 7 7 7 b 7 7 k 7 7 F N 7 b F F 7 7 F b k F F 7 F 7 F 7 F F F k 7 F F F 5 b b b 7 7 F b 5 7 7 7 7 7 7 7 7 7 7 7 F 7 b F 4 K.",
"K.K.6 +   + 5 > +   X F O >   o 5 3 >                           + k     > k 4 J + + , , 4 4 j 6 z ,   . @ @ . & l z z B z B B k z k k k k z k k j k k k *   .   . @ l c z B B B B z k z k j N N k j j k k k ,   .   @ 8 @ @ w z c z B z B z z k N k k B k k j k j k 4 .   . . $ @ @ f z c z B B B z z k k k k z k k j k k k 4   .   . 8 @ @ f c z B B z V N k k k j N k z j k k k k 4     . . @ @ f z z B B z B B N k k j k k N j j k k k 4     . . @ @ - z z c B z B B z k z k k k B k j j k k 4 O   . . @ @ @ @ @ = f f j k f k j f 6 4 f 6 j 6 f 4 4 4 6 * o .     . .   + 3 3 3 3 3 3 3 , > > 3 3 3 3 3 3 * 3 3 +         .   . > 3 3 > 3 * 3 > 3 3 + 3 3 > 3 + + + X             X + X +   X X + o + X X X + + X + X X X + X X X X X + + + + + + + + X + X X X X X X X X o X X X X + X X o o + + + + X + o + + X O K.",
"K.K.Q 5   7 F 3 3   X N ; ; X   6 6 F 3.p.z.p.p.g.i.f.f.i.i.u.Q X 7 .   > 6 6 L + + 4 4 4 6 s k B O . . @ @ . w s , , , > 4 , , > , > , > , > > * * * , > +   . . - s , , , > , , 4 * , > * > * > > * > * 3 3 *   . . 8 @ = w 4 , , , , > 4 - > > > > * , > * > * * 4 *     . 8 . * s 4 - , , , > , , > > * > , , > * > * * 4 *       8 . = f , - 4 , , , , > , 4 * * , > , * * * 3 4 #   . . . - s , - 4 - , 4 , > , > * > > > , * * * - , *   . . @ . s , , , 4 , , , * , > > > * , > > * * , , *   o   @ $ @ @ . d z l l N l l l j j j j j 6 j 4 4 f 4 k k *   .   . o   - k k k 4 k j 6 6 6 7 f 4 j 6 7 4 6 5 4 k *   . X   . * 4 4 3 6 4 6 6 6 4 4 4 6 6 4 6 6 3 3 3 ;                                                                                                                                             K.",
"K.K.5 3   3 ; o     X 7 ; 3     5 3 6 N F F b K K F H H F F b J 5 J o   * 7 4 J > X , > , f j , z O . @ $ @ @ h & O & = # O & # & O O O O O & + O O O O O *     . w * & & = & + O # * # & O & & O + O O O @ O *     . 0 @ - , & O & * & O # & & & O O & O O O + & + + * .     8 @ = - = & & & & + # O & # & O O O O O O O O O * .   . 8 . s - & @ & & & # + & O O & & # + + O O O @ O >     . . , - & & & + & O & & O & & O & O O + O O + O *     . @ = s & & & & + O # * O & + & & & O + O O O + * O   . @ $ $ . = - O . O . . . O O o   o . . O O X   . . . >           * .   o   . o . o   .   o . o     . .     . +     .   X + . o       .   o   O       o         . X +           o                                                                                                             o                 K.",
"K.K.b 3   3 3 X X   X 7 + 3 X   6 3 3 3 3 3 4 4 5 k k k k 5 7 7 4 G     * k 6 J + + > , 4 , f 4 c X . @ $ $ & d * > * * * * * * * * * * & & * & # * + * * * o . O s = * * * * * & * * * * * * & * & + & & * + ,   . @ q @ w - * > * * * & * * * * * * * * * + & # + # 4     . 8 . d = * * * = * * * * * * * * * * * O & * # # 4   . . 8 @ d - * * * * * * - * * * * * # & + + * * # # 4   . . & d = * * * * * # * * * * * * * * * O + * * # 4 o . . @ w , * * * - * * * * * * * * # * * + & : & # , O   . & 8 $ . w s * = * * * * * * * * * & * # * + : + * + *     .   o * + + + > # + + + + * + + + + + O X + + + + +   o .   + * + + + + + + X + + + * X + + + + + X X o *           + + X X + X                   . .         .         o     o X .   . X X . X   X . X X X o X     X X X X                         K.",
"K.K.b 3   3 3 X X   o F X 3 o   3 6 6 5 5 5 5 3 7 7 b k b k k 5 3 F X   * k 6 K + * , , , 4 j f L X @ @ $ $ = h & - = * - * * * & > + * # & O > * & & O * *   . O h = , = * - * * * * & + * & & & > * & + # # * .   . 0 @ s f * = & = * * * * * * * & # O & & + * & & , .   . 8 @ h - , = * * * * - * & * * & & O * * + & & & 4 o   . 0 @ h = , * = * * * * & * + * * # O > & & + & O , .   . # h = - * = - * * * # * * * & & O * # & * O # -     . @ s d , = * = * * - & * * * # & O * * * # + # > .   . @ 8 $ . d w * * * - * * * & * * * * * # * & & & # & 4 .   . .   , + + + & + + * O + + + + O * + + + + + + * *   . O   + + + + + X X + + X O X + + X O + + + X X O 3           + 3 X X X 3     . X X X X . X X X . O X + + + X X + O X + X X X X X X X X + + X + + + + + + + + + X X X X X X . X             o K.",
"K.K.b 3   5 3 X X   o F + ;     5 4 6 3 6 6 4 4 5 6 5 7 7 7 7 6 5 J     + N 4 J + + 3 , 4 4 j f c O @ @ 8 $ = x = , = * * : * = * & & * * * + & + * + * * * .   . h - - * * * * * = * * * & * * O & * + + * + > o   @ 0 @ w w - * * * * * = * * & & * * * + # > * + * , .     8 @ s , , = * * * * * * * * * * * & * & > & * + ,     . q & f = , 1 * - * * * * * * * * * O & * * + * + > . o O @ s - , = = > * * * > * * * * * * * * * * * O ,     . @ w d - = * * * * = * * * & * * & O * * * & # 3 .   . = 8 9 . w w - * = * * * * * * & & * & & + & > * & * > .   .     4 + + + # + + + + + + + + + + + + + + + * * +   X .   + + + + O + + + + + + + > O X + + + O + + O >           3 ; + 3 X 3     o X X X X O X X X o X + X X + X X X X X X + X X + + + + + + + + + + + 3 ; ; + + + + + + + + + + + o   X   + X   K.",
"K.K.k 3   3 3 X X     b X 3 o   5 3 3 6 6 6 5 6 6 6 4 6 7 4 7 5 3 F o   ; k 4 I + + > , f , j 4 P O @ $ 8 $ % h * , - * , - * > , * > & > & + + + * * # + *     @ h = - - - - - * * - * * * = * * * O > & * + >   . @ 0 @ w s - - = = , * * * - > * & * * : # + & * + > o   . q @ s - , - - - * - = * , * * # * + * O + + * + , .   . e @ h - , = - * * = * = * > & * = * * + + * * O ,     O @ l = , , , : = > * = * * & * & + * O + * * O , o   O $ w s - - - - , * * * , * * * * * * & + * + * * .   . = 8 $ . w s - - - - * * > = , * > * & * & + + + * + -     . .   6 O * + * * + + # + + # + + + # + + + + * * +   .     + 3 + + + > + X + + + + + O + + + + + + O + 3           4 3 + 3 + 3 X                                                   + ; ; ; 3 3 ; 3 ; 3 ; ; ; ; ; ; ; : ; ; * > + + + X   &.-.&./   K.",
"K.K.7 3   5 3 X X     F ; ; o   6 6 3 3 6 3 3 6 6 6 6 6 6 6 6 6 4 G O   : k 4 G + * - - 4 , l j L O @ @ 8 $ = h = , - - , = * * * * > & & & > > * * * * * *     O h * , - - - * * - - * : * * * * * & : * + + *   . @ r @ f s , - - , > * * * > > & & > > & * * + * + > .   . 0 . d , , , * , , * * = > > * & * * > + > : & + , .   . q @ l - , - = - - * > * , * * * * & > & > * + # >     @ & d - , - * - - * > = - * & & & > * : > + * + 4     @ @ w s - - - * - * * * - * * & * * & * * + * + > .   . $ 0 $ . h w - - * - * - & - * > & + * * * O * * * O > .   .   o 6 + # + + + + * * + * * + + * + + + O + + + *   . X   + 3 + + + + + > + + + + + + + + O + o X + + 3           4 4 + + + 4 X                                                   ; ; ; : 3 3 + ; 3 3 3 > 3 3 ; 3 3 ; + : ; + 3 + + X   7 > + 4   K.",
"K.K.b 4   3 3 o X     F + ; X   6 3 6 6 6 5 4 4 6 5 4 3 3 6 6 6 3 G     + k 4 I + # > 4 4 , j f v X @ $ 8 8 = h - - - * > > , = > & > * * * & & + * + * * * . o @ h - - - * - - , : * * , * * * * # * * + * * ,     @ q @ w f - - , = * , - * , * > & * & & + + * + * , .   . q @ d s - = , = > : - * * * * * * & * + & * + * 4     X q @ f - - - , * , * - * > * * * * & & + + * + * 4 .   O @ d - , - - - - * * * * > > + > & * & & + + * , .   O $ w f - - , - - * , * * * > O > * = + * * + * , O   . $ 9 $ . w s - - , - - , : * - & > & > * + * * * + * , .   .     4 + * + * # + + * + + + * * O + + + + + + * +     X   + 3 + * + + + + + + + + + + + + + + X + X X 3           4 4 + 3 > 4 X               .   . .       X X o     .         X : ; ; 3 ; ; 3 3 + + + o + o + : ; ; ; ; ; ; ; + ;     F 4 3 5   K.",
"K.K.b 3   3 3 + +   o F + ; o   6 3 3 3 6 6 6 6 6 3 3 6 6 6 6 4 > F     + k 6 J + + 3 , 4 4 f 4 c X @ $ $ 8 = h * - - = - - * - , * & & * & * * > & + * * *   . O d - , * - - - * - * * O * > & * * > & + * * > .   @ t @ f s - * - - - * : - : & & * * * & > * * + # 4 .   . 0 @ d , , * , = - - > * * & & > * * * > # + * * 3 X o . p & d - , * - - , * - * = # & * * > + > & + * # 3 .   . # d , , * = , - * - * > & & > > & * * # + * * >     @ @ w w - * - - - - * - * * & * * * * * * & + * > O   . $ q % . s s , * , = , > * - * * * * * & & * * # + * > X   . .   3 + O + * + * * + + + + * + * + + * + + + ; +     X   + * > + X + + + + + + + + + + X + + + X + + 3           3 3 + ; + 4 X o 3 7 F F F F F F F F F F H H F F F F 7 F F b F F F ; 3 ; ; 5 ; X + F / Q K K R 3 X X + 3 + ; ; + ; o   b 3 3 4   K.",
"K.K.7 3   3 3 X +   X 7 X 3 X   7 3 3 6 4 3 6 3 6 6 6 7 6 3 3 6 4 F o   3 k 4 I + + * 4 , f f f V + @ $ 8 8 = h = , , - - * * & * * & > * * * * * * * * * +     & h = , - - - * * * - * & * & & * * * * + * + *     @ u @ f w - - - - * - * * * & > * + * * * * * * # 3 o     t & d - s = = , 1 , & - * & * & + * * * * * # # >     . p = d - s - = , = * * - : * , # + & > * * * # * *   . . = d - s - = , - - * * : = > & & + * * * * * + * o . X $ h f , - - * - * * * - = * * + * * * * # * + * .   . $ 8 9 . s s , - - * - = * * * & * * + * > * + * + * >     .     4 # # + + * + * + * + + + + * * + + + + * * +   . .   + * * + + + + + + + + + + + + X + + X X + O 3     .     5 3 ; + 3 6   ; 4 F F F N F F N F N F F F F F F F F F F b F F F F ; ; 3 3 X X / 3./ R K F F K ~ Q b X o ; ; + ; ; o   b 3 3 4   K.",
"K.K.7 3   3 3 X +   X 7 X + o   6 3 3 3 6 6 6 6 3 6 5 7 6 5 3 3 4 N X   + k 7 I + + * > 4 , f 5 v X @ $ 8 8 - d - , , - - = 1 - * * * * * & * & & * + * * *     O d = , , , = > * - * * * > + > * & * & * * + * X   # t @ h w - - , - = - * * * > > & * * * & * + * * * X   . q @ d w - , , - * - * * * * > * * * * * * + * * *     . q @ d - - - , > * , * * * * > * * * * & : * * * *     . = d - , - , > * * - * * * * & * > * * * + * + > .   O $ d w - - , - 1 * - * * * : & * * * * * + * * * O   . % 9 8 @ w s = = , - = , * = * * > & * * * * * * * * * .     .   6 > * + + + + O + + + * + + + + O + O X + + +   . .   + 3 + + + + + + : + + + O + . + + + + + O + 3 o         4 4 3 ; 3 5 o X X X o + o + + + + X X X o o o + o X X + o X + + ; ; 3 3 X F a./ : + ; ; + 3 ; + ; K R 3 o > ; + ; o   F 6 3 6   K.",
"K.K.7 3   ; 3 + +   o F X 3     6 3 6 3 3 3 6 4 4 5 4 5 6 4 6 4 > F     + k k K + * * , , , f g c X @ 8 8 0 - d = , , , * - * * * & > * + * + * + * * + * ; o . @ s = - - , , = > = * * * * * & + * + * * + > * .   & u @ w w - - , - - * - * = * * & & & * + * * O * * X   . p @ d - - , , - - * = * * > & * + & & O * * + > , . o . i = d - - - , , = * = * * * * # * * # + * * + * ; X . @ & d - , - , = , * * * = * * * & & * # * * + > * .   # @ w w - w , - = - * = * * > * * # * + * * + * > X   . $ 0 8 @ w s , , , , > * * * * * * * * + * & * + * + 3 X   . . o 7 + + * * + O * + * + + * + + + * * + + * + ;   X X   ; * + + + + + + + + + + + + X + + + + + + O 3           3 4 + ; ; 3   X ; 3 ; 3 + > + > > > 3 + ; ; ; + ; ; + ; ; ; + 3 ; 3 3 X K <.5 X ; ; ; + ; 3 3 4 3 3 5 K ;   ; ; ; o   b 3 4 6   K.",
"K.K.5 3   3 3 X +     b X ; o   5 4 3 6 4 4 3 + > 3 > 7 6 6 3 6 4 F .   + k 6 G + + * , , 4 j 4 c X @ 8 8 8 9 h - - = * * - * - * & > & > & & * + > & * * *   . # f - - - - * , * = > * * * & > + * & * * * # * .   # y $ s s , = , = , , * - : * * * * * & * # * * + , X   . a & w s , - * - - * * , * * * * * * & * * * * + , .   O i $ f - , = - * - , * * * & * > > + & * & * * + , X   # = d w , - - * , > * > > & * * * * * & * * * * > .   @ 8 w s , - - - - * - * , * * * > & + * & > * * > O   . $ q 8 . s w - - - - * - * - = * : * * * * & & * * * > O   X     6 + * + + + * + + * + + ; * + + * + + + + * 3     X   + * + + + * * + + > + + X + + + + X + + + + 3           3 4 3 3 + 3 o X ; ; ; + ; + ; + + ; + ; + ; + ; ; ; + + : ; + + ; ; + F / 3 3 3 3 3 3 ; 3 3 5 3 3 5 3 5 H +   ; 3     N 4 3 4   K.",
"K.K.7 3   3 3 o +   X 7 X ; X   7 3 3 3 4 4           6 6 3 4 5 4 F     > N 4 J + + , , , , f f c X @ $ 8 8 = h - - - - - , , * > * > + & > * + & + & + * 4   . = s - - - - - - > , * * , * & > * * + + * # + 4 .   = u $ s w , , = > * , , * * * * * * * * * O * & + 4 X   O t $ d w , - - - * , , * * * * = * : * & + & + + j O   . p = s - w , - - - * , - * > * & * > + * O * O + 4 X   O = d - , - - - - * > * & > & * > * + * O * + + 4 O . @ $ w s - - - * - , > * * * * & * > & & + + & O , +   . 8 e 9 @ s s - - - * - * , * * * > * * * : & O * + + , O   . .   k + + * + * + + + + + * + + * + + * + + + * +   o O   + > + * * + + + + + + + + + + + + + + + + + 4     .     4 4 ; + ; 5 X o ; + ; + ; + + ; ; ; ; + : 3 ; + + ; ; ; ; + ; ; ; + + / 5 + 3 + 3 + X     X o 3 5 3 3 3 5 F o X +     F 3 3 5   K.",
"K.K.7 3   3 3 + +   o 7 X ;   X 6 6 > 3 4 6 o > 3 +   6 6 3 4 5 > G O   > k 4 G + * * , , , f j v O $ $ 8 0 9 h = - - , * , * * > & > & > > & * + * > + * *   X O h = - * , - , = > * * * & > * * * # * > + * 3 o . @ ) $ h s - * , - , * , * * * & * * * * * + * + * , X   . u & h - - * - - - * * * * * * * * * > * & * * > , X   . p % l - - * - - , - - * * * & * * * * + * * # * , .   @ = d - - - - - , - - * & > & * * * * * + * # * ,     # $ h s - - * , - * - > * * * * > * * * * > + * > O o . 9 q 8 @ s w - - - , - , > - * * * * = * * > + * & * 4 X   X X   7 * + * + * + * + + * + + * + + ; + + + * + * . . .   + 3 + + + + + # + + + + + + + + + X + + + + 4           4 4 + ; ; 3 X + ; + ; + ; + ; + ; + + ; ; ; ; + : 3 ; + ; ; ; ; ;   K F + 3 + 3     o + : :     o 5 5 3 3 5 3   * o   b 3 3 4   K.",
"K.K.7 3   3 3 + +   o 7 X ;   X 6 3 > 3 6 5 . > 3 +   3 6 6 6 4 * G O   * k j G + O * , , 4 j j c O @ $ 8 8 w h - , - - - , * - & > & * & > & * + & > + * 4     & h = 4 - - - * > = * * & * & > & * * + * * * , .   @ u @ h w - , = > , = * * * > * * * * * * O * * * 4 .   . a $ h w - - - - * , = * * * & * * * + * + + * * 4 .   O p $ h - w - - - * * * * * > & * * * & * + * * * 4 .   X = d - , - - * > = * * * > & * * * + * * * + * 4 .   + $ h w - , - - - - * * & > & & * * * + + * * # , .   . 9 q 8 @ h s - - - * , * = * * * * * * * * & O * > + , .   .     j * + + * + + + * + > ; * + + + * ; * + X * 3     O   + 3 + * + + + + + + + X + > + + + * + + + X 3       .   3 4 + 3 + 3 X o + ; ; ; ; ; ; ; ; + ; ; + : ; ; + + ; ; + ; ; + o + / + ; 3 4 o   : M | D D Z <   o 5 3 3 ; b   X X   b 3 3 3   K.",
"K.K.7 4   3 3 + +   o 7 + ;     6 3 3 3 6 4   3 3 +   5 3 4 4 7 3 F     : N 6 G + + > > , 6 j f V X @ $ 0 8 w d - - - - * - * * * * > = & * + & > * * * * >   . & d - - - = * , * - * * * * * * + * * * * * + , .   # a $ h w - , = , * * , = * * > * * * + & > O * * , O   . t = d w - - - * - * , * * * > * & * & & * + * & , .   X a = d - - - - * - * , * * > * & * * + * * + > + , . o # = d - - - * = , * , = * > > * = + & * * + * + 4   . # $ h w - - = - * * > * * * = * = * + * * O * + 4 +   . $ 0 8 @ d w w - = - - - * * * * * & = * * * * & * + , X   . .   4 * * * * * > * + + > + * + + + * + + + > + +   . O   + ; + + + : * X + + + + X X + + + + + + + X 4           5 5 3 ; ; 3 X + ; + ; ; ; : ; : ; ; + ; ; + : ; ; ; ; ; + ; 3 ;   7 F + 3 > X   : D } O.X.} { } M   ; 4 3 ; 3 ; o o   b 3 3 3   K.",
"K.K.b 3   5 3 + +   X 7 X ; o   7 3 6 3 6 7 O 3 > >   6 4 4 3 5 3 G     * N j G + O , , , , f s v X @ 8 8 8 w h - - = - - , - * * * * * > + * * * O + & + *   . & h - , - - * - , * * * > * - * + & * * * # + *   . @ ) $ h s - = * - - - * * * * & * * * + * * & * & >     O t @ d s - - = * - - * * * > & > * & + * > + * + , o   . a = h w - = * - , * * * * * * > & O & * * O * O ,     X = h s = - - * , * * * * & * * & + * * * # * + > .   @ $ h h = - - - - , & * * * > * * + & * * O * * * .   O 9 t 9 @ d s - - * - * * > * * > * > * & + * > + * * , .   X X   5 * + + + + + + + + * + # + * + + * + + + * *     .   + ; + * + * + + + + + + + + + + + + + + + + 3           3 3 ; + ; 3   + ; + ; + + ; ; : ; ; ; : + ; ; ; + ; ; : 3 ; + +   H 3 ; 3 3   o Z | O.@.O.X. .} X.< X 3 3 3 3 3       7 > 3 4   K.",
"K.K.b 4   3 3 X ;   X 5 + ; X   7 > 3 3 6 6   3 3 >   5 6 4 4 4 > F O   > z 4 G + O > , , , j , V X @ 8 8 8 w h - - , - > = * - * * + & * * * + * * O * * * o . @ h - = - , * = * * * * & * * * * + * + * + * ; . . # ( $ h s - - s * = - * * * & * & * * & * * * + + , X   . r = h w - - s - * - * , * & & * * * * * & * + * 4 X   X a = h - - , , * = - * - * & * * * * * * * * + & 4 O   # = h - - - , = = - * > * & * & * * + * * * # * 4 . . O $ h s - = 4 - * = > , * & & * * * * * & > + # , X   . 9 q 9 . h s - - , - * , & > & & & * * * * * # # + * > o   .     4 + * + * + + + * * + + + + + + + + + + + + >   X X   + > + + * + + + + + + + > + + + + + > + + + 4 o   .     3 3 + 3 + 3 o o ; ; ; ; ; + ; ; + ; + ; ; ; ; ; ; ; ; ; + 3 ; X   F ; ; ; +   2 | | O.| O.#.#.{ } Z   3 3 3 3 3       7 3 3 4   K.",
"K.K.7 3   3 3 X X     7 + ;     6 3 3 6 6 7   3 > >   6 3 4 4 5 > G     > k 4 J + + , , , , j j V X $ $ 0 8 9 h w - - , * = * * * * > * * & * & * * * * & >   . & h s , = , - - - * - * * * * # * * # * * * + ; . . @ ( $ d s - - , , * * , * - * * * * * & + * * * * > O o . t & d s - - , - * * > * * * * * = * + + * * * O , X   X u = h w - - , - - * * - * * * * * + & + * * * + , .   # = h - s - , , * * , * * > * * * # & + * * # + , .   @ $ f f w - - , & * , * * * > * * & * + * & * * > O o . 8 q 8 @ d s - - - , * - * * * * > * * + * O * * * + , X   X .   5 * + + + * > + * + + * * + * + ; + + + + * +   . X   + * * > + + + + + + + X + + + + > + X + + + 3     .     4 3 ; + ; 5 o o ; + ; + ; + ; + ; + ; ; + : ; ; + ; ; + + ; 3 X   F ; + ; X   n | S O.+.+.@.O.{ X.{   4 3 3 3 3       5 > + 3   K.",
"K.K.7 3   3 3 + +     7 + ;     5 6 4 3 6 6 o 3 > >   4 4 4 5 3 > k .   > N , J + o * , , 6 k , c @ @ $ 8 8 w h - , - - - - * - * , * * * * * * * + * # * *     O h - , - , - - - - * * * * * > * & + * * & + > . o # ( $ d s - - - - - - * - * = * * * * * & + * # * - X   . t $ d w , - - - - - * - - * * * * > + * + # * # , .   . ) = d - s - , - , * * * > * * * * > * * * * + # , . . X = d s w - - - , * = * - * * * * > * + * + * & > .   # $ d s s - - - - - * - * * * * * * * * & + * * - O   . 8 0 9 . w s s - , , - - , - * , * * * > * * * * # * > X   X     4 * * * X * + + + * + > + + + + + + + + ; + ;   X     + + + + + + > + + X + + * + + + + + O + + + 3           3 4 ; ; ; 3   X ; ; ; ; ; ; ; + : ; ; ; + o ; ; ; + + ; ; + ; o   b ; ; 3 X   < A D | +.{ O.o.A { Z   6 3 3 3 3       7 3 + 6   K.",
"K.K.5 3   4 3 + +   o b X ; X   5 3 6 3 6 6 X 3 3 >   6 4 5 6 4 4 N O   > k 6 L + + > , , , s f c O @ 8 0 8 w d = - - - * - * * * * * * - * & * * * * + * > X X @ h - - - - * - * * * - * * - # * * * * * + & >   . # u $ d s - - - * - * * = * - * * * * * > + * * + - o   . t @ h s - - - - - * * * * * * * * & & > * * * * , X   . ( = h w - , = * - - = * * * * , # & * * + * * * 3 o   @ = d - - - - * - - * * * * * * * + * * + * * + , o   X $ d s - - - - - * * * * - * * * * * * + > + # * O     8 q 9 @ d s - - - - - = * * * = * * * * + * + * * + - .   . o   k * * ; + * + * + + + + + + * + * + + + * * +     X   + 3 > + + + * + > + + : + + + + + * + + + + 3     .     4 3 + + ; 3 X X + + ; + + ; : ; ; + ; + ; ; ; ; ; ; ; ; ; ; ; o   7 ; X 3 ;   : M A A { | { } { A < X 5 3 3 ; ;       b 3 3 4   K.",
"K.K.7 3   3 3 X +   o F o ;     5 6 3 3 3 7 O 3 > +   5 4 6 4 4 > F     > k 4 G + & * , , 4 s j P . @ 8 8 8 w d - , - - > = - * * & * * * * * * + > * + + * X   = d - w - - * - - * * * * * * * > O * * # O + , .   = u $ d s - - - - - , & * * * * * * * * * * * + X 4 X   . p $ d w w - * * - - * * = * * * * > * * + + + O 4 o   O u = d w , , - - - - * = & * * & * > & * * + X X 4 .   @ = d s , - - * - * - * * * - * * * & * * & O X ,   . @ 8 w s - - - > = - = - & * * * * * * + * > O + * +   + 9 0 9 @ d s = - - * - * * - * * * * * & * * * * + O , X   . .   4 + ; + + + + * + + * + + + + + ; * + + + * +   X X   + + + + + + + + * + + + + + + + + + * + + + ;     .     3 4 ; 3 + 5 X o ; ; ; ; ; + ; + ; ; + ; ; ; + ; + ; ; : ; + ; +   5 3 + + 3 o   n Z Z Z A A Z D Z o 5 N ; 3 3 ;       7 3 + 3   K.",
"K.K.5 3   3 3 X +     7 X + o   6 3 3 3 4 4 O 3 3 >   5 3 4 3 5 3 N     > N 4 G + O * * > , j s V X @ $ 0 8 w h = w - - , - - - * = - * * * * * + * * * # *   . O h = - , * - - - - = * * * * # * * * + * * O > .   # u @ h s - , - * - - - , * * * * * * * * + * + # ; +   . p & h = - 4 - - - - * , * = * * * * * * + * * + 3 X . . ( = h = - , = - * - - , * * & * * * * + * * * X ; . . X = h = s , - - - - - - * * = * * * > + + > # O 4 X . . $ h s - s - - , , * - * - * * * * * * * * * # 3 X   O $ 8 9 @ d s - - - * - - - - * * * * * * * + > * # + , X   . X   5 # + + + + * + + + # * + * X X + + * * + + ;   X .   + 3 + + + * + + + + + + ; + + + + # + O + # 4     .     3 3 + ; + 5   X ; + + ; ; ; ; + ; ; ; ; + ; : ; ; ; + ; + + + o   + 5 + ; 3 3   O n m Z Z A Z m : + K 3 ; ; 3 o       7 + 3 4   K.",
"K.K.7 3   > > o X   o 7 + +     7 3 3 3 6 4 X 4 > +   6 3 4 3 6 3 N .   + k , J + O * , , , j , V + @ $ 0 8 = h - - - * * - - * * * * * * * * + * * + * + >   . @ h = - , - - - * - - * * * * * * & * # * & + >   . # a $ h w - , - - - = * = > * * - * * * * * + * + , .   X t & h w - - - - - * - - * * * * & * * O * O * + , .   X a = h - - , - - * * - - * * - * * * * * + # * + 4 .   X = d , = , * * - * * - * > * * * * & * * + * + , o   @ $ d f - - - - * - * , * * * * * * * + * & + * > O   . 8 8 9 . d s - , - - - - * - * * * * * * + * * + & + , X   . .   5 * * * * + + * + + O + + + + + + + + * * * *   .     + + * + > + + + + + + + + + + + + + + + X + 4     X     3 5 + ; ; 3   + ; ; + ; : + ; + ; + ; : ; ; ; + ; ; + ; ; + + +     5 + ; + 7 5   o : n m n <   X / 7 3 ; 3 +         b 3 3 4   K.",
"K.K.7 3   3 3 + +     7 X 3 X   7 3 3 3 4 7 O 3 > >   6 6 3 6 4 > B     + 7 4 G + + * > , , 4 j V X @ $ 8 8 e h - , - - - * * , * - * - # * * * + * & + * *   . & h - - - - * - - ; - * * * # = * * + * + + + , o . @ u $ d s - - - * * > , - * * * * # * * + * * + * > X   . t $ h w , - - * * * , * - * > * * * * O * * + * ,     . t 9 h s , - , * - - * - * * * * & * * O * + # + 4 X   . % d s , = - - - - - - - # * * * * * O * * * + 4   . . $ h s - - - - * * , = * - * * * * * + * * + # 3 . o O 9 q 9 @ h f - - - - * - * - * * * & + * * + * * * + 3 o   o     5 + * + * * + + * + + + + X + + X + + + + + 3   . +   + * > + + + + * + + ; + + + + + + + + + + X 4           3 3 + 3 ; 3 o + + + ; ; ; ; ; ; ; + + ; + : ; ; + ; ; + + + ; + o   3 3 + ; X F F o           3 6.F + 3 > 4 o   o     5 3 + 3   K.",
"K.K.7 3   ; 3 o +   X 7 + +     6 3 3 4 4 4 o 3 > +   6 3 4 4 6 > N O   > 7 6 J + O > , , 4 j j c O & $ 8 8 w h = , , , - * = > * - * * * * * * O * + + # >   . @ h - 4 - - - - * - * * * * * * * * + * * + * > O   @ u @ h s - - , - - - - * * * * * * # * * + * + + > .   . r & h w , , , - - * - * * * = > * * * * + * * # > X   O p = h - , - , - - - - * * * * * * * # # * + * & >   . @ = x = , , , - , * * * * * * * * * * + + + + # ,   . O $ h s - - , , , * = , & * * * * * * # + * + * * +   O $ q $ @ d w - - - - * * - - * * * * * * * * + + + # > X   X .   5 + * * 3 + + * * + + + * + + + + * + + + + *   O .   + > > X + + + + + + + + + + + + + + + + + + 4           3 > ; ; ; 3 X X ; ; ; + ; ; + ; ; ; : ; + ; + ; ; + + + ; + + + o     4 ; ; 3 + b ! H 7 7 F / -.7 X ; ; 4 X     X     7 3 3 4   K.",
"K.K.7 3   ; 3 X X   o 7 X 3   o 7 3 3 3 4 5 X 4 3 +   7 3 3 4 4 4 N o   > 7 4 G + + * , , , s j c O @ 8 8 0 w h - - - = - , * , * * * * & * + * * + * > * 3   . + l = - - * - - - * * - * * * * + + * + * * & >     @ u $ h s - * - * , - * - * * * & * + * + * * # * , .   . 0 $ h - - - = - - - * - * * * # * + + # * + * * ,     . y $ l - - * = - , * * * - > * # * + * + * * # + 4 .   X = h , , - = - , * - * - * * & * + * # * * * * 4     @ $ h h - - - = , , * * , * * & = & + * * + * * 3 .   . $ q 8 @ h f - , - - - - * - * - * * * * # + * * * * , .   . .   5 + * * + + + + + + * + + > + + * + + + + 3 ;   o o   + > + * + + + + + * + + + + + + + + * + + + 3     .     3 3 ; + + 3 X + ; : ; ; : + ; + + ; 3 + : + ; + ; + ; ; ; + ; + X     X 3 ; ; ; + 3 H Q / ! F + X ; * ; 3       +     b ; 3 3   K.",
"K.K.7 4   3 3 X o     7 X +     6 3 3 3 4 6 . 3 3 + o 7 3 3 4 6 3 N     * k 4 G + + * 1 , s , j v + @ 8 8 8 9 l = - - - * # - * - * * * * * * + * * * O * *   . = h - , , = = O , * - * * & * = * * * * * O * -   . & u @ h s w , = , & * * , * * - & * * * * * * + + , . o . i & d w w , * - * - * * - * * * * * * * * * + * , .   . p & h = w , * , & , * - * * * O * * * * * * + * -     X = h w w , * - # - * * * - * # * * * * * + + * ,   . O @ h f - - * - * * - * > * * & * * * * * > + + - X   . $ 0 9 . h s - - - - * - * - * - * & * * * * + * + * > X   . .   4 + * * * + * + * * + + + * + + + + + + + > + o O O   X > X + + + + + + X + # + + + + + + + + + + 3       .   3 3 3 + ; 3 X X ; ; ; + : ; + ; + + ; + ; ; ; + ; + ; ; : ; + + + X     X 3 3 ; ; ; + X X + + + ; ; ; ;         + o   b 3 3 4   K.",
"K.K.5 3   3 3 X +   o 7 X +   o 6 > 3 3 3 6 X 3 3 +   5 3 3 3 6 > k X   + k 4 G + # - , , , j j v X @ $ 8 8 w l - - - - - * * - > * * * & = * * * + * # * *   O @ h = , , * , , * * - > * * * * * # # + * * + >   . & t @ h s - , - * , * - * , * * * & + & & + * + # ,     X p $ h - - - - * - - * - ; * * * * * + + & + * + 4 X   . p = l - - , = * - * * , * > = * * & # * + * # + ,   . @ = h - - , - * - * * , * * * * # * * + + & + * 4   . @ $ h s - - - * - * * - - * * * & * O + + & & # 3 .   O % 9 9 @ h s - s * - * * * - * * * * * & + + * # * + , .   .     5 + + + + + : + + + + * + X + + + + > + + * +   X O   + > + > + * + + + + + * + + + + + + : + + + 4     X     3 3 + * + 4   + ; ; + ; ; ; ; ; ; ; + + ; : ; : ; ; ; + ; ; ; + X X       X 3 4 ; + ; + + ; ; + ; 3 X         X + X   5 3 + 3   K.",
"K.K.7 4   3 3 o +     5 o ; X   6 > 3 4 6 4 + 3 > +   7 4 4 4 3 > N .   > k 4 G + + - , , , , , c O @ $ 8 $ 9 h = - - - - - - * * * * * * * + & * * + * * *   . # h = , , - = , - * * * * * * * * * * * + # * *   . @ t @ h s - - - - - - * * * * + * * > * + > # * * , X   . t @ h s - - - * * * = * * * * * * * * * & * # * ,   . X t $ h w - , * , = = * * * & * * & + * * + * + # , . . + & h - - , - - - * - * * * * * * * * & * + # * 4   . @ @ w s - - - = , * - * * * & * * * * * * * + # , X   . $ 9 9 . h w * , - - - - - * * & * * & * + * * * + # 4 .   O .   4 * ; * 3 + & + * + * + * + + + + + * * > * >   X .   + * + + O + + O + + + + + + + + + + + O + + 4           3 3 ; > + 3   X + ; ; + + + + ; + ; : ; + ; ; ; ; ; + ; ; + + + + + X           3 3 3 3 ; 3 3 3 ;       o   X O +     b 3 + 3   K.",
"K.K.5 3   3 3 X +   X 7 X ;     6 > 3 > 3 6 o 3 3 >   k 3 4 4 4 3 k     : 7 4 F + O * > , , j f c O @ 8 8 8 w l , , - - - * * * * * * & * * * + & + * * * 4   . @ l - , - * , * & - * * * + * * * + * + * * # 4 O   # u @ h s - - * , - & * - * > * & * & + & + + * + 4 .   . t & h s - , - - - * * - * * # * * * + & + O * * 4 X   . t = l , , , = , * * * , * > & + > * * & * * * + , X   O = h - - - - - * * * * - * & * * * + * & * * + , .   @ $ h f - - * , - * * - - * * + > * & + * + * * 3 +   . $ 8 $ . e f - - * - * * * - * * * & > * * * * + * # , X   O     4 + * + + * + + + + * + # + + X + * + + + * *     O   + > + + + + + + + * + + + + + + + + X + + + 4     .     3 3 + ; 3 4 o + ; + ; ; ; ; ; ; ; + ; ; ; ; ; + : + ; + + ; ; + + + o X             o X + o .             X + X +     b 3 ; 3   K.",
"K.K.6 3   3 3 X X   o 7 + ;     4 3 3 3 6 6 X 3 > +   7 3 6 4 4 3 7 O   * k 4 J + + * 3 , s j j v X @ $ 8 8 - f - , * * * * * * * * & * * * * * + * * O + >   X + f = , = * * * * * * - * * * * * * + * # + + > . . # r @ h - , = * * * * - * * & * > * * # & * * # # * .   X q @ d , , - * * * * - * * * * * * * * + * * * O 4 o . X t = s - , = * * > * - * * & > > * * * + * * * X 4 .   X = h - - - * * * - - * * * * * * & * O * * # + 4   . + $ f w - - = * * * - * * * > * & * * + * * & + 3 +   O = 8 % . h s - - = * * * * - * * & * * & + & : * # # 4 .   X     4 * + > * + * + + + + + + + + + + + + + + + +     X   + * X + + + + + + + + + + + + + + X + + + + 3     . .   3 ; ; ; ; 3 X X + ; ; ; ; ; + ; + ; + ; ; + ; + ; ; + + ; + ; ; ; + + o                               X . X X + +     7 4 + +   K.",
"K.K.7 3   3 3 o X   X 7 + +     6 3 3 3 3 3 + 4 3 >   6 3 3 3 4 3 N o   : k 4 J + + * , , 6 , , c O $ $ 8 8 9 h - , = - , * * * * = > * # * + O * + + # * *   . + h - - * * , * * * * * * * * * * O * * + * * * .   @ r @ h s , * - , * * * * # * * & & * + + > + + * 4 X   . q @ l , , * = , * * * = * * * = * * + * * + # # 4 .   . q = h - , * * , * * = * * > & + & * O * & + # + 4 X . . = h - - * - - ; * * * * * * * > + & * * O # + 4 . . O $ h s - - * - * * * * * = * & * * + & * + + * * +   . $ 8 $ . h s - - - * - * * * * * * * * * # & * + + + 3 X   O X   6 * * + * > + + * + + + + + + * + + + + + * *   X +   + * + + + + + * + + + + + + + + + + + + + + 4     .     3 3 ; + + 3 X X ; + + ; + ; ; : ; ; : ; + + ; ; + ; + ; + ; : ; + + + o X .                         X X O + + X + o   7 3 + 3   K.",
"K.K.7 4   > > X +     5 + +   o 6 > 3 3 6 >   + + + o 4 3 3 3 3 3 N     > k 4 F + + * - > , 4 f c + @ 8 8 8 9 h * - - , - * , * * * * * * * * + + O & * * *   X @ h - - , , - * - * * * * * * * * * O O & * + , o . # y # h w - > , * - , * * - * * * * * * + & * # # 4 . . O q @ d , = - , , * > * * * * * * * * & O + # * + 4 o X . t @ h - - - , - * > * * * & > + > & + + + * * * 4   X X = h = - - - * * * * * * * > * * * O + + * * + 4 . . # $ h w - * 4 , - - * & * * * * & * * + + & * * * +   . $ 8 $ . d s - - , , * - > * * * * * * > & + + * # * - +   .     6 + * + > + * + + + O + * + + + + + * + * * >   X +   + > * + + + + + + + + * + + + + + + + + + + 4     o     3 3 + ; ; 3 o + ; ; ; : : ; ; + ; ; ; + ; ; : ; ; + + ; + ; + ; ; + ; + + X o     .       .   X . o X X X X + + ; o   5 3 ; 3   K.",
"K.K.7 3   3 > X +   X 5 o ; X   4 6 3 3 3 G 7 7 7 7 5 4 3 3 3 7 > N     * k 4 J + X * 4 , , s 4 c + $ $ $ 8 - f * - * - - * - - - * * * > * * * * * + * * 4 . . O f * - = , - * , * * - * * * * * & * * + * + 4 X . @ r @ d - - = , , * - , * * * * * > > & * + + * + 4 O   O q & d - , * - , * , , * * * * * * * * * * * + * 4 X   X t = d - - - - , * , - * * * * & > > > & * # # + 4 X   @ & h & , - - , - - , = * & * * > & * * * + * + 4 .   # @ f - - - - - * - , * > * & > > * * * * + O + 4 #   X = 9 = . d - - * , * - * - * * * * * * * * + * * + + 4 O   O X   4 + + + * * + * + + + + + + + + + + + + + * >   . .   + + ; : + + + + + + : + + ; X + X O + + + X 3     o   o 3 3 + ; 3 3 o o ; + + ; ; ; + ; + + + + ; : ; ; + ; ; ; ; + + ; ; + o o X X X . X o   X X X       . X X o X + + + X   + + o     K.",
"K.K.4 3   3 > o +   X 7 + 3     3 4 4 3 3 7 E K U U N 3 3 3 3 6 > N     > N 6 G + O * > - , 4 s c + @ 8 8 8 = h = & * * = & O & O O O & O O O . O O O O # 4   . O f * # # * * & & O @ & O & O O O O . . O + O 4   . @ i @ f s # * * = & & & & O @ O O + O O O . O o O j     O q @ h - = * * = O & & O & # + O O . O O O O O O j   . o 9 & f = * # * * & & @ + & O O O O O O O O O O # j   . O & f * & & * & & O & O & O @ + + O O O O O O + f   . O @ f s * # & & & & & . O & O O O O O . O O O O 4 X   O @ $ $ @ s - * - - - * * - * * # * * # * # * # O * # 4 .   . .   4 + * * * + + * + + + + + + X + + + + + * + * o X .   + > X + + + + X + + X X + + X + + + + + X X 3     .     3 3 ; + + 3 X o ; ; + ; ; ; + ; ; + ; ; ; + ; : + ; + + + + + X + 3 3 3 ; ; ; + 3 : ; ; ; : ; ; : ; ; : + ; 3 + ; + + + X       K.",
"K.K.                  7 + +   o 4 3 3 4 3 > > + + > 3 4 3 3 3 3 3 k     + 7 , G + O * > > , f 4 z * @ $ 8 % @ l P z z z B l z k z j l k k j j j j j k 4 4 X   o @ f v c B z B l z j k k k k j j j 7 k j k 4 f +   X @ t @ * z V z z z N z j l k k z k j j 6 k f k j j *     . q . , c B z z z z k l l k j j k z j j k j j 6 f *   . X q . w v z B z B z j z k k k l l k j 6 j j k 4 4 *   . O @ f v B c z z z z l k j j k k k j 4 k f k 6 f +   . @ @ @ c c B c B N k z z k k z z j k j k j k j f 3   . . = $ $ @ - l f 4 s , , , 4 - , - 4 , 3 > * > , > , > 4   O +     4 , > > > * > * * * > 3 + > ; * 3 ; 3 * > 3 +   X X   X 3 > > + > * : > + > > + + * * * + * * ; ; X     .     3 3 ; ; ; ; X + ; + ; + + + ; + + ; + ; ; + + ; ; ; ; ; ; + X 7 &.&./ &./ ~ ~ Q Q Q Q Q Q Q R R R R R R Q K K K K K F K H +   K.K.",
"K.K.                  5 X +     6 3 3 3 4 3 6 3 4 3 4 3 4 6 6 6 > b .   & N 4 G + O * > , , 4 s B T + @ $ 8 .   * 4 4 4 4 4 4 4 4 4 4 4 4 4 > 3 4 3 3 > .   . . . . * 4 4 4 4 j 4 4 4 4 4 4 4 4 3 3 3 4 4 > .       # q $   + 4 4 4 f 4 4 4 4 4 4 4 4 3 3 3 4 4 3 3 +   o . . 0 @ . + 4 4 f 4 4 4 4 4 4 4 4 4 4 3 > 4 3 3 3 .     . . q @ . @ 4 4 4 4 f 4 4 4 4 4 4 4 4 > 3 4 4 3 > O   . . O . . & 4 4 4 6 4 4 4 4 4 4 4 4 4 > 3 4 4 4 > .   o . . $ . . 3 4 4 f 4 4 4 4 4 4 , 4 3 4 - 3 4 3 3 +     . O $ = $ @ . , g z j N z k j j f k k j k 6 6 k 4 6 6 * .   . O X     > 4 4 4 3 , 4 4 4 3 3 4 4 4 3 4 3 3 4 4 +     . . .   X 3 3 3 3 3 3 > 3 3 4 4 4 3 3 3 3 3 * + o       .     o + X   X o     o + + o + + + + + X X X X X + + X + + + o X F Q F 3 3 3 3 3 3 ; ; 3 3 : ; 3 3 3 ; 3 ; ; 3 3 3 3 3 3 ; 7 3   K.K.K.",
"K.K.    o 4 F 6       b + ; o   4 3 3 ; 3 3 3 3 3 3 4 3 3 3 3 3 * k X   : k 4 J + O * * , * 4 , , W T   . $ @ .                                           . . . . .     .                                     . . X @ 8 @ @ .                                           . . . 8 @ . .                                         . . . . 8 & .                                             . . . @ .               o                             . . O $ @ .                                           . . . @ $ @ @ @         o .   .               o       o       . . . . o             o                               . X X                                               . .   .   o ; + ; ; + + ; ; + ; + + + + + + ; + + X + + + X X + + + X / -.5 o ; 3 ; ; + ; ; ; ; ; ; ; : 3 3 ; ; ; + + 3 + 3 + > 3 X K.K.K.K.K.",
"K.K.  X ! 3.r.x.7     5 X ;     5 3 3 3 4 * * 3 4 4 4 4 6 3 3 3 3 7     3 N 3 G + O * > > , , f f * ` `   . @ @ @ @ @ . @ . . . . . . @ . . . @ . . @ . . . @ @ . @ @ @ @ @ @ . . @ . @ . @ . . . . @ . . @ . . . @ @ $ @ @ @ @ . @ @ @ @ . . @ . . @ . . @ . . . . . @ . @ & 8 @ @ @ @ . . . @ . @ @ . . @ . . . . . . . . . . . @ @ $ @ @ @ @ @ @ @ . . @ . @ . . . . . @ . . . . . . . @ @ @ @ @ @ . @ @ . @ . @ . @ . . . . @ . . . . . . . . . $ @ @ @ @ . . @ @ . @ . . . . . . . . . . . . . . . . @ @ @ . @ @ . . @ . . . . . . . . . .   .   .   . . . . . O . . . .   . o     .         . o . .   .   .   . .     X .       .     o         .     .             . o . .   3 -.i.a.z.g.z.z.z.z.a.z.a.a.a.a.a.u.a.a.a.a.a.a.a.u.u.a.a.a.u.3.3 ; ; ; ; ; ; + + ; ; ; 3 ; ; ; + ; ; + ; ; ; + + + > 4 o   K.K.K.K.K.",
"K.K.  F F X + 3 -.F o 3 3 ;     4 3 3 3 3 3 3 3 > 4 4 3 3 4 6 6 3 k     + 7 4 G + O * * , > , 4 4 , * ` ! + @ @ . . @ @ @ @ @ @ @ @ @ @ @ @ @ @ @ @ @ @ $ $ @ $ $ $ @ $ @ @ $ @ $ @ $ @ @ @ @ @ @ @ @ $ $ $ $ $ $ $ $ $ $ $ $ $ $ $ @ @ @ $ $ @ @ $ $ @ @ $ $ @ @ $ $ $ $ $ $ $ 8 $ $ $ $ $ $ $ @ @ @ $ $ @ $ $ @ $ $ @ @ $ $ $ $ $ $ $ $ @ $ $ $ @ $ @ $ $ $ @ @ $ $ @ @ @ $ $ $ $ $ $ $ $ $ $ $ $ $ $ @ @ $ @ @ @ $ @ $ @ @ $ @ $ @ $ $ @ $ $ $ $ $ $ $ $ $ $ $ @ @ @ @ @ $ @ @ @ @ @ @ @ @ @ @ @ @ @ @ @ . @ @ . @ . . . . . . . . . . . .   . . . . . . .   . . . O . . . .   . . . . . .     . .     . .       . o . . X   . . . . . .         .   .     . .       o . o     ; H 3 ; 3 ; 3 + ; ; ; + ; ; 3 ; + + + ; ; : ; + ; : + + ; + + + X + ; + : o ; + ; ; ; ; : ; + + ; ; ; ; + + ; + ; + 3 3       K.K.K.K.K.",
"K.K.4 K > 3 3 3 5 / F   + 3 X   4 * 3 4 4 3 3 3 3 > 4 3 3 3 4 3 > k X   + k , G + O * > , > 4 , 4 4 f * T T * . . @ @ . . . . @ @ @ @ @ @ @ @ @ @ @ @ @ @ @ @ @ @ $ @ @ @ @ @ @ $ @ @ @ @ @ @ @ @ @ @ $ $ @ @ @ @ $ @ @ $ @ @ @ $ @ $ $ @ @ @ @ @ @ @ @ @ @ @ @ $ @ $ @ @ @ $ @ @ @ $ $ @ $ @ @ @ @ @ @ @ @ @ @ $ @ $ $ @ $ @ @ @ $ $ $ @ $ @ @ @ @ @ $ @ @ @ @ @ $ @ @ @ $ @ @ @ @ @ @ $ @ $ $ @ @ @ @ @ $ @ @ @ $ @ @ @ @ @ @ @ @ $ @ $ @ @ $ @ @ @ @ @ @ $ @ @ @ @ @ @ @ @ @ @ @ @ @ @ @ @ @ . @ @ @ @ @ @ . . . . . . . . .   . .     . . . .     .     . . .       .     .                                           .                                                     3 F 3 3 4 3 3 3 3 3 3 3 ; ; 3 3 3 3 3 3 3 ; 3 3 3 ; 3 ; ; 3 : ; ; ; + + ; ; ; ; ; ; ; + ; ; + + ; ; + : + + ; ; + 3 ; +         K.K.K.K.K.",
"K.K.4 7 * 3 3 3 3 7 / 5   +     4 3 3 3 3 3 4 1 4 3 4 3 4 4 4 3 > N     : 7 > G + O * > , , , , , 4 f , , I ` F k f g j j k f f g g k j j f j j f g z l g z z j f z z z f z j f j j g g l z z z f z g l g z z g z f z z g z g l g z f g g l z g j j j f j j l l l f z f l g z j f j z j j g g z l g l f f z l f f j g g l f j j g g j j g g g z l g l g f j g z f g l f f g f g f f z z l g f g f z g f g z g z g f z g z z j f z j f g f l g g z j g f g g f j g f g 5 f g g f f g g k 5 f 4 g f k f 4 4 4 4 4 4 4 4 4 4 4 3 4 4 4 4 4 4 3 3 4 3 4 3 3 4 3 3 3 4 3 4 3 4 3 3 3 4 3 3 4 3 3 3 3 3 3 3 3 3 3 3 3 3 3 ; 3 ; 3 3 3 ; 3 3 3 3 3 > 3 3 3 > 3 3 3 ; ; 3 3 3 3 ; 3 + 7 b 3 3 3 3 3 5 3 3 3 ; 3 3 ; 3 ; ; ; ; ; ; ; 3 : 3 ; ; ; ; ; ; + ; ; + ; ; + o + + : + + + + + ; + + ; + + + + : + + + X         K.K.K.K.K.",
"K.K.o 4 4 3 3 ; 3 > 6 -.3       4 3 3 3 3 3 3 5 5 3 3 6 4 4 4 4 > N     + 7 > B : X * * * 3 , , 4 , 4 4 s , U 8.q.w.e.y.y.t.q.q.w.t.e.w.q.w.s.w.w.e.w.e.w.w.y.y.t.y.e.e.e.e.e.e.e.y.s.y.s.y.y.d.e.e.s.s.d.s.y.y.y.d.h.d.d.d.y.d.d.h.d.d.d.s.y.s.s.d.d.y.h.d.d.h.v.y.h.d.y.d.j.h.h.g.h.l.h.h.h.d.d.y.d.d.d.d.v.h.h.h.j.h.d.h.h.j.h.h.h.h.h.d.h.v.h.h.d.d.h.d.h.h.h.h.j.h.h.v.v.j.h.h.v.v.v.h.v.j.j.v.d.h.h.v.h.h.h.j.j.v.h.j.h.j.h.v.h.d.d.j.j.j.g.j.j.j.j.v.j.h.j.j.j.j.f.f.j.g.f.f.j.s.f.j.j.f.g.f.g.f.s.f.g.f.p.f.f.g.f.f.a.a.g.g.g.g.f.p.p.p.p.p.p.i.p.i.u.u.r.u.r.0.u.i.p.u.u.i.u.u.i.u.r.0.0.u.u.r.0.r.i.r.r.r.0.0.r.0.6.r.0.0.0.0.0.0.0.0.5.5.0.0.0.6.3.3.3.3.6.4.5.6.] 5 3 3 3 3 3 3 4 4 5 3 3 3 3 3 3 3 5 3 5 3 3 3 3 3 ; 3 3 ; ; 3 3 ; 3 3 ; + + ; ; ; ; 3 ; ; ; ; ; ; 3 ; ; 3 + * * + 3 +         K.K.K.K.K.K.K.",
"K.K.K.  3 3 3 3 > 3 + 3 3.3     3 3 ; 3 3 3 3 3 3 3 3 3 3 6 3 3 3 N X   3 7 4 N + X * > , 4 > 4 , 4 , 6 j 4 * .   . .     . . . . .   . . .   . . .   . . . . . . . @ . . . . . . . . . . . @ . . . . @ . . . . @ . . . . . . . . @ . . . . . @ @ . . @ @ . @ . @ . @ @ @ @ . @ @ @ @ @ @ . . @ . @ . . @ . @ . @ @ . . @ . . . . . . . @ . @ . @ @ . . @ . . . . @ . . . . . @ @ @ . . . . . . . . . . . . @ @ . . . . . . . . . . . . .   . @ . . . . . . .   . . . . . .   . . . . . .   .       . . .           .         .     .     .       .               .                           .                   .                                                         X ; 3 3 ; 3 3 + o   o   X   X X X   . o o   X . o   X o       X                               X             o o                 K.K.K.K.K.K.K.",
"K.K.K.K.X 3 4 3 ; 3 3 + 3 *.7 o + 3 3 3 3 3 4 3 3 4 4 3 5 3 3 4 3 7 o   > 5 3 F X + * > * > , , , , 4 6 4 f j 6 j 6 f s s f f f f f f f f f f f f j j g w f f f f l f f l f f f l l f g f l l h l h f l d h f l l l h h h l f h h l l l l j h f l l l l l l l l h l h l l l l z l j l l l l l z z l h l l l l l f l l l l l l f h l l l f h h f h l l l l l l l h l l l l l l l h l l g h l l l l l h h h l f z l f l f f l h j z j l j f l g g z z f z l l f f f j f j j f j z z j f g f f g f f f j g j f j f 4 f k f f g 4 j j 4 6 f 4 f 6 f 4 4 4 4 f 4 4 4 4 4 f 4 4 5 f 4 4 4 4 4 4 4 4 4 4 4 4 4 4 4 4 4 4 3 4 4 4 3 4 4 4 3 4 4 4 4 ; 4 4 4 3 3 3 3 4 3 ; 3 ; 3 3 4 3 3 ; 3 3 +                                                                                                                     K.K.K.K.K.K.K.",
"K.K.K.K.K.o 4 3 > 3 3 * + 7 / 5   o X   X o o o X   X   . o o o X     o > 6 3 N X + * * , > 3 4 4 , , , 4 , , s f , , 4 4 s , s s , f s f s , s s f f f s f s f f s f s f s f f f s f w f w f f s f w f f f f s s h f f f h s f s f f h f h f f f s h f h s f h h d d f h f f f h h h f h l h h h h h f f f h h h f f h l f h h h h f l s h h f f h h f h l d f l f f h f h l f h f f h w f l f f s h d s h f f f l l s f f l h f f j f f f l f f f s f f f f f f f f f f f f f f g f f s f f 4 f f 4 f f 4 , - 4 w , 4 4 , 4 4 f 4 4 4 4 , 4 4 4 , , f , 4 4 - - , 4 4 , , 4 , * 4 - ; , ; * , 4 - ; ; ; ; ; * * , , 3 3 ; ; 3 3 * 3 3 3 3 * 4 * 4 > * ; ; ; ; ; ; ; 3 + 3 3 3 4 3 o           .     .   . .   .     . .     . .   .   .       .     .                     .       .                       K.K.K.K.K.K.K.",
"K.K.K.K.K.K.o 5 4 3 3 3 > > F / ~ Q Q Q E R E R E E K K K K K Q Q Q ! Q 6 4 6 N + + * > , , , > , 4 , 4 f f 4 4 f f 4 j f 4 f f f f f f f f 4 f f f f f f f f f f f s f s f f f f f f s f f l l l l f z f h f f f l f f h f h l l f f h l l l f f h l l z f l h h l h l h f h l l l l l z l l l z l h l l l l f h l l z l l h l l l h f f f h l l l h l h h l l l l l f f f l l f l l h f h h f f l l f f h f l l h h f l f l l l l f f f z l f j l f f f f f f f f f f f j f g f f f j f z f f f j l j f 4 4 f f f , 4 f f 6 4 4 f f 6 f 4 4 4 f 4 4 f 4 4 4 4 4 4 - 4 4 4 4 4 4 4 , 4 4 4 - 4 4 4 4 4 4 * 4 4 4 4 4 3 4 4 4 ; * 4 3 3 4 4 * * - ; * ; * ; * * * * ; * ; * 3 4 ;       o .   . X X   o . X . . . X o .   . X . . .   X X . . . o . . X . . . X     .   .   .       . .                     K.K.K.K.K.K.K.",
"K.K.K.K.K.K.K.  4 4 3 3 * 3 3 4 7 7 7 7 7 7 7 7 7 N 7 7 7 b 7 F N 7 N 7 > 4 4 N X O * > , > * , > , f + o     .           o         o       .     .     o                         .   . .   X   .   .   . o .   o .   . . .     o   .   .   o . .   o   . .   . o   .   .     .   . . . .   . . . o   o   .   . .   o . . o . o o   .   . . .   . o .   .     O . . . o .   . . .   .   o .   . o o o     .   .   o . . o .   o o . .       .     .   o         . .   .   .   .     .             .     .     .     o       .   .           o     o                       . .                     .                                                                                       O . O X X X X o X . X X   o X X X o . o X   . o o . X X . X   o . X   . X X . X o X   . . X                       K.K.K.K.K.K.K.",
"K.K.K.K.K.K.K.K.  4 4 3 3 3 4 4 3 5 3 3 3 3 2 3 4 4 4 3 3 4 4 3 6 4 4 3 4 4 4 N X + > > > , , 4 > 4 .                       .         . .                   .   . .   .         .         .         .         .               .   .   . .     .   . . .     .   . . .     . .   . . .     . . .     .     .               .     .             .           . .   .         .                         .                         .         .             . .                                                                                                                                                                                                                           X   X + X X X + X X o X X X X . + X o X X o o + X X X + X X o X X X X X o X X O X + X . X X X X X                   K.K.K.K.K.K.K.K.K.",
"K.K.K.K.K.K.K.K.K.o 3 3 3 3 3 3 5 3 3 3 3 3 4 4 3 3 3 4 3 4 4 4 , 4 4 > 4 6 3 N + X > > > > > * , #   .   . . @ @ @ . @ . @ . @ . @ @ . @ @ @ @ @ @ @ @ @ @ . @ @ . @ . @ @ @ @ @ @ @ . @ . @ @ @ @ @ @ . @ @ @ @ @ @ @ @ @ @ @ @ @ @ @ @ @ @ @ @ @ @ @ @ @ @ @ @ @ @ @ @ @ @ @ @ @ @ @ @ @ @ @ @ @ @ @ @ @ @ @ @ @ @ @ @ @ @ & @ @ @ @ @ @ @ @ @ @ @ @ @ @ @ @ @ @ @ @ @ @ @ @ @ @ @ @ @ @ @ @ @ @ @ @ @ @ @ @ @ @ @ @ @ @ @ @ @ @ @ @ . @ @ @ @ @ @ @ @ @ @ O @ . . @ . @ . @ @ . @ O @ @ . @ . @ . @ . @ . . . . @ . . @ . . . . . . . . . . . . . . . . . . . . . .   . .   . .   . .   . . . .   . . .   . .     .   . .     .     .     .   .       .                     . X X X X X X X + + X + + + + X X X X X X X X X + X X X + o + X + X X X + X X o X O X O o + X X + o                     K.K.K.K.K.K.K.K.K.",
"K.K.K.K.K.K.K.K.K.K.o ; 4 3 3 4 4 4 3 5 4 3 4 4 4 6 4 6 4 6 4 4 5 4 5 4 4 4 4 N X . * ; * * > 3 +   o . O X # # * # & @ # # * # * * & * * = @ # * * * = * * = # & * & * * = & * # * = # * * = & = * * * & = * = * = = * * = * = * * = = * = * * = = = * = * = * = # - = = - * = * - = = * = - * = - * = = - * = - * = - * = * = = * = * = * = - - * = * - = - * & = * = = * = = * = * = * = = * = * = * = - * = * = - * = - = * - * = = * = * = - = * * = = * * * * = # * & * * * = * = # * * * = * * * # * * # @ # * # * * # * # * # # * # & + # # O # & + + # O O @ + O # X @ + + X O # + O + O & O O O O O . . . . X X O O O X O O O O . X . X . X + . X . . X . .     X + * * * ; 3 3 * ; ; 3 ; * ; ; 3 > * 3 * * ; ; + 3 ; ; + ; ; + ; + ; 3 > ; ; + 3 ; ; > + > + + 3 + ; +                       K.K.K.K.K.K.K.K.K.",
"K.K.K.K.K.K.K.K.K.K.K.o ; 3 4 3 3 3 3 3 4 4 4 3 4 3 3 6 3 3 3 4 4 3 4 4 4 3 6 5   + * * * * 4 X       K.K.K.K.K.K.K.K.K.K.K.K.K.K.K.K.K.K.K.K.K.K.K.K.K.K.K.K.K.K.K.K.K.K.K.K.K.K.K.K.K.K.K.K.K.K.K.K.K.K.K.K.K.K.K.K.K.K.K.K.K.K.K.K.K.K.K.K.K.K.K.K.K.K.K.K.K.K.K.K.K.K.K.K.K.K.K.K.K.K.K.K.K.K.K.K.K.K.K.K.K.K.K.K.K.K.K.K.K.K.K.K.K.K.K.K.K.K.K.K.K.K.K.K.K.K.K.K.K.K.K.K.K.K.K.K.K.K.K.K.K.K.K.K.K.K.K.K.K.K.K.K.K.K.K.K.K.K.K.K.K.K.K.K.K.K.K.K.K.K.K.K.K.K.K.K.K.K.K.K.K.K.K.K.K.K.K.K.K.K.K.K.K.K.K.K.K.K.K.K.K.K.K.K.K.K.K.K.K.K.K.K.K.K.K.K.K.K.K.K.K.K.K.K.K.K.K.K.K.K.K.K.K.K.K.K.K.K.K.K.K.K.K.K.K.K.K.K.K.K.K.K.K.K.K.K.K.K.K.K.K.K.K.K.K.K.K.K.K.K.K.K.K.K.X O     X     o   . o X   X       X   X   o .         o         o     X       o   o         X o                         K.K.K.K.K.K.K.K.K.K.K.K.",
"K.K.K.K.K.K.K.K.K.K.K.K.K.                                                        * * * 4 4 .     K.K.K.K.K.K.K.K.K.K.K.K.K.K.K.K.K.K.K.K.K.K.K.K.K.K.K.K.K.K.K.K.K.K.K.K.K.K.K.K.K.K.K.K.K.K.K.K.K.K.K.K.K.K.K.K.K.K.K.K.K.K.K.K.K.K.K.K.K.K.K.K.K.K.K.K.K.K.K.K.K.K.K.K.K.K.K.K.K.K.K.K.K.K.K.K.K.K.K.K.K.K.K.K.K.K.K.K.K.K.K.K.K.K.K.K.K.K.K.K.K.K.K.K.K.K.K.K.K.K.K.K.K.K.K.K.K.K.K.K.K.K.K.K.K.K.K.K.K.K.K.K.K.K.K.K.K.K.K.K.K.K.K.K.K.K.K.K.K.K.K.K.K.K.K.K.K.K.K.K.K.K.K.K.K.K.K.K.K.K.K.K.K.K.K.K.K.K.K.K.K.K.K.K.K.K.K.K.K.K.K.K.K.K.K.K.K.K.K.K.K.K.K.K.K.K.K.K.K.K.K.K.K.K.K.K.K.K.K.K.K.K.K.K.K.K.K.K.K.K.K.K.K.K.K.K.K.K.K.K.K.K.K.K.K.K.K.K.K.K.K.K.K.K.K.K.      .   X   o .   .   .     . o     X         o . . . .   . .     X X         .   .         .           K.K.K.K.K.K.K.K.K.K.K.K.K.K.K.K.K.K.K.",
"K.K.K.K.K.K.K.K.K.K.K.K.K.K.  . X     o o   X . o         .     . o . . . o X X + * # * *   K.  K.K.K.K.K.K.K.K.K.K.K.K.K.K.K.K.K.K.K.K.K.K.K.K.K.K.K.K.K.K.K.K.K.K.K.K.K.K.K.K.K.K.K.K.K.K.K.K.K.K.K.K.K.K.K.K.K.K.K.K.K.K.K.K.K.K.K.K.K.K.K.K.K.K.K.K.K.K.K.K.K.K.K.K.K.K.K.K.K.K.K.K.K.K.K.K.K.K.K.K.K.K.K.K.K.K.K.K.K.K.K.K.K.K.K.K.K.K.K.K.K.K.K.K.K.K.K.K.K.K.K.K.K.K.K.K.K.K.K.K.K.K.K.K.K.K.K.K.K.K.K.K.K.K.K.K.K.K.K.K.K.K.K.K.K.K.K.K.K.K.K.K.K.K.K.K.K.K.K.K.K.K.K.K.K.K.K.K.K.K.K.K.K.K.K.K.K.K.K.K.K.K.K.K.K.K.K.K.K.K.K.K.K.K.K.K.K.K.K.K.K.K.K.K.K.K.K.K.K.K.K.K.K.K.K.K.K.K.K.K.K.K.K.K.K.K.K.K.K.K.K.K.K.K.K.K.K.K.K.K.K.K.K.K.K.K.K.K.K.K.K.K.K.K.K.K.K.K.K.K.K.K.K.K.K.K.K.K.K.K.K.K.K.K.K.K.K.K.K.K.K.K.K.K.K.K.K.K.K.K.K.K.K.K.K.K.K.K.K.K.K.K.K.K.K.K.K.K.K.K.K.K.K.K.K.K.K.K.K.K.K.K.K.K.K.K.K.K.K.",
"K.K.K.K.K.K.K.K.K.K.K.K.K.K.  X . X . O X . . . . . O + X O O . + X O O . O O + + * + + . K.K.K.K.K.K.K.K.K.K.K.K.K.K.K.K.K.K.K.K.K.K.K.K.K.K.K.K.K.K.K.K.K.K.K.K.K.K.K.K.K.K.K.K.K.K.K.K.K.K.K.K.K.K.K.K.K.K.K.K.K.K.K.K.K.K.K.K.K.K.K.K.K.K.K.K.K.K.K.K.K.K.K.K.K.K.K.K.K.K.K.K.K.K.K.K.K.K.K.K.K.K.K.K.K.K.K.K.K.K.K.K.K.K.K.K.K.K.K.K.K.K.K.K.K.K.K.K.K.K.K.K.K.K.K.K.K.K.K.K.K.K.K.K.K.K.K.K.K.K.K.K.K.K.K.K.K.K.K.K.K.K.K.K.K.K.K.K.K.K.K.K.K.K.K.K.K.K.K.K.K.K.K.K.K.K.K.K.K.K.K.K.K.K.K.K.K.K.K.K.K.K.K.K.K.K.K.K.K.K.K.K.K.K.K.K.K.K.K.K.K.K.K.K.K.K.K.K.K.K.K.K.K.K.K.K.K.K.K.K.K.K.K.K.K.K.K.K.K.K.K.K.K.K.K.K.K.K.K.K.K.K.K.K.K.K.K.K.K.K.K.K.K.K.K.K.K.K.K.K.K.K.K.K.K.K.K.K.K.K.K.K.K.K.K.K.K.K.K.K.K.K.K.K.K.K.K.K.K.K.K.K.K.K.K.K.K.K.K.K.K.K.K.K.K.K.K.K.K.K.K.K.K.K.K.K.K.K.K.K.K.K.K.K.K.K.K.K.K.K.K.K.",
"K.K.K.K.K.K.K.K.K.K.K.K.K.K.K.                                            o       .   o K.K.K.K.K.K.K.K.K.K.K.K.K.K.K.K.K.K.K.K.K.K.K.K.K.K.K.K.K.K.K.K.K.K.K.K.K.K.K.K.K.K.K.K.K.K.K.K.K.K.K.K.K.K.K.K.K.K.K.K.K.K.K.K.K.K.K.K.K.K.K.K.K.K.K.K.K.K.K.K.K.K.K.K.K.K.K.K.K.K.K.K.K.K.K.K.K.K.K.K.K.K.K.K.K.K.K.K.K.K.K.K.K.K.K.K.K.K.K.K.K.K.K.K.K.K.K.K.K.K.K.K.K.K.K.K.K.K.K.K.K.K.K.K.K.K.K.K.K.K.K.K.K.K.K.K.K.K.K.K.K.K.K.K.K.K.K.K.K.K.K.K.K.K.K.K.K.K.K.K.K.K.K.K.K.K.K.K.K.K.K.K.K.K.K.K.K.K.K.K.K.K.K.K.K.K.K.K.K.K.K.K.K.K.K.K.K.K.K.K.K.K.K.K.K.K.K.K.K.K.K.K.K.K.K.K.K.K.K.K.K.K.K.K.K.K.K.K.K.K.K.K.K.K.K.K.K.K.K.K.K.K.K.K.K.K.K.K.K.K.K.K.K.K.K.K.K.K.K.K.K.K.K.K.K.K.K.K.K.K.K.K.K.K.K.K.K.K.K.K.K.K.K.K.K.K.K.K.K.K.K.K.K.K.K.K.K.K.K.K.K.K.K.K.K.K.K.K.K.K.K.K.K.K.K.K.K.K.K.K.K.K.K.K.K.K.K.K.K.K.K.K.K.",
"K.K.K.K.K.K.K.K.K.K.K.K.K.K.K.K.K.K.K.K.K.K.K.K.K.K.K.K.K.K.K.K.K.K.K.K.K.K.K.K.K.K.K.K.K.K.K.K.K.K.K.K.K.K.K.K.K.K.K.K.K.K.K.K.K.K.K.K.K.K.K.K.K.K.K.K.K.K.K.K.K.K.K.K.K.K.K.K.K.K.K.K.K.K.K.K.K.K.K.K.K.K.K.K.K.K.K.K.K.K.K.K.K.K.K.K.K.K.K.K.K.K.K.K.K.K.K.K.K.K.K.K.K.K.K.K.K.K.K.K.K.K.K.K.K.K.K.K.K.K.K.K.K.K.K.K.K.K.K.K.K.K.K.K.K.K.K.K.K.K.K.K.K.K.K.K.K.K.K.K.K.K.K.K.K.K.K.K.K.K.K.K.K.K.K.K.K.K.K.K.K.K.K.K.K.K.K.K.K.K.K.K.K.K.K.K.K.K.K.K.K.K.K.K.K.K.K.K.K.K.K.K.K.K.K.K.K.K.K.K.K.K.K.K.K.K.K.K.K.K.K.K.K.K.K.K.K.K.K.K.K.K.K.K.K.K.K.K.K.K.K.K.K.K.K.K.K.K.K.K.K.K.K.K.K.K.K.K.K.K.K.K.K.K.K.K.K.K.K.K.K.K.K.K.K.K.K.K.K.K.K.K.K.K.K.K.K.K.K.K.K.K.K.K.K.K.K.K.K.K.K.K.K.K.K.K.K.K.K.K.K.K.K.K.K.K.K.K.K.K.K.K.K.K.K.K.K.K.K.K.K.K.K.K.K.K.K.K.K.K.K.K.K.K.K.K.K.K.K.K.K.K.K.K.K.K.K.K.K.K.K.K.K.K.K.K.K.",
"K.K.K.K.K.K.K.K.K.K.K.K.K.K.K.K.K.K.K.K.K.K.K.K.K.K.K.K.K.K.K.K.K.K.K.K.K.K.K.K.K.K.K.K.K.K.K.K.K.K.K.K.K.K.K.K.K.K.K.K.K.K.K.K.K.K.K.K.K.K.K.K.K.K.K.K.K.K.K.K.K.K.K.K.K.K.K.K.K.K.K.K.K.K.K.K.K.K.K.K.K.K.K.K.K.K.K.K.K.K.K.K.K.K.K.K.K.K.K.K.K.K.K.K.K.K.K.K.K.K.K.K.K.K.K.K.K.K.K.K.K.K.K.K.K.K.K.K.K.K.K.K.K.K.K.K.K.K.K.K.K.K.K.K.K.K.K.K.K.K.K.K.K.K.K.K.K.K.K.K.K.K.K.K.K.K.K.K.K.K.K.K.K.K.K.K.K.K.K.K.K.K.K.K.K.K.K.K.K.K.K.K.K.K.K.K.K.K.K.K.K.K.K.K.K.K.K.K.K.K.K.K.K.K.K.K.K.K.K.K.K.K.K.K.K.K.K.K.K.K.K.K.K.K.K.K.K.K.K.K.K.K.K.K.K.K.K.K.K.K.K.K.K.K.K.K.K.K.K.K.K.K.K.K.K.K.K.K.K.K.K.K.K.K.K.K.K.K.K.K.K.K.K.K.K.K.K.K.K.K.K.K.K.K.K.K.K.K.K.K.K.K.K.K.K.K.K.K.K.K.K.K.K.K.K.K.K.K.K.K.K.K.K.K.K.K.K.K.K.K.K.K.K.K.K.K.K.K.K.K.K.K.K.K.K.K.K.K.K.K.K.K.K.K.K.K.K.K.K.K.K.K.K.K.K.K.K.K.K.K.K.K.K.K.K.K.K."
};
