/* XPM */
static const char *player2_xpm[] = {
/* columns rows colors chars-per-pixel */
"400 83 242 2 ",
"   c #020302",
".  c #040A04",
"X  c #080B07",
"o  c #070C08",
"O  c #0A0D0A",
"+  c #030709",
"@  c #031303",
"#  c #081307",
"$  c #031B02",
"%  c #061409",
"&  c #0C120D",
"*  c #071809",
"=  c #09190A",
"-  c #081807",
";  c #10140F",
":  c #10190F",
">  c #0F1410",
",  c #0F1A11",
"<  c #09141A",
"1  c #111512",
"2  c #141A15",
"3  c #181C17",
"4  c #171D18",
"5  c #191E1A",
"6  c #060F14",
"7  c #042303",
"8  c #052B04",
"9  c #082D05",
"0  c #092A08",
"q  c #063304",
"w  c #093405",
"e  c #053A03",
"r  c #0A3B05",
"t  c #0B3509",
"y  c #0C3C09",
"u  c #063008",
"i  c #0F2212",
"p  c #132415",
"a  c #132916",
"s  c #162419",
"d  c #1B221C",
"f  c #162919",
"g  c #1B2C1D",
"h  c #192117",
"j  c #1B321E",
"k  c #1B3B17",
"l  c #12380D",
"z  c #20241F",
"x  c #091B27",
"c  c #1F2520",
"v  c #1D2D20",
"b  c #1D3420",
"n  c #1E3A22",
"m  c #0C2638",
"M  c #0E2533",
"N  c #212622",
"B  c #242B24",
"V  c #272D28",
"C  c #292E2A",
"Z  c #282B27",
"A  c #243225",
"S  c #213B23",
"D  c #273129",
"F  c #2B332D",
"G  c #293828",
"H  c #323632",
"J  c #343A35",
"K  c #393E3A",
"L  c #373C38",
"P  c #2F3631",
"I  c #0B4306",
"U  c #0C4B06",
"Y  c #0E4309",
"T  c #0D4B08",
"R  c #054302",
"E  c #124C0B",
"W  c #12460B",
"Q  c #0C5305",
"!  c #0F5607",
"~  c #125409",
"^  c #135C09",
"/  c #125807",
"(  c #184612",
")  c #195913",
"_  c #21461C",
"`  c #18680B",
"'  c #1C720F",
"]  c #27791B",
"[  c #246919",
"{  c #3B433D",
"}  c #39463C",
"|  c #2B7721",
" . c #0E2D43",
".. c #133755",
"X. c #103149",
"o. c #123E61",
"O. c #3E4541",
"+. c #3E4A42",
"@. c #3F5046",
"#. c #414642",
"$. c #434A44",
"%. c #464E49",
"&. c #494E4A",
"*. c #45554A",
"=. c #4B544D",
"-. c #465A4C",
";. c #4A5B4E",
":. c #415146",
">. c #4E5651",
",. c #4D5B51",
"<. c #515551",
"1. c #525B54",
"2. c #595E5B",
"3. c #4B6051",
"4. c #5B625D",
"5. c #5A6C5D",
"6. c #556759",
"7. c #566D5A",
"8. c #5E6560",
"9. c #5D6B61",
"0. c #5E7362",
"q. c #626B65",
"w. c #636A65",
"e. c #627465",
"r. c #637966",
"t. c #657469",
"y. c #69756C",
"u. c #66796A",
"i. c #697A6D",
"p. c #6D7871",
"a. c #727A75",
"s. c #767C78",
"d. c #1E860C",
"f. c #238C0E",
"g. c #22850E",
"h. c #25930D",
"j. c #289B0E",
"k. c #258B12",
"l. c #298E14",
"z. c #2C8D1B",
"x. c #29831A",
"c. c #269212",
"v. c #2B9514",
"b. c #2C9B15",
"n. c #2D941A",
"m. c #2E9C18",
"M. c #269911",
"N. c #329D1A",
"B. c #319918",
"V. c #2AA20E",
"C. c #2CAB0E",
"Z. c #2EA315",
"A. c #2EAA14",
"S. c #2FA218",
"D. c #2FAB18",
"F. c #31A416",
"G. c #31AC16",
"H. c #32A41A",
"J. c #34AC1A",
"K. c #39AD1E",
"L. c #33B316",
"P. c #36BA15",
"I. c #39BC16",
"U. c #35B319",
"Y. c #39B41C",
"T. c #36B919",
"R. c #3ABC1A",
"E. c #38B616",
"W. c #2FB30F",
"Q. c #2D8921",
"!. c #328E24",
"~. c #368C2A",
"^. c #2E9221",
"/. c #339324",
"(. c #349B23",
"). c #389828",
"_. c #3AAD23",
"`. c #38A624",
"'. c #3CB422",
"]. c #3DBB22",
"[. c #3EB42A",
"{. c #3AB524",
"}. c #3EB230",
"|. c #42BE1E",
" X c #41BC24",
".X c #42B52A",
"XX c #43BC2A",
"oX c #42B526",
"OX c #42B22D",
"+X c #3BC316",
"@X c #3DC21A",
"#X c #3CC716",
"$X c #3EC323",
"%X c #41C51C",
"&X c #44CA1C",
"*X c #4ACC1E",
"=X c #41C916",
"-X c #49D21D",
";X c #51D11E",
":X c #43C324",
">X c #45CA23",
",X c #4BCD22",
"<X c #45C329",
"1X c #49C52C",
"2X c #4BCC2B",
"3X c #48C728",
"4X c #51CE29",
"5X c #4DD222",
"6X c #4DD32A",
"7X c #4AD525",
"8X c #53D323",
"9X c #5BD625",
"0X c #5CD926",
"qX c #51D42C",
"wX c #53DB2C",
"eX c #5DDA29",
"rX c #57D826",
"tX c #4CCA32",
"yX c #55DA32",
"uX c #4FD132",
"iX c #64DC2A",
"pX c #6ADE2D",
"aX c #61DB27",
"sX c #6EDF30",
"dX c #56E22D",
"fX c #5AE333",
"gX c #6BE12E",
"hX c #66E12C",
"jX c #6EE231",
"kX c #64E736",
"lX c #74E533",
"zX c #79E636",
"xX c #76E835",
"cX c #79E836",
"vX c #7CEA39",
"bX c #79E738",
"nX c #70E02E",
"mX c #78827A",
"MX c #81EC3C",
"NX c #7E9284",
"BX c #000001",
"VX c #8CA092",
/* pixels */
"BXBXBXBXBXBXBXBXBXBXBXBX    X   . . .     . + . . . .   . + . . . . .   o + . . + + + . BXBXBXBXBXBXBXBXBXBXBXBXBXBXBXBXBXBXBXBXBXBXBXBXBXBXBXBXBXBXBXBXBXBXBXBXBXBXBXBXBXBXBXBXBXBXBXBXBXBXBXBXBXBXBXBXBXBXBXBXBXBXBXBXBXBXBXBXBXBXBXBXBXBXBXBXBXBXBXBXBXBXBXBXBXBXBXBXBXBXBXBXBXBXBXBXBXBXBXBXBXBXBXBXBXBXBXBXBXBXBXBXBXBXBXBXBXBXBXBXBXBXBXBXBXBXBXBXBXBXBXBXBXBXBXBXBXBXBXBXBXBXBXBXBXBXBXBXBXBXBXBXBXBXBXBXBXBXBXBXBXBXBXBXBXBXBXBXBXBXBXBXBXBXBXBXBXBXBXBXBXBXBXBXBXBXBXBXBXBXBXBXBXBXBXBXBXBXBXBXBXBXBXBXBXBXBXBXBXBXBXBXBXBXBXBXBXBXBXBXBXBXBXBXBXBXBXBXBXBXBXBXBXBXBXBXBXBXBXBXBXBXBXBXBXBXBXBXBXBXBXBXBXBXBXBXBXBXBXBXBXBXBXBXBXBXBXBXBXBXBXBXBXBXBXBXBXBXBXBXBXBXBXBXBXBXBXBXBXBXBXBXBXBXBXBXBXBXBXBXBXBXBXBXBXBXBXBXBXBXBXBXBXBXBXBXBXBXBXBXBXBXBXBXBXBXBXBXBXBXBXBXBXBXBXBXBXBXBXBXBXBXBXBXBXBXBXBXBXBXBXBXBXBXBXBX",
"BXBXBXBXBXBXBXBXBXBXBXBX. .                               .                         . . . BXBXBXBXBXBXBXBXBXBXBXBXBXBXBXBXBXBXBXBXBXBXBXBXBXBXBXBXBXBXBXBXBXBXBXBXBXBXBXBXBXBXBXBXBXBXBXBXBXBXBXBXBXBXBXBXBXBXBXBXBXBXBXBXBXBXBXBXBXBXBXBXBXBXBXBXBXBXBXBXBXBXBXBXBXBXBXBXBXBXBXBXBXBXBXBXBXBXBXBXBXBXBXBXBXBXBXBXBXBXBXBXBXBXBXBXBXBXBXBXBXBXBXBXBXBXBXBXBXBXBXBXBXBXBXBXBXBXBXBXBXBXBXBXBXBXBXBXBXBXBXBXBXBXBXBXBXBXBXBXBXBXBXBXBXBXBXBXBXBXBXBXBXBXBXBXBXBXBXBXBXBXBXBXBXBXBXBXBXBXBXBXBXBXBXBXBXBXBXBXBXBXBXBXBXBXBXBXBXBXBXBXBXBXBXBXBXBXBXBXBXBXBXBXBXBXBXBXBXBXBXBXBXBXBXBXBXBXBXBXBXBXBXBXBXBXBXBXBXBXBXBXBXBXBXBXBXBXBXBXBXBXBXBXBXBXBXBXBXBXBXBXBXBXBXBXBXBXBXBXBXBXBXBXBXBXBXBXBXBXBXBXBXBXBXBXBXBXBXBXBXBXBXBXBXBXBXBXBXBXBXBXBXBXBXBXBXBXBXBXBXBXBXBXBXBXBXBXBXBXBXBXBXBXBXBXBXBXBXBXBXBXBXBXBXBXBXBXBXBXBXBXBXBXBX",
"BXBXBXBXBXBXBXBXBXBXBXBX. . J H Z N Z Z V B N c B c Z V V c c c 5 5 c 5 4 5 d Z c C c + .   BXBXBXBXBXBXBXBXBXBXBXBXBXBXBXBXBXBXBXBXBXBXBXBXBXBXBXBXBXBXBXBXBXBXBXBXBXBXBXBXBXBXBXBXBXBXBXBXBXBXBXBXBXBXBXBXBXBXBXBXBXBXBXBXBXBXBXBXBXBXBXBXBXBXBXBXBXBXBXBXBXBXBXBXBXBXBXBXBXBXBXBXBXBXBXBXBXBXBXBXBXBXBXBXBXBXBXBXBXBXBXBXBXBXBXBXBXBXBXBXBXBXBXBXBXBXBXBXBXBXBXBXBXBXBXBXBXBXBXBXBXBXBXBXBXBXBXBXBXBXBXBXBXBXBXBXBXBXBXBXBXBXBXBXBXBXBXBXBXBXBXBXBXBXBXBXBXBXBXBXBXBXBXBXBXBXBXBXBXBXBXBXBXBXBXBXBXBXBXBXBXBXBXBXBXBXBXBXBXBXBXBXBXBXBXBXBXBXBXBXBXBXBXBXBXBXBXBXBXBXBXBXBXBXBXBXBXBXBXBXBXBXBXBXBXBXBXBXBXBXBXBXBXBXBXBXBXBXBXBXBXBXBXBXBXBXBXBXBXBXBXBXBXBXBXBXBXBXBXBXBXBXBXBXBXBXBXBXBXBXBXBXBXBXBXBXBXBXBXBXBXBXBXBXBXBXBXBXBXBXBXBXBXBXBXBXBXBXBXBXBXBXBXBXBXBXBXBXBXBXBXBXBXBXBXBXBXBXBXBXBXBXBXBXBXBXBXBXBXBXBXBXBXBX",
"BXBXBXBXBXBXBXBXBXBXBXBXX H %.%.=.%.=.>.%.&.=.>.>.%.%.$.%.=.>.1.,.,.1.1.6.2.,.6.6.a.9.c . . BXBXBXBXBXBXBXBXBXBXBXBXBXBXBXBXBXBXBXBXBXBXBXBXBXBXBXBXBXBXBXBXBXBXBXBXBXBXBXBXBXBXBXBXBXBXBXBXBXBXBXBXBXBXBXBXBXBXBXBXBXBXBXBXBXBXBXBXBXBXBXBXBXBXBXBXBXBXBXBXBXBXBXBXBXBXBXBXBXBXBXBXBXBXBXBXBXBXBXBXBXBXBXBXBXBXBXBXBXBXBXBXBXBXBXBXBXBXBXBXBXBXBXBXBXBXBXBXBXBXBXBXBXBXBXBXBXBXBXBXBXBXBXBXBXBXBXBXBXBXBXBXBXBXBXBXBXBXBXBXBXBXBXBXBXBXBXBXBXBXBXBXBXBXBXBXBXBXBXBXBXBXBXBXBXBXBXBXBXBXBXBXBXBXBXBXBXBXBXBXBXBXBXBXBXBXBXBXBXBXBXBXBXBXBXBXBXBXBXBXBXBXBXBXBXBXBXBXBXBXBXBXBXBXBXBXBXBXBXBXBXBXBXBXBXBXBXBXBXBXBXBXBXBXBXBXBXBXBXBXBXBXBXBXBXBXBXBXBXBXBXBXBXBXBXBXBXBXBXBXBXBXBXBXBXBXBXBXBXBXBXBXBXBXBXBXBXBXBXBXBXBXBXBXBXBXBXBXBXBXBXBXBXBXBXBXBXBXBXBXBXBXBXBXBXBXBXBXBXBXBXBXBXBXBXBXBXBXBXBXBXBXBXBXBXBXBXBXBXBXBXBXBXBX",
"BXBXBXBXBXBXBXBXBXBXo O H F 2 1 > ; 1 1 > 2 1 1 2 4 2 2 2 4 4 5 5 5 5 z N N B N c C 0.9.5 . BXBXBXBXBXBXBXBXBXBXBXBXBXBXBXBXBXBXBXBXBXBXBXBXBXBXBXBXBXBXBXBXBXBXBXBXBXBXBXBXBXBXBXBXBXBXBXBXBXBXBXBXBXBXBXBXBXBXBXBXBXBXBXBXBXBXBXBXBXBXBXBXBXBXBXBXBXBXBXBXBXBXBXBXBXBXBXBXBXBXBXBXBXBXBXBXBXBXBXBXBXBXBXBXBXBXBXBXBXBXBXBXBXBXBXBXBXBXBXBXBXBXBXBXBXBXBXBXBXBXBXBXBXBXBXBXBXBXBXBXBXBXBXBXBXBXBXBXBXBXBXBXBXBXBXBXBXBXBXBXBXBXBXBXBXBXBXBXBXBXBXBXBXBXBXBXBXBXBXBXBXBXBXBXBXBXBXBXBXBXBXBXBXBXBXBXBXBXBXBXBXBXBXBXBXBXBXBXBXBXBXBXBXBXBXBXBXBXBXBXBXBXBXBXBXBXBXBXBXBXBXBXBXBXBXBXBXBXBXBXBXBXBXBXBXBXBXBXBXBXBXBXBXBXBXBXBXBXBXBXBXBXBXBXBXBXBXBXBXBXBXBXBXBXBXBXBXBXBXBXBXBXBXBXBXBXBXBXBXBXBXBXBXBXBXBXBXBXBXBXBXBXBXBXBXBXBXBXBXBXBXBXBXBXBXBXBXBXBXBXBXBXBXBXBXBXBXBXBXBXBXBXBXBXBXBXBXBXBXBXBXBXBXBXBXBXBXBXBXBXBXBXBXBX",
"BXBXBXBXBXBXBXBXBXBX& O.F 2 4 4 3 3 3 2 5 5 5 3 4 4 4 4 4 2 4 5 4 2 2 5 4 s c 5 s 4 B t.4.2 . BXBXBXBXBXBXBXBXBXBXBXBXBXBXBXBXBXBXBXBXBXBXBXBXBXBXBXBXBXBXBXBXBXBXBXBXBXBXBXBXBXBXBXBXBXBXBXBXBXBXBXBXBXBXBXBXBXBXBXBXBXBXBXBXBXBXBXBXBXBXBXBXBXBXBXBXBXBXBXBXBXBXBXBXBXBXBXBXBXBXBXBXBXBXBXBXBXBXBXBXBXBXBXBXBXBXBXBXBXBXBXBXBXBXBXBXBXBXBXBXBXBXBXBXBXBXBXBXBXBXBXBXBXBXBXBXBXBXBXBXBXBXBXBXBXBXBXBXBXBXBXBXBXBXBXBXBXBXBXBXBXBXBXBXBXBXBXBXBXBXBXBXBXBXBXBXBXBXBXBXBXBXBXBXBXBXBXBXBXBXBXBXBXBXBXBXBXBXBXBXBXBXBXBXBXBXBXBXBXBXBXBXBXBXBXBXBXBXBXBXBXBXBXBXBXBXBXBXBXBXBXBXBXBXBXBXBXBXBXBXBXBXBXBXBXBXBXBXBXBXBXBXBXBXBXBXBXBXBXBXBXBXBXBXBXBXBXBXBXBXBXBXBXBXBXBXBXBXBXBXBXBXBXBXBXBXBXBXBXBXBXBXBXBXBXBXBXBXBXBXBXBXBXBXBXBXBXBXBXBXBXBXBXBXBXBXBXBXBXBXBXBXBXBXBXBXBXBXBXBXBXBXBXBXBXBXBXBXBXBXBXBXBXBXBXBXBXBXBXBXBXBXBX",
"BXBXBXBXBXBXBXBXBX& #.V 1 > 4 O + X   + + + + + +   X   +   X   + X + + + o + > > 4 2 c u.9.5 + BXBXBXBXBXBXBXBXBXBXBXBXBXBXBXBXBXBXBXBXBXBXBXBXBXBXBXBXBXBXBXBXBXBXBXBXBXBXBXBXBXBXBXBXBXBXBXBXBXBXBXBXBXBXBXBXBXBXBXBXBXBXBXBXBXBXBXBXBXBXBXBXBXBXBXBXBXBXBXBXBXBXBXBXBXBXBXBXBXBXBXBXBXBXBXBXBXBXBXBXBXBXBXBXBXBXBXBXBXBXBXBXBXBXBXBXBXBXBXBXBXBXBXBXBXBXBXBXBXBXBXBXBXBXBXBXBXBXBXBXBXBXBXBXBXBXBXBXBXBXBXBXBXBXBXBXBXBXBXBXBXBXBXBXBXBXBXBXBXBXBXBXBXBXBXBXBXBXBXBXBXBXBXBXBXBXBXBXBXBXBXBXBXBXBXBXBXBXBXBXBXBXBXBXBXBXBXBXBXBXBXBXBXBXBXBXBXBXBXBXBXBXBXBXBXBXBXBXBXBXBXBXBXBXBXBXBXBXBXBXBXBXBXBXBXBXBXBXBXBXBXBXBXBXBXBXBXBXBXBXBXBXBXBXBXBXBXBXBXBXBXBXBXBXBXBXBXBXBX                                    .   +                                                                 BXBXBXBXBXBXBXBXBXBXBXBXBXBXBXBXBXBXBXBX",
"BXBXBXBXBXBXBXBXO $.N 1 4 4 o H <.<.&.&.<.<.<.<.=.<.<.<.<.&.>.<.<.>.&.=.<.<.>.2   2 s > s mXp.d . BXBXBXBXBXBXBXBXBXBXBXBXBXBXBXBXBX% BXBXBXBX% BXBXBX% BXBX& = BX% % # # BX# # % = & o % = % BX# % # # BX# # # # % = % # @ = % % BX# # = = % BXBXBX# # # # = # % # % # # BX% # % % # % - - 6 % = # # # = # % - = % % % = % BX# # % % BX% = * % - = = # % % = = - = & % - - % = - % % # % % * = # = = % % = % % = = = % = % - # % % = % = = % % # % & = = % % % # BX# % # # & % = BX# % BX% & BXBXBXBXBXBXBXBXBXBXBX% BXBX& % BXBXBXBXBXBXBXBXBXBXBXBXBXBXBXBXBXBXBXBXBXBXBXBXBXBXBXBXBXBXBXBXBXBXBXBXBXBXBXBXBXBXBXBXBXBXBXBXBXBXBXBXBXBXBXBXBXBXBXBXBXBXBXBXBXBXBXBXBXBXBX> $.&.#.&.#.#.#.%.#.#.$.#.#.#.#.#.#.#.#.K O.O.#.#.#.K #.K #.K K K L K L L L L K K L J L J F H H H C H F C H F H H 1 BXBXBXBXBXBXBXBXBXBXBXBXBXBXBXBX",
"BXBXBXBXBXBXBX6 K C 1 2 2 2 5 w.y.y.p.p.p.p.p.p.a.a.s.s.a.s.a.a.a.a.p.a.p.a.s.>.+ 4 4 4 & 5 u.u.Z BXBXBXO O O & & > & & 1 & O > & ; & > > & > > & & > > ; & 1 ; > 1 ; & > > > > > > > > > > > > > > > > > > > > 1 > > > > > > 1 , > > < 1 2 > > > > > > & > > > > & > > > > > 1 > > > > > > 2 > < > , > > > > > 1 1 , 2 > > > > > > > > > > > > 1 > > > > > > 2 1 1 1 1 , > > > , > > > > > 1 > > > 2 > 1 1 > > 1 & > > > > > > > > > > > > , > > 2 > > 1 > > > 1 ; > > > > > & 1 & > > > > > > > > > > > > 1 O ; ; > > & > O > > > & & O > O & & O & & O & ; O & O O O & O > O O O & & & > O O O O > O > O O & O & O O O O O O O O ; O & & O O O O O X O O O O BXBXBXBXBX5 K &.=.%.=.&.$.%.&.#.#.$.#.#.#.#.$.#.O.#.#.{ O.O.O.O.#.K K K L K K K L K L L K K K L L L H H H H F F J H C H H H H N O BXBXBXBXBXBXBXBXBXBXBXBXBXBXBX",
"BXBXBXBXBX+ > L V 2 2 5 2 2 5 3 > 2 1 2 1 1 1 1 3 2 2 4 3 2 2 4 4 4 4 2 4 2 s H   2 4 , s 1 c 9.t.C BX2 J { +.{ +.O.} } $.+.} } } :.$.:.@.$.+.+.$.$.*.*.:.*.*.*.*.-.*.*.-.-.-.=.-.-.-.=.-.-.-.>.=.-.-.-.-.;.;.-.3.,.,.-.;.-.3.,.3.@.-.-.;.,.3.-.3.3.;.,.;.3.;.;.;.;.;.;.-.3.3.3.;.;.;.3.-.-.;.;.,.3.3.-.-.3.3.3.,.;.3.-.,.-.-.;.3.-.-.-.*.-.-.3.3.3.-.3.;.3.,.3.,.;.3.;.-.,.,.3.-.3.,.;.3.-.;.-.,.,.,.3.;.;.3.3.;.,.-.-.-.;.-.-.-.;.;.,.;.,.@.-.-.3.3.-.,.,.-.=.*.-.;.;.-.=.,.;.>.=.,.-.-.=.*.*.:.=.*.*.=.=.=.*.*.$.*.:.%.@.$.@.+.@.:.%.+.+.+.+.O.+.*.$.+.} { { O.O.+.+.{ +.#.+.O.+.O.+.+.$.%.$.$.+.+.+.O.+.#.{ O.O.{ { { { { O.} } K K O.K J P L H H P P P H F F V c 1 2 z 5 O > > 1 1 1 2 2 2 3 2 2 2 4 2 5 2 2 4 2 5 2 2 1 2 2 2 4 2 2 5 1 2 1 1 1 1 1 ; 1 3 1 1 1 1 1 > 2 1 1 > 1 2 > > 1 z 5 BXBXBXBXBXBXBXBXBXBXBXBXBXBXBX",
"BXBXBXBXX > K C 1 2 2 2 3 3 3 5 5 d 5 5 z 5 5 c 5 c d N d c c N c c d c c s v P . > , 4 4 2 4 B 6.mXF . 2 2 2 2 4 2 2 2 4 p 2 s s h f s f f d f s d f s s d s g f d g s d f g f c v g d s v s v s v s v v v v f g g g g g g g g v c v v f g g v g v g v g g g g g j f j g g g v v f g b f v v v g b v v v v b v v b v v j v g g v v g v j f v v v v v v g b b v B b g g g v v v v v v v b v g g j v v v g g v v g v v v j j v v v v v v v v v j v g v v g v v g v v g v v v v z v v v g v v v c v v d g g g z g v d d c g c g v v d d d d s s s s d s d d d s d d s c d d d d d d d c 5 d d d d c c d d d c s d 5 s 5 5 s s 4 5 5 5 3 d 4 4 4 4 4 4 2 2 2 2 2 2 2 1 O & 3 3 3 3 5 5 5 5 5 5 5 N z z d N c d z d c N d N d z z 5 5 d 5 5 5 5 5 d 3 5 z 5 5 3 3 3 5 5 5 5 3 3 5 5 3 3 3 4 5 5 5 3 N 5 X BXBXBXBXBXBXBXBXBXBXBXBXBX",
"BXBXBXBX1 K 5 2 2 2 2 1 2 < 5 5 d c c c z 5 c c 5 c 5 d c d d N c c d c c 5 c F   > 2 , 2 4 s 4 f 6.NXV   .   . . . . . . . . . . . . . + . . . @ . @ . . # @ o @ @ % # @ . % . @ @ % % . % % % % % * % % o o @ # # . * % * * @ % % % o % % % % % % * % * % % 6 % % % # & * @ 6 % * % % % * % % @ % % % * % * 6 % % * % * * * * % * * % * % % % % % * % % % = = = = * = * 6 * * * * * * * * * % * * = % % = - - * * * * * 6 * * % % * % % % % 6 % % % > = % % = % * % & % % = % o O % % % % % % % % & % % % = # % % & % % & % O o % % % % O & O o O o O O % # X O O O % O % O X o O > O O % & X o O o O O O O X O & % O O o O o # O O X O O O O o o o o   + o O . .   o O O X X X & 3 2 3 5 5 5 d 5 d d d d z 5 5 5 5 5 d 5 5 3 5 5 5 5 5 5 5 5 3 3 3 5 5 3 3 1 3 5 5 5 5 3 5 3 2 2 2 3 3 1 3 2 4 N 5   BXBXBXBXBXBXBXBXBXBXBXBX",
"BXBXBX1 O.5 1 2 1 2 3 2 2 2 5 c 2 5 5 4 5 4 4 4 5 4 2 4 5 4 5 2 s 4 2 4 d 4 c G   & , 2 4 s 5 s 2 s 9.VX1.#.=.=.=.=.*.=.*.=.=.<.<.<.;.<.;.1.,.>.>.>.=.;.;.=.=.=.>.>.,.>.=.,.=.>.>.>.1.,.>.1.1.1.,.,.,.,.,.,.>.>.>.1.,.,.,.1.,.,.,.,.,.,.,.,.,.;.,.,.,.*.*.,.,.,.;.,.,.>.=.;.,.*.>.=.,.,.,.,.,.,.,.>.,.>.-.>.,.,.1.,.;.,.,.,.,.1.>.,.,.,.,.1.1.1.6.1.,.,.,.,.,.,.,.,.,.,.,.,.,.,.,.,.3.;.;.1.1.1.,.>.,.,.;.;.1.,.;.1.1.=.,.;.;.;.,.,.,.,.,.=.;.>.,.1.,.,.;.;.1.;.>.,.>.,.,.,.=.1.;.>.>.=.=.,.=.%.&.&.=.=.=.*.*.%.%.=.=.=.=.=.%.%.*.%.%.%.%.$.$.$.%.%.%.%.$.$.$.%.%.$.$.$.$.#.#.$.%.$.#.O.#.$.#.$.$.$.$.#.$.$.#.$.#.{ $.#.#.#.O.#.#.O.O.#.#.O.O.O.O.{ O.O.O.#.#.#.#.#.#.K O.O.O.L C X O 3 2 5 5 5 5 d 5 d 5 5 d 5 5 5 5 N 5 3 3 4 5 2 3 3 5 3 3 2 5 2 3 5 3 3 3 3 2 3 2 2 2 5 3 2 3 3 3 2 2 1 2 3 2 2 N 5   BXBXBXBXBXBXBXBXBXBXBX",
"BXBX> H c 2 2 1 2 1 5 2 2 5 >                                           > 5 d F   & > 2 2 2 s s d 2 c } 5.q.9.w.8.9.8.5.5.8.9.9.q.9.9.9.9.9.e.9.9.e.9.9.9.q.e.e.t.t.t.t.t.0.t.t.t.0.t.q.t.t.t.0.t.t.0.t.t.t.t.t.t.t.0.0.0.9.t.9.0.t.t.t.t.0.t.0.e.t.t.t.t.t.t.0.t.y.u.u.t.u.i.i.i.u.t.u.u.y.i.u.i.i.i.i.u.u.a.i.u.i.u.i.u.u.p.t.i.i.y.y.i.i.i.u.u.i.i.i.u.i.p.i.i.u.i.u.p.i.i.i.i.i.i.i.i.i.i.i.i.u.t.i.u.t.y.e.e.i.u.y.y.t.y.y.t.i.y.i.i.t.u.t.i.t.t.i.t.y.y.u.u.i.y.i.y.i.t.t.t.i.q.i.t.t.i.t.t.t.t.q.q.t.q.t.t.e.q.q.w.q.q.q.e.q.q.q.w.w.w.w.q.q.q.q.w.w.q.q.w.w.8.w.w.w.w.w.w.9.w.4.w.9.8.w.w.4.w.4.8.w.4.8.9.w.5.8.8.w.4.4.4.4.4.8.4.4.2.2.4.2.8.4.4.4.4.4.2.4.2.1.1.2.2.1.1.=.3 > 5 3 5 5 5 5 d 5 d d z 5 5 5 5 5 5 3 2 5 3 3 5 3 3 2 2 5 5 5 3 2 3 1 2 3 2 3 5 2 1 3 2 3 3 2 3 1 5 1 1 3 2 2 1 N 5 BXBXBXBXBXBXBXBXBXBXBX",
"BX  C Z > 1 3 2 1 2 2 1 2 &     + X o O o X O O X O X O O O O 6 O .     1 d s F   & > 2 4 s 4 4 s s s , 2 = : 2 2 2 2 , , , , p p p i s p 2 p p p p i 2 p p p i , i p i i p i p p i i i p i i , i i p 2 , f i i 2 p , i i , s s a i i i p p , i i i s , i i f i i p p p i i i i p i p a f p i i i i p i i i i i p p i p p i f p p p p p s p p p p i p p i i i i p i i i i i i i p i p p p p p p i p i i p p p p p p p p p s p p , p p p p p p p p i 2 i s p s s , p 2 , 2 4 2 p 4 , , , 2 2 2 , , 4 , 4 2 : 2 s , 2 2 2 2 2 2 2 2 4 2 1 & 2 2 2 ; 1 : 2 ; 1 : ; > > 1 1 & 2 2 2 2 1 > 2 1 2 1 ; ; 2 ; 1 1 1 1 ; ; ; ; ; ; 1 1 2 ; ; 1 ; 2 2 2 2 2 1 > > 1 O 1 1 1 1 1 1 2 2 2 1 5 C H 2 ; 5 5 5 d 5 5 d 5 5 5 5 5 5 2 5 3 5 5 5 3 2 3 1 3 2 2 3 2 2 3 2 3 3 3 1 2 2 3 3 3 3 1 3 2 1 3 3 3 3 1 1 3 2 2 2 5 1 BXBXBXBXBXBXBXBXBXBX",
"BX  5 2 2 2 2 < 1 3 2 5 O       1 & > > > 2 1 1 2 2 2 2 2 3 1 2 2 >     1 4 d F . & , , , 4 , s 4 s s s s f g g j f g g f f g g g g g f j f g j f g f g f f j f j g g j g g b g v b b f v v b b b j v b b b b b v b b v b b f v f b f v v b b v b b b b j g b b j j j j v j b b b b g j j b b g j v b b b v b b v b b b b v b b j j j j j g g j j j f g j b b b j b b g b b b g b j j j b S f j j g b b j j f v j j j j g j v g b j g b g A b g b g j g j f g f j g g j g b j g g g v v g v g g v f v v g d s d s d d s g d g s d d s d s s s s h h 3 s 5 s h 5 4 s 4 4 4 s 5 5 5 d d 4 s 5 3 5 d 5 d d 5 s d 5 h 5 3 3 s 3 5 5 5 3 5 3 3 3 d 5 2 4 4 4 3 2 4 2 4 2 3 2 3 3 3 5 5 2 N H 1 X 3 3 5 5 5 5 5 5 5 5 3 5 2 4 3 2 2 3 3 2 3 3 3 3 3 1 3 3 5 5 3 3 3 3 3 3 2 3 1 3 3 2 1 3 1 3 1 3 2 3 1 1 2 3 2 5 ; BXBXBXBXBXBXBXBXBX",
"BX  3 1 1 2 1 2 1 2 5 X         1 ; 1 1 1 2 2 2 2 2 2 2 2 2 1 2 2 2     < c s G . & , , , 2 2 s 4 4 s s s s g j j f f f b f g j j g j b j b f j j j f j f j j j j f f j j j j j j j f g j j j j b b j b n b j b j j j j j j f j b b j j j b b b j j j j j j j k b n f j j j j j j j j j j b n f b j b n j k n b b b j j j j b b j j k j j j j j j j j j j j j b n j j j j j b j b b j j j S j j j j n j j f n j j j j j j j j j j j j S g b b j j j f f j j j j j g j j b v g g g g g j g g g v v d g g g g d g d g g d g d d d d s d d s d d s d s d d s d d z d d s s f h d d 5 s d 5 d d z d d d s 3 d s d d s 5 3 5 5 3 5 5 s 5 5 5 5 3 5 5 4 2 3 5 3 2 2 5 4 5 2 2 4 5 5 2 3 2 2 5 K 5   X .   X +   X   X + + X +       X     X +       X     X   + +           + +       + X     .       +   + +         BXBXBXBXBXBXBXBX",
"BX  > 2 1 2 2 2 2 4 +           1 1 1 1 2 2 2 2 4 4 > 2 2 1 2 1 2 2     > 5 s F   = 2 2 2 2 2 s s f p d s A f f f g j f j g j j j f j j j j j j j j j f j j j g j j j f j j f f j n j j b j j b b b j b S b j n j j n j n n j g j b j j n n ( j j j n n S S j j n n _ j j j k j j j n n S n n n n n n n S n S _ n b j n _ n n n j j S n n k n k n j j _ j j k S n n n j n n n j b n _ j _ S j j j j j j j S S n n b S S S S j j S j j j b b S b j j n S S j b j b b j f A j j j b A g g A b v j b b b b g g v v v v g d g g g g s s g z z g s s h d N d d s d g d d d 5 z d d d d d z s d d d s d h 5 5 3 3 3 3 2 5 5 s 3 s 4 4 3 3 5 s 5 s d 5 5 2 s 5 d 3 5 4 s 3 d 5 5 5 d 5 5 2 5 2 2 #.w.s.mXs.a.s.mXmXmXs.s.s.s.s.a.a.s.s.a.s.a.p.a.s.s.a.s.a.y.p.y.p.a.a.p.a.a.a.y.p.y.t.w.w.w.w.w.w.w.8.w.w.y.w.y.w.w.<.BXBXBXBXBXBXBXBX",
"BX  X 2 1 2 1 3 5 O     & 5 + + 3 1 1 1 1 1 1 2 2 2 2 2 4 2 2 2 4 4     > 4 4 V   & , 2 , 2 4 2 2 s s f g &   .   .                   .               .       . .   .   . . .   . . .       .     . .     . .   .     . .   . . . . . .   . . . .   . . . .   . .   . . . . . . . . .   . . .   . . . . .     . . .   .   . . . . .   . + . . .   . . .   . . . . . . . . . . . . . . . .   . . . .   . . .   . .     . .   . .           .     .   . .   .   . .   . .       . .   .                                                               .                                                                                                                           2 5 2 3 3 2 z Z N Z Z Z Z Z C C C C C Z Z Z Z C C C C Z C C C Z Z Z Z N Z Z Z Z Z Z N N Z Z Z N Z Z Z Z Z N Z z N N N N Z Z C H C ; BXBXBXBXBXBX",
"BX    X > > O O       X c &   + 3 1 1 2 2 2 1 4 4 2 2 4 2 2 2 1 2 4 .   > d d V   % , , 2 , p 2 s s f d o . . . . . . . . . . . @ . . . . @ . @ @ @ . . @ @ . . @ . . @ . @ @ @ @ . @ . @ @ @ @ @ . . @ . @ . @ @ @ . @ @ @ @ @ @ @ . @ . @ @ . @ @ . @ @ @ @ . . @ . @ @ @ . @ @ @ @ @ @ @ @ @ . . @ . @ @ . @ . @ . @ @ @ . . @ . . @ @ . . . @ . @ @ @ @ @ @ . @ @ @ @ @ @ @ @ @ @ @ @ . . @ . @ . @ . . @ . @ @ . @ . @ . @ @ @ @ @ @ . @ . . . . . . . . . . . . . @ . @ . . . . @ . . @ . . . . . . . . .   .                                                                                                                                                             X 1 5 3 3 3 3 2 3 3 2 3 2 3 2 3 3 5 3 3 3 3 3 3 3 3 2 2 3 3 5 5 2 3 5 1 2 2 5 3 3 3 3 3 3 3 2 4 3 1 1 3 3 3 3 1 3 1 3 3 1 1 3 ; 5 N ; BXBXBXBXBX",
"BX                    N 1 O     5 1 1 2 2 2 2 5 5 5 5 5 5 5 5 2 2 5     > 5 4 D   & , > , 2 p s , f f o . . @ . @ @ @ @ $ $ $ $ $ $ $ $ $ $ $ $ $ $ * $ $ @ $ $ $ $ $ @ * $ $ $ $ $ $ $ $ * $ $ $ $ $ - $ $ $ $ $ @ $ $ @ * $ $ $ $ $ $ $ $ $ $ $ $ $ $ 7 $ $ * $ $ $ $ - $ $ $ $ $ $ @ $ $ $ $ $ $ $ $ 7 $ $ $ 7 $ $ $ $ $ $ $ $ @ $ @ @ $ $ $ $ $ $ $ $ $ 7 $ $ $ 7 $ $ 7 - $ $ $ $ $ $ * $ @ $ $ $ $ $ $ $ $ $ $ $ $ 7 $ $ $ $ $ $ $ $ $ $ $ $ @ @ $ @ $ @ $ $ $ $ $ $ * $ $ $ $ @ $ $ $ @ $ $ $ @ @ @ . . . . . . . . . . . + . . . . .   . .   . .   . .         .     .     .     .           . .       .   .                               .         .                       2 5 3 3 5 d 3 5 5 5 5 d 5 5 d d d 5 z z z 5 5 z z d c 5 5 5 5 5 5 5 N z 5 d 3 3 z 3 5 d 5 5 z z 3 3 5 3 3 3 5 5 5 5 3 3 3 3 5 d d O BXBXBXBX",
"BX                  X N O ;   X 5 1 ; X X X X + X X o   X X X ; 2 5     2 d 4 D   > , 2 , 2 2 p g v . . . @ @ @ . @ @ @ @ @ $ $ $ $ $ @ $ $ $ @ $ $ $ $ 7 $ $ 7 $ $ $ $ @ @ @ @ @ $ @ $ $ - $ @ $ $ $ @ $ @ @ $ 7 $ $ $ $ 7 7 $ @ @ $ $ $ $ @ $ * @ $ $ $ $ $ $ $ $ @ $ 7 7 $ $ $ $ $ $ @ @ @ @ $ @ @ $ $ $ $ * $ @ @ $ $ @ $ $ 7 $ $ 7 $ $ 7 * @ @ @ * $ $ $ $ $ $ @ $ $ $ $ $ $ $ @ $ 7 $ $ 7 $ $ $ $ @ @ $ @ $ * @ @ @ @ $ $ $ $ $ @ $ @ @ $ $ - $ $ $ $ 7 * @ @ @ @ @ @ @ @ @ @ @ @ @ @ @ @ @ @ @ % $ @ . @ @ @ .               .                       . . .   . . . .                                               . . .   .                                                 X 5 N 5 d 5 5 z d 5 d z d d N d N N z 5 z d d 5 d N N c N N N N d d d N d 5 z z N 5 5 d N d z z z 5 z z 5 z d 5 d 5 z 5 z N z 5 N d   BXBXBX",
"BX  z O   3 N 2 O   X N O ;   X 5 2 O                     +     > 2 +   1 5 4 D . & , , , 2 4 s g o . @ @ @ $ y ] x.Q.!.!.z.^./.n.).n./.^./.(.).)././.] q 7 7 7 7 0 8 E Q./.^././.(.^.n.n.(./././././.B.).)./.) 7 7 7 7 7 7 7 Y Q.!././.!./.^././././.(.(./.(.).(.(.(.) 7 7 7 7 7 7 8 ) !.Q.Q.!.n./.^./.n.(.Q.n.n.!./.^./././.I 7 7 7 7 7 7 7 ) ^./.!.!.!.!.).(.(./.(././././.(.(.(.).~ 7 7 7 7 7 7 7 E Q./.n.!./././.)./.)././.!././././.(.n.E 7 $ $ $ 7 $ $ ) !.Q./././.!././.^.!.n.).).Q.!.~.!.!.Q.8 $ - @ @ @ @ = b v b v v v v g v d d c v d v d v d d 4 . .   .   . . o 4 d 5 4 s 4 4 5 s 4 4 4 4 5 5 2 2 4 4 >   . .   .   . 2 4 4 4 1 2 2 2 5 2 2 2 4 2 5 2 O 1 & +                                                                                                                                           . BXBXBXBX",
"BXO Z 1   Z 3 ; O   X z & ;     5 2 Z <.w.w.4.w.8.4.w.4.4.4.1.C 1 4 .   > 4 s V   & , 2 , 2 p s d + . . @ @ r _.`.H.D._.Y.J.K.'.{.'.Y.'.oXY.{.].Y.].].<X(.y 7 7 7 7 U `._.Y._._.Y.Y.{.{.'.].].].R.].].].'. X<X2X] 8 8 7 9 7 T `._.Y.{.'.Y.].].Y.].{.{.'.U.{.].].{.].{.$X' q 8 7 8 q ' {._.U.{.].].{.{.R.{.R.].].].{.].{.].$X$X1X[ q q 7 7 7 ^ _._.U.{.T.Y.].{.].{.{.{.T.].$XY.[.].Y.Y.XX^ 0 7 7 8 7 ^ K.`.K.Y.K.J.Y.'.{.{.{._.'.Y.].Y.'.].'.$XXX^ 8 7 7 8 8 ` ]._.J.Y.'.U.{.Y.'.{.Y.Y._._.Y.[.'.'.K.{.[.q $ $ $ 7 ` <X'.{.].<X$X<X].$X<X].].XXXX XXXXX].'.tX] *     . . . 7 I `..XY.].XX$X<X$X].<X].]. XXX XXXXXXX{.<X_.8 . .   . & 1 1 1 > 1 2 1 1 1 1 1 1 1 2 1 1 O 1 & ;                                                                                                                                             BXBXBXBX",
"BX  d ;   5 O X     X N ; ;   + 5 2 2 5 5 c 5 N N c N N N c 5 N 5 z     1 5 s C   O > 2 , , 2 f s . . @ $ $ | m.' g.k.l.c.k.v.M.v.m.m.v.b.b.b.m.b.j.M.d.XX[ 7 8 7 q ] Z.g.l.v.v.c.n.v.c.b.M.M.v.v.M.v.v.h.b.M.A.2Xy 7 9 8 8 ^.S.k.z.b.c.M.b.v.M.b.b.b.v.M.b.b.b.M.b.b.H.J.w 9 8 7 R _.f.k.v.v.v.B.M.v.M.M.v.b.b.M.b.Z.M.M.M.v.A. Xw 8 8 8 w (.Z.k.g.c.v.M.v.M.m.M.v.n.v.b.v.v.M.v.b.c.U._.7 7 7 7 8 [.M.' l.f.n.l.v.c.v.v.c.v.b.l.c.v.b.b.M.v.Y.l.9 8 7 7 I `.f.g.l.f.c.c.v.c.c.v.v.v.k.k.v.v.v.l.z.h.tX[ * $ 7 U .Xd.k.d.d.c.k.k.c.c.v.c.c.f.g.v.l.k.k.k.h..Xl .         8 x.b.g.k.d.k.c.f.k.c.c.v.v.k.g.l.c.k.k.k.f.XXx.+ . . X & o . o   o o . o o   . .   o   X   + + X O           .         X           .     .       .             .         X       X X .             X X   +                                   . BXBXBX",
"BX  5 ;   5 1 . X   + N & ;     5 2 2 1 2 1 3 2 5 c c 5 d 5 d 5 5 5     1 5 h D   % , , , s s s g . @ @ $ $ ~.v.' l.v.m.v.v.m.m.m.S.D.Z.H.H.Z.F.F.b.H.f..X| 8 8 7 w !.J.n.c.b.N.m.S.S.b.H.b.H.S.H.F.Z.H.F.H.N.j.uXT 8 9 8 7 `.`.v.v.m.b.H.Z.F.H.H.H.H.H.K.H.J.D.F.G.H.H._.t 8 8 7 I ].z.n.b.m.S.b.H.H.H.S.S.D.D.H.D.U.H.Z.G.`.V.<Xy 8 9 9 y _.b.n.c.Z.S.H.b.H.H.H.m.S.J.Z.S.S.Z.H.S.n.U.[.* 0 8 7 r $Xk.n.n.j.b.M.m.M.m.S.S.S.J.b.S.Z.S.Z.b.`.U.n.0 9 7 7 Q }.d.m.M.m.m.S.H.S.m.S.S.S.m.S.H.Z.H.S.m.h.<X] * 7 $ ` 1Xf.^.b.b.m.S.H.b.b.m.S.m.b.S.N.m.H.S.N.h.oXl +   . .   q (.b.n.m.v.b.S.S.S.b.S.m.S.v.m.H.m.H.m.N.c.'.(.  .   X & X X O o X O X O O O O o O O O X O X O X ;     .     O & X X X O X     . .       .     .     +   X   . X o   X X     + X X +   X X X O X X O X X   X X X   X   . . . .             . BXBXBXBX",
"BX  5 O   5 1 X X   X N O &     5 2 3 3 3 2 2 5 5 5 c c N d 5 2 5 d +   > 4 s F   & , , , s s s g   @ $ $ $ ).b.c.k.c.S.Z.m.S.J.Z.D.Z.D.Z.J.J.H.H.J.J.v. X| 8 9 w w z.J.b.b.b.S.S.b.Z.J.H.Z.S.H.Z.F.J.H.J.U.H.C.yXT 8 8 u 7 }.K.c.b.m.m.D.H.D.Z.U.H.G.H.Z.H.D.U.F.G.J.E._.t 7 q 0 T ].v.b.S.S.J.J.G.U.G.D.G.D.U.L.H.D.H.Z.L.S.W.1XY 7 9 8 r {.Z.b.S.Z.S.D.H.Z.S.Z.Z.S.S.J.D.D.D.J.D.Z.U.[.* 8 8 7 R $Xv.v.Z.S.c.S.S.S.J.J.S.D.U.G.S.H.J.J.Z.J.R.N.0 9 8 7 ~ $Xf.n.M.H.S.Z.H.S.S.Z.H.b.Z.m.H.Z.H.H.S.v.<Xx.$ 7 * ' tXf.M.m.H.S.S.Z.H.Z.Z.S.S.m.S.H.S.J.H.m.M.oXk .   .   . q `.S.b.v.S.H.m.H.S.H.Z.S.Z.S.b.H.S.D.H.m.v. XN.. o   o > O O O o O o o O O o O o O X O O O O O X 1           O 1 O O O 1     X X O O O X O O O O O O O O O O O X O O O O O O O X O O O O O O O O O O + O O O O O O X O O X X O X     .     BXBXBXBXBX",
"BXX 5 >   5 ; X .   + N ; ; + + 5 2 2 2 5 2 3 2 2 4 4 4 5 5 5 2 c d     > d s D . & > 2 2 , p f g . @ $ $ 7 ~.H.c.b.M.Z.D.S.S.D.Z.A.Z.D.D.D.U.A.Z.G.J.c. X] 8 8 9 t z.H.c.S.S.S.J.U.L.H.K.J.Z.A.J.G.D.D.J.G.G.A.qXU 8 q 8 8 _.Y.M.M.Z.D.D.S.D.D.U.G.H.G.D.D.D.D.J.U.H.U._.l 9 9 u E ].h.S.Z.D.D.G.J.G.G.b.D.C.U.L.T.A.L.J.G.J.W.<Xy q 9 q Y [.b.b.S.A.J.G.Y.Z.J.Y.D.L.L.A.D.L.J.A.D.M.T.].0 e 8 0 U $XM.M.S.Y.Y.D.U.S.J.H.D.D.D.U.D.L.U.U.Z.K.R.n.t q 7 8 ~ XXf.m.m.S.H.H.H.G.J.Z.H.D.D.Z.D.H.D.G.H.h.tXx.7 7 7 ' tXh.b.b.S.D.S.H.J.S.Z.D.S.Z.Z.J.H.H.H.J.M.XX( .   . . . q `.Z.M.m.b.S.D.J.S.H.Z.H.Z.Z.D.Z.H.A.J.G.b.XX`.. .   o > O O o O o O O O O O & O o O O O O o O X &       .   1 2 O ; X 2 X     X X   X X X . X X X O O X X X X X o X X X X X O O + ; O & 1 O 1 & O & ; ; ; + O O O ; O O O O O X   O X O O BXBXBXBXBX",
"BX  d ;   5 1 X X   X N & &   + 5 1 2 2 3 3 3 2 5 2 2 5 5 2 4 4 5 d     1 4 4 D   O > , 2 : f h j   $ - 7 7 /.K.c.H.Z.D.D.D.D.U.U.L.D.D.U.U.A.L.G.G.H.j.<X] 7 q 9 u ^.J.m.Z.L.D.D.U.J.D.L.L.U.U.L.U.U.Z.G.F.H.W.qX~ 8 9 q 8 `.'.j.S.D.Y.D.J.L.D.L.U.U.L.U.T.$XD.G.G.K.Y. Xy w q 8 T $Xv.b.D.D.D.G.L.L.J.D.T.T.U.D.U.U.T.A.A.J.W.3XY 9 9 q I {.Z.J.Z.U.A.A.D.Y.U.A.L.U.W.U.T.L.L.L.D.H.R.XX7 9 t 0 U 2XM.S.D.D.J.D.J.U.T.D.L.D.D.U.U.A.L.U.Z.J.$Xn.9 q 7 8 / <Xh.D.Z.D.H.J.D.L.H.L.D.J.J.D.J.G.Z.L.Z.j.qXx.$ 7 7 ' 2Xj.Z.Z.D.H.D.J.U.D.J.A.D.U.A.J.D.A.J.F.j.:Xl +   .     e J.H.S.Z.Z.J.S.J.J.U.D.L.J.D.U.H.J.Z.U.D.j.:XH.X .   o > O O O & O O O O O O O o O O X o O X o O > .         2 2 & & O 2 X                                                   O ; ; O O ; ; ; 1 > 1 > ; ; ; ; ; ; > O & & ; O O +   K O.L H BXBXBXBXBX",
"BXX 5 O   3 1 X +     N & &     5 2 2 2 3 < 3 < 2 5 2 2 4 3 4 4 d d     1 4 s D   & , , p 2 s f g X @ $ 7 7 /.Y.M.Z.D.D.Z.U.L.T.U.T.T.L.L.T.U.U.G.U.U.V.<X] 9 q u e n.Y.Z.A.U.U.T.U.L.T.U.U.U.T.U.E.L.L.U.G.G.C.yX~ 9 q q 8 [.Y.D.J.Z.U.L.U.U.T.D.U.T.U.L.T.+XT.U.L.J.E.oXy t q 8 ~ $XM.Z.D.U.L.U.L.T.T.U.T.T.].T.T.U.D.U.L.K.W.3Xr 8 q q I '.Z.S.Z.D.U.U.G.L.L.W.U.].U.L.U.U.U.L.U.G.R.<X7 q w 0 R 7XZ.D.S.Z.D.A.L.U.L.L.T.T.+XT.T.U.L.A.L.L.@Xn.t q 9 8 / <Xj.S.H.G.D.Y.L.L.L.U.U.D.D.D.L.G.U.H.D.M.2Xx.0 7 7 ' uXv.Z.D.J.D.Y.L.J.D.U.U.J.Z.A.U.L.A.H.F.V.XX( .   . .   e _.J.Z.H.J.A.U.D.L.J.L.U.L.D.Z.L.A.J.Z.D.V.XXH..   . o > O O & O O O O O O O O O % O o O o O O X >           1 2 & & > 2 X   X             X       .   X       X             O 1 ; ; ; ; ; ; 1 1 1 > ; ; ; ; ; 1 O ; > & O > ; O   N 2 O 2 BXBXBXBXBX",
"BX  d ;   5 1 + X   X c & & +   5 2 1 2 5 3 2 3 4 2 2 2 2 5 2 2 4 s .   > 5 4 F   & , , : 2 s f g   $ $ 7 7 ).E.M.H.Z.D.L.L.A.L.U.W.L.U.U.T.P.T.G.L.Y.A.>X] w q e t m.U.Z.L.U.L.U.U.U.T.U.U.U.T.L.U.R.J.L.U.J.C.yXE 9 u q q _.Y.V.U.U.D.U.U.L.U.T.T.U.R.L.D.T.L.T.U.E.R. Xy t q q ! <Xj.D.D.D.T.T.R.T.L.T.T.T.+XL.L.L.L.T.U.'.W.<XY q t q T {.G.D.D.A.T.L.T.L.L.].T.R.L.L.L.L.T.L.U.D.@XXX8 w w 8 U 7XS.S.D.D.U.U.A.U.U.U.T.L.L.G.T.T.T.L.L.U.$XB.l e 9 q / 3XZ.J.A.D.L.L.U.U.U.U.U.J.U.G.D.J.U.E.J.b.yXx.7 7 7 d.6XZ.G.Z.J.A.L.U.T.L.U.U.D.J.J.G.J.U.U.G.V.XX( .   . . . r K.L.G.F.D.D.L.{.L.T.L.U.L.J.D.D.L.Y.U.L.V.3X`..     X > O O O O O & O & O O O O o O O O X O . O >           1 5 & > & 2 X                 +                                 + 1 ; 1 ; ; 3 ; X + + + + X X X + 1 ; ; > O O O ; O   N 2 1 5 BXBXBXBXBX",
"BX  5 1   3 1 X X   X N & &   + 5 1 1 2 2 2 3 3 4 2 2 5 2 2 2 2 4 5 .   > s 5 D   & = 2 = , s s j . $ $ 7 7 ).Y.b.G.D.J.D.U.U.T.@XL.L.R.R.L.@XL.U.L.U.A.3X| w q w R (.U.D.S.D.D.L.T.T.T.T.@XY.L.R.R.U.U.U.E.U.L.yX~ q w q 8 {.T.j.L.U.J.L.U.T.+XT.R.@XT.+XU.T.D.L.L.U.%XY.W y q q Q $XV.K.Z.L.U.L.R.U.T.T.T.+XT.+XL.T.T.T.W.J.W.2XY e w y T [.Y.J.D.U.Y.T.T.$XL.T.L.R.L.R.L.R.L.L.L.A.#X X8 w q 8 U 7XZ.A.D.L.L.R.L.@X+XU.L.@XU.Y.L.T.E.L.W.J.$Xv.t w q q ` 3Xb.Z.Z.J.U.U.A.A.U.T.@XR.U.L.L.L.E.L.L.j.yXx.8 7 7 d.yXZ.Z.D.L.U.J.D.U.L.R.R.T.L.L.L.U.L.T.J.Z.2XW X   . . . r '._.F.Z.G.Y.L.A.A.T.U.].T.L.U.L.L.U.G.U.Z.3X`.. o . X > & O O O O O O O o O o O O O O O O O O O 1     X   + 1 2 O & & 5 X X 5 F J H H H H H L L J H L K L J J J F H H H H H H 3 ; 1 1 3 O   O Z <.<.#.#.&.C + X X 1 > > ; ; O O   N 2 1 2 BXBXBXBXBX",
"BX  5 &   5 1 X X   + z O ; X   5 2 2 2 2 2 2 2 2 2 4 4 3 < 1 3 5 5     > d 4 F   O & , 2 p p s j . @ $ 7 8 ).E.F.Z.A.U.T.L.R.T.T.R.L.R.@XT.@XR.T.T.U.L.2X] q e r r (.Y.J.U.G.A.T.L.U.R.L.T.T.@X&XI.R.%XE.E.L.P.yXU q y e q [.$XD.J.L.L.L.U.@XR.P.R.@X+X@X@XE.R.@XL.W.@X XW r r q / 3XV.A.U.T.L.T.I.R.R.&XT.#X@X@X$XR.R.L.P.{.W.>XY e t y U ].T.Z.H.U.L.L.T.+XT.T.R.P.&XT.+X@XP.R.U.W.#X$X8 w q u Q 7XG.A.D.T.E.L.T.T.+XI.U.P.R.L.$XR.R.T.W.T.#XB.l r w q ` 2Xj.U.G.L.U.G.D.T.R.@XR.T.T.@XL.E.A.U.E.Z.uXz.7 7 7 g.yXZ.H.G.L.U.D.A.R.T.@X+XT.R.@XG.L.G.E.U.Z.1XW .   .     Y Y.Y.J.G.G.L.L.S.A.R.R.+XR.L.R.E.L.G.J.E.Z.3X_.o . . O > O O O O X % O O O O O O O O O o o O % O ;     .     1 2 O ; 1 3 X X 3 3 3 2 3 5 3 2 3 1 3 3 3 5 5 3 5 3 3 5 3 5 5 5 3 1 > 1 1 + + #.w.#.N 5 3 1 5 H K H X + > 1 > > & X   N 2 1 2 BXBXBXBXBX",
"BX  5 &   5 1 o X   X z O ;     5 1 1 1 2 2 2 4 2 2 4 5 5 5 1 2 4 5 .   & 5 d D   O , , 2 = 4 f f X $ 7 7 8 (.E.Z.J.A.U.E.L.L.L.@XL.#X@X@X@X@X@XT.@XT.L.6X| w y r r `.R.Z.L.U.T.P.T.+X@X#X#X#X@XR.R.@XU.R.E.L.W.fX! q w e q [.>XG.L.L.T.R.@X@XP.@X@X@X+X@XI.T.P.U.L.T.@X XY w w w / >XV.Y.U.U.T.@XP.@X#X#X@X>X#X#X#XT.#X@XP.].P.>XY e q Y Q <XE.D.A.L.T.+XT.+X@X#X@X@X&X@X@X@XR.@X@XU.#X2X9 r e q Q dXA.G.G.U.I.U.@X@XR.@X@X@X@X+X#XR.R.T.P.{.@XB.t e w e ` 2XZ.J.U.A.T.P.R.+XR.R.@XR.T.+XR.Y.U.R.U.j.6Xz.7 8 9 k.qXZ.L.U.C.{.P.R.R.R.T.@XT.I.I.I.Y.Y.U.G.V.3X( o   . X   W {.E.J.J.L.L.T.T.@XT.T.@XR.T.R.R.R.E.T.L.V.3XJ.. .   X 1 O & O O O o & O O o X O . O O O O O O X > .         1 2 & ; O 3 X + X X & O O + O O O O O + + O + O O O + O O O O + O 1 1 1 O Z <.L ; O O O ; ; ; ; ; N F 5 + X > O > X   N 2 2 2 BXBXBXBXBX",
"BX  4 &   2 > X X   X z O &   + 5 2 2 2 1 2 4 2 5 2 2 5 2 3 2 2 4 d .   > s d D   O & 2 , , p g g   $ $ 7 8 ).R.j.H.U.L.E.E.#X@X@XI.@X*X#X&X&X@XT.@XR.W.6Xx.y e y r H.@XA.L.E.L.I.I.+X%X$X*X#X#X@X@X+X@XP.R.E.W.fX~ e w w q [.&XL.L.L.R.@X@X%X@X&X@X&X@X$X@X+X@X+XT.$X#X XW r r w ^ 5XA.T.L.T.@X@XI.%X%X@X@X*X&X&X&X#X@X+XP.@X+X2XY e e y U <XR.A.W.T.R.%X@X+X$X&X-X#X@X@X@X+X@XR.+XU.#X3Xq y y t Q wXW.U.@XL.:X@X&X*X+X@X&X&X#X#X@X+XT.R.P.L.@XN.y e w 8 ` 6XV.J.L.R.R.@X&X$X#X&X&X%X@X@X&XR.L.R.R.Z.wXz.7 7 0 f.yXZ.D.T.P.I.@X&X@X+X@X@X@X@X@X>XR.P.@XY.V.2XW o   .     Y ].E.G.U.R.I.@X&X@X@X#X@X%X@X@X%X%XL.R.R.Z.>X`.+ .   X > % O O & O O O O O O O O o O & O O O O O 1     .     2 2 & 1 O 3 X + > > O > O > > & ; ; O ; > O ; ; ; O O ; O > O ; > 1 1 O Z #.5 O ; ; ; ; 1 1 1 1 3 1 1 N 5 X & 1 O O   N 1 1 2 BXBXBXBXBX",
"BX  5 &   3 1 X X   X z O &   X 5 2 1 2 1 2 X X + O & 5 2 2 1 2 4 d     > d 4 D . % & , , 2 p f g . $ $ $ 8 OXI.C.U.T.E.%X&X,X5X8X8X;X8X5X8XrX@XR.#X@XL.qXx.e y y R _.@XJ.L.P.R.,X8X-X9XrXrX8XrX8X5X%X+XP.R.I.P.fX^ e e e q [.&XL.P.E.R.*X7X;X5XrXrX8XrX8XrX8X#XT.+X@X@X|.U Y Y y ^ 6XA.U.T.R.@X5X8X0XrXrXwXrX0X0XrXrX>X+X+XR.#X6XT q t e ! 3XR.U.T.@X#X-X7X8X7X0X0X8X0X7X5X@X@XP.@XR.7X2Xe y r t Q dXR.R.Y.P.&X8X8X5X8X8XrX8X;X,X7X,XR.@X+XR.@XN.r e y e ` 6XC.L.E.R.@X5X;X8XrX8X*X8X;X;X*X%XI.P.I.A.6Xz.8 9 8 d.fXC.L.P.@X@X5X;X5X5X5X7X,X*X&X&X@XU.T.@XG.3X( O   . .   T ].R.G.L.P.@X>X*X8X5X5X5X*X,X*X*X%XR.L.R.L.>X'.. X . O & O O O & & O O O O O O O O O O o O O O O 1     .     2 5 O 1 O 3 X X O > > O ; O & O O O > O O > O ; O ; ; O > O O ; ; 1 + N K 1 ; ; ; ; ; ; ; ; 1 3 1 1 3 1 5 3   O 1 X   N 2 1 3 BXBXBXBXBX",
"BX  5 &   5 > X O   X 5 O ;     5 2 1 2 2 2   X X +   3 3 2 2 5 5 d     2 5 4 D   O > , , , s f g . $ $ 8 q ).I.G.E.L.E.,X8X8X9XiXhXhXgXgXhX9X&X+X+X@X+X7Xx.e e Y R H.@XL.P.R.&X8X8XaXxXgXaXpXpX0XaXrX=X@X@X@X+XkX~ e y r e $X>XL.E.T.*X8XiXiX0XjXgXhXhXgXhXdX8X@X#X#X7X:XU r Y e / 2XL.U.P.@X&XaXiXhXgXgXgXhXnXlXhX0X-X%X#X@X#X2XU e y r / 3X@XL.L.%X%X8XhXgXgXhXhXhXiXhX0X;X+X#X#X+X#X6Xe y e w Q wXP.+XT.#X,XeXgXiXpXhXiXiXhXhXrX8X%X@X+XP.,XN.y r y e ` 7XC.R.R.I.%X-XeXhXiXaXaXpXpXaXiX;X%X@XR.L.wXl.7 8 7 f.fXA.T.R.I.&X8XaXhXaXaXaXiXaX0X9X&X%XI.R.E.2XE &   o X . E  X@XU.R.I.@X-X9XhXiXaXeXiXiXaX9X;X@X@XI.E.>XY.. .   O & O & O O & o O O O O O O O O O O & O O o 1     .     3 2 O > O 3 X X ; O 1 O > > O ; ; > O ; > > O ; O O ; ; ; O O ; ; X + #.1 > > > ; O +   + + + X 3 3 1 3 1 z O + ; X   N 2 1 3 BXBXBXBXBX",
"BXo 5 O   4 1 + X   X z O ;   X 5 4 1 2 2 2 + 1 1 &   5 2 2 2 2 4 c     > 4 2 D   O , , , , 4 f g . - $ 7 8 ).*XL.Y.I.%X5XaXpXpXpXgXgXgXgXgXgX-X@X@X+X+XwXx.y I r R `.%XU.I.I.%X9XiXnXnXgXzXlXsXxXgX0X8X#XI.@X#XfX^ e I r e [.,XL.I.R.5XiXhXlXjXjXlXlXpXhXgXiX*X#X>X-X7X:XU r r y / 5XL.R.I.@X5XpXgXxXxXxXzXnXlXjXlXiX-X=X#X@X#XqXU e y r / ,XI.I.>X+X8XhXgXxXxXlXlXzXcXgXgXeX&X@X@X$X#XuXR r r t / wXT.L.T.@X5X0XpXlXlXnXlXcXlXlXgX9X%X%X#X@X-XN.y r r r ` qXE.R.I.%X%XiXgXgXnXlXlXpXpXgXaX0X*XR.I.C.wXn.9 9 9 f.dXL.I.I.@X*XaXgXgXgXnXgXpXpXhXaX8X%XI.E.C.5X( X   .     U  X@XR.@XI.%X8XhXgXgXjXjXpXpXpXiX0X*X%XP.L.,XoX. X   X > & O & O O & > O O O & O o O O o O O O o &           1 3 O > O 3 X + ; > ; ; O O ; O > > ; > > O ; ; O > 1 ; > ; ; ; > X H 5 X ; > 1     + 1 < 6 + X   1 3 1 3 1 5   X X   N > > 2 BXBXBXBXBX",
"BX  5 &   5 & O O   X c O O   + 5 1 > 1 4 4 o 1 1 O   3 2 2 2 2 4 d +   > 5 s D   O = , , p s f g   $ 7 7 9 OX%XG.I.I.R.8X0XpXpXgXlXxXnXgXgXgXrX&X-X&X+XeXx.r e Y I J.>XI.I.I.%XaXiXpXlXlXMXzXnXxXlXjX;X#X&X@X+XfX^ r e r e XX5XI.I.P.rXgXjXxXlXvXvXcXxXxXcXhX;X&X#X>X-X:XE Y I y / qXP.I.+X%X5XaXlXbXbXcXMXzXlXxXxXgX-X#X#X&X-X4XU r r Y / ,X%XI.#X&X-XhXlXgXxXlXcXlXlXlXgX0X-X@X#XR.&X4Xe r r r / dXR.L.+X+X8XnXlXlXcXlXzXzXpXlXgX0X*X+XI.%X5XN.y r r w ' qXP.E.I.#X;XhXlXcXvXlXlXxXgXjXgX0X*X%XI.W.fXz.8 q 8 h.fXL.L.+X@XrXjXbXvXcXnXlXlXpXlXpX9X*X&XI.C.4X( X   . X . ~ :X@XL.P.#X*XhXxXbXvXlXlXxXpXgXgXaX;X&X@XC.5XK.. o   O > O O o % o O O O O O O O O O O & O O & O > .     X   > 3 ; > ; 3 X X > O ; O ; O > O ; O ; O O ; > > > O ; 6 O ; ; ; + + J O > > 1 X   < M m  . .M x O + 1 1 1 ; z O X X   N 1 1 2 BXBXBXBXBX",
"BX. 5 >   5 1 O X   X 5 O ;     5 2 1 1 5 2 . 1 1 >   2 2 2 1 3 4 5 .   > c s D . O , , , , 2 f j . $ $ 7 q ).*XL.E.E.&X8XpXsXlXxXcXxXcXcXgXhX5X&X#X>X+XyXQ.y y t I _.&XR.I.@X5XaXpXlXcXcXcXzXnXxXlXgX8X*X%X#X#XkX^ r y r e <X5XI.#X+X8XjXxXxXvXMXxXvXvXvXgXgXrX#X&X#X7X XU r Y e ` 7XL.R.P.+X5XpXlXcXvXcXMXvXMXxXgXgXrX-X#X@X#X4XU e y Y / 4X%X@X+X*X8XgXxXlXcXMXMXcXlXxXxXhX*X#X#X@X>XuXw r Y r ! dXI.T.#X*X0XlXlXcXlXzXcXvXzXxXgX0X%X#X+XI.*XN.y r r e ` qXC.@X+X%X-XhXhXxXxXbXbXxXxXxXlXhX5X+X%XI.eXl.7 9 9 f.fXL.R.#X#XrXaXgXlXlXbXzXxXxXcXjXaX&X+X%X|.,XW o   .     U  X@XR.+X@X*X0XiXlXlXbXbXxXbXxXlXhX8X+X@XR.rXJ.. o   O > O & O & & o O O O O O O O O O O O O O o 2     .     1 5 ; O O 3 + + > ; ; ; ; > ; > O > O > > O O ; ; ; ; O ; ; ; 1 X 3 N X > > O   1 m X..... .X. . .+ X 3 1 ; 1 3       z 1 1 2 BXBXBXBXBX",
"BX. 5 1   5 > O X   X c O O   + 5 2 2 1 5 5 X 2 1 O   4 2 2 2 2 4 5     1 c 4 D   % > > 2 i s f g   - 7 7 8 `.&XW.R.%X&X8XsXnXlXlXbXbXvXlXgXhX&X#X@X&X#XyXx.y r e I _.>XI.R.@X*XpXxXMXlXlXMXMXMXcXxXgXrX=X%X#X%XfX` e I y e <X2XI.%X#X8XjXxXvXvXMXzXMXMXxXnXhXrX&X#X-X-X%XE Y r e ^ 6XP.E.R.#X;XgXlXcXMXMXvXvXMXcXcXhX*X=X#XI.#X8XE e r U ~ 5X%XR.I.&XrXjXxXxXvXbXvXMXcXvXnXpX*X&X#X+X-XuXw r r y / dX@XR.&X&XrXpXcXbXbXcXMXMXvXxXgX8X&X#X+X@X&XN.Y y t w ` qXL.R.@X@X&XgXgXxXlXzXcXbXlXbXnXgX;X=X%XI.wXB.7 9 7 f.dXG.I.%X@X*XgXlXzXlXzXvXlXcXlXgXhX*X%X%XI.qXE o   .     Y |.R.R.@X%X%XeXjXxXxXlXvXzXlXzXlXgX9X+X%XI.5X'.. X   X & O > O & O o O o O o O O O O O O X O O O 2           1 2 O ; X 3 + + ; O ; O > > ; O ; 6 O ; O O O > > > ; O O > ; O X 5 3 O O ; + + M  ...........X.X.x   1 3 1 1 3       z 1 > 2 BXBXBXBXBX",
"BX  3 >   5 > X X   X 5 O > + + 5 1 2 1 2 2 o > 1 1   5 2 2 2 2 2 d     > s 4 V   o & , , , p f g X $ 7 7 8 `.,XG.E.E.&X9XaXlXnXlXbXvXlXxXsXiXrX*X=X%X+XeX] e r Y T _.&XR.R.@X*XiXpXlXvXlXvXlXMXcXcXhX5X=X#X#X=XkX^ y r e R ].5XE.%X+X0XaXlXvXvXMXMXMXcXxXcXhX*X&X-X-X-X|.E Y e q ^ qXR.I.@X#X5XiXlXMXMXvXMXvXMXvXvXjX*X#X#X@X#X2XU r r I ! 6X&XP.&X&X8XgXxXvXcXbXMXvXgXxXlX0X&X#X+XL.&X4Xe Y r y ! dX@XI.@X#XrXjXbXxXlXvXMXlXlXcXiXrX%X%X#X$X-XN.y r t r ` wXC.R.I.+X8XsXlXcXbXlXMXxXzXlXpXeX%X=X%XP.dXz.9 9 9 k.fXL.R.+X#X8XjXlXbXzXlXcXlXcXlXiX9X%X*XI.I.5X( X . . . . U :X@XE.R.#X*XiXjXxXcXlXvXzXlXzXpXaX*X&X%XE.5XY.X X   X 1 O O O O O O & o O & & O O O O O O % % O 1     . .   1 2 O ; X 3 X + O ; ; ; 1 O O ; O > O ; > ; > > > > 1 ; ; > ; O + 5 ; ; > > + >  . ...X...o... . .X.  > 3 1 ; 3       z 1 1 2 BXBXBXBXBX",
"BX  5 1   5 1 X +   X d O O     5 2 < 2 4 4 + 1 1 O   2 2 2 2 2 4 5 o   2 5 s D   & = , , , 4 f j X $ $ 0 8 ).*XW.|.|.*XeXlXiXnXvXvXlXxXxXjXiXrX+X%X&XP.yXx.w e y R J.>XR.I.@X*XaXpXbXMXvXvXcXMXvXlXpX5X#X*X@X=XkX^ e e I e <X5XI.%X&X8XpXbXMXzXMXMXvXMXMXnX9X-X*X7X*X-X XE r r y / wXR.P.I.@X5XxXnXcXlXvXcXMXMXcXlX0X-X*X#X,X#XqXU Y Y I ~ 2X%X@X@X-X8XiXlXjXcXMXvXbXlXgXpXiX-X@X#XI.&XuXe r Y y ! dXR.R.@X%X8XgXxXvXvXlXMXvXlXxXjX0X&X#X+X&X7XN.r r w w ` 8XW.R.@X&XrXlXbXnXMXzXlXcXcXsXsX8X*XI.%XP.dXB.9 9 8 f.dXW.R.#X*XrXxXzXzXMXzXzXcXlXnXpX;X%XI.%XI.qX( O   X .   W |.R.I.@X@X8XsXvXnXvXcXlXMXvXnXjX9X-X+X@X+X7XoX. .   o & O > O O & O O O O O O O O O & O O O O O 1     .     2 3 O ; ; 3 X X ; ; > ; ; ; O ; ; ; O > O > > ; O O O ; O > ; ; + 5 ; ; > O + <  .m ........X. .X.X.  1 3 1 ; 1       5 ; O 1 BXBXBXBXBX",
"BX. 5 &   5 1 X X   X c ; O   X 5 4 2 2 2 4 O 1 2 &   2 2 2 5 1 2 4 .   > s 4 D   O = > , , s f g   $ 7 7 8 `.&XV.E.I.%X9XjXsXlXlXbXbXxXxXjXiX*X#X&X&X%XiXQ.y e y I J.>XL.R.@X*XpXxXbXlXbXbXvXMXlXnXpX8X5X#X#X#XkX^ r I r R ].6XE.I.*XrXlXbXMXvXcXvXlXcXcXpXhX8X&X=X*X;X|.E r I y / 7XR.R.R.@X5XgXMXcXcXcXcXMXMXcXnXhX7X&X#XI.#X8XW r T R / 7X%X@X&X@X8XlXxXvXvXvXvXzXMXcXgXaX8X@X#XR.&X,Xq Y T y / dX+X@X#X#XrXpXbXsXzXlXlXMXvXlXjX8X#X@X+XI.&XN.W r r e ` 5XR.%X@X&X*XlXsXzXzXlXlXbXlXbXsXaX8X%X%XL.fXz.8 8 0 f.dXR.@X#X%X8XlXsXzXzXlXzXlXcXcXlX0X*X%X%XI.wXE o   X     U R.>X@X+X%X*XsXsXlXvXlXlXzXlXvXlXaX9X&X@XR.rX'.. .   X > & O % o O & O O O O O O O O O O O O O O 1     .     1 3 O ; O 3 + X ; O ; O ; O ; ; ; ; ; ; O ; > > O ; O > ; O O +   3 ; O & &   > m m  .X. ..... . .m   1 1 > ; 3 +     5 2 O 2 BXBXBXBXBX",
"BX  2 >   5 & O X   X 5 O O     4 2 2 > 4 2 X 2 1 O   5 2 2 2 1 4 5 .   1 4 4 D   O = , , , i f g . $ $ 7 8 `.&XA.E.%X&X0XgXgXjXjXlXlXvXxXlXaX5X*X*X*X+XeX| y e y T J.3XP.R.&X,XpXpXlXlXgXbXzXzXlXnXhX*X&X#X@X&XyX^ r y r e <X5XE.|.%X9XpXzXvXbXbXcXvXvXcXcXpX8X=X#X&X7X XE Y r y ^ qXE.E.E.@X5XaXlXzXzXbXbXbXcXlXgXaX-X%X#X@X&X4XW r I U ^ 2X%X@X%X&X8XpXlXMXbXvXbXbXvXlXlX9X&X5X@X@X-X2Xq y r e ! dXR.T.@X#XrXpXlXlXlXxXxXbXlXjXgX0X*X@XP.R.,XN.y r I r ` qXC.@X@X@X8XpXlXxXlXlXxXbXbXsXsXpX%X%X%XP.0Xz.0 9 8 k.dXP.@X@X@X0XgXsXbXzXnXlXlXbXsXpXeX%X%X|.P.5X( X . . .   U |.%X@X@X%X*XhXgXlXlXlXlXlXbXxXsXsX&X%X%XP.5XK.o o   X > & O O O O & & O O O O & O % O & & O O O ;           1 3 O > O 3 + X ; O ; 6 O O 6 ; ; ; O ; > ; ; ; O ; > > ; ; & X   3 ; O > > + + x m m m  . . . .m 6 + z 1 ; 1 1       z 1 O 2 BXBXBXBXBX",
"BX  5 >   5 > X +   X c X ; + + 5 2 > 2 2 2 X 1 1 ;   5 1 5 2 2 4 5 .   2 4 s V   % & > , 2 2 f j   $ 7 7 q ).*XC.E.|.%X8XiXgXgXsXxXjXlXgXjXgX*X@X-X*X#XyXx.e r y T `.&XU.$XR.%XaXpXlXnXnXlXzXpXlXnXiX*X&X@X@X#XkX^ e y e e ].5XE.%X%X;XlXlXzXzXlXbXcXMXlXcXhX8X*X+X*X-X:XU Y r y ^ 8XI.Y.E.P.8XgXxXzXlXlXgXlXcXxXgXhX*X@X+XR.#X2XU I I U / 2X%X@XI.%X9XhXlXbXnXlXlXbXlXlXpXaX*X@X#X@X-X6Xq Y r r ^ dXI.R.R.+XdXaXpXsXsXzXxXjXjXgXgX8X%X@X#X@X7XH.y r r r ` qXG.R.R.I.8XpXiXpXsXsXlXsXsXlXpXaX;XI.I.L.dXB.8 7 9 h.fXG.R.R.@X0XpXsXsXsXzXlXlXzXsXpX0X*XR.I.I.,X( .   o X   U |.|.R.R.R.,XiXgXjXsXsXlXlXsXlXpXaX4X=X|.E.-X'.o .   X > O O O & O O O O & O O O O O O O O O O % 1     X     3 1 O ; O 3 X X > ; O > ; ; ; O ; ; ; O O O O ; > > O ; O O O O   ; 3 O > 1 X   < x M M m m x m M + 3 N ; 1 1 O       5 1 O 2 BXBXBXBXBX",
"BX+ 4 &   5 & O X   X d O &     5 4 1 > 4 2 X 2 1 O + 5 2 2 2 2 4 4 +   1 5 4 A   O > , , 2 i f g   - 7 8 7 ).&XG.E.U.R.4X8XaXpXpXsXiXbXpXgXhX8X#X+X@X+XwX] y r y R H.%XL.G.I.*XaXpXnXpXlXlXpXlXgXhX0X&X@X+X@X+XkX~ q I r e <X2XL.I.I.;XiXsXnXvXxXpXlXvXnXgX0X*XR.@X#X-X<XE y Y e ^ wXG.E.R.E.*X8XlXlXsXxXgXgXlXxXpX0X%X+X+X%X+XqXW r I I / 2X%XR.%X%X,XpXsXlXpXlXvXlXgXnXgX8X,X@X+XL.&X2X8 r r t Q dXI.E.R.&X,XeXlXjXsXpXnXjXjXpX9X5X&X#XP.I.&XN.Y I w r ' qXL.R.L.I.*X0XgXpXsXpXpXpXsXsXsX4X%XI.I.W.dXz.8 9 9 f.fXJ.E.L.R.,XiXpXsXsXsXsXsXpXsXpX8X%XI.I.L.7X( O       . E %X|.E.E.L.%X0XpXpXjXsXsXpXsXsXpX0X*XI.I.L.7XY.. .   O > & O O O % O & O O O O O O O O % O O O O 2     .     > 3 O 1 > 3 X X ; O ; O ; > ; ; 6 ; ; O > > ; ; ; > O > ; O O O   + 3 X O ; 2     < M M x M m x X X L 1 ; 1 2 +       5 1 ; 2 BXBXBXBXBX",
"BX  5 &   2 & o X   X d O O   + 5 1 1 2 4 4 O > 1 O   2 2 2 1 2 4 5 .   & 4 4 V   O > > , , s f j X $ $ 7 8 ).%XA.Y.G.E.*X8XeXaX4X9XpXsXaXpXrX*XR.I.@XP.rX] e r y I `.:XJ.U.R.%X4X8XiX0X0XaXpXhXhXaX,X%XP.I.I.P.yX! r r r e XX,XL.I.|.%X4XiXiXaXjXiXgXlXgX8X*X&XR.P.T.&X XT Y w q / qXG.U.U.T.@XqXaXiXaXgX0XhXgXhX0X8XI.P.I.'.+X>XU e y I ~ 3X@XL.Y.R.&X8XiXpXiX0XaXiX8X0X0X7XI.R.R.T.#X3Xt y e 9 Q wXE.G.E.R.;XrXaXpXlXaXeXiXpXaX8X*X:XT.T.@X&XB.y r r r ` qXC.U.J.R.R.%XiXaXeX0XiXeXpXaX9X8X|.R.E.C.wXn.7 9 7 k.fXG.L.L.R.%X8XiXpX4XeXiXiXpXaXaX;X|.I.E.L.6X( o . . .   Y  X|.U.J.R.@X%XiXaXiX9XiXaXlXaXaX9X:XY.I.W.2X'.X o   X & O O 1 O O O O O O O X ; O O O O O O O O ;     .     1 3 O O O 1 X X > ; O ; ; O ; O O ; O ; ; O ; O O ; ; > ; O O O +   3 > > 6 2 c     + 6 x x 6 + X &.3 O > 1 1         z 1 1 2 BXBXBXBXBX",
"BX  d >   2 & O +     5 O O   X 5 2 1 1 4 2 O 1 1 O + 2 2 1 2 2 2 5     > 4 2 V   O = > > p 4 f g . - $ 7 8 ).%XV.U.A.U.R.R.*X*X5X*X5X*X*X8X&XR.E.R.R.L.wX| w e Y e ).@XG.Z.L.@XR.*X8X,X*X&X8X5X&X&X*XE.R.T.R.I.wX/ e y w q ].&XG.E.P.T.&X*X5X*X8X8X8X,X8X*X&XI.R.E.Y.>X:XT y e e ~ 6XG.E.G.U.R.@X,X%X,X*X&X;X5X,X&X&XI.R.I.R.I.2XY e w r / 3XI.L.L.L.+X&X8X5X5X8X,X,X&X;XI.%XL.G.R.L.+X3Xq y y t ! dXL.L.U.U.R.%X>X*XrX&X,X8X*X-X5XR.U.L.P.U.>Xv.y e t w ` 2XV.U.L.T.L.%X*X*X,X;X*X%X8X&X&X*XR.J.Y.G.qXz.7 9 0 f.qXj.E.E.T.L.,X,X;X,X8X*X*X;X%X*X*XE.U.R.E.3XW X   . .   Y  XJ.U.L.R.T.%X,X*X8X4X*X%X9X*X*X*XR.E.Y.I.>XY.. O   X > & O O O O O O O O O O O O O O O O O O O 2     .     1 1 O 1 > 2   X ; ; ; O ; O ; O ; ; ; ; O 6 ; O ; ; ; O ; O ; O + + X 3 ; O O 3 Z 3 O + X X O z #.N O 1 > 1 +     X   z 1 & 2 BXBXBXBXBX",
"BX  5 1   2 > O X   + c O ;   + 5 1 2 1 2 2 O 1 > O   2 2 2 2 2 4 5 .   > s s D   % > = , , i f f . $ 7 7 8 /.@XA.J.L.E.R.U.@X@X@X#X@X%X@X&XR.I.I.L.R.W.wX] w r y I (.].J.D.T.R.L.@X&X+X@X@XR.#X#X@XR.R.R.E.U.P.eX~ q w e e XX:XG.U.E.T.I.R.@XI.%XR.%X%X%X%X@XR.E.P.R.@X|.E t e q ~ 3XL.L.L.L.T.+XR.@X$XI.&X@X&X#X@XR.R.E.P.U.W.,XY y e Y U <XR.L.E.U.R.R.@X@X@X&X@X@X+X@XR.E.R.L.E.U.%X<Xq r e t ! dXJ.D.L.T.T.I.R.@X@X@X%XI.@X*XR.L.E.E.T.E.:XB.t y q w ` 2XZ.J.L.U.P.@X%X@X@X|.&X%XI.R.U.E.E.L.L.W.wXz.0 8 0 k.wXG.G.L.L.L.@X@X%X|.%X%X%X%X|.I.E.E.G.L.A.2X( . . X     I |.Y.J.D.L.L.R.&XI.%X|.*X+X|.%XR.E.R.G.G.A.>X'..   . o & O O O & o o O & O O O O O O O X O O O O 1       .   1 2 O > ; 2 + X O ; O ; ; 6 ; ; ; O ; 6 O ; ; 6 ; O O ; O O O O O     ; 3 ; ; ; ; Z H H H J K L z + ; ; 1 O       X   5 1 > 2 BXBXBXBXBX",
"BX  4 ;   2 & O +   X c O O   + 5 1 1 > 2 2 O 1 1 O + 5 2 1 1 4 4 5 .   > 4 s V   & , , , , s s g   $ $ 7 q ).:XV.J.L.R.I.E.@X+X@X@X#X@X%X@XE.R.P.E.T.W.qX] q q w r N.R.H.U.E.L.I.I.%X+X+X@X@X@X%X@X@XL.R.R.E.P.yX~ q r y e [.>XG.J.E.R.T.@X@X#X&X@X%XI.@X@XR.R.P.T.Y.@X|.Y t w w ! ,XG.Y.U.L.W.@X@XR.+X@X@X%X&X@X@XR.R.E.L.Y.P.:XY y y I T :XP.U.U.L.R.R.@X#X@X@X@X@X+X@XP.E.R.U.R.E.@X<X8 w y u Q wXC.D.U.T.L.R.T.P.@X%XR.R.@XR.P.U.T.L.L.R.,XB.t e q q ` 5XF.G.G.Y.R.R.R.@XR.E.+X|.@XR.Y.E.Y.U.U.A.5Xz.7 8 0 k.wXF.G.U.R.R.R.@X@XI.R.%X%XI.R.Y.U.Y.L.L.L.,XW X   X . . Y  XY.G.G.Y.R.R.R.@X@XI.R.|.I.R.E.U.R.L.E.J.>XJ.o o   o & o & O o O & O O O O O O O O O O O X O O 1 .   .     > 2 O 1 O 2 + . ; ; ; ; ; O O O O O > O ; O ; O O ; ; O O ; > O X       ; 1 ; ; ; O ; 3 N 5 3 O O ; ; 1 O       X +   z 1 > 1   BXBXBXBX",
"BX  5 O   5 > X X   X 5 X O   + 4 > 2 1 2 5 O 1 1 O   5 1 1 2 5 2 4 .   > s 2 D   O & , , p , f g . $ 7 7 7 ).R.j.G.D.D.U.L.P.R.T.@X$X@XL.R.T.L.L.G.E.C.2X] 8 e r e `. XG.A.T.T.R.E.@X@XI.R.R.T.I.@X%XL.T.P.G.W.yXQ w r e e [.>XD.L.E.E.R.R.R.@XL.@XI.I.I.R.R.R.L.L.J.R. XW t r e ! 3XJ.S.A.U.L.T.U.R.+X+XR.I.T.R.I.U.R.U.L.H.L.,Xy e q y T ].E.A.L.P.T.W.@XL.@XR.R.R.R.R.R.T.Y.L.T.H.R.3X9 r r u U dXD.J.L.T.Y.L.E.L.T.T.E.L.I.T.R.L.T.].W.U.R.n.t q y 9 ` 3Xj.J.U.U.U.U.%X+XR.R.I.%XL.I.E.L.L.L.A.j.2Xz.7 0 7 g.qXZ.G.L.U.T.R.@XR.T.R.I.R.I.E.L.E.U.U.A.Z.<X( .   . .   I Y.K.G.G.U.E.I.R.@XT.I.R.%XI.I.E.U.U.U.J.V.:X_.o . . o & & O & O O O O o O & O O O O O O & O O O &     . .   ; 2 ; O ; 2 X + > O O > ; O ; ; O ; ; O ; ; O ; ; O 1 > > O > O X X     + ; 1 O ; ; ; O O O O O O ; ; O       X X X   N 1 & 2 BXBXBXBXBX",
"BX  4 O   5 O O X   X 3 X O     4 1 2 1 2 2 % & 1 O   2 1 2 1 2 2 5 +   > 5 4 B   & > , , , f f j . $ $ 7 8 ).|.Z.H.G.A.G.R.R.L.U.T.L.L.R.R.E.U.L.J.U.C.2X] w y t e N.Y.G.U.E.R.U.L.L.T.@XT.R.@XI.L.U.L.A.L.U.L.yXU 7 e q e [.:XG.G.E.L.J.Y.L.R.R.R.R.R.T.U.E.L.U.U.Y.R.oXE y r y ! 3XZ.G.Y.L.U.T.R.T.R.U.R.R.L.T.R.R.U.L.A.K.C.2XY e t r T XXL.F.Y.R.U.T.U.P.@XR.L.L.R.U.L.L.T.U.E.U.@X<X8 y y t Q 6XD.A.D.L.L.T.R.U.L.U.U.R.T.U.E.U.G.G.A.H.R.n.w w r q ` 3Xb.Z.G.A.G.A.Y.R.L.R.R.U.U.R.G.G.L.D.L.A.2Xl.7 0 7 g.qXF.G.J.A.L.U.T.T.L.R.R.E.R.Y.G.J.G.G.U.Z.3XW .   O . . I Y.Y.F.J.L.A.G.R.R.E.R.R.T.L.].L.J.L.G.G.G.:X'.. o . o > O & % & & O O O O O O O & O O O & O O O 2 .     o   1 3 > > O 1 + X ; ; O > 6 ; ; ; O > ; O O ; ; 6 6 ; ; O > > O O O X         O 2 1 ; O ; O & ; ; ; 2 X         X O X   5 2 & 1 BXBXBXBXBX",
"BXX 5 O   5 > O X   X 3 O O   X 4 1 1 2 3 2 O 1 1 O + 4 2 2 1 1 2 5     > s 4 B   O , , , , , f g . $ $ 7 8 /.Y.Z.J.J.U.G.L.T.L.U.L.T.U.T.L.U.U.L.A.Y.A.2X] 8 w w y (.R.Z.F.H.U.G.L.L.G.L.T.T.U.T.E.L.E.@XL.J.E.fXU e y e q [.:XG.Y.G.L.E.L.L.E.R.L.T.E.L.R.R.U.G.G.Y.R.Y.Y r r w / 3XZ.G.J.Y.L.J.D.L.U.L.@XL.L.L.L.L.U.D.Z.H.L.1XY e e Y Q ].U.G.G.Z.U.U.L.R.T.T.T.T.U.U.U.L.U.L.U.H.%X<X8 w r w U 6XS.Z.Y.D.L.T.J.U.L.R.E.L.L.R.U.T.U.Z.D.K.@Xv.t w q q ` ,Xh.D.A.U.L.H.L.U.U.U.E.U.U.J.L.L.J.L.H.j.6Xz.7 7 9 f.6Xh.F.A.Y.A.A.L.U.U.Y.Y.Y.G.L.U.L.J.L.L.V.3XW X   o     Y Y.G.Z.Z.L.U.G.L.U.U.Y.E.R.U.J.U.L.L.L.J.V. XK.. .   o & O o o O o o o & O O O O O O O O o O X O 1     o     ; 1 O ; ; 3 X + ; O > O O ; ; ; > > O O ; ; ; ; ; O O ; ; O O O O X X +         O 1 ; ; ; 1 ; & O         X X O O X   N 1 & 1 BXBXBXBXBX",
"BX. 5 1   3 O X X   + z O O   X 4 1 1 1 2 2 O 1 1 O + 5 1 2 2 2 2 2 .   > 4 4 V . o & = , , 2 f g X $ 7 7 8 ).E.j.G.A.U.U.L.U.L.L.D.U.U.L.J.U.U.A.L.H.V.1X] q w w e (.U.m.Z.L.D.J.D.U.L.L.G.G.Y.L.U.U.A.U.U.J.W.yX~ q q e q [. XZ.F.U.U.U.U.Y.E.J.U.R.U.U.J.U.U.K.C.E.R.|.W y w w / <Xj.Z.Z.F.J.L.J.U.U.L.T.U.L.J.J.G.G.G.A.H.L.<Xy q r r T ].U.D.J.Z.L.G.L.U.U.A.U.U.T.U.U.L.U.U.J.H.R.<Xq w q u U wXb.S.Y.D.Y.J.L.L.U.U.U.D.L.U.J.G.J.G.L.G.:Xl.t w t q ` :Xj.H.G.Y.H.J.L.J.D.A.J.H.L.G.K.W.J.D.H.j.2Xx.$ 7 7 g.6Xb.G.A.{.A.Y.L.Y.D.A.L.D.G.G.U.J.L.F.G.V.<Xl X   . .   I Y.J.H.D.J.U.G.J.G.E.Z.L.D.J.D.J.L.G.J.Z.F.%XH.. .   o > O O O O O O o O O O O O O O O O X O O O 1 .     X   1 3 O ; ; 3 X X > ; > O ; O ; > ; O > > O ; ; O ; O ; ; ; ; ; O O O O X             + +   X                 O X O X   5 1 ; 1 BXBXBXBXBX",
"BX  4 &   2 1 X     X z O O   + 5 1 1 1 2 2 O 1 2 O X 2 1 2 ; 2 4 4 .   > 4 2 V   & & , 2 i , s f . $ $ 7 8 ~.R.j.H.A.J.D.J.U.J.D.Z.U.L.L.L.L.U.L.H.D.j.,X[ 9 q w w (.Y.b.D.H.J.D.J.L.U.J.G.L.E.U.U.J.D.D.U.K.L.yXE q q q 8 OXY.b.F.G.F.Y.G.Y.J.Z.J.G.U.E.J.E.U.J.G.K.E.oXW t w w U <Xh.H.J.G.G.U.L.U.U.H.U.U.J.G.L.F.G.G.A.H.W.3XY q u e T [.K.H.Z.F.Z.D.J.D.L.D.D.Z.G.D.U.Y.J.U.G.F.R.1Xq t q t U 7XM.S.S.Z.Y.H.D.Z.K.G.J.Z.S.Y.J.G.J.J.G.H.:Xn.t e r 9 ` :Xf.J.D.H.D.H.J.D.Y.L.Y.U.J.H.H.E.J.Z.S.j.2X] 7 7 7 g.uXh.H.G.L.S.H.H.D.E.J.K.L.G.F.J.J.G.F.m.j.XX( O   X .   Y Y.F.J.Z.J.H.F.K.H.G.L.J.J.J.D.G.J.J.F.Z.M.<X(.. O   o > O O O O O O % O O O & O O O X O O O O O ;           ; ; > O > 1 X X O O > ; ; ; O O O ; O > O ; ; O O ; O ; O O ; ; ; O O O                                 X o X O O +   5 2 O 1 BXBXBXBXBX",
"BX+ 5 >   2 & O X   X 5 X O   X 4 1 1 1 4 1 O 2 2 1 + 2 1 2 1 1 2 5     2 s 4 V   & > > 2 2 , f g . $ $ 0 7 ~.Y.c.b.F.Z.G.G.J.Z.F.H.U.U.Z.D.L.U.L.J.F.F.3X[ 8 q y r (.D.S.S.S.D.L.Z.J.H.J.U.G.L.L.J.K.G.J.J.F.G.yXU 8 q y q [.K.b.J.K.F.F.F.F.G.H.F.J.E.J.J.G.J.J.H.Y.E.'.l w e t T <Xh.H.H.H.K.U.G.H.U.J.K.G.J.G.U.F.G.Z.G.N.V.3Xr q q q I {.U.H.b.Z.H.U.Y.Z.H.L.G.K.D.J.Z.Z.K.G.F.Z.I.<X8 u q 9 U 6Xv.M.b.H.Z.H.J.J.G.G.J.F.b.b.F.Z.H.G.F.J.:Xn.t w w 8 ` <Xj.H.b.H.J.H.N.G.U.G.H.G.H.J.J.V.J.K.b.h.2X] $ 7 7 k.2Xb.N.F.K.F.F.F.G.K.G.G.H.G.K.G.F.J.H.B.M. Xl X . .     Y Y.H.H.b.F.J.H.F.F.U.J.F.K.H.J.J.G.F.U.b.c. XN.. X . o > o O O O O O O & > O O O O O O O o O o O ;     X     1 3 O > O 3 X + O ; O O > > > O O ; > O ; O ; O ; ; + O O ; O > O O O + X X   .                   X   X X X X X X +   5 1 O ; BXBXBXBXBX",
"BX  2 >   2 & O o   + 4 O O   + 4 > 2 > 2 1 + + X X   1 1 1 2 2 2 5     > 5 4 B   O & = , , , p g X $ 7 $ 8 /.Y.c.m.H.H.H.H.Z.H.F.J.Z.H.G.Z.J.b.G.K.H.h.3X] 8 q 9 q (.J.b.m.S.Z.H.F.U.Z.Z.J.J.Y.G.J.F.G.G.H.H.A.qXU 9 q e e [.oXv.v.b.G.F.H.F.K.G.F.Y.H.S.Z.F.J.J.F.F.G._.W w w u T <Xc.N.N.H.K.S.H.G.H.G.H.H.J.H.F.Y.H.F.Z.(.A.3Xr q t q I [.J.H.N.F.J.H.Y.G.F.D.K.G.G.Z.G.U.Y.F.F.B.R.XX8 w e 9 Q yXv.v.v.m.Z.F.Z.H.F.H.J.F.F.H.H.G.J.b.Z.N.R.l.t I w q ` XXh.N.b.H.b.F.H.N.J.H.b.H.H.F.H.N.b.H.H.h.tXx.- 0 7 k.tXh.B.b.F.b.F.m.F.K.F.F.H.H.H.F.b.F.K.F.M.<X( o   X . . W Y.H.H.v.F.F.b.H.F.F.K.F.F.H.F.H.b.b.J.J.M. X(.o X   o > O O O o O O O o O O O O O O O O % O O O ;     .     1 1 O ; O 3 X X ; ; > ; O > > O ; ; O ; O ; ; 6 O ; ; ; ; O O ; ; ; ; + O O X     + X . .   . X   X O X O O O X O X   5 2 > ; BXBXBXBXBX",
"BX. 3 1 + 3 & O X   X 5 O O   + 4 2 1 1 1 Z N N N Z 4 2 1 1 1 2 2 5 +   > s 4 V   O & , , , s f j X $ $ 7 9 ~.'.f.B.b.H.N.H.H.H.H.F.J.J.F.F.J.H.F.F.H.j.<X] 8 8 9 q /.U.b.M.H.S.F.H.H.F.J.H.Z.m.H.F.F.H.F.H.H.J.uXI q q q q [.'.v.N.Z.H.F.F.b.Y.H.J.J.F.J.H.G.Z.N.E.J.J._.y 9 u q T XXl.v.v.m.H.b.H.H.H.J.H.H.H.F.m.N.F.F.Z.H.A.3Xr q q w T XXS.b.B.F.H.H.H.H.J.G.H.F.H.Z.J.K.H.H.F.B.E. X8 r w 9 Q qXn.v.v.H.N.m.J.H.H.H.m.b.H.J.N.K.H.H.Z.F.'.n.y e q q ` XXl.H.F.N.N.F.N.F.b.H.N.H.H.H.H.H.N.Z.m.h.1X] $ 7 7 g.2Xl.H.H.b.H.H.H.F.b.F.F.H.F.H.F.H.H.N.N.j.XXl O   O .   I Y.N.H.m.N.F.H.F.H.F.V.N.F.F.H.J.H.H.N.m.h. XN.. o . o > O & O O & O O O O O O O O O O X X O O O >     . .   1 3 O ; O 3 X + ; O O ; O ; > ; ; O O ; ; ; ; ; O ; ; ; O O O ; X + X +   X   . +     +         +   + +   + + + X X   X X + BXBXBXBXBXBX",
"BX  O O   > X X     X c O &   + 4 1 2 2 1 2 c c 5 N 4 1 2 2 1 2 2 5     > s 4 V   % & > = , , f g   $ 7 7 7 Q. Xg.z.n.B.B.b.n.H.N.b.m.m.b.v.m.N.b.b.m.f.<X[ 9 q u q n._.n.n.v.b.b.B.m.v.H.v.M.M.b.B.H.B.j.F.B.F.uXe 9 w w 8 (. Xl.B.v.n.v.v.B.B.b.v.m.b.H.b.M.b.F.b.v.J.`.w 8 e u y XXc.k.n.n.b.N.b.N.H.H.M.H.b.B.v.H.b.b.b.B.P. Xr q 8 q r [.H.v.b.B.B.v.N.H.H.H.m.H.H.b.H.H.v.m.N.v.Y.oX9 q e u R uXB.l.l.v.v.n.H.B.l.N.b.N.m.b.N.b.n.B.v.c. Xx.t q 9 8 / tXf.n.l.h.j.v.v.v.v.v.v.B.n.B.f.B.B.l.n.f.<X] $ - 7 d.uXl.v.v.v.b.b.b.b.B.N.N.N.B.B.v.N.v.k.B.c.[.k .   o .   r [.H.v.B.v.b.v.B.v.B.B.B.N.B.B.n.B.B.n.v.v.oX^.o .   o > O o O o o o + o O o o o o X o o o O O O 1       .   1 1 ; O O 1 + X ; O ; O ; ; O O O ; O O O O ; O ; ; O O O ; + X z C Z C C Z N N Z N N N Z N N N z z z z z z c c 5 c 5 5 3 X BXBXBXBXBXBX",
"BX                  X 5 X O     5 > 1 2 2 & > 2 2 2 2 2 1 1 2 2 2 4 .   > 4 2 V   O & = , , 2 s A o @ $ 7 7 ^ 1X_.`.J.K.'.K.K.Y._.Y.U.U.U.Y.Y.Y.E.oXJ. XXXY 9 q q u ` $X_._._._.'.K.'.J.'.Y.U.U.R.].R. XY.Y.Y.3XH.q q 8 t q ` $X'.K.K.'.K.Y.J.U.U.Y.'._.'.{.'.K.|.K.U. X' q 9 9 q q ] tXS.J.K.K.Y.Y.{.R.'.Y.Y.'.Y.Y. X{.U.{.Y.wX' e q 9 q q ] 3X_.K.K.Y.'.'.L.'.|.oXY.].Y.Y.R.R.R. X].2Xg.8 e 9 q q n.2XJ.J._.{.Y.Y.'.Y.].'.Y.Y.U.'.Y.Y.Y.oX].XX^ 9 9 9 9 e `.2XJ.H.J.Y.K.oXE.K.Y.Y.'.'.Y.J.K._.Y._. X.XU $ $ 7 U tXK.B.m.F.H.F.H.N.K.H.H.N.K.N.F.H.H.H.H.J.`.t   . . .   w n. XH.b.b.H.m.H.H.F.J.J.J.N.H.F.N.J.K.N.H.oX` o . .   > 2 2 > 2 > 2 , 1 2 2 1 2 1 2 2 > 2 > > & .   . o     1 2 O ; ; 1   X ; ; O ; ; ; O ; ; > O ; 6 ; 1 ; ; ; ; ; ; O + 5 K H C H C C Z Z Z N Z Z Z N Z N Z N Z N N N N Z Z c d N C ; BXBXBXBXBXBX",
"BX  X               X z O O   X 4 2 1 1 2 2 > > 1 1 2 1 2 2 2 2 2 5     > d 5 v   O & & , = 2 = A } . @ 7 7 7 E `.[.[..X.X[.[.[.oX_.[. XXX[.XX XXX.XoX`.Q 9 7 8 8 7 q ` OXXX[.{.].[..X.XoXoXXX[..XoXoX.XoX[.[.k.I 8 u q 9 8 q ^ `.[..X.X.X X.X[..X'._.[._.'..XXXoXOX`.' q 0 7 0 9 0 8 g.XX.X.X.X.XXXXXXX[.XXXXXXXXXXXXXX1X1X{.' e 8 9 q 7 8 e [ oX.X.XXXXXXX X<XXX X X[.XXXX.X[.oX[.oX' e 8 q 8 9 8 e n.[.[..X[.oX[.[.oX.X.X.X.XoX[..X.X.XXXH.~ 8 8 8 9 9 9 q x._..X.XXXoXoXoXoX.X[.oX_.`.[.`._.`.`.n.U 7 $ - $ $ - l ( _ _ _ _ _ ( _ _ _ _ _ ( _ k _ S k k i   . . . . . . - f k k k k k _ k k k k k k k k k k k k l 0 # + . +     O > > & > O > > O > & & > O > > O O + .   . . .       + + +   X         X X + + + X X + X X X + X + X + X X X + z #.1 ; O > O 1 > O O > O > O ; ; O O > > O & O O O O & O 5 & BXBXBXBXBXBXBX",
"BX      1 N H z     X 5 O O   + 4 > 1 1 1 1 1 1 > 2 2 > 1 1 1 1 1 5 .   < d 4 D   o & & = = 2 p # } J + . $ $ $ $ $ $ 7 7 $ $ $ $ $ $ 7 $ 7 7 7 7 7 $ $ 7 7 8 7 7 7 7 7 7 $ 7 7 7 $ $ 7 7 7 7 7 7 7 $ 7 7 7 7 7 7 7 7 7 7 7 7 $ $ $ 7 7 7 $ $ 7 $ $ $ $ $ $ $ $ $ $ $ $ 7 7 9 0 7 7 7 $ $ $ 7 7 7 7 7 7 7 7 7 7 7 7 7 7 $ 7 $ $ 7 7 7 7 8 7 7 7 $ 7 $ 7 7 7 7 7 7 7 7 7 7 7 $ $ $ $ $ $ 8 7 8 8 8 7 7 $ $ 7 $ $ $ $ $ $ $ $ $ $ $ $ $ $ $ $ $ $ $ 7 7 7 7 7 $ @ - $ $ $ $ $ @ $ $ $ $ $ @ $ $ @ @ $ @ $ $ $ # @ # # .     .                                   . .   . . . . .                                             . . . .                                           . .   .   1 z 3 5 5 5 5 5 z z 5 3 3 3 3 3 3 3 5 3 3 3 3 3 1 ; 3 3 1 1 #.<.; O ; > ; 1 ; & > > > > ; ; 1 ; ; ; > ; > O 1 1 1 & > 1 X   BXBXBXBXBXBXBX",
"BX    5 J K %.<.N + X 5 & &     5 1 1 1 1 > > 1 2 1 2 2 2 1 2 2 2 2     > s 2 V . o = , & 2 , , , # G } % . @ @ @ @ @ @ @ @ @ @ @ @ $ @ @ @ @ $ @ @ $ @ - $ $ $ $ $ $ $ $ $ $ $ @ $ $ $ @ @ $ @ @ @ $ * $ $ $ $ $ $ $ 7 $ $ $ * $ @ $ @ $ $ @ $ $ $ $ $ $ @ $ $ @ $ $ 7 $ $ 7 7 $ 7 $ * * $ @ $ @ @ $ @ $ @ @ $ $ @ $ @ @ $ $ $ $ $ $ $ $ $ $ $ $ @ $ $ $ @ @ @ @ $ $ @ $ $ $ @ $ $ $ $ $ 7 $ $ $ $ $ * @ $ $ $ @ $ $ @ $ $ @ @ $ $ $ $ @ - - $ $ $ $ $ $ $ $ $ * @ @ $ $ @ $ @ @ @ @ @ @ # @ @ @ @ @ * @ @ @ @ @ @ @ . . . . . . . . . . . . . .   .   . . . . . . . . . . . . .   . . .   .     . . . .   .         . . . . . .   . .   . .   .   .     . .   .     . .   .       2 H %.<.<.<.<.<.<.<.<.<.<.&.&.<.&.&.&.&.&.&.&.&.&.&.&.&.&.&.&.#.; O ; ; O ; O 1 & > > > > O ; O ; O O ; > O ; > O O & 1 X   BXBXBXBXBXBXBXBX",
"BX. 1 V 1 O > 5 K N + O 1 ;   X 3 > 1 1 1 1 ; 1 1 2 2 1 1 2 2 2 2 4     & 4 2 V   o & & & , , , 2 i 6 A J % . @ @ @ @ @ @ @ @ @ $ @ @ @ @ @ $ @ $ @ @ @ $ $ @ $ $ @ $ $ @ @ $ $ @ $ @ @ $ @ $ @ @ $ $ $ $ $ $ $ $ $ $ $ $ $ $ $ $ $ $ $ @ $ @ $ $ @ $ $ @ $ @ $ $ $ $ - $ $ $ $ $ $ $ $ @ $ $ $ $ @ @ $ $ @ $ $ $ @ $ @ @ $ $ @ $ $ $ $ $ $ $ $ $ $ $ $ $ $ $ $ @ $ @ $ $ @ $ $ $ $ $ $ $ $ $ $ $ $ $ $ $ @ $ $ $ @ $ $ $ @ $ @ $ $ @ $ $ @ $ $ @ $ $ $ $ @ $ $ $ @ @ $ @ $ @ @ @ $ @ @ @ @ @ @ @ @ @ @ @ $ @ @ @ . . . . . . . . . . . . . . . . . . .   . . . . . . . o + . .   . . . .       .   . .     . . . . +   . . . . X       . . X       .       .     .     X         3 N 1 ; 1 1 1 ; & 1 & O > 1 1 > > O ; ; ; > > > & ; > O > O ; & O O 1 1 O ; O ; O ; O ; O ; O O > & & & & & & O O O 1 ; X     BXBXBXBXBXBXBXBX",
"BX  d 5 > 1 1 1 2 #.5 + O O     3 ; 1 1 1 1 1 1 1 1 2 1 1 2 1 1 2 4     & 4 2 V   o > , , 2 , 2 p 2 s , b } O . . @ . . . . . . . . . @ @ . @ @ . @ @ . @ @ @ @ @ @ . @ @ @ . @ . @ @ . . @ . @ @ . . @ @ @ @ @ . @ @ @ @ @ @ @ @ @ @ . @ @ . @ @ . . @ @ . @ @ @ @ @ @ @ @ @ @ @ @ @ @ @ @ @ @ . @ @ @ @ @ @ @ @ @ @ @ @ @ @ @ @ @ @ @ . @ @ @ @ @ . @ @ @ . . @ @ @ @ @ @ @ . @ @ @ @ @ @ @ @ @ @ @ . @ @ @ . @ @ @ @ . @ . @ . @ @ @ @ @ @ @ @ @ @ . @ @ @ @ @ @ @ @ @ . . @ @ @ . @ @ . @ . . @ @ . . . . . . . . . . . . .     .   . .     .     .     . . . .     .     .     .                         .                                                     .           5 d 1 1 3 2 2 1 1 2 1 2 2 1 1 1 1 1 1 1 ; 1 > ; 1 & 1 1 1 1 ; ; & 1 & O O > O ; > > O ; ; ; O ; > O & > & & & & ; > O ;         BXBXBXBXBXBXBXBX",
"BX  1 4 1 1 1 1 > 1 <.2   +   + 3 1 1 1 2 2 1 1 2 1 1 2 2 2 2 2 2 4     1 5 2 V   o & & , > & , , 2 i , = D -.F V B A D A A v B b A A A A D B b D A S A A A S D A A S A A A D A b A A A G A S A G S A A A A A A A A D A A G A A B A S A A A b A A A A A A A A S b A S A A A A G D D A A A S A A S B D A b V A A A A A A B A D D B A A A S B A A A A b A A A D A A A A B g B A A B A A A A A A A A A A A A G A A A A A A A G A A A A b B g A z A B A A B A A B B N A z z A z b z z A B B z A z B B N v z z N N d d d z N N N s 5 z z z z 5 5 z N N 5 d 5 z 5 5 z 5 5 z 5 5 5 5 5 5 z 5 d 5 5 3 5 5 5 5 5 3 5 z 5 5 5 5 5 5 5 5 3 5 5 5 5 5 3 5 5 5 3 5 5 3 z 3 3 5 2 3 3 5 3 1 Z N 1 1 2 1 ; 2 2 1 1 & ; 1 > 1 1 > ; ; 1 ; ; 1 ; 1 > & O 1 O & O & > O ; > O O O X > O O O O O O O X & X O + X O O ; O           BXBXBXBXBXBXBXBX",
"BX    2 1 > > 1 1 & > <.5       3 ; 1 1 1 1 1 2 2 1 > 2 2 2 2 2 4 5     6 5 2 N   % & % , , , 2 2 , 2 p s : D 3.6.6.5.5.5.6.6.6.6.5.5.6.3.6.0.6.7.5.6.6.6.6.5.5.5.0.7.7.5.7.5.5.5.5.e.0.0.0.0.0.5.5.0.0.e.0.0.0.0.0.r.0.r.0.0.e.e.r.e.e.r.e.5.0.0.t.0.e.0.0.0.r.0.0.0.0.0.e.u.r.r.e.u.u.e.e.r.0.0.0.0.r.e.r.r.r.r.e.i.r.e.r.0.u.e.r.r.e.r.r.u.r.r.r.0.e.r.e.r.u.e.e.r.u.u.i.i.i.r.r.i.i.i.r.u.u.r.u.r.e.u.u.u.u.e.e.i.u.i.u.e.e.u.u.t.e.e.y.i.u.y.r.y.r.u.u.u.t.r.t.u.u.u.y.y.u.t.e.t.t.r.e.u.t.t.t.t.t.q.q.t.t.t.q.t.t.w.y.t.w.t.y.t.t.q.t.w.w.w.w.t.w.w.w.w.5.4.4.w.2.w.w.w.w.4.w.w.4.w.w.4.4.4.2.w.4.4.4.w.4.2.8.4.4.8.4.2.2.2.4.4.2.4.2.2.2.2.2.4.2.2.2.<.<.<.<.2.<.<.2.#.2 O 1 ; ; 1 2 2 2 2 1 1 1 1 1 ; 1 1 1 2 1 1 1 1 ; > 1 1 & 1 1 ; ; 1 & O ; O O O ; O > > O > ; ; ; > > & > & O ; O O O           BXBXBXBXBXBXBXBXBX",
"BXBX    2 1 1 1 1 1 & 1 O.5 +   1 1 1 2 1 1 2 2 1 2 2 1 2 1 2 1 2 5     > 4 4 c   O > & , , & 2 , 2 2 s 4 2 = O o o % o o % % % # # X # & # # % # # o # # % % # % % # # = # - - # % # - # - = # - - # * * % * % - # * % = # % * % = # - # # - # - - - - % = - - = - * - - - % = - - = & - - = & = % = - = = = % - - % * * % % * - = % % @ * % * # * * % % - * * - = = % = % % * - % % = - = # * - # % % % % % - % % % # % = % % % & % = % # = = = & # & - % - # = % # # - # # % # & - # # o # X X O # X % % % o o # % # O # X O # X o X o % o # X X o o o o o o o o # X X X X X o o X . X o o o X O . O o . . . X X X X X + X X X X o . . X X . + X . . X + . X   X   X . X O & 2 1 > 1 O                   X     +         X               +       +           +               +     +                     BXBXBXBXBXBXBXBXBXBX",
"BXBX    . 1 2 ; & 1 1 & 3 K 5   O O O > > 1 ; ; 1 & > 1 > > & 1 2 >     > 4 4 B   o = & > > , , , = 2 2 2 p 2 p p p p , p 2 p p 2 p p p p p 2 p p p s p , p i p a p p p p p p p s p p p p p a p a p i s p p f a p p a a a i i a s f p a p s p a a p s a f f p p f a f a a a f f a a f f f f f f f f p s a a s a p a f a f f g a a f f a a a a i a f a f f f p f a a s f f f f f a f a s p a p s p s a a f p p f f f f a p f s s f f s s s p s a f a p f s s p a s s h f p h s h h f h p 2 s p p p s p 2 s 4 2 s 2 2 2 2 4 4 2 s s 2 2 p 2 2 2 2 4 2 2 2 i 2 2 2 2 2 4 2 2 2 2 2 : 2 2 2 2 : : 2 2 2 2 2 2 2 2 2 2 & 2 ; 3 > 1 1 1 1 1 2 1 1 2 2 2 1 2 1 ; 2 ; 2 1 2 1 1 1 2 2 1 1 2 1 X                                                                                                                     BXBXBXBXBXBXBXBXBXBX",
"BXBXBX      2 2 > 1 > > & 5 K 5     X X + .   + .           +   .     + > 4 < c   O > > , > , 2 , , , = 2 2 2 i p , p i p = i i i i p i i i , i i p p p i p i p p p i i i i i i p p p p p i p p a p i p a i i p p a p i a a i a a i p a p a a a p a a a f a a a a a a a a a a a f a a a a f a a a a a a p a a a a a s a f a a p a p s p a i a a a a a a a f a a a a p a a a f a a p p a i p a p p p a a a a i p i f a a p p a a p p p a p s p p f h p i p p i p p p p a p p p p p a p p i a 4 p p p p p : p , = i , , p p = 2 2 p 2 i 2 i , 2 , 2 2 = 2 = 2 = : - , p : 2 = : : : : : = : : & : 2 & > = & & 2 : & 2 : 2 2 ; 1 2 = 1 2 , 1 2 = 1 1 & ; 1 ; ; ; ; ; & ; & ; & 1 ; 2 1 +     . .   X   X     X .       . . .     X . X   X   . . . . .       . o     X     .     .   .   . .                   BXBXBXBXBXBXBXBXBXBX",
"BXBXBX        2 2 1 1 > > > 5 >.&.&.#.$.#.#.#.#.#.#.O.#.#.O.#.&.%.%.%.&.4 , c v   & & > , , > , , 2 2 s p p p 4 2 p 2 2 s s 2 , , p p s p s i p s s p p p p p 2 p p p p i p p p p a p p p f f f f f f f a f p p f a p p p p a a a a s f a a f a a f f a f a a p a a a a a a a f f f f a j f f f f a a a f f f a f f a f f f a a a f a a f a a a f a a f f a f p f f f p p p a f a f a a a f a p a a a p p a a f f p f p p g f f f g a p p a s p f f p p p s p p p p p p s s s p a s p p s s p p p s g s p p 2 p s p p : 4 s 2 p 2 2 s h p 2 2 2 2 p s 2 4 s 2 2 2 2 : : 2 p 2 2 2 2 2 : 2 2 1 2 2 2 2 2 2 2 : 2 = 2 ; 2 : 2 1 ; & 2 ; 2 : & > & ; 1 & = & & & & & & & & ; ; 1 2 O         .   . X X . X . X . X X X   X . . X   .     X X .   X   + . X + o   X X   . .   X .   X     . .                 BXBXBXBXBXBXBXBXBXBXBX",
"BXBXBXBXBX      2 2 ; 1 & 2 > O 1 1 1 1 2 1 2 2 2 2 2 1 2 2 2 3 2 2 2 1 > 2 4 c   O > = , > & 2 > 2 2 +                                                                                                                                                         .   .                                                                                           .                                                                                                                                                                                                                                                                                                                     .   o o o X . X o o .   O X . + X X + o . X X .   X . . o X o o . + . X +   X X + X X o     X X X                   BXBXBXBXBXBXBXBXBXBXBX",
"BXBXBXBXBX        2 1 1 2 > 2 1 2 3 2 1 > & 2 2 2 2 1 1 1 2 3 1 2 2 2 > 2 2 4 c   % > > & 2 = , , ,   .       . . . .   . . . . . . . . . . . . . . . . . . . . . . . . . . . . . . . . . . . . . . . .   . . . . . . . . . . . . . . . . . . . . . . . . . . . . . . . . . . . . . . . . . . . . . . . . . . . . . . . . . . . . . . . . . . . . . . . . . . . . . . . . . . . . . . . .   . . . . . . . . . . . . . . . . . . . . . .   . . . . . . . . .   . . .   . . .   .   .   . . . .     .   .   .   .     . .         .                     .                                               .                                                                           . . . o o o o X O o o o o X X X o X X   X X X + X + o X O o X X X + X X X X X X X o O .   o O X X +                   BXBXBXBXBXBXBXBXBXBXBXBX",
"BXBXBXBXBX          1 2 > 1 1 1 1 1 1 1 1 1 2 1 1 2 1 1 1 2 1 < 2 2 2 1 2 2 2 c   O , > & , > > 2     . X # o = # % @ @ - @ # # # # @ % * # - # # - @ % # - # # @ # @ # # @ # - @ @ - @ @ # @ # # - - % # # - * # # - @ @ # - = * * @ - - - - * * * @ - - - * % @ - * - * - @ - - * - - @ - * - - - * # * - @ # % * = = @ = # % @ * - - - # # # - - - - # - * # @ - - * * - @ # % - @ # # @ * % # @ * # @ # - - # % * * * * @ # % - * - # % - % # # % - # # # % @ # # # # @ # % # % # # # # % # # # % % # # # # # # # # # # # # - # # # o @ o # o o # o . o # # # . . o . # @ o @ o . o . # o o . o o o . . . . . . o . o o . . . . o . . o . . . . X . . . . X . . . X     + . o O O O O O O & & & O O & & O & O O O O O O O O O O O & O O O O O O & O X O O O O O O O O O O O O X                   BXBXBXBXBXBXBXBXBXBXBXBXBX",
"BXBXBXBXBXBXBX        1 2 1 2 2 3 3 2 2 2 2 4 2 2 2 2 3 5 2 3 5 4 5 2 2 4 4 4 c   o & & & & 2 = . BX. . . . . . . o . . o o . O # o o o # . o o # o X X o # o o . + . # o o o % o o # o % o % . # o # o . o @ o @ # o # o % % % % o % o # o # o o # o # o # % # # o % # % o % # # o # o o # % % # % % O % o % % # # o % o % # % o # % o # o # # O % % % . % % # # # o @ . o # # % % % # . # % % % % # # o % % % # # % o % % o # % o % # # . @ % # . % o % @ O % % o # . # o # O o % . . o o % X o . % o o . o o o o . o o o o o o o o o o o . o . . . . o . o X + . o . o X . o . . . . . X . X . . . . . . . .   . . . . .   . X . . .   . . . .       . . .     .       . O O O O > & > & > > > > & & > O & 1 & & > > > & 1 O > O & O & & O O O & 1 > & & > O & O O O O O O O .     BX          BXBXBXBXBXBXBXBXBXBXBXBXBXBXBX",
"BXBXBXBXBXBXBX          O 1 1 1 > > > 2 2 2 1 1 & 2 1 1 1 > > 1 1 1 1 1 1 1 2 1   o & & & 2 & BXBXBXBXBXBXBXBXBXBXBXBXBXBXBXBXBXBXBXBXBXBXBXBXBXBXBXBXBXBXBXBXBXBXBXBXBXBXBXBXBXBXBXBXBXBXBXBXBXBXBXBXBXBXBXBXBXBXBXBXBXBXBXBXBXBXBXBXBXBXBXBXBXBXBXBXBXBXBXBXBXBXBXBXBXBXBXBXBXBXBXBXBXBXBXBXBXBXBXBXBXBXBXBXBXBXBXBXBXBXBXBXBXBXBXBXBXBXBXBXBXBXBXBXBXBXBXBXBXBXBXBXBXBXBXBXBXBXBXBXBXBXBXBXBXBXBXBXBXBXBXBXBXBXBXBXBXBXBXBXBXBXBXBXBXBXBXBXBXBXBXBXBXBXBXBXBXBXBXBXBXBXBXBXBXBXBXBXBXBXBXBXBXBXBXBXBXBXBXBXBXBXBXBXBXBXBXBXBXBXBXBXBXBXBXBXBXBXBXBXBXBXBXBXBXBXBXBXBXBXBXBXBXBXBXBXBXBXBXBXBXBXBXBXBXBXBXBXBXBXBXBXBXBXBXBXBXBXBXBXBXBXBXBXBXBXBXBXBXBXBXBXBXBXBXBXBXBXBXBXBXBXBXBXBXBXBXBXBXBXBXBXBXBXBXBXBXBXBXBXBXBXBXBXBXBXBXBXBXBXBXBXBXBXBXBXBXBXBXBXBXBXBXBXBXBXBXBXBXBXBXBXBXBXBXBXBX  BXBXBXBXBXBXBXBXBXBXBXBXBXBXBX",
"BXBXBXBXBXBXBXBXBXBX                                                            . O % & 2 & BXBXBXBXBXBXBXBXBXBXBXBXBXBXBXBXBXBXBXBXBXBXBXBXBXBXBXBXBXBXBXBXBXBXBXBXBXBXBXBXBXBXBXBXBXBXBXBXBXBXBXBXBXBXBXBXBXBXBXBXBXBXBXBXBXBXBXBXBXBXBXBXBXBXBXBXBXBXBXBXBXBXBXBXBXBXBXBXBXBXBXBXBXBXBXBXBXBXBXBXBXBXBXBXBXBXBXBXBXBXBXBXBXBXBXBXBXBXBXBXBXBXBXBXBXBXBXBXBXBXBXBXBXBXBXBXBXBXBXBXBXBXBXBXBXBXBXBXBXBXBXBXBXBXBXBXBXBXBXBXBXBXBXBXBXBXBXBXBXBXBXBXBXBXBXBXBXBXBXBXBXBXBXBXBXBXBXBXBXBXBXBXBXBXBXBXBXBXBXBXBXBXBXBXBXBXBXBXBXBXBXBXBXBXBXBXBXBXBXBXBXBXBXBXBXBXBXBXBXBXBXBXBXBXBXBXBXBXBXBXBXBXBXBXBXBXBXBXBXBXBXBXBXBXBXBXBXBXBXBXBXBXBXBXBXBXBXBXBXBXBXBXBXBXBXBXBXBXBXBXBXBXBXBXBXBXBXBXBXBXBXBXBXBXBXBXBXBXBXBXBXBXBXBXBXBXBXBXBXBXBXBXBXBXBXBXBXBXBXBXBXBXBXBXBXBXBXBXBXBXBXBXBXBXBXBXBXBXBXBXBXBXBXBXBXBXBXBXBXBXBXBXBXBX",
"BXBXBXBXBXBXBXBXBXBXBX          . . + . .   . .   . .   . . .   . . . .   X X o % & O & & BXBXBXBXBXBXBXBXBXBXBXBXBXBXBXBXBXBXBXBXBXBXBXBXBXBXBXBXBXBXBXBXBXBXBXBXBXBXBXBXBXBXBXBXBXBXBXBXBXBXBXBXBXBXBXBXBXBXBXBXBXBXBXBXBXBXBXBXBXBXBXBXBXBXBXBXBXBXBXBXBXBXBXBXBXBXBXBXBXBXBXBXBXBXBXBXBXBXBXBXBXBXBXBXBXBXBXBXBXBXBXBXBXBXBXBXBXBXBXBXBXBXBXBXBXBXBXBXBXBXBXBXBXBXBXBXBXBXBXBXBXBXBXBXBXBXBXBXBXBXBXBXBXBXBXBXBXBXBXBXBXBXBXBXBXBXBXBXBXBXBXBXBXBXBXBXBXBXBXBXBXBXBXBXBXBXBXBXBXBXBXBXBXBXBXBXBXBXBXBXBXBXBXBXBXBXBXBXBXBXBXBXBXBXBXBXBXBXBXBXBXBXBXBXBXBXBXBXBXBXBXBXBXBXBXBXBXBXBXBXBXBXBXBXBXBXBXBXBXBXBXBXBXBXBXBXBXBXBXBXBXBXBXBXBXBXBXBXBXBXBXBXBXBXBXBXBXBXBXBXBXBXBXBXBXBXBXBXBXBXBXBXBXBXBXBXBXBXBXBXBXBXBXBXBXBXBXBXBXBXBXBXBXBXBXBXBXBXBXBXBXBXBXBXBXBXBXBXBXBXBXBXBXBXBXBXBXBXBXBXBXBXBXBXBXBXBXBXBXBXBXBXBXBXBX",
"BXBXBXBXBXBXBXBXBXBXBXBXBX  . . . . . . . . . . . X . o . . o . . X o o o o . o O % o O   BXBXBXBXBXBXBXBXBXBXBXBXBXBXBXBXBXBXBXBXBXBXBXBXBXBXBXBXBXBXBXBXBXBXBXBXBXBXBXBXBXBXBXBXBXBXBXBXBXBXBXBXBXBXBXBXBXBXBXBXBXBXBXBXBXBXBXBXBXBXBXBXBXBXBXBXBXBXBXBXBXBXBXBXBXBXBXBXBXBXBXBXBXBXBXBXBXBXBXBXBXBXBXBXBXBXBXBXBXBXBXBXBXBXBXBXBXBXBXBXBXBXBXBXBXBXBXBXBXBXBXBXBXBXBXBXBXBXBXBXBXBXBXBXBXBXBXBXBXBXBXBXBXBXBXBXBXBXBXBXBXBXBXBXBXBXBXBXBXBXBXBXBXBXBXBXBXBXBXBXBXBXBXBXBXBXBXBXBXBXBXBXBXBXBXBXBXBXBXBXBXBXBXBXBXBXBXBXBXBXBXBXBXBXBXBXBXBXBXBXBXBXBXBXBXBXBXBXBXBXBXBXBXBXBXBXBXBXBXBXBXBXBXBXBXBXBXBXBXBXBXBXBXBXBXBXBXBXBXBXBXBXBXBXBXBXBXBXBXBXBXBXBXBXBXBXBXBXBXBXBXBXBXBXBXBXBXBXBXBXBXBXBXBXBXBXBXBXBXBXBXBXBXBXBXBXBXBXBXBXBXBXBXBXBXBXBXBXBXBXBXBXBXBXBXBXBXBXBXBXBXBXBXBXBXBXBXBXBXBXBXBXBXBXBXBXBXBXBXBXBXBXBXBXBX",
"BXBXBXBXBXBXBXBXBXBXBXBXBXBXBXBXBXBXBXBXBXBXBXBXBXBXBXBXBXBXBXBXBXBXBXBXBXBXBXBXBXBXBXBXBXBXBXBXBXBXBXBXBXBXBXBXBXBXBXBXBXBXBXBXBXBXBXBXBXBXBXBXBXBXBXBXBXBXBXBXBXBXBXBXBXBXBXBXBXBXBXBXBXBXBXBXBXBXBXBXBXBXBXBXBXBXBXBXBXBXBXBXBXBXBXBXBXBXBXBXBXBXBXBXBXBXBXBXBXBXBXBXBXBXBXBXBXBXBXBXBXBXBXBXBXBXBXBXBXBXBXBXBXBXBXBXBXBXBXBXBXBXBXBXBXBXBXBXBXBXBXBXBXBXBXBXBXBXBXBXBXBXBXBXBXBXBXBXBXBXBXBXBXBXBXBXBXBXBXBXBXBXBXBXBXBXBXBXBXBXBXBXBXBXBXBXBXBXBXBXBXBXBXBXBXBXBXBXBXBXBXBXBXBXBXBXBXBXBXBXBXBXBXBXBXBXBXBXBXBXBXBXBXBXBXBXBXBXBXBXBXBXBXBXBXBXBXBXBXBXBXBXBXBXBXBXBXBXBXBXBXBXBXBXBXBXBXBXBXBXBXBXBXBXBXBXBXBXBXBXBXBXBXBXBXBXBXBXBXBXBXBXBXBXBXBXBXBXBXBXBXBXBXBXBXBXBXBXBXBXBXBXBXBXBXBXBXBXBXBXBXBXBXBXBXBXBXBXBXBXBXBXBXBXBXBXBXBXBXBXBXBXBXBXBXBXBXBXBXBXBXBXBXBXBXBXBXBXBXBXBXBXBXBXBXBXBXBXBXBXBXBXBXBXBXBXBXBXBXBX",
"BXBXBXBXBXBXBXBXBXBXBXBXBXBXBXBXBXBXBXBXBXBXBXBXBXBXBXBXBXBXBXBXBXBXBXBXBXBXBXBXBXBXBXBXBXBXBXBXBXBXBXBXBXBXBXBXBXBXBXBXBXBXBXBXBXBXBXBXBXBXBXBXBXBXBXBXBXBXBXBXBXBXBXBXBXBXBXBXBXBXBXBXBXBXBXBXBXBXBXBXBXBXBXBXBXBXBXBXBXBXBXBXBXBXBXBXBXBXBXBXBXBXBXBXBXBXBXBXBXBXBXBXBXBXBXBXBXBXBXBXBXBXBXBXBXBXBXBXBXBXBXBXBXBXBXBXBXBXBXBXBXBXBXBXBXBXBXBXBXBXBXBXBXBXBXBXBXBXBXBXBXBXBXBXBXBXBXBXBXBXBXBXBXBXBXBXBXBXBXBXBXBXBXBXBXBXBXBXBXBXBXBXBXBXBXBXBXBXBXBXBXBXBXBXBXBXBXBXBXBXBXBXBXBXBXBXBXBXBXBXBXBXBXBXBXBXBXBXBXBXBXBXBXBXBXBXBXBXBXBXBXBXBXBXBXBXBXBXBXBXBXBXBXBXBXBXBXBXBXBXBXBXBXBXBXBXBXBXBXBXBXBXBXBXBXBXBXBXBXBXBXBXBXBXBXBXBXBXBXBXBXBXBXBXBXBXBXBXBXBXBXBXBXBXBXBXBXBXBXBXBXBXBXBXBXBXBXBXBXBXBXBXBXBXBXBXBXBXBXBXBXBXBXBXBXBXBXBXBXBXBXBXBXBXBXBXBXBXBXBXBXBXBXBXBXBXBXBXBXBXBXBXBXBXBXBXBXBXBXBXBXBXBXBXBXBXBXBXBXBX",
"BXBXBXBXBXBXBXBXBXBXBXBXBXBXBXBXBXBXBXBXBXBXBXBXBXBXBXBXBXBXBXBXBXBXBXBXBXBXBXBXBXBXBXBXBXBXBXBXBXBXBXBXBXBXBXBXBXBXBXBXBXBXBXBXBXBXBXBXBXBXBXBXBXBXBXBXBXBXBXBXBXBXBXBXBXBXBXBXBXBXBXBXBXBXBXBXBXBXBXBXBXBXBXBXBXBXBXBXBXBXBXBXBXBXBXBXBXBXBXBXBXBXBXBXBXBXBXBXBXBXBXBXBXBXBXBXBXBXBXBXBXBXBXBXBXBXBXBXBXBXBXBXBXBXBXBXBXBXBXBXBXBXBXBXBXBXBXBXBXBXBXBXBXBXBXBXBXBXBXBXBXBXBXBXBXBXBXBXBXBXBXBXBXBXBXBXBXBXBXBXBXBXBXBXBXBXBXBXBXBXBXBXBXBXBXBXBXBXBXBXBXBXBXBXBXBXBXBXBXBXBXBXBXBXBXBXBXBXBXBXBXBXBXBXBXBXBXBXBXBXBXBXBXBXBXBXBXBXBXBXBXBXBXBXBXBXBXBXBXBXBXBXBXBXBXBXBXBXBXBXBXBXBXBXBXBXBXBXBXBXBXBXBXBXBXBXBXBXBXBXBXBXBXBXBXBXBXBXBXBXBXBXBXBXBXBXBXBXBXBXBXBXBXBXBXBXBXBXBXBXBXBXBXBXBXBXBXBXBXBXBXBXBXBXBXBXBXBXBXBXBXBXBXBXBXBXBXBXBXBXBXBXBXBXBXBXBXBXBXBXBXBXBXBXBXBXBXBXBXBXBXBXBXBXBXBXBXBXBXBXBXBXBXBXBXBXBXBXBXBX"
};
