/* XPM */
static const char *player3_xpm[] = {
/* columns rows colors chars-per-pixel */
"397 82 239 2 ",
"   c #020402",
".  c #040A04",
"X  c #080B07",
"o  c #070B08",
"O  c #0A0E0A",
"+  c #031403",
"@  c #031B03",
"#  c #0D120D",
"$  c #0C1B0D",
"%  c #081308",
"&  c #10140F",
"*  c #11180F",
"=  c #0F1410",
"-  c #0F1B11",
";  c #08141A",
":  c #111612",
">  c #141B15",
",  c #181C17",
"<  c #171D18",
"1  c #191E19",
"2  c #050D12",
"3  c #052303",
"4  c #052B04",
"5  c #092C06",
"6  c #0D210D",
"7  c #0B2E08",
"8  c #082207",
"9  c #053303",
"0  c #093406",
"q  c #053A03",
"w  c #0A3B05",
"e  c #0C3408",
"r  c #0C3B09",
"t  c #0F2211",
"y  c #122314",
"u  c #132916",
"i  c #152319",
"p  c #1B221C",
"a  c #162B1A",
"s  c #1A2D1C",
"d  c #1B321E",
"f  c #173619",
"g  c #113C0D",
"h  c #20241F",
"j  c #0B1C27",
"k  c #1E2420",
"l  c #1E2C21",
"z  c #1C3420",
"x  c #1D3921",
"c  c #0D2739",
"v  c #0D2230",
"b  c #222622",
"n  c #242B25",
"m  c #262D29",
"M  c #292E2A",
"N  c #282C26",
"B  c #273129",
"V  c #2B332D",
"C  c #2D3A2F",
"Z  c #223523",
"A  c #2E3530",
"S  c #2E3B31",
"D  c #313632",
"F  c #333C35",
"G  c #363D38",
"H  c #393D3A",
"J  c #383B37",
"K  c #0B4306",
"L  c #0C4C05",
"P  c #0E4309",
"I  c #0D4B08",
"U  c #054302",
"Y  c #12430C",
"T  c #124B0B",
"R  c #124C09",
"E  c #0D5405",
"W  c #0E5806",
"Q  c #115409",
"!  c #135C0A",
"~  c #115707",
"^  c #174810",
"/  c #1A5911",
"(  c #265C1F",
")  c #1A6B0A",
"_  c #16650A",
"`  c #1A780C",
"'  c #1B6612",
"]  c #1F7613",
"[  c #2A7D1B",
"{  c #267619",
"}  c #26691C",
"|  c #344236",
" . c #364339",
".. c #3B433D",
"X. c #364A3B",
"o. c #3A4C3E",
"O. c #3C513F",
"+. c #295923",
"@. c #296522",
"#. c #40463F",
"$. c #0D2D44",
"%. c #11314A",
"&. c #133856",
"*. c #0F3048",
"=. c #3E4440",
"-. c #3D4D41",
";. c #3D5242",
":. c #414641",
">. c #434B44",
",. c #484E49",
"<. c #425243",
"1. c #4C524D",
"2. c #455449",
"3. c #4E5751",
"4. c #535B55",
"5. c #575D58",
"6. c #50524F",
"7. c #5A635C",
"8. c #59675D",
"9. c #5E6C62",
"0. c #5C6760",
"q. c #616E65",
"w. c #676C68",
"e. c #637166",
"r. c #647268",
"t. c #6B7D71",
"y. c #1E890B",
"u. c #248C0D",
"i. c #23860D",
"p. c #24930D",
"a. c #299C0E",
"s. c #26990D",
"d. c #258C12",
"f. c #298D14",
"g. c #2C831C",
"h. c #2C8A1B",
"j. c #258415",
"k. c #269212",
"l. c #2B9414",
"z. c #2C9C15",
"x. c #2E931A",
"c. c #2E9C19",
"v. c #269C10",
"b. c #319C17",
"n. c #329D1A",
"m. c #32931D",
"M. c #338B1F",
"N. c #2AA20E",
"B. c #2CAA0E",
"V. c #2EB20E",
"C. c #2EA315",
"Z. c #2EAA14",
"A. c #2FA319",
"S. c #2FAA18",
"D. c #31A517",
"F. c #31AC16",
"G. c #32A41A",
"H. c #34AC1A",
"J. c #39AC1D",
"K. c #2EB311",
"L. c #34B316",
"P. c #36BA15",
"I. c #39BC16",
"U. c #35B319",
"Y. c #39B51B",
"T. c #37B919",
"R. c #3ABC1A",
"E. c #38B716",
"W. c #30B40F",
"Q. c #328923",
"!. c #359323",
"~. c #349C23",
"^. c #389827",
"/. c #2E8D21",
"(. c #36A423",
"). c #39A425",
"_. c #3AAB24",
"`. c #3AA826",
"'. c #3CB423",
"]. c #3DBC22",
"[. c #3EB62B",
"{. c #41BD1E",
"}. c #41BC24",
"|. c #43BD2A",
" X c #41B529",
".X c #44B12F",
"XX c #3BC315",
"oX c #3DC21A",
"OX c #3FC91A",
"+X c #3AC614",
"@X c #3AC00F",
"#X c #3FC222",
"$X c #41C51C",
"%X c #44CA1C",
"&X c #4ACC1E",
"*X c #41CA16",
"=X c #48D21E",
"-X c #55D41F",
";X c #43C324",
":X c #44CA23",
">X c #4BCD23",
",X c #45C32A",
"<X c #4BCC2A",
"1X c #48C62A",
"2X c #4CD222",
"3X c #4DD32B",
"4X c #4BD729",
"5X c #54D423",
"6X c #5AD525",
"7X c #5CDA26",
"8X c #52D42C",
"9X c #54DC2C",
"0X c #5EDA29",
"qX c #59D826",
"wX c #4CCB32",
"eX c #54DA32",
"rX c #55D833",
"tX c #50CF2E",
"yX c #64DD2A",
"uX c #6ADE2D",
"iX c #61DA27",
"pX c #6EDF31",
"aX c #57E22D",
"sX c #5AE333",
"dX c #66E12C",
"fX c #6CE12E",
"gX c #6EE331",
"hX c #61E636",
"jX c #74E533",
"kX c #79E736",
"lX c #7AE936",
"zX c #7CEA39",
"xX c #78E737",
"cX c #71E12F",
"vX c #708276",
"bX c #81EC3C",
"nX c #85EF41",
"mX c #839A8B",
"MX c #000001",
/* pixels */
"MXMXMXMXMXMXMXMXMXMXMXMXMXMXMXMXMXMXMXMXMXMXMXMXMXMXMXMXMXMXMXMXMXMXMXMXMXMXMXMXMXMXMXMXMXMXMXMXMXMXMXMXMXMXMXMXMXMXMXMXMXMXMXMXMXMXMXMXMXMXMXMXMXMXMXMXMXMXMXMXMXMXMXMXMXMXMXMXMXMXMXMXMXMXMXMXMXMXMXMXMXMXMXMXMXMXMXMXMXMXMXMXMXMXMXMXMXMXMXMXMXMXMXMXMXMXMXMXMXMXMXMXMXMXMXMXMXMXMXMXMXMXMXMXMXMXMXMXMXMXMXMXMXMXMXMXMXMXMXMXMXMXMXMXMXMXMXMXMXMXMXMXMXMXMXMXMXMXMXMXMXMXMXMXMXMXMXMXMXMXMXMXMXMXMXMXMXMXMXMXMXMXMXMXMXMXMXMXMXMXMXMXMXMXMXMXMXMXMXMXMXMXMXMXMXMXMXMXMXMXMXMXMXMXMXMXMXMXMXMXMXMXMXMXMXMXMXMXMXMXMXMXMXMXMXMXMXMXMXMXMXMXMXMXMXMXMXMXMXMXMXMXMXMXMXMXMXMXMXMXMXMXMXMXMXMXMXMXMXMXMXMXMXMXMXMXMXMXMXMXMXMXMXMXMXMXMXMXMXMXMXMXMXMXMXMXMXMXMXMXMXMXMXMXMXMXMXMXMXMXMXMXMXMXMXMXMXMXMXMXMXMXMXMXMXMXMXMXMXMXMXMXMXMXMXMXMXMXMXMXMXMXMXMXMXMXMXMXMXMXMXMXMXMXMXMXMXMXMXMXMXMXMXMXMXMXMXMXMXMXMXMXMXMXMXMXMX",
"MXMXMXMXMXMXMXMXMXMXMXMXMX, =.=.H H ....G G G  .G F H G ..G F G F G F F F G G ..=.1.=.MXMXMXMXMXMXMXMXMXMXMXMXMXMXMXMXMXMXMXMXMXMXMXMXMXMXMXMXMXMXMXMXMXMXMXMXMXMXMXMXMXMXMXMXMXMXMXMXMXMXMXMXMXMXMXMXMXMXMXMXMXMXMXMXMXMXMXMXMXMXMXMXMXMXMXMXMXMXMXMXMXMXMXMXMXMXMXMXMXMXMXMXMXMXMXMXMXMXMXMXMXMXMXMXMXMXMXMXMXMXMXMXMXMXMXMXMXMXMXMXMXMXMXMXMXMXMXMXMXMXMXMXMXMXMXMXMXMXMXMXMXMXMXMXMXMXMXMXMXMXMXMXMXMXMXMXMXMXMXMXMXMXMXMXMXMXMXMXMXMXMXMXMXMXMXMXMXMXMXMXMXMXMXMXMXMXMXMXMXMXMXMXMXMXMXMXMXMXMXMXMXMXMXMXMXMXMXMXMXMXMXMXMXMXMXMXMXMXMXMXMXMXMXMXMXMXMXMXMXMXMXMXMXMXMXMXMXMXMXMXMXMXMXMXMXMXMXMXMXMXMXMXMXMXMXMXMXMXMXMXMXMXMXMXMXMXMXMXMXMXMXMXMXMXMXMXMXMXMXMXMXMXMXMXMXMXMXMXMXMXMXMXMXMXMXMXMXMXMXMXMXMXMXMXMXMXMXMXMXMXMXMXMXMXMXMXMXMXMXMXMXMXMXMXMXMXMXMXMXMXMXMXMXMXMXMXMXMXMXMXMXMXMXMXMXMXMXMXMXMXMXMXMXMX",
"MXMXMXMXMXMXMXMXMXMXMXMX< G A B V M A D V A A F D S A V A D S .. .G =.=.>.:.-.>.-.5.t. .MXMXMXMXMXMXMXMXMXMXMXMXMXMXMXMXMXMXMXMXMXMXMXMXMXMXMXMXMXMXMXMXMXMXMXMXMXMXMXMXMXMXMXMXMXMXMXMXMXMXMXMXMXMXMXMXMXMXMXMXMXMXMXMXMXMXMXMXMXMXMXMXMXMXMXMXMXMXMXMXMXMXMXMXMXMXMXMXMXMXMXMXMXMXMXMXMXMXMXMXMXMXMXMXMXMXMXMXMXMXMXMXMXMXMXMXMXMXMXMXMXMXMXMXMXMXMXMXMXMXMXMXMXMXMXMXMXMXMXMXMXMXMXMXMXMXMXMXMXMXMXMXMXMXMXMXMXMXMXMXMXMXMXMXMXMXMXMXMXMXMXMXMXMXMXMXMXMXMXMXMXMXMXMXMXMXMXMXMXMXMXMXMXMXMXMXMXMXMXMXMXMXMXMXMXMXMXMXMXMXMXMXMXMXMXMXMXMXMXMXMXMXMXMXMXMXMXMXMXMXMXMXMXMXMXMXMXMXMXMXMXMXMXMXMXMXMXMXMXMXMXMXMXMXMXMXMXMXMXMXMXMXMXMXMXMXMXMXMXMXMXMXMXMXMXMXMXMXMXMXMXMXMXMXMXMXMXMXMXMXMXMXMXMXMXMXMXMXMXMXMXMXMXMXMXMXMXMXMXMXMXMXMXMXMXMXMXMXMXMXMXMXMXMXMXMXMXMXMXMXMXMXMXMXMXMXMXMXMXMXMXMXMXMXMXMXMXMXMXMXMXMXMX",
"MXMXMXMXMXMXMXMXMXMX  , :.p > > : : : : = > = : : > : : > : : : : : = > > < < < < < 2.vXF   MXMXMXMXMXMXMXMXMXMXMXMXMXMXMXMXMXMXMXMXMXMXMXMXMXMXMXMXMXMXMXMXMXMXMXMXMXMXMXMXMXMXMXMXMXMXMXMXMXMXMXMXMXMXMXMXMXMXMXMXMXMXMXMXMXMXMXMXMXMXMXMXMXMXMXMXMXMXMXMXMXMXMXMXMXMXMXMXMXMXMXMXMXMXMXMXMXMXMXMXMXMXMXMXMXMXMXMXMXMXMXMXMXMXMXMXMXMXMXMXMXMXMXMXMXMXMXMXMXMXMXMXMXMXMXMXMXMXMXMXMXMXMXMXMXMXMXMXMXMXMXMXMXMXMXMXMXMXMXMXMXMXMXMXMXMXMXMXMXMXMXMXMXMXMXMXMXMXMXMXMXMXMXMXMXMXMXMXMXMXMXMXMXMXMXMXMXMXMXMXMXMXMXMXMXMXMXMXMXMXMXMXMXMXMXMXMXMXMXMXMXMXMXMXMXMXMXMXMXMXMXMXMXMXMXMXMXMXMXMXMXMXMXMXMXMXMXMXMXMXMXMXMXMXMXMXMXMXMXMXMXMXMXMXMXMXMXMXMXMXMXMXMXMXMXMXMXMXMXMXMXMXMXMXMXMXMXMXMXMXMXMXMXMXMXMXMXMXMXMXMXMXMXMXMXMXMXMXMXMXMXMXMXMXMXMXMXMXMXMXMXMXMXMXMXMXMXMXMXMXMXMXMXMXMXMXMXMXMXMXMXMXMXMXMXMXMXMXMXMXMX",
"MXMXMXMXMXMXMXMXMX  < 5.p = p i 1 1 h 1 k 1 k 1 p p k p p p p k k 1 p k k k l k p p = 4.vXb   MXMXMXMXMXMXMXMXMXMXMXMXMXMXMXMXMXMXMXMXMXMXMXMXMXMXMXMXMXMXMXMXMXMXMXMXMXMXMXMXMXMXMXMXMXMXMXMXMXMXMXMXMXMXMXMXMXMXMXMXMXMXMXMXMXMXMXMXMXMXMXMXMXMXMXMXMXMXMXMXMXMXMXMXMXMXMXMXMXMXMXMXMXMXMXMXMXMXMXMXMXMXMXMXMXMXMXMXMXMXMXMXMXMXMXMXMXMXMXMXMXMXMXMXMXMXMXMXMXMXMXMXMXMXMXMXMXMXMXMXMXMXMXMXMXMXMXMXMXMXMXMXMXMXMXMXMXMXMXMXMXMXMXMXMXMXMXMXMXMXMXMXMXMXMXMXMXMXMXMXMXMXMXMXMXMXMXMXMXMXMXMXMXMXMXMXMXMXMXMXMXMXMXMXMXMXMXMXMXMXMXMXMXMXMXMXMXMXMXMXMXMXMXMXMXMXMXMXMXMXMXMXMXMXMXMXMXMXMXMXMXMXMXMXMXMXMXMXMXMXMXMXMXMXMXMXMXMXMXMXMXMXMXMXMXMXMXMXMXMXMXMXMXMXMXMXMXMXMXMXMXMXMXMXMXMXMXMXMXMXMXMXMXMXMXMXMXMXMXMXMXMXMXMXMXMXMXMXMXMXMXMXMXMXMXMXMXMXMXMXMXMXMXMXMXMXMXMXMXMXMXMXMXMXMXMXMXMXMXMXMXMXMXMXMXMXMXMXMXMX",
"MXMXMXMXMXMXMXMXMX< ,.1 = : : = # 2 # # = = = = = = & : = # = : = = = = = = = O # > - - 8.t.A MXMXMXMXMXMXMXMXMXMXMXMXMXMXMXMXMXMXMXMXMXMXMXMXMXMXMXMXMXMXMXMXMXMXMXMXMXMXMXMXMXMXMXMXMXMXMXMXMXMXMXMXMXMXMXMXMXMXMXMXMXMXMXMXMXMXMXMXMXMXMXMXMXMXMXMXMXMXMXMXMXMXMXMXMXMXMXMXMXMXMXMXMXMXMXMXMXMXMXMXMXMXMXMXMXMXMXMXMXMXMXMXMXMXMXMXMXMXMXMXMXMXMXMXMXMXMXMXMXMXMXMXMXMXMXMXMXMXMXMXMXMXMXMXMXMXMXMXMXMXMXMXMXMXMXMXMXMXMXMXMXMXMXMXMXMXMXMXMXMXMXMXMXMXMXMXMXMXMXMXMXMXMXMXMXMXMXMXMXMXMXMXMXMXMXMXMXMXMXMXMXMXMXMXMXMXMXMXMXMXMXMXMXMXMXMXMXMXMXMXMXMXMXMXMXMXMXMXMXMXMXMXMXMXMXMXMXMXMXMXMXMXMXMXMXMXMXMXMXMXMXMXMXMXMXMXMXMXMXMXMXMXMXMXMXMXMXMXMXMXMXMXMXMXMXMXMXMXMXMXMXMXMXMXMXMXMXMXMXMXMXMXMXMXMXMXMXMXMXMXMXMXMXMXMXMXMXMXMXMXMXMXMXMXMXMXMXMXMXMXMXMXMXMXMXMXMXMXMXMXMXMXMXMXMXMXMXMXMXMXMXMXMXMXMXMXMXMXMXMX",
"MXMXMXMXMXMXMXMXk =.1 : < > = 6.w.w.w.q.w.w.w.w.w.w.w.w.w.w.w.w.w.w.9.w.w.w.w.A   < > > > 3.vX .MXMXMXMXMXMXMXMXMXMXMXMXMXMXMXMXMXMXMXMXMXMXMXMXMXMXMXMXMXMXMXMXMXMXMXMXMXMXMXMXMXMXMXMXMXMXMXMXMXMXMXMXMXMXMXMXMXMXMXMXMXMXMXMXMXMXMXMXMXMXMXMXMXMXMXMXMXMXMXMXMXMXMXMXMXMXMXMXMXMXMXMXMXMXMXMXMXMXMXMXMXMXMXMXMXMXMXMXMXMXMXMXMXMXMXMXMXMXMXMXMXMXMXMXMXMXMXMXMXMXMXMXMXMXMXMXMXMXMXMXMXMXMXMXMXMXMXMXMXMXMXMXMXMXMXMXMXMXMXMXMXMXMXMXMXMXMXMXMXMXMXMXMXMXMXMXMXMXMXMXMXMXMXMXMXMXMXMXMXMXMXMXMXMXMXMXMXMXMXMXMXMXMXMXMXMXMXMXMXMXMXMXMXMXMXMXMXMXMXMXMXMXMXMXMXMXMXMXMXMXMXMXMXMXMXMXMXMXMXMXMXMXMXMXMXMXMXMXMXMXMXMXMXMXMXMXMXMXMXMXMXMXMXMXMXMXMXMXMXMXMXMXMXMXMXMXMXMXb 1.6.6.6.6.1.1.1.,.,.1.,.,.>.,.,.,.1.,.>.:.>.>.>.,.:.:.:.:.:.=.:.H =.=.H H =.=.=...H H H D J J D D D D D D H J J 1 MXMXMXMXMXMXMXMXMXMXMXMXMX",
"MXMXMXMXMXMXMXp G 1 : < > > 1 H J H H ....H H =.=.=.:.:.=.:.=.=.=.=.=.=.=.=.,.:.  < > < > - <.vX>.MXMX= m B V A V S V V D D B B V A F S S A S A S A F F S F F F F | F F F F F F | F | F F | F | F F  .G | G F |  . . . .F F  . . . .F G G  . .|  . .| G F | | F | G | F F G  . .| F F  .F G |  .F  . .F F | F  .| G | G | | F F | F F F F | S |  .G F | F  . .F G |  . .| | G  . .F  .F | F | |  .G  . . .G  .F F | F F F F | F F F F  .F | S S | F  . .G | F F F F | F F F F F F F F F F F S S S F F A F F F A S A A S A A A A V A A A B A M V V V A V m B M m m M B M M M V V M M V V V V A M M V V M M V M M M m m m m m m M m m m M M M n b b n b b b b m k k 1 < MXMXb M m m m M M m m m N m M n n m m M m n m m M b m n n m n n b n m b b b b k k b k b b b b k p p b 1 k k 1 k k k k b b : MXMXMXMXMXMXMXMXMXMXMXMX",
"MXMXMXMXMX  k :.< : > < > > < 1 1 k 1 k k 1 1 k p k k b k k p b k k k k k k l A   = < < > p > 2.vX,.  $ n C D D S S C S F S A C S F | | | | F F F |  . .X.X. .X.X.X.X.X.X.X.o.X.o.X.X.X.-.X.X.-.X.-.;.X.-.;.-.;.;.;.X.-.X.X.O.;.;.;.-.-.;.;.;.;.;.;.-.;.;.O.X.O.;.O.O.o.-.;.;.;.;.;.;.;.;.-.-.;.;.;.;.;.;.;.;.;.;.;.;.;.;.;.;.;.;.;.-.;.X.;.;.;.;.;.;.;.;.;.2.;.;.;.;.;.-.-.-.-.;.;.;.;.;.;.;.;.-.;.;.;.o.O.;.-.;.;.;.;.;.;.;.;.-.-.;.-.;.;.-.-.;.;.;.;.;.;.;.O.-.-.;.;.-.;.;.;.;.-.;.;.-.-.-.-.-.-.X.X.o.O.o.o.-.X.=.-.X...X.X.X...X.X.X. .| | | | .... .| F F F F X. .|  . .| G | | .. ...X. ..... .| | | | F G F F S F D C J F F D A D C V B V B B m m m m n n k < # , 1 > > < 1 1 1 < p p h p k 1 k 1 k b h p b p b p p p p 1 h 1 1 1 h 1 1 1 1 1 1 , , 1 1 < < 1 1 : 1 1 1 , , , , : 1 1 1 b MXMXMXMXMXMXMXMXMXMXMXMX",
"MXMXMXMX  1 ,.: : > > < > , < < 1 1 1 1 p < > 1 < 1 < 1 p 1 p p k p i p p i p A . = > - > < p : o.mX6.  + . . X % o % X % % % # $ O # % # 2 $ % # $ # % % % % $ % # $ % % # % % $ $ $ # # % % % % $ % 2 % % % # # O $ # $ $ $ % ; % % % % + $ % % % $ % $ # $ $ # $ @ % % $ % % $ + % $ $ % $ + % $ ; % $ % $ $ $ = % $ $ $ @ % + $ $ $ $ + $ $ $ $ % # % $ $ % - $ # $ % $ $ $ % $ + $ # $ % @ $ - % $ @ # $ $ $ $ % $ % $ $ + $ # % $ % # + $ $ % # # $ % $ # % = # % % % = # = # % # % # # = # # $ # # # # # # = % % # # # # # O + # % O o # X X % % % # # # # % O O O # # O # # O O # O O # O = O O O O # # O # X % % % O O O O % # O # O # # o O O . O # # O O o # > > , , 1 > > 1 , 1 1 h h h p h b 1 1 1 1 1 p p 1 p p 1 1 1 1 1 1 1 1 1 1 1 1 , 1 , 1 , , 1 , 1 1 , 1 : : 1 , : 1 1 : 1 p m   MXMXMXMXMXMXMXMXMXMX",
"MXMXMXMXb =.: : > > > : > < < k k 1 1 k p 1 k k p k k p p p p b k p p k k < p C   # - < y > 1 i > <.mX>.: & : : : : : : : : - : * * : * - > t y - y y - - > > > - > y y > > i > > i > y < > t i y y i i y y - y y i > i i i t t t y u ; y i i i i i u y u > i i y i i y i i y < u i i i < i y i t i i i i i a i i i u a a i i i y i y p u k i i i i a y a i i a a i u i p i i a i a i i a i u u u i a i a p u y u i i u l i i a a i i i i i u l a i i a i i i i i a i i i < < i < i i < i y < < y i < p u y p , i < < > > < i < : < > , > > < > > > > > > > , > > < < < 1 > , > < , > < , > , > > < < > , < > > > : > > > : : > : > > > > > , : : > = - : = : > : : O : > > & # : O : > , , 1 1 1 1 1 p 1 k h 1 1 1 1 1 p 1 1 < 1 1 1 1 : 1 1 1 1 , , 1 1 , , : > 1 , > 1 1 1 1 1 : , , , : : , > p b MXMXMXMXMXMXMXMXMXMX",
"MXMXMXk D < : : > > < > : , < = O = = = = = = O : O O O = # = = = = O = > < k A   = = - > > p p p < <.vXq.5.8.8.7.8.8.8.8.8.8.9.q.q.8.q.8.q.q.8.8.9.8.8.8.9.8.9.9.9.9.9.q.9.9.q.9.9.e.9.e.r.9.q.9.9.e.e.9.9.9.9.q.q.9.9.q.9.9.9.9.e.9.9.9.9.9.9.9.9.9.9.9.9.9.9.9.r.r.9.9.9.e.e.9.q.q.q.e.e.e.e.r.r.e.e.9.e.r.q.q.r.9.q.e.e.r.9.e.w.e.r.9.r.r.e.r.r.e.e.e.r.r.e.r.e.e.q.r.e.e.r.r.r.e.r.e.r.w.w.r.9.9.e.e.9.e.q.9.q.e.q.9.9.e.9.9.r.e.q.e.q.9.9.e.9.e.e.9.9.e.w.9.r.9.e.r.r.9.q.9.q.9.9.9.9.9.9.0.0.9.0.0.9.8.8.0.0.9.8.8.9.0.8.q.8.8.8.0.5.0.5.8.8.8.8.7.7.5.7.7.7.5.5.5.5.5.5.7.5.5.4.5.5.4.5.5.5.5.5.5.5.5.5.5.7.7.5.5.5.5.4.4.4.4.5.5.4.3.4.3.4.4.4.4.4.5.4.4.4.4.1.6.3.3.1.>.b O , , 1 1 1 < p 1 k 1 1 h 1 h 1 1 b 1 , > 1 1 : , 1 1 1 : 1 < , 1 , , : , , > 1 , > : 1 , : 1 , , : 1 : : , : > p b MXMXMXMXMXMXMXMXMX",
"MXMXk D < > > > : < , : < : 2                                           = 1 i B   # = - < < < i i y p n D F F F F F F A F F S G | | F | | F | G | | G F | G | |  .X.X.| | | |  . .| | | |  . .| =.F  . .|  . .| F | | S | S  .| |  .| =. .|  .| X. . .|  . . .| | X. . . .X.X. .X.X.X. . .X.X.X. . . .X.| X.X.|  .| X. .-.-.-.|  . . . . .X. .X.X. .X. . .X.X. .X.X.X.X.X.| X.X. .X.X.| X.| X.X.X.X.| X.X.| X.X.| X.| X.X.|  .| | X.X.| .. .X.X.X.| | X. ..... .X.X...H  ...| ..X.| F | G  . .G | | G | G G F | | | G G G | F G | F | F F | F F J F F J F F F F F D D D F J F F D G D D G D F F F D J D D F D D D J D D D F D D D D D A D J F D D V D D D D D D D D A V D D D D D >.b O , 1 < < p 1 1 1 1 1 1 1 1 1 1 , 1 1 , , , 1 , , : , , 1 < , , > 1 , : : > , > , > , : 1 < : 1 : 1 : : , , > , 1 1 MXMXMXMXMXMXMXMX",
"MX  M 1 : : > : : : > > > o     O # O = # # : : : = = : : = : : : O     = < p C   # - > > i i > > p i i i i a i s p a s i u i s s s a s s s s s s s a a a a a s a s s s s s s d s z a a a l d l z z z a z z l z z z a l l z z l z z a a z a z a z a l z a d z s a z d d a d f d z z a d d d d d d d z a z a l z z z z z a a z a d s d d d s s d d s a d a d d d s s s z s z a d d d z z l z d s l a l a a d s s s z s z z s z l s l l z s d s l s s s s s s d d a s s s a s s s s s s p k l s i s k s l s p a p p p p a p p a p p h p i i p p p > p , p > p , i < 1 p p y p p p p 1 p p i p p , 1 p , p , i i , > , i , i 1 1 p , , p , 1 1 1 , p p i 1 , , , < , , 1 1 1 1 1 1 1 1 D b   , p 1 1 1 1 h 1 , h 1 < < : , > , < , , , : , 1 1 : , : , , , , , , , > < , , : , , 1 < : : 1 : 1 , : : > , : < , MXMXMXMXMXMXMX",
"o   = < < < < : < : : 1         : = : : : : : > : < : > < < : : < :     : < p V   = - > > > > > > i u p i s i a s i s i a a s u a p u s a a a a u a u a a a s u a u a a s a s a a d s a a a z a d a a a z a z a a a z a z z u a a u u a a z z a a z a d d a d d a z a d a z a a a a d d u s d a a d d s z a z a z a a z z a z z f d f a d d d d d d u d a l d d s d a a a d d a d a f d z d d d s a d z l a a l l d s s s a a s s s a s a Z s a s s s a s a s y s i a s s s l s p s p s s s p s s p p p p p p p y p p p p 1 p p i , y p , i y , i i > i 1 , > < > 1 > > > , , i 1 > p , , i , y p i p , p , , , p , > > 1 > , , > > , > > , > 1 : > > : > : > : : > : > > > > , 1 < > =.b   > , 1 1 1 1 h , 1 1 , , , , , , < , , : , , 1 : : : , , < , , , , , , , : , : : : : : : : , : : , : : : > , : 1 # X MXMXMXMXMX",
"o   > > : : : < : < ,           : # : > : > : < : < : > : < : < < :     : 1 p V   # - - - > i i > i i i p a s d a s s s z a s d d d z d d Z d d d d s d d d d d d d d d d d f d z z d z z z z z z z z z x z z z x z z f z x a z x x x d z d x z z z x f x z z f x x z z x f z d d z z z x x x z x z x x x x x z f z f z x z z z d Z x d d d d d Z d f d x f d d z x x f x z z z d x x f x Z x d f z z z f d x d z z z z z z z z z z z Z z z z z z z a z d d d d z s z z Z l l s l z l z l s l z d s l s s s s p s s h s s s a p a p h p p p p p p p p h p s p p p s p p p p p h p p p p p p h h h p p > p , p i p p 1 y p , 1 p p 1 p p 1 , 1 p 1 1 1 1 1 > 1 1 1 1 1 , , 1 p 1 , , : : J N , 1 1 1 1 1 1 1 1 1 1 1 1 1 < < , 1 1 1 , 1 1 1 1 1 1 1 : 1 , , , 1 , , 1 1 1 1 1 1 , , 1 : 1 , : , 1 , > , , : , : X MXMXMXMX",
"    O , : > : > > :       = o   > : : : > < : < > < : < > : : : > <     = < i V   # - - > > > < i i y p s p - $ $ : $ $ : $ - y - - - - - - - - t t - - $ t - $ $ $ $ $ t - $ - 6 - t $ y $ y > t t - t y t t y $ y t 6 y t 6 t t y y y y 6 t y t t t t y y 6 y t y u 6 6 6 6 y y 6 y y y 6 u t t t t i u y u y t y t y y 6 y y t y y 6 y y 6 y y t $ y 6 t y y y t y y y y t y t t y y y t 6 y y - $ y y $ u > y y y u y y 6 y > y $ y > t y > t y $ y $ y y y - t - - > $ > > > y - - t > - > > > > > - - : : > - - = : $ : = $ # : * : # # = # # : : $ : = = : # & $ & # $ : : # : # : = # = # * # # # O O : O # = O & # O # O : O : & O & # O = = O : O O : # # : O : O : # 1 , , , : V 1.7.5.5.5.5.5.5.7.5.5.7.5.5.5.5.5.5.5.5.5.4.4.5.5.5.5.5.3.3.4.4.4.4.4.4.4.4.3.5.3.6.1.6.1.6.6.1.,.,.6.6.6.6.6.6.3.:., MXMXMXMX",
"o     = > > : , :       > >     > : : : : : : > > > < : < < > < < <     = p < B   # - > - - y < y p i s y .       .   . .       . . . . . . . . .     .   . . . . . . . . . . . . . . . . . . . . . . . . .   . . . . . . . . . . . . . . . . . . . . . .   . . . .   . . . . . . . . . . . . . . . . . . . . . . . . . . . . . .   . .   . . . . . . . . . . . . . . . . . + . . . . . . . .   . . . . . . . . . .   .     . . . . . . . . . .   . .     .   . . . . . . . .       . . .   .     .   .                                                                                                                                                                         = , < , , , , 1 1 1 1 h h 1 h h h h 1 h h 1 h h h 1 h p h h 1 k 1 b 1 1 1 1 h 1 1 1 h 1 1 1 1 1 p 1 1 1 , 1 1 1 , : 1 1 1 1 1 k b , MXMXMX",
"  o     o             : 1 O   o < : : > > : > < < < > > > < < : < <     : p p B   # - > > - > y > y s i . . . + + + . . + + + + + + + + + + + + @ + + + + + + + + + . + + @ + + + + + @ + + @ + + + + + + + + + + + + + + + @ + + @ + @ @ + + + @ + + + + + + + + + + @ + + + + + + + + @ + + + + + + + + + + + @ + + + + + + + + + + + + + + + @ + @ @ @ + + @ @ + + + @ + + + @ @ + + @ + + + + + + + + + + + @ + + + + + + + + @ + @ + + + + + . + + + + + . + + + + + + + + + + + . + + + + + . + + + . .   . .             .                                                                                                                                                 = 1 , 1 , 1 1 1 h 1 1 1 p 1 1 1 h 1 1 h p h 1 p p 1 1 1 1 1 h 1 1 p , 1 1 1 1 1 1 h , 1 h k , p p 1 1 1 1 , , , 1 , 1 < < 1 1 1 b : MXMX",
"                    o m O =     1 > > > < : < < 1 1 1 < 1 1 , : > <     : 1 < B   # - = = > > u y l y   . . + . + + + @ @ @ @ @ @ @ @ @ @ @ @ @ @ @ @ @ @ + @ @ @ @ @ @ @ @ @ @ 3 @ $ @ @ @ @ @ @ 8 @ 8 3 @ @ @ @ @ @ @ + @ @ @ @ @ @ @ @ @ @ 3 @ 3 @ 8 3 3 3 @ @ @ @ @ @ @ @ @ @ @ @ @ 3 @ @ @ 3 @ @ 3 3 8 @ 8 @ 8 @ 3 3 3 @ @ @ @ @ @ @ @ @ @ 3 @ @ @ 8 @ 3 8 3 3 8 @ 3 3 $ @ 8 @ @ @ @ @ + @ @ @ @ @ @ @ 3 @ @ @ @ @ 3 @ @ 3 @ @ @ @ @ @ @ @ @ + + + + @ @ @ @ @ @ @ @ @ @ @ @ @ @ @ @ @ @ # @ @ + + + + . + . . . + . + . . . . . .   . . . . .   . . .                   .     .                                                             .           .                     : 1 1 , 1 1 1 1 1 1 1 1 1 1 p p h 1 1 h 1 > 1 h b 1 h 1 1 p p 1 , k h b 1 1 1 h 1 , 1 1 1 , 1 p h 1 1 , , , , , 1 , > < < < 1 1 b & MX",
"            X       o b X #   X 1 = X                         X : ,     : p < B   = = - > > i > s p   . + + + 3 8 5 7 e 5 e e e e r e e e e e e e e e 5 3 @ 3 @ @ 3 3 3 7 7 7 e 0 0 e e 0 r e e e e e e e 7 7 5 3 @ @ 3 @ 3 4 5 7 e e e e 0 e e e 7 e e r r e e r e e 5 3 3 3 3 3 @ 3 4 7 7 7 7 0 0 0 e e e 0 e e 0 7 0 0 e e 4 @ 3 @ 3 @ @ 3 3 7 5 e e e e r e e 0 e w 0 e e w w w e 5 3 3 @ @ 3 @ @ 4 7 7 0 7 e e e e e e r e e e e 0 e e 0 3 3 @ @ @ @ @ 8 5 5 5 e 7 9 7 e e e e 7 e 7 7 7 7 0 7 8 @ @ % + . + + . o X o o . o o o o o o o o . . o o o o X .     . . . .     .   X o   o o o o   o       .     o       .   .     X     . o   X   X       o         X               : 1 , : : , , : , < > > < , > 1 1 1 , , , > , > , 1 1 , 1 1 1 , 1 , , , , , , , 1 > , , > , , , , , : , , , : > > , < > 1 , , 1 1   ",
"O o N :   h b , O   X b = :     1 < p m D D D D D D D D D A A : : <     = < < B   = - - - > i i s . . . + + 3 } !.!.~.~.~.G.(.).(.).J.(.).)._._._._.).)./ 4 3 3 3 3 q } ).~.).~.).(._.(.(._.`.`._.`._._. X)..X!.r 4 3 3 4 3 4 ' ~.).).).(._.).).`.`.`._.).`.`.`._._.`.f.r 4 3 3 3 3 K h.~.(.).)._.).(.).J._.(.(.(.)._.`._._._.{ r 4 3 3 3 8 q g.(.).).).).).`._._.`.)._.`._._._._._.).[ w 8 4 3 3 3 q { ^.(.(.(.(.(.).`.`.`.).(.(._._.)._._._.[ 0 @ @ 3 3 @ q g.~.(.).).(.).).).).(.(.).).).`.`.).).)./ @ @ + @ + 8 ^ @.} @.+.@.@.@.( ( ( ( ( ( ( +.( ( ( +.t %   . . . . . % < p i 1 1 i < < < 1 p < 1 p < < 1 1 > > o .   .   . O > < > > < , : < , > 1 > > < > > : : & O                                                                                                                                             o ",
"O   b &   h : O X     k & #   o 1 < h J :.:.:.,.>.:.>.>.:.H H n , 1     = < p B   # - : - t y i p   . + + + / (.j.d.l.c.c.v.c.b.C.G.G.G.G.D.A.H.G.F.G.Z. X^ 5 4 4 3 ! G.f.c.c.c.G.D.G.z.H.G.G.A.C.G.H.C.C.H.D.R.(.4 4 4 4 3 ' (.c.c.G.C.z.G.G.C.G.C.D.c.A.G.S.H.C.G.C.'.f.e 4 3 4 9 x.A.l.c.A.G.H.D.C.D.C.C.D.G.D.A.A.A.A.C.S.#Xh.0 4 4 4 4 { S.l.l.A.A.c.H.A.G.A.c.G.G.G.H.G.A.A.D.C.'.j.8 3 3 3 3 h.H.f.l.v.c.l.z.c.A.G.G.c.c.c.b.A.G.G.C.C.].] 4 3 3 5 9 g.A.x.l.c.D.z.z.c.A.G.b.c.z.l.n.G.c.x.c.C.wXT @ @ 8 9 g._.A.A.H.'.S._.H.H.'.J.J.H.(.J.J.J.G.c.'.!.6   .   .   o o # # O O O 2 # # O O O % O # O O O O O % #     . . . # O O O X o X O O O O O O o O O o X X o O o                                                                                     .                                                     o ",
"O   1 #   1 & X o   o k = =     p : , : > : > , 1 , 1 1 1 1 1 h 1 k     = i i m   O - > > > > p s   . + + @ g.l.j.j.k.l.l.l.c.c.b.G.G.c.G.D.(.G.G.c.c.u. X{ 3 4 4 9 g.G.f.l.G.c.l.G.c.k.A.l.c.c.D.k.c.c.c.C.m.C.3Xw 3 4 4 3 ).(.f.x.c.l.C.c.D.c.b.D.G.D.c.C.A.A.G.A.G.H.(.e 9 4 3 U _.d.x.c.l.C.c.c.c.D.l.G.D.c.C.H.C.G.C.C.~.N.;Xr 3 4 4 q (.c.l.d.z.A.z.l.A.G.c.l.C.c.c.C.c.v.c.A.x.U._.3 4 4 3 9 [.k.j.l.d.c.c.c.l.b.A.l.c.S.l.z.c.A.c.c.G.J.x.5 4 4 3 I `.y.x.l.f.l.c.G.l.l.c.c.D.k.l.x.c.c.c.x.y.,X{ @ @ @ ! |.y.f.f.f.l.v.v.k.l.c.l.l.k.f.x.c.k.x.x.p.'.r .         = % o o # O O % o o O o O O o O o o O o o O #   . o   o # O O O O O o o O O O O X o o o X X X o . O           X O   o o X                       .       .         o                 .     .     X       . .   X                                 ",
"X   h &   1 : X o   o b # #   o < : > , , : , < < h n h h 1 k 1 p 1     = i p m   # - - - < y a s . + + @ @ Q.c.` k.l.G.l.l.c.A.l.A.S.z.A.A.v.G.A.C.G.y.#X@.5 4 4 q /.J.l.c.k.G.A.c.c.c.G.A.G.G.G.G.D.H.D.D.b.a.8XI 4 4 4 3 `.H.k.A.c.l.A.C.C.G.F.H.A.A._.S.U.F.C.D.G.F._.e 4 4 3 I ].k.l.l.A.A.C.G.H.A.A.S.S.S.H.Z.U.C.C.Z.(.B.1XP 4 4 5 w (.C.c.l.c.c.A.C.A.C.G.C.A.H.v.A.S.z.(.C.A.T.[.@ 3 4 3 U :Xk.x.c.l.l.l.z.v.l.A.A.A.G.C.G.v.G.C.C.G.Y.m.7 4 3 @ ~ [.y.c.v.c.c.G.A.C.G.A.S.c.c.G.H.z.H.G.b.k.1X[ $ 3 @ ` ,Xy.c.l.c.c.G.A.A.G.C.A.z.A.A.G.C.G.b.n.s.}.f X   . .   # O O % O o = o O o o o O o O # O o o O O O #   o .   o & o o O o o O O o O o O o o O O o o o O O &           o # O o X =     o     o . . X     X .   o   X     X o     X   X X O O O o O X o o 2 X O X X X X X X X X o o X   X                 ",
"X   1 #   p : o o   X k # #     < < < , > , < , < < k 1 k p 1 > 1 k     : 1 i V   # - = - - i i s   + @ @ @ ^.C.k.d.k.A.C.A.A.S.A.H.Z.S.C.U.U.A.H.J.H.l.#X{ 4 5 5 0 /.H.l.c.c.A.A.C.Z.H.G.S.C.H.D.D.F.C.Y.F.H.Z.eXR 4 5 4 4 [._.k.l.A.C.S.S.G.C.U.H.A.H.A.A.S.U.F.H.H.Y.'.e 4 5 5 T |.k.c.H.A.S.H.H.U.H.Z.S.U.S.H.F.S.H.H.K.G.V.1Xr 4 4 5 K '.C.z.C.C.S.Z.S.C.S.H.Z.H.H.J.S.F.S.F.S.z.U.[.@ e 4 8 U #Xp.l.C.S.A.Z.H.S.U.S.A.H.H.F.F.J.U.H.C.H.R.n.7 4 4 4 ~ |.k.l.c.G.A.c.H.C.G.C.G.z.A.C.G.A.H.J.G.l.1X[ @ 3 3 ' wXk.k.z.H.c.A.A.A.C.c.A.C.z.C.H.G.H.D.b.b. X^ .     .   - o O # o O O % o % # % O o O O % O O O % O #     .   X = O O O o O o o O o O O O O o O # O o O o :           # : O O O :     X o O O X o O o O O O O O O O # X # O O O X & # O O O 2 O O # X # X # # & O 2 O O O O O X O O O #             o o ",
"#   p #   1 : X       b # #     1 : : > < < < < < 1 < < < > < < p p .   = p < B   # $ - i > i a s   + @ @ 3 ^.(.k.c.C.C.S.A.C.S.S.Z.S.H.F.F.F.H.Z.Z.H.k.,X{ 5 4 5 0 h.G.l.A.S.C.S.L.S.S.F.S.Z.H.U.F.F.C.F.F.F.Z.8XI 4 4 4 4 `.Y.v.c.S.F.S.S.S.K.U.F.F.S.S.U.U.S.F.U.J.F. Xr 0 4 4 I #Xk.C.A.S.S.Z.F.F.S.S.S.K.U.L.T.F.L.F.K.(.W.;Xg 9 5 9 P '.c.A.A.H.S.S.H.S.U.F.S.F.F.F.L.U.L.S.Z.C.T.|.@ 9 4 7 U :Xv.c.S.L.H.A.U.H.H.U.Z.S.S.U.K.Z.L.U.C.Y.].f.e 4 4 3 E |.p.A.C.C.H.G.F.F.H.A.S.F.F.Z.S.G.Z.H.A.v.wXj.@ 3 3 ` wXp.A.c.A.S.H.H.H.S.A.G.Z.H.C.G.G.F.F.G.v.|.f .   .     > o # o # O O # o # o # O O % o o o # O # % #     o   X $ O O O O O o O O O O O O O O o O o O o o =           : > O O O : X                       X               o   X       O O O & # # & # & & # & & & # & & O O & O O O O O X   h N b b X o ",
"X   1 #   1 & X o   X b : :   X 1 : , : , : > : < , : < , > < < 1 p     : i < B   O = - - - i a l o + @ 3 4 Q.U.l.A.Z.S.S.L.L.T.U.L.L.F.U.T.L.L.L.F.G.v.wX{ 4 9 5 q x.H.C.S.L.U.U.U.U.L.T.U.Y.T.U.T.F.Z.F.D.H.B.eXQ 4 9 q 4 `.Y.C.C.C.U.S.U.U.U.H.U.T.T.K.T.oXU.L.F.H.U. Xr 5 0 4 I #Xk.z.S.U.S.L.L.K.U.U.T.T.T.L.U.L.U.K.B._.W.1XP 4 5 9 K [.a.A.C.U.F.F.Z.'.U.H.T.T.L.U.U.T.U.U.L.S.R.;X4 7 9 5 U 4Xc.C.S.A.H.S.S.L.T.K.U.U.T.T.'.L.F.Z.Z.H.R.x.e 9 4 4 ~ ;Xa.C.A.S.Z.'.F.U.F.U.U.U.S.C.L.S.F.F.C.v.wXj.8 8 @ ` <Xv.S.C.H.S.S.F.L.S.L.L.H.S.C.U.F.F.D.D.D.,Xg .   . .   < o % # O # O O # # o # O O O # o # o O O O # . . X   X : O O O O O O O O O O O o % O O o o O o o :           : , O : = : o                                                   O & & & : & & # # & : & : & & : & & & O = = & O # X   M n k b X   ",
"X   h #   1 : o o   X b O =     1 , , > < , > < < < > > , 1 > < 1 p     = < < V   # - > : y u i d . + @ 3 3 !.U.p.D.Z.Z.S.L.S.T.L.U.U.L.L.U.T.U.S.L.U.C.:X{ 7 9 9 w x.Y.N.F.L.K.].K.K.T.U.L.F.T.U.U.Y.T.U.Y.H.B.eXQ 4 9 4 9 _.'.C.L.H.H.U.T.T.U.S.T.L.U.L.T.oXT.T.L.F.T.{.Y 0 0 9 E ,Xv.N.S.U.U.'.K.T.U.T.T.T.T.T.U.'.K.U.L.J.V.1XK 4 0 9 K '.C.S.A.F.U.U.T.K.K.L.V.R.U.L.U.T.U.K.U.A.oX[.4 0 0 5 U 4Xz.A.S.Z.Z.L.L.U.U.T.T.T.T.L.U.T.U.K.U.U.#Xx.e q 4 3 ! ,Xp.S.F.S.Z.S.U.L.L.U.F.S.F.F.U.F.H.F.Z.s.<Xj.@ 4 3 ` wXv.D.S.S.S.U.U.K.S.U.L.S.A.H.F.F.H.H.Z.a.}.Y .   o     > # % o # o o # O o # # o # # o O # o O o O # .       X : O O = O O # O O O O O O O O O o O O O o :           > , O # & : O   o o   X X o o X o X X   o o o X X o X X X   X   O & & & & & & : : , # = & 2 & : : & & # = O & & X X   n > : ,     ",
"X   1 &   , & o o     b O =     1 ; : > < > < < < : > > > < < : > p     O p i V   # = - > : y a s X + @ 3 3 ^.L.v.G.C.H.U.F.K.S.T.K.L.T.T.T.P.U.L.F.U.F.1X{ 9 9 0 w ~.L.A.F.U.H.U.T.'.U.T.T.].L.L.T.I.H.F.L.J.V.rXR 9 4 9 9 '.].N.F.T.S.U.U.U.L.T.I.L.oXT.Z.'.K.L.T.].$X{.r 0 q 5 E ,XN.U.S.S.L.T.oXL.U.T.T.T.oXT.Z.K.T.T.U.'.K.;XK 0 0 q I ].H.S.F.F.T.S.T.U.'.R.#XR.K.U.U.K.T.U.T.S.OX,X4 0 0 4 I 2XA.C.H.F.R.U.S.T.T.S.U.L.L.L.U.R.T.U.L.U.#Xn.r w 5 4 _ <XD.F.C.S.U.F.Y.U.T.T.T.U.U.L.C.Y.U.T.U.C.rXg.3 3 3 y.9XC.F.C.U.F.L.U.].K.'.T.U.U.F.Z.U.U.T.S.C.<XY o   . o   = o # # O # % O % # o o # O # o O O O # O O #     X X X : O O O O O O = O O o O O O o O O o O o O :     .     > : # = O , o                                                   ; : & : & & , &         o o       = # : = & O & & 2   b : : , o o ",
"2   1 #   , & O o   X b O =     1 : > > < : < < < > > < > > > > 1 p     # i < V   O $ - $ y y p s . + @ 3 4 ^.Y.D.D.Z.H.S.T.T.T.R.T.P.R.T.T.OXT.T.Y.Y.Z.1X[ 9 9 w w ~.T.H.H.S.L.L.U.U.I.T.T.T.T.{.R.Y.T.T.L.Y.W.eXQ 0 0 0 4 '.I.C.H.U.L.U.U.I.oXT.I.oXP.oXT.K.U.U.K.H.R.Y.Y r 9 0 E ;XN.S.S.U.U.K.oXT.T.oXT.XXoXR.T.T.R.T.V.J.V.1XY q r w I |.T.F.S.U.T.U.T.oXU.U.U.I.T.T.P.R.L.L.U.Z.+X#X4 0 9 5 E 4XZ.Z.S.L.L.I.U.oXI.U.L.I.T.'.P.I.T.K.S.L.OXl.e 0 0 9 _ 1XN.G.S.U.U.U.C.F.L.R.oXT.T.T.U.L.L.L.L.C.tXh.4 4 3 y.wXz.C.C.L.T.F.N.U.V.].oXT.U.T.H.T.L.T.H.C.1X^ o   . .   : o % o # # # # O o % # % O O # O O O O O % =   X .   X = O O O O O O O O O O o O O o O O O X O o :           : < # & & < O X 1 M J D D D D D D J H D J J H D D J D D D D D J D : : : & : X & b J 6.6.:.=.:.D 1 &   : & # # # O X   h : : > o   ",
"X   1 &   1 : o o   X h O :     1 , : > : , < : : < < 1 < > : < 1 1     = p i V   O # $ > > u p s . @ @ 3 4 ^.L.C.F.Z.T.L.L.T.T.T.T.T.R.oXI.oXI.L.T.T.L.<X{ e w w K (.T.C.U.F.U.T.T.T.oXI.I.I.oXOXT.I.R.T.U.H.W.eXQ q 0 w 9 [.#XZ.L.U.L.U.I.oXU.#XoXoXoXoXoXT.T.T.U.L.oX}.Y w e 0 W :XC.U.U.L.U.].T.oXoXOXP.#XOXoXoXT.oXT.P.].K.1XI q e r T ].T.S.S.U.U.T.K.oXXXoXXXoXOXT.oXoXI.+XU.U.OX1X4 0 9 4 E 3XS.Z.S.U.U.L.R.I.oXoXT.R.oXP.#XI.R.T.T.T.oXn.g w 0 9 _ 1XN.U.F.Z.U.L.U.R.I.I.oXT.T.R.U.U.U.U.U.C.8Xh.3 3 3 i.rXC.L.F.S.'.L.U.T.T.oXI.U.I.oXL.L.F.Y.U.C.1X^     . .   - # # O O % o o # # o o # O O % O # o O O O #   . .   o : O O O O O O O O O O O O o O O O o O O o :           : , O = & , o X = & & : : : : : : & & : & : : : : & & : & : : : : : : : & & D :.:.m , , : : , h M M h X o & = # & O   b > : >   o ",
"o   , &   < : o O   o b O #   X 1 > : : : : < < > > < < < < : > < 1     # p p B   O = = > - > a s . @ @ 3 4 ^.R.a.H.U.U.Y.U.T.T.oXL.oXOXI.:XoXoXT.oXT.Z.3X[ w w w q (.R.Z.F.T.L.T.P.I.oXXX:XXXXXXXR.oXI.I.I.E.P.eXQ q 0 q 9 [.oXF.F.L.I.I.I.XXI.oXoXoXXX#XI.P.I.I.P.T.oX}.Y 0 w 0 ! :XZ.U.L.U.R.OXP.oXoXoXoX*X%XOXXXoXR.oXP.].K.:XP w 9 w L ;XT.Z.Z.T.T.oXI.oXoXOXoXXXOXoXoXT.I.R.oXK.OX<X4 w w 0 E 9XF.L.T.L.}.T.oXOXI.XXoXOXoXI.R.T.T.I.K.U.OXb.r q e q _ <XN.H.T.L.E.I.$XoXI.oX$XI.I.I.$XI.L.R.Y.a.3Xh.3 3 4 u.eXC.F.T.Z.I.I.OXI.T.oXoXI.I.I.{.T.Y.T.F.C.1X^ X   . .   > O # O # O O O O o # O # # O O O O O O O o #     O   o = # # O O O O # O O O O O o O O O O O O X =     .     : > = # # ,     # & O & O & O & & & O O & O & O 2 O & & O O O O & & , O & :.J 1 & & # # & & # & : 1 h N = o : & = O   k < : , X o ",
"X   , O   , # o X     h O &     1 : < < : < > > , < < 1 > < : : < p     : p i m   # = - - - y a s   @ 8 3 9 ).R.a.H.L.L.E.I.$X$X*XoX*X&XOXOX2X$XP.oXoXV.3Xg.r 0 r K (.oXZ.L.T.T.I.XXXX%X%X&XOX&X>X$XI.oXP.I.E.W.sX~ q q 0 9 [.;XL.L.T.oX:X%X>X%X>XoX>X%X*X%XoXXXI.oX#XOX{.R K K 0 ! 2XZ.L.T.oX#XoXXX%X>X&XXX=X=X2X=X2XoXP.XXR.XX3XI q 0 w E ;XR.F.L.I.oX*XoXOXOX=X-XoX*X%XOXoXOXR.oXI.:X<X9 r K 9 E 9XT.T.oXE.$XoX%X>XoXOX>X>X*X%X%X$XI.XXP.T.OXb.r q 0 9 ) 3XN.Z.T.R.oX:X%X>X%X&X%X%X%X$X:X{.I.L.$XZ.8Xx.3 5 3 u.eXC.L.T.T.I.%X%X%X$X&X$XOX$X*X%XR.T.R.R.B.1XT o   X .   , O O O % # % O O # # % O O O O # % O # O % =   . o   o # O O O # O O O O O O O O o O O O O O O O =     .     : , # : # : X o & & O 2 # O & & O O & O O O O & & & O O O & 2 & & & & O =.M & : & & : : : , , : : : : , n o   : # o   b : : ,   o ",
"O   , =   , : o X     b O &   X 1 > : : > :         o < < > : < < p o   = p < B   O # = - t i p s   @ @ 3 9 ).I.Z.Y.Y.P.$X>X-X5XqX0X6X0X6X0XqX*XI.oXOXE.9Xg.w q r U (.OXH.T.L.I.5X7X0XiX0XdX7XdX5XqX%XoXI.I.R.XXhX! q w w q ,X:XE.I.L.I.&X6X2XqXyXdX7X7X7XdXqXOXoXXXoXXX}.R r K w ! 2XZ.T.T.P.oXqX0XyX0X0XdX0XdXdX0XqX2X+XXXoX+X<XI q w w W 1XR.T.T.oXoX2XyX0X0XdXdX7XdX0X5X%XoXP.XXoXOX<Xq r w e E aXI.Y.I.I.&X0X0X-XyXqX0X6X5X5XqX3XI.oXXXP.#Xn.e w r 0 _ 3XV.U.T.T.%X5X-XqX0X6X5X6X6X-X=X$XI.E.I.F.4Xf.4 3 4 u.sXZ.L.P.I.:X5X-XqX7X5X3X5X-X&X%X{.I.E.R.F.1X^ O   . .   > O % # o O % # O # O # O # # # O # O O O # =   o .   o = # o # o O # O # O O O O O O O o O O O % :           : , # : 2 , X o 2 & & & & & X & 2 & & O 2 & & & O : & 2 & & O & & & o D D X : # & : = # 2 o = , , : , : , h   O &     b : : 1     ",
"o   < =   > : O O   X 1 O #   X p : : : < >   # O X   1 , : > , < p     = < < B   % $ - - - i a s . @ @ 3 5 ^.R.L.E.L.P.&X6X6XiXdXfXfXfXgXdXqX&XoXXXOXP.8Xg.r w r K S.oXU.I.R.%X-X6XyXjXfXfXdXdXyXdXqX&X*XoXI.XXsXQ q w w q ].&XL.L.T.>X6XdXfX0XfXdXfXdXgXdXdX5XOXOXOX:X$XR w w w ! <XL.L.P.oX&XyXyXfXjXgXjXdXjXjXdX7X&X%X+X$X+X2XI w r w ! 1XR.L.I.OX%XqXdXgXgXfXfXfXfXuX0XqX+XOXXXoX%X<Xq w w e E 9XT.T.L.$X&X0XfXfXgXfXdXfXfXgXqXqX$XoX+XoX:Xn.r w r q ) 3XV.T.R.R.$X-XyXfXyXyXuXuXfXfXyX5X$X$XT.W.9Xm.4 5 4 u.eXV.R.oXI.%X5XdXdXiXyXyXcXfXyXyX>X$X$XI.E.>X^ O   . X . 1 O O # O O O O O O O # O O O O # O O O # O =   . o   O = o O # # % o O o O O O O O O O O # O O o :       .   < , O # & , o X & O & & 2 & X & & & O & & & 2 & O & O & & O & & & X : H 2 : # : &         o     & , : : = h &   & o   b : : <   o ",
"o   1 :   1 : o o   X h O O     1 > : : > > o = : O   < , > , > < p     = p i m   O - - - > > s s . @ @ 3 4 .X{.L.Y.I.oX-X0XuXuXyXgXfXfXdXgXdX-XoX%X*XXX9Xg.w U K U (.%XT.I.I.$X0XyXuXjXuXkXjXcXjXfXdX-XoXXXoX+XhX! w w w q [.&XI.I.P.5XdXfXjXfXlXlXlXdXfXjXdX=X%XOX%X=X#XI r K w ! 2XP.R.oX$X2XyXjXjXkXjXkXjXjXfXjXdX=XOX+X%XOX8XI w w w ~ >XoXT.%XoX5XfXdXjXjXjXjXjXxXfXfX0X&XoXoXT.OX3XU P w 0 W aXI.P.T.+X<XyXfXjXjXjXjXlXfXgXgX7X%XoXXXoX2Xn.r w w q ) 9XL.L.XXoX&XdXcXjXlXcXjXfXfXfXyX0X&X$XI.B.9Xx.4 4 5 u.sXL.I.I.oX&XdXfXjXjXjXgXuXuXpXiX6X%XI.I.B.5X^ .   X     y # O % # O O # # O # # o O # O # % # O O # $   o .   o $ O O o O # # O O O O O O O O O O O O O O :           : , O : O , X X O & 2 & O & O & & & & O O O & & 2 O & & O 2 = = 2 X D : # # : #     : j v j ; 2   # , : : : 1   o X   b : = : o   ",
"X   , =   1 = o o     h O 2   X p : : > < > o : = =   > : > > > < 1 o   : p i B   O # - - - i i a . @ @ 3 9 ^.&XV.Y.I.{.6XiXfXgXjXjXjXjXjXdXgXqX=X%X=X@X9Xg.w q P U _.%XT.I.oX&X0XyXfXjXkXbXkXcXlXjXfX=X:X*XoXoXhX! w w w q ,X3XI.oXXX5XdXjXlXxXzXzXzXzXlXlXdXqX%XOXOX=X;XQ K w w ! 4XL.T.I.oX&XyXjXlXjXlXnXzXzXjXjXfX-X*X*XOX=X1XR w w K ~ 1X$XoX+X&X2XfXjXjXxXlXbXjXlXjXdXdX&XOXOXXX%X8X9 r w w W aXI.T.oXOX5XjXjXjXlXjXzXlXjXjXgX0X*XXX@XoX2Xn.r r w q ) 4XL.I.I.oX2XaXcXjXjXkXkXjXjXjXfXiX&XoX{.E.aXf.4 4 5 p.sXL.P.oXoX5XfXjXlXjXjXjXjXgXjXfXqX%X$X{.E.8X^ O   X X   > O # # o # # O O O = # # # O O # O O O O O O   . o   O = O O O # o o O # O O o O O O O O O O O O :       .   : 1 O & & : o   & & & & O & & & & & & O & & & & & & O & & & & = O & M O & : #     j $.%.%.$.$.c j   # , : = 1 :   o   b < = ,   o ",
"O   1 :   < : O O   X k # &     1 > : : < < o : : #   > : > > < < 1     = k i m   % - = - y i u s . @ 3 3 4 ).&XF.I.I.&X-XfXjXuXlXzXjXzXlXgXiX=XOXoX&XP.eXQ.0 w q q _.&XT.I.I.>XiXcXkXbXzXbXkXbXlXjXfXqX&X*X+XoXhX_ q K w U ;X2XI.oX@X5XgXlXzXzXzXlXzXzXlXdXdXqX%XOX%X=X}.R Y K w ! 4XL.U.I.oX-XfXcXbXbXzXjXzXbXlXjXfXqX%X+XI.+X8XI q w R ~ <XOXI.oXOX5XjXjXjXlXzXbXzXjXlXjXiX&XOXOXoX=X<Xe w K w W aXI.I.OX=X0XfXjXlXxXlXzXkXzXxXgXqXoXoXXXI.%Xn.Y w w 9 ) 8XB.oX$X*X&XfXfXlXjXlXkXlXlXlXjXfX-XI.$XE.aXf.4 5 4 u.sXL.I.oXoX5XdXcXjXjXzXlXxXkXxXfXdX&XoX*XI.>XR X   o . . > # # # # # % O o O # # O O # O O # O # O O :   o     o : O = O O O O O o O O O O O O O O O O O O :     . .   : 1 O : & , X   & 2 & X & & & O & O & 2 O O & & O & & & & & & #   1 1 O & & X   j %.%.&.%.%.%.%.%.2   1 : : > ,       h : = : o o ",
"o   1 :   < & o o     k # &   o 1 : > > < 1 O : : &   < , > > > < 1     = a < B   o # - y - t a s . @ @ 3 4 ).%XF.{.$X$X5XuXjXjXjXzXlXzXfXfXdX%X+XOXOXOXeXg.w w r I _.>XR.I.oX&XuXkXbXcXjXbXbXbXkXjXuX-XOXOXOX%XsX! q K U q [.>XE.oXOX2XgXlXzXzXzXlXbXbXjXjXdX5X=X+X>X=X}.R w K w ! 4XI.L.oX*X=XfXjXkXbXbXbXzXbXzXlXdX%X*X+XR.OX3XR w w K ! >X%XoXP.=XqXfXjXlXzXzXbXbXzXlXfXdX&XOXOXE.*XrXq w w r W sXoXI.%X*X-XfXzXlXjXzXbXzXxXxXdX5X&X*XP.$X&Xn.r w w 9 ) 3XL.T.oX*X*XdXfXlXlXjXbXjXjXjXfXfX&X*X$XI.qXm.5 4 4 u.9XL.I.*XoX&XdXjXlXjXjXzXjXkXkXfXiX&X*X{.I.>X^ .   .     : O O O o # # # 2 o # % O O O # O O O O O O #     o   o # O O O # O O O O o O o = O O O O O O O O =           : : O : O , X X & O & & & & 2 O O & & & O & & & & & & 2 & O & #   h : & = &   # c c &.&.&.&.&.&.$.c   : , : : :       h = = ,     ",
"o   1 :   , = o o   o 1 # #   X 1 : : > > > o : : =   > > : > > < p .   : i < m   % = - - - i i s . @ 3 3 9 ).>XW.E.E.%X6XyXpXjXjXkXzXxXxXpXyX7X&X*X*X@X9Xg.9 w Y I _.OXR.I.$X&X0XyXkXzXzXkXkXkXzXlXfX2X*X$XoX*XhX! w w w U |.2XI.$XoXqXiXjXzXzXbXbXbXkXlXkXyX%X%X=X=X=X}.Q P q w ! 9XT.I.I.$X5XfXjXzXzXzXbXbXbXlXlXfX&X%XoX:X+X<XR w w L I <X%XI.*X&X5XfXxXjXlXzXzXkXpXjXjX0X%XOXXXP.=X<X9 r w e ! sXoXoX+XoXqXgXkXjXkXzXbXxXjXlXdXqXoX*X+X#X2Xb.g w w 0 ) 9XB.R.T.$X5XpXkXkXkXjXzXkXkXjXuX6X$X$X*XE.aXx.5 4 5 u.sXL.R.I.%X5XjXkXkXkXkXkXkXkXpXiX-X%X%XoXI.5X^ O   X .   > O # # # O # # % O O O O # O o # o o O O # # .   X . o : O : O O O O O O O O # O O O O O # O O O :     .     : : O : # ,   X & & & & & O 2 & O & 2 & & & & & & & & & & & & O   1 : & & &   ; $.$.%.%.&.&.&.$.$.*.  & > : & : o     h : = :   o ",
"O   1 &   , : o o   o h # O     1 > > > < < o : : #   > > , > > > 1     = p < B   o # = - > i a s . @ @ 3 4 ~.&XZ.E.{.%XiXcXuXcXlXbXxXjXxXgXyX5XoX$X%XXXeX[ w w w K J.%XI.I.oX&XiXjXkXzXkXkXbXbXkXjXyX5X%X*XoXOXhX! w K w U |.2XI.R.=X5XfXlXbXzXbXbXkXbXbXuX7X-X%X=X&X=X}.R w w 0 ! 8XR.R.I.oX>XjXlXlXlXzXzXbXbXlXjX0X-XOX*X$X+X5XR K I K ~ 2X%XoXOX%X=XfXjXjXlXbXzXzXkXgXuXyX5XXX+XI.%X<Xq r I r W aXI.I.oXOX-XgXjXkXkXjXkXzXlXjXgX6X*X$XXX+X=Xn.r w q 0 ) 3XL.R.OX*X5XjXkXjXzXkXjXlXjXjXjX6X>XoXoXE.sXm.4 5 4 u.aXL.R.oX%XqXjXkXkXbXpXjXzXkXpXuX6X%XI.$XI.3X^ X   . .   > # # O O O # # O O O # O O O # # o # # O O &     .   o # O : O O O O O O O O O O o O O O o O O O :     .     : , O & # : X X 2 & & O & & O & & O & & X O 2 & 2 O O & X & & O   h & & # #   j c c %.&.*.&.*.$.$.*.  : , & & ,       1 : O :     ",
"O   1 #   1 = o o     h # #     1 > > : < < O : : =   , > 1 < > < <     : p y B   O $ $ - - i i a . @ 3 8 9 ).%XZ.E.{.$X0XfXfXjXjXjXjXkXjXjX0X2X*X*X&X%X0Xg.w q w K G.:XL.R.$X>XuXjXjXjXjXkXkXzXfXfXuX5X>X+XXXOXsX~ K w P q #X3XE.{.%X0XpXkXbXkXkXkXkXkXzXjXfX5X*X%X%X=X;XR w w w ! 4XY.R.I.%X2XyXjXzXlXjXkXbXkXjXjXyX=X*XOXR.*XtXK K K L ! 3XoXoX>X*X3XjXjXzXzXbXzXkXbXjXjX0X2X>X+XoX*X<Xw P K 0 W aXoXoXoXOX6XuXjXpXkXjXjXzXkXxXfX5X%XOX@XI.:XG.g w w q ) 5XI.#XoX$X5XcXpXkXkXjXxXjXkXjXpXyX&X*XoXW.aXf.3 5 5 u.sXI.OXoX*X-XjXpXzXkXjXkXjXkXjXjX6X&XoX$XE.4X^ X   . .   > # # = O # O # # O O # O O # O O % O O & O O   . . . X # O O O O O # O # O O # O O O O = % O O O # .         : > O & & , X X O O & & O & & & & O & & & & & & & O & & & O O O   , & # # #   2 c c c %.*.%.*.$.c j   < > = = ,       h : = ,     ",
"X   , &   , & o X   X p X #     1 > : : > > O = : O   , > > : : < p     : < i m   O $ = > - t a d   + 3 3 4 ^.OXV.E.$X$X6XgXuXyXjXjXjXzXxXgXyX2X%X>X>XI.rX[ w w P L (.>XY.$X$X&XiXuXjXjXcXlXkXjXzXcXfX*X%X*X*XOXsX~ w w q q ,X2XE.I.$X-XpXzXzXkXkXbXzXbXzXkXyX&X%XOX$X-X$XR Y w w W 4XE.F.L.XX&XiXjXkXjXlXlXjXkXjXfX7X=X$X+X$X*X5XT w K I E >X;X#XI.&X5XyXjXbXkXkXjXkXkXjXuX6X*X:XOXoX=XtX9 K w 0 W sXI.P.XXoXqXuXgXkXuXzXkXxXpX0XfX0X&XoXP.#X2XG.w w w w ) 8XB.oXR.OX6XyXjXjXpXxXjXkXkXpXpXyX>X$XR.I.9Xm.5 5 3 u.sXL.oXoXoXqXuXjXkXcXkXjXkXkXpXuX0X&XoXoXP.8X^ o   X     > % % O O % O o # O # O O # O # # O O O O O =   X o   o : X O O # O # O # O O O # O O o O O O O O &     . .   , < O : 2 , X X & & # & 2 & & O & & O & O 2 O & & & & O & 2 O O   : : O # ,     j v c c $.$.c $.$.2   b = = & &       k & & :     ",
"X   < #   1 = o o   o p o #     p < : : : : O : : &   , : < < > < 1     : p i B   O = - - - y i s   @ 8 3 4 ).&XZ.Y.Y.$X5XiXgXjXyXjXgXpXuXcXfX&X%X%X%X*XeX[ w w r I J.OXT.].I.$XiXyXjXuXjXcXkXuXfXcXyX=X%XoXoX@XhXQ w w q q ,X2XE.%X%X>XjXjXkXjXpXkXkXbXjXlXdX5X*XoX=X-X}.R P w w ! 5X{.Y.R.E.5XfXjXlXjXjXuXjXkXjXfXdX*XXX+XT.+X<XK K K I ! >X$XR.T.$X5XuXjXjXuXjXjXkXjXjXgXiX>XI.oXI.%X<X9 P q r W aXI.I.I.I.0XiXuXuXjXjXjXuXgXjXuX5X$X+XoXoX:XG.g w w w ` qXB.T.T.I.&XfXiXuXuXpXpXuXpXjXuXiX&XoXI.L.9Xx.5 4 5 u.sXF.Y.I.I.qXfXyXpXpXpXpXuXjXpXyX6X&XI.I.E.5X^ o   . .   > # # O O # O O o O O # o o O O # O = O % O :   . X   o = # O O O % O O O # O O O O O O O # o O O :     .     : : O : & ,     & & 2 & & O & O & & & O & O & & 2 # & 2 & O X &   & 1 X # : &   2 j v v v $.j c j   b k & : : O       1 & O : X   ",
"O   < #   > & O X   o p O =     1 : : : < < O : : O   1 > > > > > <     = < > B   O $ # - - t i s X @ @ 3 4 ^.&XB.Y.F.R.&X5X0XyXiXuXyXkXuXuXyX>XoXXXoXI.8Xg.w w r U (.$XF.F.T.&XiXyXfXyXjXuXfXcXfXuX6X$XI.XXR.@XhXQ w r w q [.>XY.I.I.&X6XpXcXjXkXyXjXkXfXyX6X&XI.oXoXOX;XR r P e ! 8XB.Y.I.I.$X-XjXfXuXjXdXfXgXjXdX6XoXI.oX}.oX<XY w K K ! >XoXI.$XoX>XiXuXjXuXfXkXcXyXuXyX5X%XoXI.T.%X1X9 r w 0 E aXL.T.T.OX2X0XgXgXjXuXuXfXjXyX6X>X:XoXP.oXOXb.g K w q ) 8XF.Y.L.T.$X5XpXuXyXyXyXyXuXuXyX-X$XI.E.B.aXh.4 4 4 u.sXL.T.L.I.&X0XuXuXuXyXuXuXuXcXuX>X{.I.E.L.3XY X . X .   > O O O O O # # # O % % O # % o O o O O # O $   o     o = O O O # O O O O O O O # O O O O O O O O : .   .     : , O # X , X X & O O & & & & & 2 & O & & & & # & & & & & # O 2     1 O O # , O   2 j j j v j ;   1 A = = : :         1 : : ,   X ",
"O   < =   > = X o   X 1 O O     p : : : < < O : : O   , > > > > < <     = < < m   O = = = - i a s X @ @ 3 4 ^.$XZ.Y.L.T.$X&X6X6X5X6X0XiX6XiX5X$XT.I.oXP.9X{ w w r K (.].H.Z.T.{.>X-XiX6X6X-XiXyX5X-X>XI.T.I.T.oX0XQ q w w q |.&XL.E.P.oX>XiXiX5XyXiXyXyXyX-X%X$XI.P.T.%X}.I r w q ~ 3XF.T.L.T.R.>X6X6X6X0X5X0XyX0X5X2XI.I.I.Y.XX1XR w w K I 1X{.L.Y.E.$X>X0XiX6X6X6X6X-X6X&X>XE.T.I.T.XX<X9 w w e E 9XT.L.Y.T.$X5X5X0XdX6X6XiX6X6X5X%XI.U.T.T.>Xn.r w 0 0 _ 8XN.T.U.T.I.%X5X6X6X6X6X5XiX5X5X-X{.Y.Y.L.qXl.3 4 5 u.sXB.U.T.T.R.-XiXiX6XiX6XyXiXiX6X>X{.E.E.L.<X^ .   .     > O # # # O O # % O o O O O O O O O O O # O = o   X   o = O O # O O O O # O O O O O O O O O O o O :     . X   : : O # & , X X & & & & O & & 2 O & O & & & & & X & # & # O # X X   & : # # & h :     2 2 2 2   N H : O = : O     X   k : : >     ",
"o   , =   > = X o   o k O O   o 1 : : : < > O : & 2   > > : > > < p .   = < i B   O # - - - i i s   @ @ 3 4 !.$XN.F.F.L.R.E.oX$X$X$X%X&X$X>X$XR.L.T.R.V.8X{ q w r U ~.$XY.C.T.R.Y.{.&X%X$X$X%X$X$X%X:XI.R.L.T.I.9XQ 0 q q q  X$XF.Y.I.E.{.%X$X{.%X$X&X&X=X%X$XI.T.T.].OX].I r e 9 ~ <XF.Y.L.Y.Y.{.$X$X$XoX%X&X&XoX$XoXI.T.I.Y.I.<XK w w w Q :XR.L.E.L.{.$X&X>X%X>X&X$XoX&XoXR.L.L.L.L.OX,X9 r w e W aXU.F.T.L.Y.I.$X$X&XoX&X%X$X&X%XP.U.U.T.L.%Xl.r w e 0 ) <XN.F.F.U.L.$X>X$X>X:X>X{.&X$X{.I.Y.L.L.B.8Xm.8 5 3 d.eXC.H.L.T.L.$X&X&X;X>X&X$X&X$X$X$XI.F.E.L.<X^ O   . . . > O # # # # O o # O O o # o # o O O O O # O :   o . . o = = O O O O O O O O O O O O O O O O O O O :           : , # : # : X O 2 & O & & & O & & & & & O O O 2 & & & & O # # X X     , & # # # b D h O 2 2 b =.H : # : = :     X     1 : : : o   ",
"o   , :   > = o     o k # O     p : = : > < O : : O   < > : > > < 1     = < - m   % $ = - - > a s   @ @ 4 4 !.oXS.U.U.T.R.T.$XoX#X%XOXI.oX:XI.T.R.L.T.K.8X{ e e 0 K ~.R.H.F.L.T.P.R.OXI.oX#XXX#XoXoXI.I.R.T.U.W.sXQ 9 w w 9 |.;XF.F.L.T.I.I.oXoX&XoX%X#XoXoXoXR.T.L.Y.$X}.T g 9 0 ~ <XL.F.K.F.T.oXP.oXoXoXoXoXOX*X$XR.R.E.E.Y.W.&XY w q r L ;XI.S.L.L.T.I.oXoXoXXXoXoXoXR.I.T.oXL.E.L.$X,X4 e w 5 ! 9XZ.S.S.P.I.I.oXI.oX#X$XoXXX%XI.L.U.U.T.R.$Xx.e w 9 0 ) <XN.J.U.T.T.$XR.I.oXR.$XOXI.R.E.L.Y.L.E.Y.9Xg.3 4 3 f.8XC.F.T.Y.P.oXoX$XI.I.%XoXR.R.E.E.L.F.E.E.1XT o   o     > o = % # # O o O O % O O # O O O # O o # O =   o .   o # O % O O O O O O O O O O O O O O O O O O :     .     & : O : # , X X # # X = 2 & O & O & & 2 & & & & O & O & & X & O X     X 1 # # & X : J ,.4.6.:.h X & & & : X     o X   1 : & >     ",
"o o , #   > # o o     k o O   X p : : = , > O : : o   , > : : < < 1     = < i B   # # - - - > a s . @ 3 3 4 ^.:Xs.F.U.T.Y.Y.I.oXOXI.oXOXoXI.T.R.T.L.Y.W.8X{ 9 q w w ~.R.H.H.Y.T.I.P.%XI.I.OXI.oX$XoXoXL.R.R.Y.L.rXE 0 w w q ].$XF.H.Y.I.T.oXR.oXXXXXoXI.oXR.I.oXL.T.Y.R.{.Y 0 0 w I :XF.U.Y.L.V.#XR.I.I.oXoX#XoXoXR.T.R.L.L.H.P.;XK q w w I ,XT.U.L.P.I.T.OXoXT.OXoXoXI.oXT.T.T.I.R.Y.oX<X4 0 w e E 9XZ.K.'.U.L.I.U.P.#XoXP.Y.oXY.T.T.T.T.K.Y.:Xm.w w e 5 _ <XD.Z.F.Y.T.T.R.$XI.I.R.R.$XI.Y.T.R.Y.F.N.>Xh.4 4 4 d.eXC.Z.L.Y.R.T.oX;XE.I.oXR.$XI.Y.R.Y.T.F.B.;X^ X   . .   - # O 2 # o O # o # # % O O O # # o # o # O =   o o   o # O # O O o # o % O O O O O O O O O O O O :     .     : : # & # :   X = # # : & & & O & O & & & O O & O O 2 & O & 2 X X X     X , # & : #     X     X O & # : o       O     h = & ,     ",
"O   , =   < : o o   X 1   &     < = : : : < o = : O o < : : : < > < .   = p > m   O = - - t i a s . @ @ 3 3 ^.].v.F.C.Z.T.L.I.I.T.R.oXI.T.R.T.F.L.F.U.V.tX[ 9 0 e w ~.{.D.L.T.T.T.U.T.oXI.I.T.R.R.T.oXL.L.L.L.W.eXL 0 w w 9 |.,XF.L.L.L.T.T.Y.$XL.oXI.I.I.Y.R.R.Y.L.Y.R.}.Y w w w ~ 1XF.H.F.U.T.I.T.T.oXI.T.XXT.R.T.T.T.T.L.G.W.1XK 9 w w I ].T.Z.T.T.U.U.T.P.oXT.T.I.I.I.U.U.T.F.L.F.$X,X4 e w 9 L 9XU.S.F.U.T.U.T.T.L.T.U.T.P.T.R.F.L.T.K.H.}.l.e 9 w 9 _ >Xa.H.U.L.U.L.oXT.T.oXT.R.L.R.F.U.F.K.S.N.<Xx.3 4 3 j.3XC.L.U.U.Y.P.oXT.I.oXR.R.L.R.L.F.F.Y.F.a.1X^ .   . .   > O # # # O = 2 # # o O O # O o O o # # O # =   . o   o # # O O O O o O O O # O o O O O O # O O O : .         : , O O & , X X & # # # & O O & & O & O & & & O & O & & O & & X X X       O : & # = : & O # & O & : : X       o o o   h : = :   o ",
"O   , O   , = o o   X 1 X #     < : > > > < O : : O   > > : > : > <     = < < Z   O - - - - - i s . @ @ 3 4 ^.R.N.H.F.L.S.L.T.L.U.L.L.U.T.T.L.T.H.F.Y.B.<X{ 4 0 0 q ~.R.D.F.U.T.L.L.L.T.I.R.R.I.T.L.T.L.U.L.Y.I.eXQ 9 0 q q [.;XH.Y.L.L.U.T.L.T.T.T.R.T.L.I.Y.L.L.F.Y.R.Y.Y w w 0 ! :XC.F.H.U.U.U.U.U.T.U.OXT.L.L.Y.T.Y.F.Z.(.K.<XR 0 w K L |.U.G.U.U.L.T.U.P.oXT.T.U.T.U.U.U.Y.Y.L.H.;X:X4 r w 9 E 4XC.C.J.L.T.T.U.U.U.T.T.T.L.T.U.U.L.H.C.H.R.l.0 0 0 9 _ 1Xl.C.F.F.F.F.T.T.T.Y.R.Y.U.Y.L.F.L.S.U.N.<Xf.3 8 3 u.3Xz.C.F.S.F.L.U.T.U.R.R.L.T.Y.F.U.F.F.Y.N.1X^ o   o .   > O # o # # O O % O o O % O o # O O O o # % =   . o   o # # O O # O O o # O O O O # O O O O O o O :       .   : : & : O >   o = # # # & O & O O & O O X & 2 & & & O & & 2 & X O O         X # : & & & & O : : : O           o X o   p : = :     ",
"o   < =   , & o X   X 1 2 O   X < = = : > > O = : O   1 : > > > < <     = < < n   O = - - - i i s . @ @ 3 4 !.J.c.H.H.U.L.U.T.U.L.L.U.T.L.H.Y.U.L.Z.J.N.3X{ 4 q w w ~.U.A.C.Z.F.S.S.T.S.L.U.U.U.Y.I.L.F.T.U.J.B.eXI 9 w q 9 '.#XD.F.L.Y.U.F.F.I.T.Y.T.Y.U.U.R.Y.L.C.Y.R.}.Y w w 0 ~ :Xc.D.H.U.F.H.H.L.L.L.U.K.F.U.L.S.F.F.Z.G.W.;XI 9 q P I ].U.H.J.C.L.U.L.L.U.L.T.U.T.T.S.L.T.F.U.H.R.,X4 e q e L 4XA.S._.F.U.L.F.U.L.Y.U.F.T.U.U.U.T.F.F.J.R.l.e q 9 0 _ :Xs.H.Z.U.F.H.F.U.F.F.T.F.H.F.L.F.U.F.H.a.3Xg.3 8 3 u.<Xa.H.Z.Y.F.F.L.U.S.F.E.Y.F.L.U.F.U.F.F.N.,X^ o   . .   > O = # # O O o # # % O # O O o O # O # O O =     O   o = % O o # # O o # O O = O O O O O O X O O :       X   & : 2 & & , X X = O & O O & 2 & O & & 2 O & & O & O O & 2 & O & & X X             O # # O O O X           o o O O X   h : # :     ",
"o o > =   > & o o   o p # O   X 1 : : : < > O : = = o 1 : > : > > <     = < < B   O % = > t t a s   @ @ 3 4 !.Y.s.G.Z.L.L.F.Y.F.S.Z.U.U.T.L.F.T.F.H.H.N.1X{ 0 q 0 w ~.J.c.F.F.H.L.S.U.T.U.F.K.T.F.Y.U.Z.F.T.F.W.sXR 9 9 0 9 [.].D.D.Y.U.Y.Y.Y.Y.F.U.Y.U.T.F.F.F.Y.F.Y.Y.}.Y w e 0 I 1Xv.C.N.D.H.Y.F.U.U.L.].].U.U.F.F.H.F.C.G.E.,Xr 9 e w I [.H.Z.Z.C.Z.F.H.T.T.A.F.U.T.L.T.U.U.Y.F.G.I.,X4 e 9 5 L 4Xv.C.H.Z.U.U.H.L.L.F.U.C.Z.L.F.H.H.H.L.F.;Xx.e w w 9 _ 1Xs.G.H.J.H.H.Y.H.F.L.J.H.H.F.J.F.F.S.A.v.<Xg.@ 3 3 i.8Xs.G.H.U.Z.J.J.F.S.L.F.H.H.C.Y.F.F.D.H.a.}.g o . . .   - O O % # = O O # o # O O O O O O O O O O % # o   o   o # o # # o O o O O O O O O O O X X X O O O :           & , O O # : X X & 2 & & & & & & & & O & & & & & 2 & O & & & # & 2 # #                                 X   o o O O X   h , & :   o ",
"O   1 #   > = o X   X h O O     < > : : < : O : : O o > : < : : < 1     = p > m   # = - - > - i s . @ 3 3 4 !.}.z.D.H.Z.F.H.U.F.U.A.U.L.F.F.L.T.U.H.C.a.1X{ 4 9 0 9 ~.U.c.C.H.S.S.H.U.F.F.F.H.T.T.U.F.Z.H.U._.L.eXI 9 9 w 9 .X_.a.D.C.D.H.F.J.F.G.H.F.F.Y.H.U.T.D.H.U.Y.R.Y e 9 9 I ,Xu.c.J.H.F.T.H.U.J.F.U.U.H.D.L.F.D.F.S.J.Z.1Xr 9 e q P [.U.H.z.H.C.F.F.C.F.L.A.C.D.A.L.U.A.F.H.G.R.1X9 e q e L 4Xc.A.A.A.H.H.C.D.J.F.H.G.G.J.L.D.H.H.D.H.;Xm.e w w 5 _ ;Xp.G.C.H.A.C.D.H.Y.L.H.U.H.D.H.Y.D.A.c.p.3Xj.3 3 3 j.<Xs.G.C.J.A.S.G.F.R.F.Y.H.H.D.H.J.F.D.b.a.,X^ o   . .   > O = # O # O O O # O O O O O # O # o O O O =   . O   o = o # o # # o O O O O O O O O O O O O O O > .   X     & : & & & : X X & O & & & O 2 & O & O & & 2 2 O O & & O & X & & O O X X .                             X   o O o O     1 : 2 =     ",
"o   1 =   > # o o   X 1 O #     < : : : < = O = : O X : : : : > < <     = < i m   O $ # - - t i s . @ @ 8 4 !.Y.p.c.C.C.G.F.H.A.A.S.F.F.A.C.F.F.F.U.G.a.>X} 4 9 e w ~.H.c.A.A.S.F.C.H.H.D.H.F.U.F.H.J.F.F.F.G.D.8XL 4 9 q 9 .XY.l.G.H.C.C.H.D.H.H.C.J.L.G.H.D.H.H.D.J.Y.J.g e 0 e I 1Xp.G.G.D.J.F.D.F.H.G.G.H.F.H.H.H.H.C.Z.n.v.>Xw 9 9 4 I ].H.G.c.D.H.H.J.D.H.L.F.J.F.H.C.Z.'.H.D.c.T.,X4 9 9 4 L 3Xl.l.z.G.C.D.G.H.D.D.H.C.C.c.D.C.H.C.D.G.{.f.e w 0 4 ) ,Xk.G.z.A.H.G.G.A.H.G.D.G.G.H.D.c.D.J.C.p.1X[ @ 3 3 d.<Xv.b.c.H.H.G.D.J.H.D.D.G.D.J.G.C.H.G.c.p. XY O   . o   - # O % # # # O # O o O % O O O O o # O # % = . X X   o = o o O o o O O # O O O O O O O O O O O O &     X     : , 2 & 2 , X   & 2 & & & & & O & O & O & O & & & & O O & & O & O O # O o . X             .           X o O O o X X   1 & & = o   ",
"O   , =   , & O o   o 1 O O     < : : : < 1 = = : : = > : : : < > 1     = < > m   O = - - - - a s . @ @ @ 4 !.Y.p.b.D.D.G.G.H.D.H.S.G.F.G.C.H.c.D.D.G.s.1X{ 4 4 9 9 ~._.v.k.S.c.H.A.H.C.G.H.D.F.C.H.F.D.D.D.G.F.tXL 9 9 w 9 [.'.k.l.D.H.D.D.C.J.D.G.H.D.H.C.C.D.D.F.D.F.'.g e q 9 I wXd.c.c.D.G.C.H.G.D.A.H.C.G.G.z.G.D.A.C.n.Z.;Xw 0 e 0 K [.G.b.b.D.G.H.H.C.H.H.J.Z.H.D.D.H.H.G.D.b.R.|.4 w w 4 L 8Xl.k.l.c.G.b.G.D.H.G.G.c.D.A.b.H.G.b.C.c.Y.x.r w 0 9 ) ,Xu.G.b.b.C.D.G.b.D.G.b.G.D.G.D.D.D.G.D.k.wX[ @ 8 3 u.1Xk.b.D.D.z.D.G.D.D.D.b.D.b.H.G.b.G.D.G.v.,Xf O   X . . : % # # # O # % O O O # O O O O O O O O O % :   . o   o = O O O O O O O O O O O O O O O X o O O O = o   .     : : & & & , X X & O O & & & 2 & & O & & & & & & & X & & O 2 O & 2 # # X o o X X   X   X   X       X o o X o O O # O   : & O X   MX",
"o   1 :   1 & 2 o   O 1 O =     < > > : = n D A A A 1 > > > : : < <     = k < B   o # - = - - i l . @ 3 3 4 !.'.d.x.b.G.n.b.b.J.G.n.J.G.G.G.H.H.H.b.G.a.,X} 4 9 5 9 x.S.c.c.A.A.C.G.J.G.G.G.C.c.G.b.G.G.D.D.G.F.tXK 4 9 9 4 `.[.m.G.G.n.b.b.n.J.H.H.G.C.G.G.F.H.D.U.G.H._.e 4 0 4 I |.y.m.n.b.G.b.G.G.J.J.C.J.A.C.G.A.C.A.Z.G.F.;Xw 9 9 9 I  XG.c.b.b.G.G.G.J.H.G.G.G.H.C.J.J.D.G.G.n.Y.}.4 0 w 9 L rXx.l.n.G.l.b.J.G.c.G.b.G.G.J.G.G.G.G.D.c.}.f.r 0 9 4 _ ,Xf.b.b.b.D.b.G.D.b.n.G.J.n.G.b.G.b.k.c.k.,X[ @ @ 3 u.wXf.G.b.z.G.b.G.b.b.G.G.G.b.J.D.G.b.z.n.k. X^ O   o .   : O # # # # o # # O O O O O % O # O O O # O #   o X   o # O # # O O O O O # O O O O O O O O % O o :     .     : , & O # : X X & & & O O & O & O & & O O & & 2 & & & O O & O X   o                                                             MX",
"                      p 2 #     1 = : > : = O O O O : : = : > > > 1 .   = < > m   o # - - - t y a . @ @ 8 4 g.,X` g.x.f.l.x.f.x.c.l.k.l.k.k.c.k.l.l.m.i.<X' 4 0 e 9 /.'.f.f.d.l.l.f.p.f.z.p.k.p.l.c.A.c.l.b.c.C.<Xw 9 e 0 4 ~.|.i.f.k.d.l.k.l.k.d.d.n.f.c.l.k.k.b.u.k.J.~.9 4 0 9 q .XA.` f.f.k.x.k.b.m.c.p.l.l.c.k.(.l.l.l.k.oXY.w 0 4 9 q `._.d.x.l.x.d.l.c.c.c.b.b.c.l.v.c.v.l.l.u.}.'.3 5 q e q wXG.j.i.d.f.l.l.l.y.n.k.b.k.k.n.k.l.l.d.y.}.[ e 9 5 4 I wXy.f.u.u.p.y.f.f.u.k.p.u.d.f.i.f.f.f.x.y.tX' @ @ 8 ` rXu.f.u.k.l.u.m.k.l.l.l.l.l.m.u.l.l.f.m.p. Xg .   o     > # o . o o o . o o . o o o o . O . o o . # =   . X   o : o o o   o o o o o   o     o . . . o o = #     o     & : O 2 X ,   X & O O 2 O O O O O & 2 & O & O O & O O 2 O # X X D 6.,.6.1.:.:.:.:.:.:.:.=.=.H :.H H H H H H G G J D M A M :     MX",
"                    o 1 X #     1 : : : : : > : : < > > > : : > : 1 .   = i - m   % # # = - > i Z : . + 3 3 w [.,X'.'.].].].].].#X].oXoX].}.;X;X;X$XY.1X(.w 4 4 9 4 Q [.|.].].].}.}.|.T.;X}.;X;X;X;X;X;X;X}.].1Xj.9 9 4 9 9 L [.,X}.}.#X}.].].].oX}.].].].|.}.].;X}.{. X! 9 5 3 7 4 ' wX'.Y. X].#X#X;X;X#X,X;X,X}.#X;X#X#X;X$XrX_ 9 5 4 9 4 ' ,X}.].}.{.;X,XY.;X:X;X].;X;X#X#X;X:X:X1X,X_ 4 9 9 9 4 ] 3X].'.|.#X;X,X;X|.,X;X}.}.R.;X}.].;X|.,X XI 5 5 4 4 q [ rX'.'. X}.}.}.}.}.,X}.}.;X}.}.}. X}.'.;X(.9 3 @ 8 4 Q..XM.m.!.m.!.!.m.n.!.m.^.m.m.M.m.!.m.M.^.{ 8   . . O   O < i p i y > < i < < > , > < < 1 1 1 < i > o   . . .   = < < > < < > > > < < , < < , < < > : : O     .       & : O & # #   X O & & & & O & & O & O O & O & & & & & & & X X M J h 1 h 1 1 1 > , , , , , < , , , , 1 , < < > < 1 , > 1 N O     MX",
"    .   o 2 # X       h # X     , : : : > > = = : : : : : < : > > ,     = p < m   O $ # - $ > $ s X.: X @ 3 @ 9 ] g.[ g.g.[ g.g.j.[ [ g.j.g.h.h.M.g.g.{ q 4 3 4 4 3 4 L [ Q.g.g.g.g.g.g.[ g.g.j.h.j.g.g.g.g.j._ q 3 4 4 4 4 4 K { [ g.g.g.g.[ j.g.g.{ j.[ [ j.g.g.[ { L 4 4 4 5 4 4 3 ! g.g.g.h.h.g.f.g.h.g.f.g.g.h.h.h.Q.M.j.I 4 4 3 4 4 4 4 E g.[ g.g.h.f.f.h.h.h.g.g.f.g.[ g.g.[ [ E 9 4 4 4 4 5 9 ' g.j.g.g.[ j.[ g.[ [ [ g.g.g.g.[ g.g.{ q 3 4 3 4 4 3 4 ! { g.g.g.g.h.[ g.g.[ [ [ { { { { { { ' 9 3 @ @ + + . . % : * : : $ # $ = = $ # $ & # & & $ O o   . . . . .   . O O O O O O O % o O O O O O o O o O O   . . X . .       O o o O o o o o O X o X X o O o o       . .       o X X X X X X X X X X X O O X X O O X X O X 2 O X X o o X : D J O X O & # # O # # & # 2 O # & # O & # & O O O # O # & , X MXMXMXMX",
".     o M H 6.H O   o h X #     > : : : : : : : : > > < > : : > : <     = p - B   o # = $ - - > = l X.< . + @ + + @ @ + @ @ @ + + + @ @ @ @ @ @ @ @ @ + @ 3 3 3 3 3 @ @ 3 @ 3 @ @ @ @ @ @ 3 @ @ @ @ @ @ @ @ @ @ 3 @ 3 3 3 @ 3 @ @ @ @ @ @ @ @ @ @ @ @ @ @ @ @ @ @ @ @ 3 3 3 4 3 3 8 @ @ @ @ @ @ @ @ @ @ @ @ @ 3 3 @ @ @ @ @ @ @ @ @ 3 3 3 @ 3 @ @ @ 3 @ @ @ @ @ @ @ 3 3 3 @ @ @ @ @ @ @ 3 4 4 3 3 @ @ @ @ @ @ @ @ @ @ @ @ @ + @ @ @ @ @ @ @ @ @ @ @ 3 3 3 @ @ @ @ + @ @ @ + + @ @ + @ + + + + + + + + @ + + + + + + .   .                                       . . . . . .                                 .           . . X . .                                           .   .   o m :.:.,.:.:.,.:.,.:.:.:.=.:.:.:.:.H :.:.:.:.:.H H H :.:.=.H 6.D & # : & & # & O : & & = # & # & & & & # & # & O : # : &   MXMXMXMXMX",
"      b b 1 h J H X   1 & #   X < : : : : : : : : > : > : : < < < < .   = < < B   o # # = = - > > - y -.p . + + . + + + + + + . + + + + + + + + @ + + + + @ @ @ @ @ @ @ + + + @ + + + + + + + + + + @ + @ @ + @ @ @ @ @ @ @ @ + @ + @ + + @ + + + @ + @ + + + @ @ + @ @ @ @ @ 3 @ @ @ @ + @ + + + + + + + + @ + + @ + + + + + + @ @ @ @ @ @ @ + @ @ + + + @ + + @ + + + + + @ + @ + @ @ @ @ @ @ @ @ @ + + + @ + + + + + @ + + @ + + @ + + + + @ + @ @ @ @ @ + @ @ + + + + + + + + + + + + + + + + + + + + + + + . + . + . + . + . . + . . . . . . . . . . . . . . . . . . . . . .   .   . .   . . . . .   . .     . .   .     .   .   .   .   . .         .         .   . .   .   o b b b N n n b M M b M M b m b N b b M M b b b b b b b b b b b 1 & 2 = & & & # # = : = & & # # & 2 O X O & & # # O # : # MXMXMXMXMXMXMX",
"MX  < M : : > : D D     : &   X < = : : > : = : = : > : : > : : : <     # < - m   o # $ - - - - > - > : o.> . + + + + + + + + + + + @ + + + + @ + + @ + @ + @ + @ @ @ @ @ @ + @ @ @ @ @ @ @ @ @ @ @ @ @ @ @ @ @ @ @ @ @ @ @ @ @ @ @ @ @ @ @ @ @ @ + + @ + @ @ @ @ @ @ @ @ @ @ @ @ @ @ 3 @ @ @ @ @ @ @ @ @ @ @ @ @ @ @ @ @ @ @ @ @ @ @ @ @ @ @ @ @ @ @ @ @ @ @ @ + @ @ @ @ @ @ @ @ @ @ @ @ @ @ @ @ @ @ @ + @ @ @ @ @ @ + @ @ @ + @ @ @ + @ @ @ @ @ @ + @ @ @ @ @ @ @ @ @ + @ + @ + @ @ + + @ + + + @ + + + + . + + + + + . . . . + . . . . . . . . . . . . . . . % . % . . . . . . . .   . . . . .   .   . . . .   . . . . . . X . . . . . . . .     . . . . . X .   . .   . .     b 1 = > > > > : : : : : : , : : : & & & : : : & & : , : : & : & : & & # & 2 O # # O O # O = # = & O & & 2 O O O & O & # MXMXMXMXMXMXMXMX",
"MXMXp , = : = = = H M     =     1 : : : : : : : > : , : : , : > : < o   = < > m   o # - - = - - > y t > i  .< o X + X X X + X + X + % + % + % % + + % % % % % + % % % + % + % + + % % + % % X + + % % + % % % % % % + % @ % % % % + + % + % + X % + % + % + @ % @ % % @ % % % % % + % + % + % + + % + + % % % @ % % + % % % % % % + + + + % % % % % % % + % X + % + % % + + + + % % + % % + + + % % + + + % % % + % % % + % + + + % + % % % % % % % + X % + + + % X X . + + X + + + X % + X X + + X X X X . X X . X X X .   . X   X     X . .   X X   X   X   X .   o   X X       X     o X     o         X   X                                                               X b 1 : : , : > > & > : > : : : & : : : : : & : & : = = & # : O # = & # # # : O O # # O # # # # # O O O & # O = O & O : O   MXMXMXMXMXMXMXMX",
"MXMXO > : : : = = = H D X       < : : : : , : > > : 2 > , : > > > 1     O < ; m   o # # - = = > - > i - - l ;.-.-.o.-.-.>.o.X.o.o.o.o.o...o.>.o.O.O.o.>.O.O.;.o.o.>.O.O.o.O.o.>.>.o.<.O.O.<.O.<.O.O.O.<.<.<.O.o.O.<.<.<.O.<.O.<.<.<.O.<.<.<.O.O.o.;.>.<.<.>.<.;.<.O.<.;.;.<.<.<.>.2.<.2.<.<.2.;.<.<.>.;.;.<.<.;.<.<.<.<.;.<.-.2.2.<.2.<.<.<.<.;.;.<.O.O.<.<.<.<.O.;.<.>.>.2.>.<.<.<.<.2.2.<.,.<.<.<.<.<.<.2.<.<.<.<.<.<.2.2.<.<.2.<.>.O.O.<.<.>.<.<.<.<.2.<.>.<.<.<.<.<.<.>.<.>.>.<.>.>.O.<.<.>.>.>.>.O...-.-.....-...:.:.-...#.o.=.>.:...:.#.......=.H H =...H H H H H H H =.....H H H H H J H H J H H D G H H H H H J H H J H J H J J H H D J H J J H J H D D D D J J J D M b 1 & : : : : > : > : & & : : : : : : : : & : : : : : # & : : & & = & O O O O # O O # = & # # # O : O : O O O O # O & o   MXMXMXMXMXMXMXMXMX",
"MXMXMX: : = : : : = = D V o     > : : : & : : : : : : > : > : : > 1     & < > n   o # $ = - = - - - < > y > i V V C S S S S S C S C C C C S S S C C C S C C F C S S | S C | C | S | S F F F | | | C C | | | | | C | | | | | S | | | | | | | F | | | | | | | | | | | | | | |  .| |  . . .| | | | | | | | | |  .| | |  .| |  .| | | | | | | |  .| | | | | | |  . . . .| |  . . .X. . . . .|  .X.| | X.| | | X. .|  .| |  . . .H | X.| | | | | | ..|  .| | |  . .G J  .| | H | ..J J | | | J | | J F H J J | F G F G G F | J H J G G G | G H G F F F J J D F D D D D D D D D D D D D D D D D D D D D D D D A D D D D D V A D D A A V D A A A A A A A A A A D A M M M M M M M A b : : : # : : & O O O O O O O O O O O O O O O O X X o O o o o O o X o o o X o X X X o X o X X X X X o o o o o O o o X X MXMXMXMXMXMXMXMXMXMXMX",
"MXMXMX  & > : : : : & O V D o   : : : > , : , , > > > > < > > , 1 1     : < > b   o $ # = = - > - > - i > y > : - - - - $ > - - > > t y - - - t > - y $ $ 6 t y 6 t t t y 6 6 y y - - y 6 y 6 t y t t y 6 t t y y t y 6 y - t t y y t y 6 > y 6 u t y y y y t t y y 6 y y t t u t y u y y u u u i t y t y u u t u t y y y t t t y y y 6 y t t t y u y y y y t y y y u > y u y y 6 y y i 6 y t y y t y > t t t y y $ y > 6 6 > y i t > y > t y y y p 6 p y t t > 6 > y > y y > 6 y y > - > * * 6 - > 6 - > - - - - : > - > y : : > > : : : : : - $ : : : : = $ - > : > $ : : : : : : : * : : & * : : : : : : * : : = : = = # : & : # * : & : & & & # # = O & # & # : O & & & : & : : : : .                                                                                                   MXMXMXMXMXMXMXMXMXMXMXMXMXMXMX",
"MXMXMXMXMX# < : : = O : = D M     o X # & X O O & X # X 2 O O O O X     = < > l   O # = - = - : > - > - - - y y y > - t t $ - t t t > t y 6 > t $ y u > t - t 6 y y y t y t y y y t y > y u y t t t 6 y t u y t t u y y u t t u u y y y y y y y y 6 y u u u u u t u u t t u u u u u u y u a u u t a u y y u u t t t u y u u u u y u u u t u u t u u t u u a t u u y y u y u i u u y y u t y u y y t u t u t > u a i a i i u i u u y y > u > u y y y t u u y y y y y y y - y y y y i y > - y y > y 6 - > y > t > - - - > - y > > y > - - > $ y > : > - > - > > > > $ > > > > - & - - $ * : $ * $ = : : * $ : : : : # * * : & : : : # : : * : : = : : : = = : # : & & # & & : : * : > :         .               . .       .           .                     .   .             .     .         MXMXMXMXMXMXMXMXMXMXMXMXMXMXMX",
"MXMXMXMXMXMX: > : : : : = = H n & = 2 # 2 & O 2 2 X & 2 O X O & O = = : > > > k   O # # : - - - - - - - y > - > > - t > y y y y t 6 y y t 6 y y y u y u y u y y y y t t 6 t t t u u y y y y u u y u u u u i t u y u y > u u t u u y y u u u u u u u u u u y u u u u 7 u u u y u u u u u u u u a a u u y u u a u u u u a s u u u u y u y y u u u u u u u u a u u a u u u u u a u u u u u y u u u u u u t u u u u t u u y u y a u a u i u u u y u p s y - > u y y u u y y y y y y y y u i u a y y i a y u y t > $ y > t - > - > t > > y > t > > : > : > y - > : : $ : $ : > - > * : : * & : : * : : - $ : * : $ : : : * > : : : : $ : : : : : $ $ : & # : $ * # & & & & # & & : : : O           . X X X   . X .     . . X . X . .   X . . . X . X X   .     . .   o       . X .           O   MXMXMXMXMXMXMXMXMXMXMXMXMXMXMX",
"MXMXMXMXMXMXMX= > : : : : = < G J H J J D J D D J D D D D D J J H H H G > > < n   % = = - = - = = > > > # # $ = # $ # # $ # % # # # $ $ # $ # # # $ $ # $ # # $ * # $ # $ # $ # $ $ $ # $ $ * - $ > = $ $ - $ $ $ $ $ $ $ $ $ $ $ $ $ $ - $ * * $ - $ $ $ - $ $ $ $ > $ $ $ - $ - $ t * t - - $ > $ $ $ $ - $ $ : $ - - $ - $ $ = $ $ $ $ $ $ $ - $ * $ $ $ $ $ - $ > $ $ # $ $ $ $ * $ $ $ $ $ $ # - $ $ $ $ $ - - $ $ $ $ - - $ : $ # $ = $ $ * - $ $ $ $ # % * $ # $ * * * * # $ $ # * $ # $ * $ : # $ # # # $ # % # # # # $ O # $ # $ # # # # # # # # # # % # # O # # # # # O # % O # # O # $ O # O # O O O # # O O O O O O o O O O O O O o O o o X o o o X o o X X X O O O o       . . . . X X X X   o . X . X . . X     X   X   .   . . . o   o o   o o   . . .               X X   MXMXMXMXMXMXMXMXMXMXMXMXMXMXMXMX",
"MXMXMXMXMXMXMX  = : = : = : = : : : : : : : : , : , > : > : , : > > > : ; > > k   O $ = = - = - = - %                                                       .   .                             .                 .                             .                       .         .     .                               . .                             .       .                       .                                                                                                                                                                                                                                                                                           .     . o o o X X X X X X X o o . o o o o o o o o   X X X X X o X o o o o   o o o o O X X o X X X X . MXMXMXMXMXMXMXMXMXMXMXMXMXMXMXMXMX",
"MXMXMXMXMXMXMXMX  # > : : = > : : > > : > : : > : : : > : > < : : > > : > < < l   O $ = # : = - - #       .   . . . . . . . . . . . . + + . . + . . . + . . . . . . . . . . . . . . . . . . . . . . . . . . . . . . . . . + . . . . . + . + . . . + . . . . + . . + + . . . + . + . . . + . . + . . . . . + . . . . . . . + . . . . . . + . . . . . + . . . . . . + . + . . . + . . . . . . . . . . . . . . . . . . . + . . . + . . . . . . . . . . + . . . . .   . . . . . . . . . . . . . . . . . . . .     .     . . . . . .     . .   .         .                           . .     .                                                                                         .     o o . o . o X   o o . o . X X   o o   . o o o   o o o . . o   o o X X o o X o X   o   o o O   MXMXMXMXMXMXMXMXMXMXMXMXMXMXMXMXMXMX",
"MXMXMXMXMXMXMXMXMXMX= > : : : : : : : = : : : > : : : , : : : : > > > = - > > k   o # = $ : $ : $   . X # $ $ $ % $ $ @ $ $ @ $ $ $ $ $ - $ $ @ $ $ $ $ - $ @ $ @ $ @ $ @ 8 $ 6 8 % $ $ @ 6 $ 8 6 $ 8 $ $ 8 6 $ 8 6 8 $ @ 6 8 $ 8 6 8 $ $ 6 8 8 6 6 8 8 6 $ $ 8 8 $ y t 8 6 6 8 6 - 8 $ 6 8 6 y 6 8 6 6 8 t 8 $ 6 t 8 6 6 $ $ t 6 8 6 $ $ 8 8 6 6 - 8 6 6 8 6 6 8 $ 6 $ $ 8 8 $ $ 6 8 8 $ 8 6 6 8 6 8 6 8 6 8 - $ 6 t 6 6 6 8 $ t 6 8 6 6 8 $ $ 8 6 $ $ 8 6 $ $ $ $ @ $ $ - $ 8 $ $ @ $ $ $ $ $ @ $ $ - $ $ $ - $ $ $ $ $ # $ $ - $ $ # $ % % $ $ $ % # % % $ $ % + @ # O $ # % % % % % % # % % % # % % % % % % + X % % X % % % % # % X % + % # X O + # + X X X X X O .   . % o # = # = = : = : : : $ : : : & : : : O = # : & : = & # = : # = # : : : : = O = = : O # # = = O # : MXMXMXMXMXMXMXMXMXMXMXMXMXMXMXMXMXMXMXMX",
"MXMXMXMXMXMXMXMXMXMXMXO , : : < < < < > < > < > 1 , : < , , < < 1 > > < < < < p   o # # O = : #                           o . . .   . . .   .     . . . . o .   .   . . . . .   . .   . . . . . o   . . . .   . . . o   o . o . o o .   o .   . . . . o . . o . . . . . . . X . . . . . . . . . X X . X . o . . o . . . . . . . . . . . . . X X . o X . . X . X . . . . . . . . . X . o . . X . . . . X . X . . . X . X . o . . . X . . . . . . X . . . . . . o . . . . .     o o   . . .   o       . . .   .     . .     .     .   . .   .   .       . .       o     .   . .       . .   X   .   .   . .                     .       .                       .           o o o O O O O O O O # # O O O O O O O O # O O o O O O o O o O o O o O O O O O o O O O o O o o o O O X . MXMXMXMXMXMXMXMXMXMXMXMXMXMXMXMXMXMXMXMX",
"MXMXMXMXMXMXMXMXMXMXMXMXo O O o O o O O O O O % O # O X O X X 2 O O O % O O = O   % % # : : %   MXMXMXMXMXMXMXMXMXMXMXMXMXMXMXMXMXMXMXMXMXMXMXMXMXMXMXMXMXMXMXMXMXMXMXMXMXMXMXMXMXMXMXMXMXMXMXMXMXMXMXMXMXMXMXMXMXMXMXMXMXMXMXMXMXMXMXMXMXMXMXMXMXMXMXMXMXMXMXMXMXMXMXMXMXMXMXMXMXMXMXMXMXMXMXMXMXMXMXMXMXMXMXMXMXMXMXMXMXMXMXMXMXMXMXMXMXMXMXMXMXMXMXMXMXMXMXMXMXMXMXMXMXMXMXMXMXMXMXMXMXMXMXMXMXMXMXMXMXMXMXMXMXMXMXMXMXMXMXMXMXMXMXMXMXMXMXMXMXMXMXMXMXMXMXMXMXMXMXMXMXMXMXMXMXMXMXMXMXMXMXMXMXMXMXMXMXMXMXMXMXMXMXMXMXMXMXMXMXMXMXMXMXMXMXMXMXMXMXMXMXMXMXMXMXMXMXMXMXMXMXMXMXMXMXMXMXMXMXMXMXMXMXMXMXMXMXMXMXMXMXMXMXMXMXMXMXMXMXMXMXMXMXMXMXMXMXMXMXMXMXMXMXMXMXMXMXMXMXMXMXMXMXMXMXMXMXMXMXMXMXMXMXMXMXMXMXMXMXMXMXMXMXMXMXMXMXMXMXMXMXMXMXMXMXMXMXMXMXMXMXMXMXMXMXMXMXMXMXMXMXMXMXMXMXMXMXMXMXMXMXMXMXMXMXMXMXMXMX",
"MXMXMXMXMXMXMXMXMXMXMXMXMXMX  .                   .   .                 .       o # % = = o MXMXMXMXMXMXMXMXMXMXMXMXMXMXMXMXMXMXMXMXMXMXMXMXMXMXMXMXMXMXMXMXMXMXMXMXMXMXMXMXMXMXMXMXMXMXMXMXMXMXMXMXMXMXMXMXMXMXMXMXMXMXMXMXMXMXMXMXMXMXMXMXMXMXMXMXMXMXMXMXMXMXMXMXMXMXMXMXMXMXMXMXMXMXMXMXMXMXMXMXMXMXMXMXMXMXMXMXMXMXMXMXMXMXMXMXMXMXMXMXMXMXMXMXMXMXMXMXMXMXMXMXMXMXMXMXMXMXMXMXMXMXMXMXMXMXMXMXMXMXMXMXMXMXMXMXMXMXMXMXMXMXMXMXMXMXMXMXMXMXMXMXMXMXMXMXMXMXMXMXMXMXMXMXMXMXMXMXMXMXMXMXMXMXMXMXMXMXMXMXMXMXMXMXMXMXMXMXMXMXMXMXMXMXMXMXMXMXMXMXMXMXMXMXMXMXMXMXMXMXMXMXMXMXMXMXMXMXMXMXMXMXMXMXMXMXMXMXMXMXMXMXMXMXMXMXMXMXMXMXMXMXMXMXMXMXMXMXMXMXMXMXMXMXMXMXMXMXMXMXMXMXMXMXMXMXMXMXMXMXMXMXMXMXMXMXMXMXMXMXMXMXMXMXMXMXMXMXMXMXMXMXMXMXMXMXMXMXMXMXMXMXMXMXMXMXMXMXMXMXMXMXMXMXMXMXMXMXMXMXMXMXMXMXMXMXMXMXMXMXMX",
"MXMXMXMXMXMXMXMXMXMXMXMXMXMXMX. . . . . . . X X . . . . o   O o X O X X . o O o o # % # o MXMXMXMXMXMXMXMXMXMXMXMXMXMXMXMXMXMXMXMXMXMXMXMXMXMXMXMXMXMXMXMXMXMXMXMXMXMXMXMXMXMXMXMXMXMXMXMXMXMXMXMXMXMXMXMXMXMXMXMXMXMXMXMXMXMXMXMXMXMXMXMXMXMXMXMXMXMXMXMXMXMXMXMXMXMXMXMXMXMXMXMXMXMXMXMXMXMXMXMXMXMXMXMXMXMXMXMXMXMXMXMXMXMXMXMXMXMXMXMXMXMXMXMXMXMXMXMXMXMXMXMXMXMXMXMXMXMXMXMXMXMXMXMXMXMXMXMXMXMXMXMXMXMXMXMXMXMXMXMXMXMXMXMXMXMXMXMXMXMXMXMXMXMXMXMXMXMXMXMXMXMXMXMXMXMXMXMXMXMXMXMXMXMXMXMXMXMXMXMXMXMXMXMXMXMXMXMXMXMXMXMXMXMXMXMXMXMXMXMXMXMXMXMXMXMXMXMXMXMXMXMXMXMXMXMXMXMXMXMXMXMXMXMXMXMXMXMXMXMXMXMXMXMXMXMXMXMXMXMXMXMXMXMXMXMXMXMXMXMXMXMXMXMXMXMXMXMXMXMXMXMXMXMXMXMXMXMXMXMXMXMXMXMXMXMXMXMXMXMXMXMXMXMXMXMXMXMXMXMXMXMXMXMXMXMXMXMXMXMXMXMXMXMXMXMXMXMXMXMXMXMXMXMXMXMXMXMXMXMXMXMXMXMXMXMXMXMXMXMXMXMX",
"MXMXMXMXMXMXMXMXMXMXMXMXMXMXMXMXMXMXMXMXMXMXMXMXMXMXMXMXMXMXMXMXMXMXMXMXMXMXMXMXMXMXMXMXMXMXMXMXMXMXMXMXMXMXMXMXMXMXMXMXMXMXMXMXMXMXMXMXMXMXMXMXMXMXMXMXMXMXMXMXMXMXMXMXMXMXMXMXMXMXMXMXMXMXMXMXMXMXMXMXMXMXMXMXMXMXMXMXMXMXMXMXMXMXMXMXMXMXMXMXMXMXMXMXMXMXMXMXMXMXMXMXMXMXMXMXMXMXMXMXMXMXMXMXMXMXMXMXMXMXMXMXMXMXMXMXMXMXMXMXMXMXMXMXMXMXMXMXMXMXMXMXMXMXMXMXMXMXMXMXMXMXMXMXMXMXMXMXMXMXMXMXMXMXMXMXMXMXMXMXMXMXMXMXMXMXMXMXMXMXMXMXMXMXMXMXMXMXMXMXMXMXMXMXMXMXMXMXMXMXMXMXMXMXMXMXMXMXMXMXMXMXMXMXMXMXMXMXMXMXMXMXMXMXMXMXMXMXMXMXMXMXMXMXMXMXMXMXMXMXMXMXMXMXMXMXMXMXMXMXMXMXMXMXMXMXMXMXMXMXMXMXMXMXMXMXMXMXMXMXMXMXMXMXMXMXMXMXMXMXMXMXMXMXMXMXMXMXMXMXMXMXMXMXMXMXMXMXMXMXMXMXMXMXMXMXMXMXMXMXMXMXMXMXMXMXMXMXMXMXMXMXMXMXMXMXMXMXMXMXMXMXMXMXMXMXMXMXMXMXMXMXMXMXMXMXMXMXMXMXMXMXMXMXMXMXMXMXMXMXMXMXMXMXMXMXMX",
"MXMXMXMXMXMXMXMXMXMXMXMXMXMXMXMXMXMXMXMXMXMXMXMXMXMXMXMXMXMXMXMXMXMXMXMXMXMXMXMXMXMXMXMXMXMXMXMXMXMXMXMXMXMXMXMXMXMXMXMXMXMXMXMXMXMXMXMXMXMXMXMXMXMXMXMXMXMXMXMXMXMXMXMXMXMXMXMXMXMXMXMXMXMXMXMXMXMXMXMXMXMXMXMXMXMXMXMXMXMXMXMXMXMXMXMXMXMXMXMXMXMXMXMXMXMXMXMXMXMXMXMXMXMXMXMXMXMXMXMXMXMXMXMXMXMXMXMXMXMXMXMXMXMXMXMXMXMXMXMXMXMXMXMXMXMXMXMXMXMXMXMXMXMXMXMXMXMXMXMXMXMXMXMXMXMXMXMXMXMXMXMXMXMXMXMXMXMXMXMXMXMXMXMXMXMXMXMXMXMXMXMXMXMXMXMXMXMXMXMXMXMXMXMXMXMXMXMXMXMXMXMXMXMXMXMXMXMXMXMXMXMXMXMXMXMXMXMXMXMXMXMXMXMXMXMXMXMXMXMXMXMXMXMXMXMXMXMXMXMXMXMXMXMXMXMXMXMXMXMXMXMXMXMXMXMXMXMXMXMXMXMXMXMXMXMXMXMXMXMXMXMXMXMXMXMXMXMXMXMXMXMXMXMXMXMXMXMXMXMXMXMXMXMXMXMXMXMXMXMXMXMXMXMXMXMXMXMXMXMXMXMXMXMXMXMXMXMXMXMXMXMXMXMXMXMXMXMXMXMXMXMXMXMXMXMXMXMXMXMXMXMXMXMXMXMXMXMXMXMXMXMXMXMXMXMXMXMXMXMXMXMXMXMXMXMXMX",
"MXMXMXMXMXMXMXMXMXMXMXMXMXMXMXMXMXMXMXMXMXMXMXMXMXMXMXMXMXMXMXMXMXMXMXMXMXMXMXMXMXMXMXMXMXMXMXMXMXMXMXMXMXMXMXMXMXMXMXMXMXMXMXMXMXMXMXMXMXMXMXMXMXMXMXMXMXMXMXMXMXMXMXMXMXMXMXMXMXMXMXMXMXMXMXMXMXMXMXMXMXMXMXMXMXMXMXMXMXMXMXMXMXMXMXMXMXMXMXMXMXMXMXMXMXMXMXMXMXMXMXMXMXMXMXMXMXMXMXMXMXMXMXMXMXMXMXMXMXMXMXMXMXMXMXMXMXMXMXMXMXMXMXMXMXMXMXMXMXMXMXMXMXMXMXMXMXMXMXMXMXMXMXMXMXMXMXMXMXMXMXMXMXMXMXMXMXMXMXMXMXMXMXMXMXMXMXMXMXMXMXMXMXMXMXMXMXMXMXMXMXMXMXMXMXMXMXMXMXMXMXMXMXMXMXMXMXMXMXMXMXMXMXMXMXMXMXMXMXMXMXMXMXMXMXMXMXMXMXMXMXMXMXMXMXMXMXMXMXMXMXMXMXMXMXMXMXMXMXMXMXMXMXMXMXMXMXMXMXMXMXMXMXMXMXMXMXMXMXMXMXMXMXMXMXMXMXMXMXMXMXMXMXMXMXMXMXMXMXMXMXMXMXMXMXMXMXMXMXMXMXMXMXMXMXMXMXMXMXMXMXMXMXMXMXMXMXMXMXMXMXMXMXMXMXMXMXMXMXMXMXMXMXMXMXMXMXMXMXMXMXMXMXMXMXMXMXMXMXMXMXMXMXMXMXMXMXMXMXMXMXMXMXMXMXMXMX",
"MXMXMXMXMXMXMXMXMXMXMXMXMXMXMXMXMXMXMXMXMXMXMXMXMXMXMXMXMXMXMXMXMXMXMXMXMXMXMXMXMXMXMXMXMXMXMXMXMXMXMXMXMXMXMXMXMXMXMXMXMXMXMXMXMXMXMXMXMXMXMXMXMXMXMXMXMXMXMXMXMXMXMXMXMXMXMXMXMXMXMXMXMXMXMXMXMXMXMXMXMXMXMXMXMXMXMXMXMXMXMXMXMXMXMXMXMXMXMXMXMXMXMXMXMXMXMXMXMXMXMXMXMXMXMXMXMXMXMXMXMXMXMXMXMXMXMXMXMXMXMXMXMXMXMXMXMXMXMXMXMXMXMXMXMXMXMXMXMXMXMXMXMXMXMXMXMXMXMXMXMXMXMXMXMXMXMXMXMXMXMXMXMXMXMXMXMXMXMXMXMXMXMXMXMXMXMXMXMXMXMXMXMXMXMXMXMXMXMXMXMXMXMXMXMXMXMXMXMXMXMXMXMXMXMXMXMXMXMXMXMXMXMXMXMXMXMXMXMXMXMXMXMXMXMXMXMXMXMXMXMXMXMXMXMXMXMXMXMXMXMXMXMXMXMXMXMXMXMXMXMXMXMXMXMXMXMXMXMXMXMXMXMXMXMXMXMXMXMXMXMXMXMXMXMXMXMXMXMXMXMXMXMXMXMXMXMXMXMXMXMXMXMXMXMXMXMXMXMXMXMXMXMXMXMXMXMXMXMXMXMXMXMXMXMXMXMXMXMXMXMXMXMXMXMXMXMXMXMXMXMXMXMXMXMXMXMXMXMXMXMXMXMXMXMXMXMXMXMXMXMXMXMXMXMXMXMXMXMXMXMXMXMXMXMXMXMX"
};
