/* XPM */
static const char *player4_xpm[] = {
/* columns rows colors chars-per-pixel */
"396 81 240 2 ",
"   c #020402",
".  c #040A04",
"X  c #080B07",
"o  c #070B08",
"O  c #0A0D0A",
"+  c #020708",
"@  c #021502",
"#  c #031B03",
"$  c #071409",
"%  c #0C120C",
"&  c #0C1B0D",
"*  c #081A07",
"=  c #10130F",
"-  c #101D0F",
";  c #0F1410",
":  c #0E1A11",
">  c #081419",
",  c #111612",
"<  c #141A15",
"1  c #181C17",
"2  c #171D18",
"3  c #191E19",
"4  c #060E13",
"5  c #042303",
"6  c #052C03",
"7  c #092D06",
"8  c #0A240A",
"9  c #0B2C0A",
"0  c #082406",
"q  c #063303",
"w  c #093406",
"e  c #063B03",
"r  c #0A3B05",
"t  c #0B340A",
"y  c #0C3B09",
"u  c #0F2311",
"i  c #132415",
"p  c #132916",
"a  c #162419",
"s  c #1B231B",
"d  c #162A19",
"f  c #1A2B1C",
"g  c #182617",
"h  c #1B321E",
"j  c #163419",
"k  c #103B0E",
"l  c #20241F",
"z  c #0A1C27",
"x  c #1F2420",
"c  c #1E2D20",
"v  c #1D3421",
"b  c #1D3921",
"n  c #0C2537",
"m  c #0F2634",
"M  c #212622",
"N  c #242B25",
"B  c #262D28",
"V  c #292E2A",
"C  c #282B27",
"Z  c #223324",
"A  c #26342A",
"S  c #2A332C",
"D  c #2A392D",
"F  c #213924",
"G  c #2E3C32",
"H  c #2E3530",
"J  c #313632",
"K  c #343B35",
"L  c #393E3A",
"P  c #373C38",
"I  c #0B4306",
"U  c #0C4A06",
"Y  c #0D4209",
"T  c #084705",
"R  c #124A0C",
"E  c #0E5308",
"W  c #14540C",
"Q  c #155A0C",
"!  c #184E12",
"~  c #195311",
"^  c #1C5D12",
"/  c #185511",
"(  c #146509",
")  c #166D09",
"_  c #1A6C0C",
"`  c #16640B",
"'  c #1B730B",
"]  c #1B780C",
"[  c #1D6212",
"{  c #1C6B12",
"}  c #1D7410",
"|  c #0D6006",
" . c #216C16",
".. c #237913",
"X. c #217A0F",
"o. c #2E4233",
"O. c #324536",
"+. c #344639",
"@. c #3B433D",
"#. c #344A39",
"$. c #344938",
"%. c #0D2D44",
"&. c #11314B",
"*. c #133857",
"=. c #0F3148",
"-. c #3D4640",
";. c #3E4B42",
":. c #424642",
">. c #434B45",
",. c #464D49",
"<. c #494E4A",
"1. c #46544A",
"2. c #4B534D",
"3. c #4A5B4E",
"4. c #45564A",
"5. c #4C5D51",
"6. c #4F5550",
"7. c #535B55",
"8. c #545955",
"9. c #4E6251",
"0. c #536555",
"q. c #566558",
"w. c #59665B",
"e. c #4D614F",
"r. c #5E6762",
"t. c #636B65",
"y. c #666E69",
"u. c #66726A",
"i. c #69746C",
"p. c #6A796E",
"a. c #647067",
"s. c #6D7C72",
"d. c #6B7771",
"f. c #727D75",
"g. c #747C77",
"h. c #1F8B0C",
"j. c #248C0E",
"k. c #22850D",
"l. c #25940E",
"z. c #28990E",
"x. c #258C11",
"c. c #288815",
"v. c #269311",
"b. c #2A9514",
"n. c #2C9B15",
"m. c #2E9C19",
"M. c #2B9716",
"N. c #319C16",
"B. c #329D1B",
"V. c #30951A",
"C. c #2BA80D",
"Z. c #2EA415",
"A. c #2EAA14",
"S. c #2FA218",
"D. c #2CA715",
"F. c #31A516",
"G. c #31AC16",
"H. c #32A41A",
"J. c #33AC19",
"K. c #3AAB1E",
"L. c #39A51E",
"P. c #34B316",
"I. c #36BA16",
"U. c #39BC16",
"Y. c #35B319",
"T. c #39B51B",
"R. c #36B919",
"E. c #3ABC1A",
"W. c #38B616",
"Q. c #2FB60F",
"!. c #369B23",
"~. c #348E24",
"^. c #39A523",
"/. c #3BAD23",
"(. c #3AA726",
"). c #3CB425",
"_. c #3EBA24",
"`. c #3EB428",
"'. c #3FA231",
"]. c #41A92C",
"[. c #41BC26",
"{. c #43B42B",
"}. c #43BB29",
"|. c #42B526",
" X c #45B231",
".X c #40B324",
"XX c #3BC216",
"oX c #3DC31A",
"OX c #3EC91A",
"+X c #39C514",
"@X c #39C710",
"#X c #3FC223",
"$X c #41C51B",
"%X c #44CA1C",
"&X c #49CC1E",
"*X c #41CA16",
"=X c #44D31C",
"-X c #4AD51E",
";X c #53D01F",
":X c #43C324",
">X c #45CC22",
",X c #4BCD22",
"<X c #45C22A",
"1X c #4BCC2A",
"2X c #49C72A",
"3X c #51CF23",
"4X c #4CD223",
"5X c #4CD727",
"6X c #54D323",
"7X c #5AD625",
"8X c #5CD926",
"9X c #52D42C",
"0X c #5EDA28",
"qX c #53DB27",
"wX c #56D834",
"eX c #4DCC32",
"rX c #64DD2A",
"tX c #6ADE2D",
"yX c #61DB27",
"uX c #69DF33",
"iX c #53E22C",
"pX c #5AE532",
"aX c #57E92C",
"sX c #66E02C",
"dX c #6CE12E",
"fX c #6EE330",
"gX c #60E139",
"hX c #74E533",
"jX c #79E636",
"kX c #7AE936",
"lX c #7DEA39",
"zX c #78E837",
"xX c #69EB33",
"cX c #6F8174",
"vX c #718175",
"bX c #76847A",
"nX c #81EC3C",
"mX c #85EF41",
"MX c #7B9083",
"NX c #000001",
/* pixels */
"NXNXNXNXNXNXNXNXNXNXNXNXC <.>.>.:.<.<.:.>.>.<.,.-.>.;.>.:.>.1.,.>.1.>.1.<.>.5.2.r.;.NXNXNXNXNXNXNXNXNXNXNXNXNXNXNXNXNXNXNXNXNXNXNXNXNXNXNXNXNXNXNXNXNXNXNXNXNXNXNXNXNXNXNXNXNXNXNXNXNXNXNXNXNXNXNXNXNXNXNXNXNXNXNXNXNXNXNXNXNXNXNXNXNXNXNXNXNXNXNXNXNXNXNXNXNXNXNXNXNXNXNXNXNXNXNXNXNXNXNXNXNXNXNXNXNXNXNXNXNXNXNXNXNXNXNXNXNXNXNXNXNXNXNXNXNXNXNXNXNXNXNXNXNXNXNXNXNXNXNXNXNXNXNXNXNXNXNXNXNXNXNXNXNXNXNXNXNXNXNXNXNXNXNXNXNXNXNXNXNXNXNXNXNXNXNXNXNXNXNXNXNXNXNXNXNXNXNXNXNXNXNXNXNXNXNXNXNXNXNXNXNXNXNXNXNXNXNXNXNXNXNXNXNXNXNXNXNXNXNXNXNXNXNXNXNXNXNXNXNXNXNXNXNXNXNXNXNXNXNXNXNXNXNXNXNXNXNXNXNXNXNXNXNXNXNXNXNXNXNXNXNXNXNXNXNXNXNXNXNXNXNXNXNXNXNXNXNXNXNXNXNXNXNXNXNXNXNXNXNXNXNXNXNXNXNXNXNXNXNXNXNXNXNXNXNXNXNXNXNXNXNXNXNXNXNXNXNXNXNXNXNXNXNXNXNXNXNXNXNXNXNXNXNXNXNXNXNXNXNXNXNXNXNXNXNXNXNXNXNXNXNXNXNXNX",
"NXNXNXNXNXNXNXNXNXNX+ M P s 2 s 2 x x 2 x x x x M x x x M M V V B S H G K K K K 2.f.-.NXNXNXNXNXNXNXNXNXNXNXNXNXNXNXNXNXNXNXNXNXNXNXNXNXNXNXNXNXNXNXNXNXNXNXNXNXNXNXNXNXNXNXNXNXNXNXNXNXNXNXNXNXNXNXNXNXNXNXNXNXNXNXNXNXNXNXNXNXNXNXNXNXNXNXNXNXNXNXNXNXNXNXNXNXNXNXNXNXNXNXNXNXNXNXNXNXNXNXNXNXNXNXNXNXNXNXNXNXNXNXNXNXNXNXNXNXNXNXNXNXNXNXNXNXNXNXNXNXNXNXNXNXNXNXNXNXNXNXNXNXNXNXNXNXNXNXNXNXNXNXNXNXNXNXNXNXNXNXNXNXNXNXNXNXNXNXNXNXNXNXNXNXNXNXNXNXNXNXNXNXNXNXNXNXNXNXNXNXNXNXNXNXNXNXNXNXNXNXNXNXNXNXNXNXNXNXNXNXNXNXNXNXNXNXNXNXNXNXNXNXNXNXNXNXNXNXNXNXNXNXNXNXNXNXNXNXNXNXNXNXNXNXNXNXNXNXNXNXNXNXNXNXNXNXNXNXNXNXNXNXNXNXNXNXNXNXNXNXNXNXNXNXNXNXNXNXNXNXNXNXNXNXNXNXNXNXNXNXNXNXNXNXNXNXNXNXNXNXNXNXNXNXNXNXNXNXNXNXNXNXNXNXNXNXNXNXNXNXNXNXNXNXNXNXNXNXNXNXNXNXNXNXNXNXNXNXNXNXNXNXNXNXNXNXNXNXNXNXNXNXNXNX",
"NXNXNXNXNXNXNXNXNX  M :.< < < < , , , , ; < ; < ; : ; < , , = > ; ; ; ; : < > 2 ; 1.MX+.NXNXNXNXNXNXNXNXNXNXNXNXNXNXNXNXNXNXNXNXNXNXNXNXNXNXNXNXNXNXNXNXNXNXNXNXNXNXNXNXNXNXNXNXNXNXNXNXNXNXNXNXNXNXNXNXNXNXNXNXNXNXNXNXNXNXNXNXNXNXNXNXNXNXNXNXNXNXNXNXNXNXNXNXNXNXNXNXNXNXNXNXNXNXNXNXNXNXNXNXNXNXNXNXNXNXNXNXNXNXNXNXNXNXNXNXNXNXNXNXNXNXNXNXNXNXNXNXNXNXNXNXNXNXNXNXNXNXNXNXNXNXNXNXNXNXNXNXNXNXNXNXNXNXNXNXNXNXNXNXNXNXNXNXNXNXNXNXNXNXNXNXNXNXNXNXNXNXNXNXNXNXNXNXNXNXNXNXNXNXNXNXNXNXNXNXNXNXNXNXNXNXNXNXNXNXNXNXNXNXNXNXNXNXNXNXNXNXNXNXNXNXNXNXNXNXNXNXNXNXNXNXNXNXNXNXNXNXNXNXNXNXNXNXNXNXNXNXNXNXNXNXNXNXNXNXNXNXNXNXNXNXNXNXNXNXNXNXNXNXNXNXNXNXNXNXNXNXNXNXNXNXNXNXNXNXNXNXNXNXNXNXNXNXNXNXNXNXNXNXNXNXNXNXNXNXNXNXNXNXNXNXNXNXNXNXNXNXNXNXNXNXNXNXNXNXNXNXNXNXNXNXNXNXNXNXNXNXNXNXNXNXNXNXNXNXNXNXNXNXNXNX",
"NXNXNXNXNXNXNXNXNXC >.2 ; 2 < < , 1 , 1 < 2 < < 2 < < < , 2 2 2 < < 2 2 2 3 2 a 3 ; 1.s.J NXNXNXNXNXNXNXNXNXNXNXNXNXNXNXNXNXNXNXNXNXNXNXNXNXNXNXNXNXNXNXNXNXNXNXNXNXNXNXNXNXNXNXNXNXNXNXNXNXNXNXNXNXNXNXNXNXNXNXNXNXNXNXNXNXNXNXNXNXNXNXNXNXNXNXNXNXNXNXNXNXNXNXNXNXNXNXNXNXNXNXNXNXNXNXNXNXNXNXNXNXNXNXNXNXNXNXNXNXNXNXNXNXNXNXNXNXNXNXNXNXNXNXNXNXNXNXNXNXNXNXNXNXNXNXNXNXNXNXNXNXNXNXNXNXNXNXNXNXNXNXNXNXNXNXNXNXNXNXNXNXNXNXNXNXNXNXNXNXNXNXNXNXNXNXNXNXNXNXNXNXNXNXNXNXNXNXNXNXNXNXNXNXNXNXNXNXNXNXNXNXNXNXNXNXNXNXNXNXNXNXNXNXNXNXNXNXNXNXNXNXNXNXNXNXNXNXNXNXNXNXNXNXNXNXNXNXNXNXNXNXNXNXNXNXNXNXNXNXNXNXNXNXNXNXNXNXNXNXNXNXNXNXNXNXNXNXNXNXNXNXNXNXNXNXNXNXNXNXNXNXNXNXNXNXNXNXNXNXNXNXNXNXNXNXNXNXNXNXNXNXNXNXNXNXNXNXNXNXNXNXNXNXNXNXNXNXNXNXNXNXNXNXNXNXNXNXNXNXNXNXNXNXNXNXNXNXNXNXNXNXNXNXNXNXNXNXNXNXNXNX",
"NXNXNXNXNXNXNXNXV L 2 , < ; 3 C M M M M C M M C M M C C M M C C M M M M C V 4 O < < < 4.cX-.NXNXNXNXNXNXNXNXNXNXNXNXNXNXNXNXNXNXNXNXNXNXNXNXNXNXNXNXNXNXNXNXNXNXNXNXNXNXNXNXNXNXNXNXNXNXNXNXNXNXNXNXNXNXNXNXNXNXNXNXNXNXNXNXNXNXNXNXNXNXNXNXNXNXNXNXNXNXNXNXNXNXNXNXNXNXNXNXNXNXNXNXNXNXNXNXNXNXNXNXNXNXNXNXNXNXNXNXNXNXNXNXNXNXNXNXNXNXNXNXNXNXNXNXNXNXNXNXNXNXNXNXNXNXNXNXNXNXNXNXNXNXNXNXNXNXNXNXNXNXNXNXNXNXNXNXNXNXNXNXNXNXNXNXNXNXNXNXNXNXNXNXNXNXNXNXNXNXNXNXNXNXNXNXNXNXNXNXNXNXNXNXNXNXNXNXNXNXNXNXNXNXNXNXNXNXNXNXNXNXNXNXNXNXNXNXNXNXNXNXNXNXNXNXNXNXNXNXNXNXNXNXNXNXNXNXNXNXNXNXNXNXNXNXNXNXNXNXNXNXNXNXNXNXNXNXNXNXNXNXNXNXNXNXNXNXNXNXNXNXNXNXNXNXNXNXNXNXNX, x l x M x x l l l l M x x 3 l l x x l 3 l 3 x x 3 x M 3 3 3 3 3 1 1 x 3 3 3 3 3 3 3 1 1 1 1 3 1 , 1 , , 1 , 3 , NXNXNXNXNXNXNXNXNXNXNXNXNXNX",
"NXNXNXNXNXNXNXS P 2 , 2 < 2 t.g.d.d.g.g.g.g.g.g.g.MXg.g.bXg.g.g.g.g.g.f.g.g.P   < < < : ;.cX1.NXNXNX.                   . .         .       .             .     .     .   . .         . .       .       . .   .   .   .   .   . .     . +   . . .       . . . . .   .     .   . . .   . . . . .   . .   .   . .   . . .       . . .   .   .   .   .   .   . . . . . . . . .   . . .       .   . . . . . .   . .   . . . .     . . NXNX. . .     NXNX.   .   .     .   .   . .     . .     .       .       . . . . . . + . + .   . .             .                         +           .           .       .             .           .       .         .                 2 -.8.6.8.8.6.6.6.6.<.<.2.<.<.<.6.<.<.<.<.<.:.<.<.<.,.:.:.:.:.:.:.@.:.:.:.@.@.@.:.:.L :.L P K L L J P P J P P P P J ; NXNXNXNXNXNXNXNXNXNXNXNXNX",
"NXNXNXNXNX+ V K , 2 2 , , 3 x 2 3 x l 3 3 3 s l x x x x M M M x M M x x s N L   < 2 1 i % @.cX3.o NX3 @.@.;.>.:.>.;.;.1.>.@.@.;.1.1.;.4.,.,.>.1.,.3.4.4.4.3.2.3.3.2.4.2.3.4.4.3.3.3.3.3.3.3.3.4.3.3.5.3.3.3.5.5.9.5.3.3.3.9.5.5.5.2.5.5.5.5.3.5.5.3.3.3.3.3.3.3.3.4.3.4.5.9.5.3.4.3.5.5.3.5.e.3.5.9.3.3.3.3.e.5.3.9.3.3.5.4.3.3.4.3.4.4.3.3.5.5.3.3.3.3.5.9.5.5.3.9.5.3.5.5.5.5.3.3.4.e.3.3.5.5.5.5.5.5.7.e.3.3.3.3.4.4.3.3.3.4.2.5.5.5.2.4.3.3.5.5.5.5.3.2.4.4.4.3.3.3.2.2.2.3.2.3.2.4.4.1.1.1.1.1.1.1.2.<.1.>.>.>.>.;.>.;.>.;.>.;.;.;.-.@.@.;.;.;.;.@.@.@.@.@.@.@.@.@.;.@.@.@.@.-.-.-.:.:.@.-.-.-.L -.-.-.@.@.@.P @.L P @.@.P @.@.@.L P K J J K J J J K G S V C 3 4 3 H 3 , , , , , , 1 1 1 1 < < < < 2 2 < 2 1 1 1 < < 2 2 2 , , , 1 1 , , , , = , = , , , , , , , , , = , = = , , , = 3 C NXNXNXNXNXNXNXNXNXNXNXNXNX",
"NXNXNXNX  V @., < , 2 < 2 < x x l l l M l M N M M M M M M M M M N x N N M N J   : < < < s < ;.bX6.+ & x N A Z Z A Z B A A v A Z D D D D D A S S D D D o.o.D o.G o.D o.G o.o.G O.O.o.G D O.O.o.O.o.o.o.o.o.o.o.#.O.O.o.o.o.O.O.#.#.o.o.o.#.O.#.#.O.O.#.#.O.o.O.O.O.O.#.o.#.O.O.#.#.O.#.#.O.o.#.#.#.#.#.#.@.#.#.#.#.#.#.#.#.o.#.#.$.O.#.O.O.#.#.#.#.#.$.O.#.#.#.#.#.O.O.o.o.O.#.#.#.#.$.#.#.O.#.O.O.#.O.O.O.$.O.#.#.O.#.#.#.#.o.O.+.+.+.#.#.o.O.#.#.+.+.+.+.O.#.#.+.#.#.+.#.#.#.+.+.+.#.+.+.+.+.O.O.G O.O.O.+.o.O.O.O.o.O.o.G O.G K O.o.G O.G D G K K G G D D D D G G G G K G G K G G G K O.O.O.K K G G G H H H G D S S S A S S S S B A A B B B C N c x x x x x s 3 , , 3 , 2 3 3 x l l l l l M M M M M M M M x M l M M s x 3 x x x x M M 3 M x 3 x x 3 x 3 M 3 M 2 x 3 1 3 l 2 1 3 3 3 3 3 3 l M NXNXNXNXNXNXNXNXNXNXNXNX",
"NXNXNXNXV P , < 2 , 2 , 2 2 3 3 s 3 M s 3 3 3 3 s 3 l 3 3 x l s s s s 3 a x H   % < < < < a 2 +.MXq.% . X   X X . o . $ $ $ O O % O $ $ $ $ $ $ $ $ o $ O * O $ $ $ * $ $ $ O $ $ $ % O $ $ $ $ & & % % % $ $ $ $ $ $ & $ & $ $ % & $ $ $ % $ & & $ $ $ $ $ & $ * $ & * $ $ $ $ * & $ $ $ $ & $ $ $ $ > $ $ & $ $ $ & $ * & $ $ & * & & $ $ % & $ * $ & & & % & & & $ & & % & $ & & * & & $ & * & * * % & & & * & & * & & * $ ; & $ & & $ * & $ $ $ $ & & $ $ & % $ $ $ $ % $ $ $ $ $ % $ % % & % % $ $ $ % % $ % O $ % % % & $ $ o $ $ o O O o X % O % % O $ % $ O % $ O O O % % O % % O O O % % O O O O O O X $ O % O O O O O X X O O O O O O X O + + O = O + X + = = , , , , 2 , 1 1 3 l 3 l l l 3 M 3 3 1 l 3 3 3 x 3 3 3 3 3 2 1 1 2 3 3 3 3 3 3 3 1 1 1 1 2 2 3 1 3 3 , 1 , , 3 3 3 3 , M l NXNXNXNXNXNXNXNXNXNXNX",
"NXNXNXV J , , , < 2 , 2 2 3 x 3 3 3 3 s s 3 3 3 s 3 3 3 3 s s s s s s x 2 x H   % < < 1 a s 2 < #.bXq.N l M N N N N N N N N C Z Z N N N S C N V Z N Z Z Z V Z B A A Z B A B Z S S A S Z A S S S A A A A A A A A S A A A A A A A b A A A A A A A A A A A S A A A D S Z A D A A A A A A S A A A A A A D A D D A D D A A D A A A A A A A A A D D G D A A S A A D D S A A S D A A D A A D A D D A A A D A A A A A A D A A D A A D A A A A A A A A G S D S A A D A S D A D S A A S A V A A V A S A N A S V A S Z B B A B B B S N B N B B N B B N N N Z N N N N N N C C N C M N N N C N M M N N C M N N M C M C c C C N N N M N N N M M C M C M C M l M M M l M M M l M l l N M l 3 , X 1 1 1 3 3 3 3 3 3 3 l l l 3 l 3 x 3 3 3 3 3 3 1 3 2 3 3 1 2 2 1 2 3 2 1 , 1 1 3 1 1 1 3 3 3 1 1 3 1 , , 3 1 , s 3 NXNXNXNXNXNXNXNXNXNX",
"NXNXV V < < 2 , , 2 , < 1 < o + X X O O O + O X O X X X O O X X O + o < 3 x S   % : < i < a s 2 i -.t.a.t.u.u.y.u.a.t.a.a.u.i.p.i.a.i.i.i.p.u.u.p.u.a.i.i.i.p.p.s.d.d.d.s.s.p.d.d.d.p.f.s.d.s.d.p.p.d.s.s.s.d.s.s.s.i.s.p.s.p.p.s.p.s.p.p.s.p.p.s.p.p.p.s.p.s.s.f.s.d.s.s.f.s.s.f.s.cXcXvXcXcXcXcXcXcXs.vXbXvXcXvXs.cXcXs.s.cXcXs.f.vXvXvXbXcXcXvXvXcXvXvXvXvXcXs.cXvXvXvXvXs.vXf.vXcXcXvXvXvXvXs.s.cXcXcXcXs.s.cXs.s.s.s.vXcXp.cXf.cXf.s.s.s.s.cXs.s.cXs.cXs.f.s.f.s.vXs.f.p.f.s.p.p.p.d.d.p.p.p.d.p.i.p.u.d.p.d.i.i.i.p.u.u.p.i.u.u.t.u.y.a.u.u.i.u.y.y.i.y.y.y.t.y.y.t.t.y.u.y.t.t.y.t.t.y.t.y.y.t.y.y.t.y.t.t.t.t.t.t.r.t.r.r.t.t.y.t.w.r.r.t.t.t.t.t.t.t.t.t.8.7.w.t.8.8.2.M X 1 1 1 3 3 3 3 s 3 3 3 3 l 3 3 3 3 3 < 1 3 2 1 2 1 1 1 2 1 3 1 2 , 2 , 1 1 1 1 1 , 1 1 , 1 3 1 1 , 3 , , , 1 2 3 3 NXNXNXNXNXNXNXNXNX",
"NXH H , > < , < 2 < , 2 , +     +     +   +   X X     + +   + .       , 3 s S   % : < < < 2 a a s a < < 3 g g 3 a 1 < a 1 3 3 i s i g s i g i g s 2 1 s g g d a g g s g a a s g g a a i a g a s d a g a g a a 2 a a i 2 i a a a a a i a a a d a a a a s g d a i d a a a f d x d f g g g a a a i a a d a a a d i d f f s c c x d s g s g a a d a a a a a d d a a d a a d a d f g d g a p a g a s a a a i a d s g d a g s a a i a s g a g a d d a i s a s s s g s s s a s s a s s s 1 s s 2 s s s s 3 i 1 1 3 3 3 2 2 2 3 1 1 2 2 2 a 1 2 3 s 2 2 1 1 1 < 1 1 < 1 2 2 < 2 3 1 1 3 1 1 1 1 , 2 1 1 < 1 < < 2 < , 1 2 1 , 2 1 2 1 1 1 < , 3 3 1 1 1 1 , 1 , , < < < 1 1 1 3 3 3 3 C <.1 + 1 3 3 3 3 l 3 3 3 3 l 3 3 2 1 1 3 3 3 < 3 3 1 , 1 1 2 2 , 1 1 1 1 1 2 , 1 1 1 1 1 1 , 1 , , , 3 , 1 , 1 , < 2 M 1 X NXNXNXNXNXNXNX",
"NXM 2 < ; < , , 1 , < <       = ; ; ; ; ; , , < , , , < < , < < O     ; 3 x J   % : < < a < < a 1 a a f f f c c f f f d d h v N v h v f h Z Z h v f h f h h h h v v v h h Z v v Z v v v v v v v v c h v c b v v v c c c v v v v v v v b c v v v v v b v b v v h v b b h v v b b v h b b v F b v b v v v v v v b v v b v c v v v h F v b v v F h v v v j v b v v v v h b b h h b b F F F F v h v v v v v Z h h h Z v F v v v v v Z F Z h Z v F Z h Z h Z h Z Z h v v c c Z v N v f f N N v f N f h Z c c f N c f s c x f f N f s N g s s s l s s g s l s s s s s 3 s s s s c l s s s s s l f s l l l s s s 3 l g g 3 g 3 s s s 3 3 l g 3 l l 3 s s 3 s 3 3 3 3 3 3 3 3 3 l 3 l 3 1 -.3 O 1 3 3 3 1 3 s 3 1 3 3 1 2 1 1 1 < 2 1 2 , , 3 1 1 , , 1 , 1 1 1 1 1 < 1 , 3 , 1 1 1 1 , 1 3 1 1 , 1 , 1 , < , l ,   NXNXNXNXNXNX",
"  , < < 2 , , 2 , 1 ,         , ; , ; ; , < , , < < < < 2 , , 2 =     , 3 a S   % < < : < < a < a a a a d g f f d f d f d d d f f f d f h d f d d d f f d f d d d d f f j j j f h f d f f h h h c h h v v v h j j v j v c d j c j d d c j v v j v d h h f h h h v v h h c j d h f h h h h v d v h h v j j v c c c j v c j v v v h h d h f h j h h d f h h h h h h h f h h h f h j h h h h h h j v v h c f j h h h h f h c h d c f h h f h h f h f f h d f f d j d f f c f c f f f c f f f f f g g s d s s s g s s f s s s s s s s s s a s 3 g i 3 3 g 3 3 s g 3 3 3 3 < 3 3 3 3 3 s 3 3 g 3 3 3 3 3 1 g g 3 3 3 1 < 2 3 3 3 1 3 1 3 1 < 1 3 1 < , 1 1 1 < < 1 2 < < < < 1 3 1 1 < 1 J 3 O , = , , , , , , = , = = , = O , = = = , = = = = = = = , , , , = O = = = = = 4 = = = = = 4 = = = = = = , , = O < NXNXNXNXNXNXNX",
"  , < , , 2 2 , 1 ,           < ; , , < 2 < 2 , 2 , < , , , < 2 ,     , 2 a H   $ : < < i a 2 a a a a a f d f f f h f h f f h h f v h h v h h h h f h h h h f j h f h h h j h v v h v v h b h v v v v b v v b j v v v b v c v v b b b v v b v v b b v b b b h h b b j v j b h h h b b b b b b b b b b b b b b v b j b b b b b j b b h h v v h F h h b b h b b b b b b b v b v v b F h F F Z h h v b j v h F b h v v v b v v v v h Z F h v v h h h h h h Z v v h v v h v c v f f Z f v c c c v Z f f c f c f c c c f f c f s g s s f s s s g g s l s s s s s s s s s s s l l s g s l s s l l l s s 3 3 3 3 3 3 3 3 3 3 3 3 3 3 3 3 s 3 3 3 3 3 3 3 3 3 3 1 3 3 3 3 3 3 3 3 3 3 1 1 , 3 H V L :.L P L L L L L L L P L P P P P L P P P P L L L L L J J P P P P P P P P J K J J J J J J J J J J V J J J J J V J < NXNXNXNXNX",
"+ O 2 , , 2 , 2 =     X , +   < ; , , , < , , < 2 < 2 1 2 , < 3 ,     ; 3 a S   % < : < < < < i a a d c < $ O O O % O O $ O $ $ O $ $ O O O * O $ O $ O $ $ O $ $ $ O $ % O $ O $ $ $ O o % % $ $ % $ $ % $ $ % $ $ $ $ $ $ $ $ $ 4 $ $ $ $ $ $ % % $ $ $ & * $ % $ % $ $ $ & $ % & % $ % $ $ $ $ % & % ; $ & $ $ & % $ & $ $ $ % * & % % * & $ & $ % $ $ $ % $ % % & $ $ & & $ % $ & $ $ $ $ % $ % $ $ % % $ & % $ & % % $ % $ $ % $ % % $ % % $ % $ $ $ % $ $ $ O $ O $ % $ % O O % $ % O O $ O % % % O O O O O O O O O O o O O O O O O O O O O X O O O O O + O O O X X X O O O O O O X X X X X X X X + X O X X X X X X X X . + X O X X X X X X X O X O + O . O + O X O O , 3 < 1 1 3 V >.>.:.:.>.<.>.<.<.:.<.<.:.<.:.:.:.<.<.<.:.:.:.<.<.:.:.:.:.:.:.:.:.:.:.:.:.:.:.:.@.@.@.:.L L L L L L L L L :.:.@.>.J < NXNXNXNX",
"    O 1 < , < O       3 <   + < , , , , < , < 1 , < , 2 < < , 3 ,     , s 2 B   ; : < : : a < i a i c ; . .           .     . .   . . . . . . . . . . . . . . . . . . . . . . . . . . . . . . . . . . . . . . @ . . @ . @ . . @ . . @ . . . . @ . . @ . . . . . . . . . @ . . @ . @ . . . . . . . . . . . . @ . . . . . . . . . . . . . . . . . . . . @ . . @ . . . . . . @ . @ . . . @ . . . . . . . . . . . . . . . . . . . . . . . . . . . .   . .   . . .   . .   . . . .   .   . .   . .       .                                                                                                                                                                         , 1 2 1 1 1 , , < , < , < < < < 3 1 < , < 1 < , 1 , 1 , 1 1 < < , < , , , < 1 < , 1 1 , 1 , , < < , 1 , , , , = = , < , 1 1 , 1 C NXNXNXNX",
"                    2 3 O     3 , , < < < < 1 3 3 1 3 < < 2 , 3 2     , 3 s S   % < : : : < < < a c :   . . @ @ @ @ @ @ @ @ @ @ # # @ @ # @ @ # @ @ @ # @ @ @ @ # @ @ @ # @ # @ # # # # @ # # # # # @ # # @ # @ @ @ @ @ @ # @ # # # # @ # @ # @ @ # @ # @ # @ # # # # @ @ @ @ @ @ @ # # # @ # # # @ # # @ # @ # # # # # # @ @ # @ @ @ @ @ @ # # # # # # # # # @ # # # # # # @ # # # # # # @ @ @ @ # # @ # @ # # @ # @ # # # # # # # @ # # @ @ @ @ @ @ @ @ @ @ @ @ @ @ @ @ @ @ @ @ @ @ @ @ @ @ @ @ @ . @ . . . . .   . .         .                       .                                                                                                                       < 3 1 3 1 3 l s l l 3 l l s 3 M l l l M M M 3 l l 3 s 3 3 l l 3 l 3 l M 3 l l 3 l l 3 l l l 3 3 l 3 l l 3 3 3 3 3 3 3 3 3 3 3 3 V O NXNX",
"                  + M % O   + 3 < , , , , , , , , 1 , , < < = 1 2     , 3 a S   % : : < < a i a v %   . . @ @ @ @ @ @ @ # # # # # # * # # * # * # * # # # # # # # # # @ # # # # # # * # # # # * # # # # # # # # # # # # # 5 # # # # # # # # # # # * # 5 5 # * # # # # 5 # # # # # # # # # # # # # # # 5 # * * # # # # # # # # # # # # # # # 5 # # # # # # # 5 * 5 # # 5 # # # 5 # # # # # # # # # # # @ # # # # $ # # * # # # # # # # # # # # # # # @ # # # # # # # # # @ # # # @ # # # # @ & # @ * @ @ . . . . . . . . . . . .   .   .     .     .         .         .     +         .                               .                                                           < 3 3 3 3 3 3 l 3 3 3 3 3 3 3 l l 3 3 l 3 3 l M l l 3 3 M 3 M l 3 l 3 l 3 3 3 l 3 2 3 l 3 3 l 3 3 3 3 3 3 3 3 3 3 3 1 2 3 3 3 3 M NXNX",
"  = +   O = O     O M O O   X 3 , +                         X 2 2     , s 2 V   ; : : : : 2 i c %   . @ @ @ 0 R R ! ! ! ! / / / / / ! W / / / / / / Y 5 5 # 5 5 5 5 t ~ ! ~ ~ ~ / W W / / / / / / ~ / ~ ~ ! w 5 5 # 5 # 5 5 t ! ! / ~ W ~ ~ ~ ~ ~ ^ / / / / ^ / / ~ w 5 5 5 5 5 5 5 y ! R ! ! ~ ~ / / W / W / / W ! ~ ! ~ W 6 5 5 5 5 # # 5 y / ! ! ~ ~ ~ / ^ / / / / / / / / / ^ ~ 6 # 5 5 5 5 5 5 r ! ! ~ ~ W ~ ~ / / / / / ~ W / ~ / / R 6 # # # # # # 5 Y ! W ! ~ ! ! ~ ! ~ ! ~ ~ ! ! ! ! ~ ! Y # # @ @ @ @ @ $ & % : : ; % : ; % ; % % ; ; ; % % % % o   .   . . .   . O O O O % O O O 4 O O O O O O O O O O .         .   + O O O O O O O O O O O O O O O O + +               = , = = % O = = = = = , , , = = , = , = = = O = , , , , , , = , = = = , , = = = = , = = = = , = = = = = = = , = = , = , , , = < % NX",
"O C =   C l , O   X l % =     3 1 C :.6.6.6.6.6.2.2.2.2.<.,.3 < , .   ; 2 g V   % : : ; a 2 d s + . . @ @ 6 ~.!.S.^././.K./.)./.).).).|.).)._.)._.).{.[ 6 5 0 5 5 I ~././././.).).).).).).).).)._.)._.|.}.}.].U 5 6 5 6 0 T ~././.).).).).).).|.).).)./.`.`.}._._._.V.y 6 6 5 5 6 Q (././.`.`._.).).).)._.)._.`.)._._._.}.#X~.I 6 6 5 5 5 W (./.).).).).).|._._.).).).)._.).`._.).).~.q 0 5 5 5 6 Q !.(.).)./.K./.`.`._.`./.).).).).)._.).}.c.6 5 5 5 6 5 W (.^.^.).`.).).).).`././.|././.].`./././.^ * # # @ $ $ d d d f f c s a a a s a a a a a < 2 a a 2 o     . .   . < 3 s s 3 s s 3 2 2 2 2 2 s 3 2 2 < 2 3 , X   .     + , 2 1 2 , 1 2 2 2 2 < 2 2 1 2 2 , , = O O                                                                                                                                             NX",
"X 3 O   3 = X X   X l % =   + l , 3 C V J V P V V J J S V C M l 3     ; 2 a S   % : < : : < d a   . @ @ @ ..F.) ] c.b.v.j.v.b.v.m.n.v.n.b.M.M.n.n.M.Z.|.R 6 6 6 6 ..D.] c.b.v.M.b.b.z.n.v.M.n.v.M.m.v.v.M.v.oX/.q 6 5 6 6 c.S.c.v.n.v.v.M.b.z.M.v.n.l.b.n.Z.n.v.v.l._.c.0 6 5 5 e #Xv.h.v.M.b.n.b.z.v.z.z.z.M.v.z.b.b.b.l.l._.c.7 6 7 5 T ^.l.k.j.v.b.M.n.v.v.x.v.N.n.n.n.b.v.n.z.h.:Xc.5 5 5 8 e ^.l.X.k.j.j.x.j.x.v.b.j.b.v.v.v.b.M.M.v.z.#XW 0 6 5 5 I `.h.k.k.l.v.x.x.b.v.b.v.v.j.c.b.M.x.x.x.n.(.y * # @ . & & o o o . . . $ o o o o . o + O . . . . + ;   .       $ + . + + . + . . . . + . . . . . . + . + O X     X   % . . . . +   .   + .   X   + + .   X + O O O                                                                                                                                           NX",
"  l =   3 = X +   + x , O     3 2 , , = , , < 3 < 3 3 3 1 3 3 s 3 +   , a s B   4 : : 2 : i f g   @ @ @ # '.c.c.b.v.M.M.M.S.S.H.H.H.H.H.F.K.H.S.n.B.z.{.^ 7 6 6 y !.z.M.M.H.m.n.L.n.M.F.n.Z.n.B.b.Z.B.H.Z.!.C.eXy 6 9 6 q '.M.V.b.m.m.H.n.H.H.H.H.K.F.F.Z.S.S.H.H.H.Y.m.* 6 6 5 E 2Xc.M.m.M.S.S.Z.S.L.n.S.H.S.S.J.J.D.H.Z.!.A.H.t 6 5 6 Q `.l.m.j.n.H.Z.n.K.H.S.n.H.m.S.S.Z.m.m.S.V.R.!.5 6 6 * E /.c.b.M.b.m.S.m.n.H.m.n.S.S.m.S.S.H.S.H.H.:X_ * 6 5 5 ) }.h.!.M.b.m.S.H.n.n.M.S.S.n.M.B.m.m.m.!.z.).W * # @ @ u & ; $ & : ; $ ; $ % $ % % % % $ % % % % O ; .   .     % $ o % % $ O O % $ O O O O O O X O O O O % X   .     = O O O O O O O O O O O O X O o O O X X X X O           O O . o O X         .             .           +     .   +     +     X   + .   + X X   X X X           X +                     NXNX",
"+ 3 O   l = X X   + M O =     3 , < 1 1 < 1 1 3 s N s l s s 1 l 1     ; 2 s S   % : : : < a f f   @ @ # 5 '.b.k.b.M.H.n.M.m.H.n.D.Z.Z.H.S.Z.H.H.F.J.z.{.^ u 6 6 y (.n.V.M.M.H.S.n.n.H.H.Z.L.H.H.H.H.G.G.G.m.C.eXY 6 6 6 6 `.Z.M.n.m.n.Z.H.S.H.G.S.G.Z.^.J.Y.D.D.D.S.oX!.5 6 6 6 E 9Xv.n.S.D.S.S.H.G.H.Z.G.G.J.G.G.J.Z.G.A.^.Y.^.w 7 6 6 [ `.l.m.n.S.S.H.n.Z.S.H.Z.D.S.S.S.J.Z.G.S.M.oX!.# 6 6 * | ).x.m.m.n.n.n.S.n.S.D.H.S.K.S.S.Z.K.Z.Z.Z.1X{ * 6 6 # } eXh.M.n.H.S.S.S.S.H.S.S.n.S.H.G.S.^.H.B.b.|.! 0 5 # $ u $ ; $ $ $ % % % $ % % % $ $ % % O $ O $ $ <   . .     ; o % O % O O O o % O O O o O O O O X O O % O   . .   , o o O . O X O O O O . O X O O O O O O O O O           O O O O O O     X +   X . . . X + X X + X X X X X X + X X O X X X X O O O O X O O O X O X O X O O X X X X X . . +             + NX",
"X 3 =   l = + +   X l O O     3 2 , 1 1 2 < 3 1 1 3 3 x 3 3 2 s 3     , 2 a S   % : : : i a f a   @ # # 5 '.Z.v.c.M.S.D.S.S.G.D.D.D.G.D.Y.Y.D.D.G.J.n.}.[ 7 6 7 y ^.Z.v.S.S.S.D.D.G.D.J.D.Z.H.G.A.G.G.K.G.H.Q.wXY 6 6 6 e `.H.M.M.S.H.G.D.J.D.J.D.D.J.D.D.D.).A./.D.oX!.* 6 7 0 Q 5Xv.S.D.S.D.Y.G.G.S.D.D.P.Y.D.Y.G.A.Y.A./.I.^.w 6 6 6 ` }.h.S.S.D.J.D.Y.D.J.G.D.J.D.G.G.J.J.G.D.M.+X^.0 7 6 0 ( ).v.n.D.D.S.D./.S.J.G.G.D./.G.G.J.T.J.D.G.1X_ 0 6 6 # ] 2Xv.M.M.H.S.S.G.J.D.S.S.S.S.Z.G.S.J.D.H.b.}.~ 0 5 @ $ p & : * $ $ % $ $ % % % $ % $ o $ % % % $ O : .   .     < o $ O O O % O O % O O o O O O O O O O O = O   . .   , o O O O O O o O O O O O o $ O O O O O O . %           , O = O O =     X O X X X O O X X O O O O O O O O X O X O O X O O O 4 O O O = O O O O O = O O O O O O O = O O O % +     NXNX    NX",
"  3 O   3 = O X   X M = =   X 3 , 2 , 1 2 1 < 1 2 2 2 2 < 1 2 s 3     , 1 a B   % % : < < i h f   # # * 5 '.G.b.m.D.S.G.G.D.Y.A.A.D.Y.J.J.G.Y.A.G.F.Z.}.^ 6 q 7 e ^.n.M.D.G.D.A.).D.D.Y.D.G.G.Y.Y.G.Z.D.J.G.C.9XY 6 7 w w /.J.m.Z.D.Y.G.A.J.Y.Y.Y.J.J.Y.Y.P.Y.D.Y.J.E.^.5 w w 5 Q iXv.S.D.J.D.G.Y.Y.A.J.P.P.Y.P.R.Y.Y.G.Q.(.+Xm.w w 7 6 { `.l./.S.Y.D.D.Y.J.J.G.P.Y.P.P.R.Y.P.G.D.S.#X^.0 q q u ) R.M.D./.G.G.G.Y.D.Y.G.G.A.P.Y.D.A.Y.T.C.K.1X( 8 q 6 5 ] eXl.S.S.D.G.H.G.K.D.D.G.D.Y.D.G.G.G.G.F.Z.}.W 0 5 # @ p * : * & ; $ ; % & & 4 % % $ % % % O % $ o < .   . +   < o O $ O $ O O % O O O $ O O O O O % O % % X   .     , $ O O O O O O O O O O O o O O O O o O O O O         X 1 O = = O =                                                     = = = = = O = = = , , = , = = = = = = O O O O O ,   = J J @.C   NX",
"+ 3 O   l = O     X s , O     3 2 , < 1 , < 1 1 2 2 2 2 2 2 2 s 1 .   , 3 a B   % : ; & : a f f   # # 5 5 !.Y.M.S.G.Y.D.Y.R.R.Y.R.Y.P.P.Y.P.P.Y.Y.G.D.<X^ t q 6 e (.D.S.D.Y._.Y.Y.Y.R.R.R.T.E.Y.Y.D.A.Y.A.F.C.wXR 6 q w e /.Y.Z.D.n.J.Y.P.Y.Y.Y._.oXY.P.R.XXY.Y.Y.D.#X^.5 7 w 6 | 5Xv.D.J.Y.D.Y.Y.P.R.R.R.R.Y.Y.Y.P.).D.C./.R.H.t 7 q 6 { }.h.D.D.G.Y.Y.D.).P.G.E.R.P.Y.P.R.).P.Y.D.+X^.6 7 w 8 ( #XZ.D.S.Z.G.A.A.Y.R.P.R.Y.E.R._.Y.G.D.A.G.4X` 6 6 6 5 ] 1XM.G.G.G.D.Y.A.Y.G.E.Y.J.D.D.Y.G.G.D.A.Z.}./ 8 5 # $ p & : > % & : % & % $ ; $ O % % % o O % O O = .   .   . 2 O % O O O O O % O % % O O $ O O O O O O % X     X   , % O O O O O % O O $ O O O O O O X O O O O O           2 = % = % =                                                     , = = = , , = O , = 1 , , = = , , = O = O O O O =   O l , , 3   NX",
"+ l O   3 , X X   + M O =     3 , , 2 2 2 < 2 < 2 2 , 2 1 2 2 s 3     = 2 3 S   % & < < : a f d   @ # 5 6 (.J.z.Z.D.D.J.G.A.Y.Y.Y.Y.G.P._.P.P.D.P./.G.}.^ t q q Y (.A.D.G.G.P.R.P.P.R.P.Y.P.Y.Y.Y.E.Y.Y.W.G.C.wXU 6 w 6 e ).G.Z.Y.J.Y.Y.Y.R.Y.G.P.A.Y.P.Y._.XXY.G.G.>XK.6 t e 6 ( iXz.D.D.).R.R.Y.R.Y.Q.R._.+XR.Y.Y.Q.Y.P./.XX!.e 7 q 7 ` _.Z.D.D.J.Y.P.R.G.P.P.A._.R.P.Y.P.P.P.P.D.OX(.7 t e 5 ) #XZ.D.K.G.D.Y.Y.Y.Y.R.E.R.R.P.R.R.Y.P.P.Y.5X_ 7 q q 5 h.eXn.G.S.Y.G.Y.Y.Y.Y.G.Y.G.D.Y.J.G.Y.K.C.Z.}.W 5 5 # o u 8 : & & & % & $ ; ; ; % $ $ % % % % % % O = +   o   . = O O O % % O ; o $ O % O $ O O O $ o O O % X   . +   , % O % O O O O O O O O 4 O O O O . O O + O ,     +     1 , % ; = ,     X + X X X X + X + + X   X X X O O O X   + X   + , O = = = = , , , 4 = O O 4 = 4 , = = = = , = O = + o M , < 3   NX",
"  3 =   3 = O X   X s % O   X 3 , , < 3 < 2 2 2 , < 2 < < 2 , 3 2     , 2 3 S   % ; : < < 1 f d   # # 5 6 '.Y.Z.J.D.Y.P.Y.P.P.R.P.P.R.R.R.R.P.Y.A.Y.Y.<X[ t e t T /.P.S.G.Y.Y.P.R.R.R.P.E.E.P.Y.E.W.G.Y.Y.Y.Q.wXU q w w e |.Y.Z.Y.Y.G.Y.Y.R.R.R.R.R.oXP.P.P.P.Y.R.Y.>XK.6 r w 6 | iXD.K.A.A.R.R.R.R.R.R.R.+X_.P.A.Y.R.Q.Q./.+XH.y e t w { #XD.J.Y.Y.R.P.R.R.R.oXoXY.P.Y.P.P.Y.Y.R.D.4XH.7 w e 0 ) oXH.Z.G.G.E.Y.P.XXY.P.Y.R.Y.Y.P.R.W.P.P.Y.5X) 9 w w 6 k.9XZ.D.S.Y.Y.P.Y.E.P.).R.Y.Y.P.G.Y.P.R.G.F.1XQ 6 5 # $ u : & & & & > $ : $ % $ % $ % $ $ % % O O % < .   . X + % $ O O O O O O O % O O % % % o % o O O O % +     X   , O O O O $ O O % O O O O O . O O o o O O O ,         X 1 , = % , ,   + O , , , , , , , , , , , < , = , = , , = = = , 1 l = , = , = = O O 1 M 3 1 3 1 + X O = , = O = O ,   O 3 , , 1   NX",
"  3 O   3 = O +   X l % =   + 3 < < , < > < 2 < , 2 2 2 < , 2 3 2     , a a S   $ ; < & i i f f   # # 5 6 ].Y.Z.S.D.Y.P.R.R.R.R.Y.R.XXE.I.oXR.R.E.Y.W.<X[ t q t T /.P.G.J.G.P.R.P.R.R.R.R.U.E.$XU.R.E.W.Y.J.Q.wXU w w e e _.R.Z.Y.Y.Y.P.Y.E.oXR.oX+XI.#XoXP.Y.R.A.G.%XH.6 y y 6 | iXD.D.Y.Y.Y.Y.E.R.R.oXoXoXR.+XoXR.R.R.A.).R.^.e e y e } 2XA.D.D.Y.Y.Y.R.R.Y.R.Y.R.oXR.+XR.P.R.Q.D.OX/.7 w q 0 ) :XG.A.G.Y.Y.R.P.oXXXY.R.R.R.R.E.R.R.P.P.P.4X_ 9 r w 6 k.9XZ.D.D.P.Y.G.D.Y.P.oXXXY.R.E.P.P.G.Y.G.F.<X^ 6 5 * $ 9 & : $ & % & ; % ; ; $ & % $ 4 % % % $ % O % .   X     < O % O $ % O % $ O O $ O O O % $ O O O $ ; X   X     , O % % O O O O O O O O O O O O O O O O O O O   . X     1 % O = , ,   , l C C C C V V V V V V V V J V J C C C V V C V J l = = , , = = J L L :.P J K J J M = X O , = = = =   O 3 , , ,   NX",
"  3 O   3 , + X   + l O =     3 , , , < 3 2 < < 2 1 2 1 2 , < 3 2     % s s S   $ = : : < i f d   # # 0 q (.P.D.G.A.Y.Y.P.R.P._.R.XXoXR.oXoXR.R.E.W.R.2X[ y w r U `.P.D.Y.P.P.).R.R.+XoXoXE.oXoXE.oXR.R.W.J.Q.wXR q e w e }.oXG.Y.P.Y.R.oXXXR.oXoX+XR.+XR.R.I.P.R.P.>X/.6 y w w ) qXD.Y.Y.Y.Y.oXR.oX+XOXoXOXoXOXXXR.R._.+X).+X^.y e w I } :XA.D.G.Y.Y.R.P.oXoXOXR.oXoXoXoX+X+XoXR.A.=X/.6 e e 9 ) >XD.D.G.R.P.Y.oXR.oXXXR.oXE.R.oXE.XXR.P.Y.>X_ 9 r w 7 h.9XD.G.Y.C.).I.).R.R.+XoXI.R.oXY.W.Y.W.Y.Z.2X/ 9 5 # $ d & : & & & $ ; % $ % O ; $ % % % % % $ % $ =     X +   < % O O O % % O O O O O % O O O O O O O O % O   . .   , % O % O O O O O O O O X O . O O O O O O O O           < , = = , ,   O = 4 = = O = = O = O O = O O = = O 4 = = O = = 4 = , , , O M <.P l , = , = = , 1 l V M + O = = O =   O 3 , , <   NX",
"X 1 =   3 = O O   X l O O   + 3 , 2 < , 2 1 < < 2 2 2 < < , < s 2     ; a x B   O % : < & i f g   # 5 0 q ].R.n.G.Y.Y.Y.Y.oXR.OXR.oXOX+X>XoXoXR.oXR.I.1X{ r e w U `.R.D.Y.P.P.Q.R.E.oX+X>XE.XXU.XXoXE.E.E.T.I.wXE w w e e }.R.P.A.Y.R.XXoXU.R.XXoX#XI.#XXXR.#X+XQ.R.>X^.q e w w ) iXD.Y.Y.R.oXoXR.oXXXoX#XOXOXOX#X+X+XoXQ._.OXL.Y w q e { 1XG.D.Q.P.oX+XoX+X#XOXoX+XoX+XR.R._.oX+XA.4X/.w t r 9 ] 4XP.R._.W.E.oX+X>XR.oX+XOXoXoXE.R.R.R.P.P.5X) t w r 6 h.wXZ.G.R.Y.R.XXOX+XI.oXoXoXE.XX:XW.W.oXG.C.2XQ 6 5 * @ p & : > & : & $ & % % $ % % % O $ $ % O % O & .   X .   < O O % % O O O O % % % % O O O O O O % O % X   . .   , O O O O O O O O O O O O O O O O o O O O O =         + 2 ; ; O , =   O = 4 = = = O = = = , O = = 4 = = O 4 = = O O O = = , , X J r., = = , O = = = = < , , C V   + = = = + O l , < <   NX",
"X 3 O   3 O O X   X 3 = =   + 3 , < < , < < , < < 2 3 2 , < < s 2     , 2 s B   $ % < : : i f g   # 5 5 q {.R.Z.G.W.P.U.U.$X&X$X$X&X%X%X%X4X$XP.%XoXP.1X .y e y U [.U.G.P.W.R.oX$X$X&X&X&X$X-X-X%XU.oXU.R.W.I.wXR e w r I }.U.W.W.W.oX&X&X4X-X4X%X4X%X%X&X%XU.U.+X#X>XJ.q I I w ' pXA.P.U.U.OXoX$X4X,X-X%X6X4XqX&X-XXXU.U.E.%X/.e e t e } 1XG.Y.R.R.%X*X$X%X&X;X6X%X%X=XoXoXoXE.oXR.qX|.w y Y 9 ) 4XY.R.[.U.$X$X,X-X*X%X6X4X%X%X,XoXoXoXU.R.6X} t r r 6 j.wXC.Y.R.oX+X,X=X,X%X4X&X&X$X$X&X$XW.U.$XG.2X^ 0 6 * * i & & & : & : $ $ $ ; ; $ $ $ 4 % o % $ $ ; ; o + .   X < O O O O $ O O $ % % O O % O % $ O % % O % X   . .   = O O O O % % O % = O O O O O O O O O O O O =     .   + 1 = = = , ,   O = = O = O O = = 4 = = O = O 4 O = 4 O O O O 4 4 = = X C :.  = , = = , , 1 1 1 = , < = 3 C   O = = + X 3 = 2 ,   NX",
"  3 O   3 = X +   X 3 O O     3 , , , 2 ,         + 2 2 2 , 2 3 3 +   , 2 a B   % % : : < i f p   # # 5 6  XU.G.W.Y.U.&X3X;X7X0XyXyXyX0X0X7X$XE.XX$XXX9X .e e y U _.U.Y.W.R.oX7XyXyXrXtXyXyXyX8X7X&XXXU.XXE.@X0XE e r r I <X$XR.W.W.$X3X7X6X0XsXsX8XsXsXsX6X%XXXoXoX4XK.q Y Y w ) pXG.R.R.U.%X0XyXyXrXsXsXrXsXsXyX8X&X+X@XoX=XK.I e y e ] 1XW.W.R.oX$XqXrXrXsXsXsX8XsX8X6X%XXXXXoXR.=X|.e r r t ' 4XR.U.P.oX6X7XyX6XsXsX7X8X6X7XqX&XE.oXXXE.5X_ 7 r r q j.iXG.W.I.U.%X6X0X0XyX8X7XyXyX6X;X$XU.U.E.G.&X` 7 6 # # u & : & & $ : % : % $ ; % ; % % $ % $ % % O : .   .   X < O O % o O % O O O O % = O % % O O O O O , X   O X   , O O % % O O O O O O O O O O O O O O O O O =     .   + 1 = = , % ,   = O = = O = = O O = O , O = = = 4 = = = = = O = = , X 1 L = , = = = = + X + X O , 1 , < , 3 1 + O = + X x , , 2   NX",
"+ 1 O   3 , O X   X 3 = O     l , 2 , 1 , + % % O   2 < < < 2 s 3 .   ; 2 2 S   % ; : : : < f d . # 5 0 q {.$XP.Y.W.E.4X7XyXyXrXdXsXfXdXsXyX%XoXoX$XXX9X .Y e y E _.U.Y.R.U.&X6XyXtXhXdXdXhXdXdXsX8X&X%XXXoX+XgXE e Y r T <X$XW.R.U.6X8XsXfXsXdXfXfXsXsXsX0X&XOX%XOX5XW.q r r w ) aXU.R.R.%X-XtXtXhXhXfXhXfXhXdXfX7X%X%X*X:X-XK.Y e y e X.9XQ.R.oXoX-XrXfXfXhXdXdXhXhXsXsX6XXX*XXXU.=X|.e r r t ] 4XR.U.U.%X6XyXfXdXdXdXsXhXdXdXyX6XXX%XXX+XqX' t e r q l.wXP.U.R.oX&X0XsXsXtXdXdXtXsXsXyX;X$XU.U.P.,X[ 9 6 5 $ p & & % & % : & : % $ ; % $ & % % % O % % o < o + X X   < O % O O % % O O O % O O O O O % O O O O ; O   . +   , % O O O O O O O O O O O O O O O O $ O O O %     .   X 1 = O % , ,   = , = O O = O = , = = O = O O = = O O = = = = = = = + C 3 = = = = X     o 4 +   + = < < 2 , 3 O X =   O 3 = < <   NX",
"X 1 O   3 , O O   O 3 = O     3 , , , 1 < O ; : O   2 < < 2 , 3 1     , 2 a B   $ ; : : i i c d   # # 5 6 ].$XG.R.U.oX;XyXdXtXtXhXdXtXtXhXsX-X%X%X%X+X9X .r I y U _.XXR.U.I.&XyXtXtXfXtXnXhXdXkXdXsX&X$XoXE.+XpXE r e y T }.%XE.I.U.6XrXhXhXdXkXkXkXdXhXhXyX&X%XOXOXiXK.e Y I t ) pXI.E.XX%X4XrXhXjXjXjXkXhXhXhXzXyX&XOX+X$X-XK.Y e r e X.9XQ.U.%X%X6XdXhXfXfXhXjXhXhXdXsX8X%XOXXXR.-X|.e y r t ] 5XR.P.oXoX7XfXhXhXzXhXzXzXrXhXsX7XoXR.XXoXiX_ 7 r r q z.pXG.W.+XoX4XfXjXkXhXhXhXfXdXfXyX7X&X$XI.G.,X^ 7 6 * * p * u & : & : % % ; $ % % % % % % o $ ; % % : .   X   . i % O % % % O % % O ; O % O % O O % % O O % O   . .   , o % % O o % % O O O O O O O O O O O o O O =           1 , ; = % ,   O O 4 = , = , O = O O O = O = = = O 4 = = = = = =   = C = = = = X   > z m m m z O   = < , , 1 ,   =   X x , , ,   NX",
"+ 3 =   3 = o O   O 3 O =     l , , , 3 < . , ; =   3 , < < < 3 2 .   , s a B   $ ; : < < i f d   # 5 0 q {.%XG.W.W.oXyXrXtXfXjXhXjXhXlXrXsX6X%X=X,X*X9X .y e r R [.XXE.U.$X-X8XtXtXjXjXnXjXfXjXhXdX&X%X%XoX+XsXW I e e T 2X%XE.oXXX8XhXjXkXkXnXkXkXkXkXhXdX6XOX%XOXqXT.w r e r ] xXP.R.I.XX4XrXjXjXjXjXmXlXkXjXsXsX;X%XOX%X=XL.U r r U X.7XU.oX$X%X6XdXkXhXkXlXmXhXzXhXfX0X&XOXXXR.qX[.q e Y t ] 4XU.U.oX&X0XhXhXkXhXjXnXzXhXhXdX6XXX$XU.oXqX' w y w e j.pXW.E.XX$X6XyXtXhXjXjXjXjXhXjXfX7X&X$X$XE.,XQ 7 7 * # u & > & & $ : ; ; % % % % $ % $ % % % $ O % < .   .   + = % % % O % % O % O , O % O O O % $ O O O % O   X     , $ O O % O % O O O O o O O 4 O = O O O O O ,       X   3 = = = , =   O , = O , O O , = = O = = = O , = = O = = O = O =   l 3 4 = , O   > %.&.&.&.%.%.%.4 + , , , = 1 X X   O 3 = , ,   NX",
"  3 =   3 = O +   X l O O   + 3 < , , 3 , O , ; = + < 2 , 2 1 3 2     , a s A   o : & : : i f d   # # 5 q  X%XP.W.U.3X6XfXhXtXkXlXhXlXhXfX0X-X%XXX>X+XwX .y y e U }.*XE.U.oX3XrXtXjXnXnXnXjXnXkXfXtX6X%XOXoX+XgXW e I y U :X&XE.+XXX7XfXjXkXlXlXkXnXlXkXsXsX6XOXOX%X-XK.w Y Y y ) pXQ.W.XXXX8XfXhXnXmXkXhXnXnXhXhXtX-XOX+XE.-XK.I e Y I X.9XI.$XXX=X8XzXhXkXlXlXlXlXjXjXhXyX*XOXoXoX-X{.y y r t ] 9XW.+X%X4X0XdXkXhXjXkXjXnXlXhXsX3X$XXX+XR.5X] y r r 6 j.iXQ.E.$XXX6XsXhXjXhXkXkXjXjXhXfXrX&XU.$XU.,X` 7 7 0 # 9 & & & $ & & $ : $ $ ; ; % $ o $ $ % o % O : .   X X . < % O % % O O O O O % $ O % ; O O % O O % % o   .     , % O % O O O O O O O O O O O O O O O O O O =           < , O % = ,   = O = = = = O = = O = = 4 = O , , O = = = O O = O   C = = = ,   4 m %.*.*.*.&.%.&.%.4 O 3 O , 1 X +   O 3 = , ,   NX",
"  3 =   3 = O O   X 3 = =   + 3 , < , 2 2 O , , O X 2 , 2 , < 3 2     , s a B   O % : < u i d d   # 5 5 6 {.$XP.E.E.%X7XtXhXhXhXzXlXkXfXsXrX&XOX%X$X*XwX .r e y E <X$XE.R.oX6XtXjXnXhXhXnXjXjXjXkXsX6XOXOXOX*X0XQ e r r T <X$XE.$X+X6XhXhXlXnXlXlXnXlXhXhXsX-X%XOX%XqXK.e Y e w ) aXR.R.oX%X-XtXhXkXnXnXnXnXnXjXkXyX%XOX+X#X=XK.U r r I X.9XU.U.oX-X0XhXzXlXkXkXnXnXkXzXsXrX%XOXXXP.-X}.e I r t ] qXE.oXOX%X7XhXlXjXjXnXlXzXjXhXtX-X%X%X+XoXqX' t w r 6 j.pXP.R.XX$X;XtXhXjXjXhXkXhXjXjXtXyX&X%X$XU.3X[ w 6 # $ d u & & & % & & 4 $ % $ $ & % % % % % $ % O ; . . X     = O O O O % O = O O % O % O O O O O O O O % O   X .   = O O O O % O O O O O O O O O = O O O O O O %   +     X , = = % = ,   = O = = = O = = O = = O = O = , , , ; 4 O = , = X   C = 4 = O   z %.%.*.&.*.*.*.%.%.z + 3 , , 1 O     X 1 = , <   NX",
"X 3 =   3 = O +   X 3 O O   X 3 , , < 2 < X , , =   < 2 , < 2 3 2 .   , 2 2 B   $ & : : : < d d . # 5 0 q {.&XP.E.E.&XyXrXdXfXjXkXjXkXjXdXrXqX%X%XOXXX9X .w r y E <XXXE.U.oX,X0XtXhXnXnXjXjXnXkXhXrX&X%X%XoX*XgXQ r e I U 2X&XR.OX%X8XrXjXnXlXnXnXnXlXkXhX8X&X%X4X%XqXY.e y r w ] xXU.U.E.oX7XfXhXnXkXkXnXnXlXlXkX8X-X%X+X:X=XK.I r Y r ..9XXXXX%X%X0XdXhXhXkXlXlXzXdXhXsX0X%X%XXXW.-X[.e y I k ] qXE.E.+X%X8XfXlXjXkXkXlXjXhXhXrX4XXX$XXX%XqX_ t e e w j.iXP.E.XX%X8XfXjXjXnXhXjXjXhXfXrX;X$X$XoXU.3X^ 7 6 5 $ p u & & : & $ % % & % % % % % % O % % % % $ : +   . . . < % % O % O % % % O O O % O % O % O O O O = .   . +   , % % % O % O O O O O O O O O O O O % O O $ ,       X   2 % % % , ,   O O = 4 = = O = = 4 O = = 4 = O = O = = = = = =     M O = = X   m %.%.*.&.*.*.*.n &.z   3 = = , =     + 1 = = <   NX",
"  3 O   3 , O +   + 3 = O     3 2 < < 2 2 O , , O + < < 1 1 , 3 <     , a a V   o % : : a a d d   # 5 5 6 {.%XA.W.E.&XyXtXfXhXjXlXjXzXjXfX0X%XoX%X%X%XwX .r e y U [.XXW.E.oX,XtXhXzXzXlXjXnXnXjXfXsX6X%XXXoX@XgXQ r I I U 2X&XW.U.4X7XhXzXnXlXnXlXhXnXkXtX0X4X%X=X%XqXK.e y y t ) aXE.R.E.XX6XhXlXlXlXjXlXnXlXjXfX8X&X+X%XE.-XK.I I U I X.5XE.$XoX%X7XzXhXjXnXzXlXjXlXhXtXyX4X+X+XU.-X|.r y R t ] 5XR.$XoX&X7XhXhXhXjXhXjXnXjXhXsX6XoX%XU.U.5X] t y w w j.qXU.oXoX%XqXhXhXjXjXhXjXjXjXjXtX7X,XE.oXU.9X[ 7 6 5 $ u u u & : & & $ : % & $ % $ % $ % % O $ $ O : . . X     < % % O O % O % O O % O O O O % O O % O O = O   .     = o % % O O O O O O 4 O O O O O O O O O O O =           1 , = = = =   O = = = = = = = = = O = = O O = = 4 O = = = O ,     M = O , + + z n %.&.*.&.*.=.n %.z + M O , 1 =     + 1 = = <   NX",
"  3 O   3 , O O   X l O O     3 < , , a , O , < =   1 < 1 1 < 3 2 +   , s 2 S   o & ; : : < d a   # 5 0 6 |.$XC.E.$XoXrXtXfXhXfXhXjXhXhXhX0X6XOX$X&X&X9X .r e y E [.$XP.E.&X7XsXhXhXhXhXhXjXjXtXfXrX6X%XXXoX*XwXE r r r T 2X&XE.U.&XrXhXlXlXjXlXjXjXkXjXkXsX4XU.*XXXqXK.q e I y ] aXR.R.$X,X6XyXhXlXzXjXlXlXjXhXfXyX-X$X*XE.-XL.r I Y T c.qXP.$X,X%X6XjXhXlXlXnXnXjXlXkXzX;X&X%XXXU.=X|.r r I 7 ] qXR.XXoX%XqXfXjXtXlXhXjXlXjXjXrX6X$X%XU.+XqX' t r I q c.pXU.oX%XoX7XdXjXjXjXhXhXhXjXuXtXyX$X$XoXI.1X` 9 6 0 # 9 & : & > * : & $ & $ % % ; ; $ $ O % % O $ <     X   X < $ % O % O O % O O O $ O O % o O O O O % : X   . +   , O % o O O % O % O O % O O % O O $ O O O O =   + .   X , = O = = ,   = O O = O = = 4 = O = O = = = = = = = = O = O O     3 = O , =   > m n n %.&.&.&.n m 4 = 3 O = , O     O 3 = , ,   NX",
"+ 1 =   3 % O X   X 3 O =     3 , < ; < 2 O ; ; O X 1 < 2 , , 3 2 .   , 2 a B   $ : : < : i c c   * 5 5 q {.$XP.W.$X&XyXtXtXrXhXhXhXlXjXfXrX>X%X&X&XXX9X .w e y E }.XXW.$X$X&XrXtXhXhXfXkXjXhXkXfXrX*X%X%X$XOXpXR r r r T 2X%XW.$X%X;XhXjXlXjXzXlXnXkXjXhXyX&X&X*X$XqXW.e Y e q ) aXR.G.I.U.6XtXhXhXhXlXhXhXjXhXfX7X&X$X@XE.-XL.Y I Y I ] 9XU.$XXX%X0XsXjXlXjXhXfXjXjXfXrX7XoX%X$XoXqXE.w r Y t ] qXR.U.$X$XyXrXhXjXhXkXjXhXrXrXtX7X$XU.E.$XqX] e r r e j.pXP.E.oX$X0XrXhXtXtXjXhXjXhXhXtX7X%X$XoXXX4X[ 9 5 * $ p u * & : & $ ; % % % & % ; % % O % O % O % : .   X +   < O % O $ O O % O % % O O % % % O O % O O % O   X X   = o O % % ; O % O O O O O O = O O O O O O O %           1 = = O , ,   = O = = = O O O = = = O = = O = O = > O = O O O X   < = O , ,   4 z m %.m n %.n %.z + l < , , , X     X 1 = = ,   NX",
"  1 =   3 O O X   X s O O     l < , ; < < O ; < O + 1 , 2 , < 3 <     , a s N   O % ; : < u d d   # # 5 6 {.%XG.W.T.$X6XyXtXtXtXfXtXhXtXfXsX&X%X$X%X&X9X{ r Y y E [.E.T.T.W.&XrXtXfXtXhXfXhXtXdXfX7X&X*XXXU.@XgXE e r w T :X&XW.$X$X6XtXhXhXhXhXhXkXnXhXhXyX-XoXoX%XqX/.e y I t ' xXR.E.U.I.9XsXhXhXhXhXtXhXkXhXtXyX$XU.*X[.=X^.e I Y I X.9XI.oXoX$X7XsXhXfXhXhXjXjXfXhXsX7X&XU.XXW.5X).t y r t ] 4XR.E.R.$X0XrXtXtXhXhXhXrXhXtXyX&X$XoXoXoXqX] t r r q l.wXG.U.W.U.6XrXtXfXtXtXuXtXhXuXrX7X$XoXR.P.1X[ 7 5 5 * p & & : % $ & : & % $ % $ % $ ; % % % $ O o < .   X   X < % % O O % O O O O O O % o o O O % % O O % O   .     , % O O O o % O O O O = O O O O O O O O O $ =   . .   X 1 O = = = ,   O = O = = 4 = = O 4 = = O = = = O = = = O = O , +   , , O = 1 O   > z m m n n z m 4 , N ; , , =       X 1 4 = <   NX",
"  2 O   3 , O +   X 3 O O   + 3 , , , 2 < O , < O + 1 < < < < 3 2     ; 2 1 B   $ % ; : : i d f   # 5 0 6 {.oXG.T.P.E.3X6XyXrX7XrXtXhXrXtXyX&XoXoXE.$X3X .r r r U |.E.Y.Y.R.$X0XyXrXrXrXtXtXdXsXrX6XoXU.U.E.+XgXE r r r T 2X$XT.U.U.3X8XfXuXtXhXrXhXjXtX0X,X&XU.XXU.4XK.q Y w w ) xXG.Y.W.R.&X7XsXrXtXhXsXsXhXsXyX;XU.U.+XT.%XK.r I y I ..9XR.R.T.$X,XyXtXfXtXtXhXtXyXrX0X4X$XU.U.P.-X/.w y e 9 ' 4XY.P.E.$X4XsXrXfXdXrXtXtXfXyX6X>X>XU.R.U.5X' t y r w x.pXG.Y.P.R.&X6XtXtXrXrXrXuXtXtXyX;XE.E.W.W.,X[ 7 5 * $ p & & & & : $ ; % & % % $ % % % % O % % % O = . . . . X , % % O O O O O % O O $ O % O O O % O % % % O   + .   ; O O O % O % O O % O O O O O O O O O O O O =           1 = = = O =   = = = = = = = = O = = = = = O 4 = = = 4 = = = O O   + < O = O 3 O   4 z z z z z + o V 3 = 4 , O   X   O 1 , , <   NX",
"+ 3 =   3 O O .   X 3 O O   + 3 , , , 1 , O ; ; o + 1 , < < < 3 2     , < 1 B   % % : : < < f d   # # 0 6 ].oXD.T.G.T.$X,X3X3X3X6X0X7X6X0X&XE.W.oXE.U.9X{ r w r U {.Y.Y.D.R.$X&X3XyX7X7X6XyX8X6X&X,XI.E.U.T.U.wXU e w r T <X$XT.W.U.E.4X7X7X3XyX8XyX0X0X&X&XU.E.W.R.4XK.w r y q ) pXG.Y.P.R.E.&X6X;XyX6X&X7X0X6X&X&XR.E.U.).%XK.I r e e ] 1XP.P.W.U.oX6X8X7X0X3X7X6X;X6X$X&XP.W.R.Y.*X|.e r r 9 ' 4XY.Y._.P.$X,X6X0XyX6X7X7X6X6X3X$XP.Y.P.R.qX) t r y 7 v.9XC.W.W.E.R.,X,X6X3X7X;X3X7X;X3X$XE.W.E.W.:X[ 6 6 * $ u u & : : $ % & % & & % % % $ % % $ % O % O < .   .     , % % % % O $ O % O O O O o O O O O O O O ; O   . .   ; % ; O O O O O O O O O O % O O O O O O O O =     X   + < = O = , =   = O O O = O = 4 O = O = 4 O = = O O = O O = O O O     , = O O , C ,     + + + + , :.M = = = ,     X   X 1 = , ,   NX",
"+ 1 =   3 % O O   X l O O   X 3 , , < 2 2 $ ; ; o o < < < < , 3 2 .   , a s A   o % ; : u : f d   # 5 5 6 (.R.C.F.P.Y.R.P.E.$X$XXX$X%XE.&XE.U.W.W.E.I.9X^ t r r I {.R.K.A.W.W.P.E.&X$XXXU.XXoX%X%X&XR.U.W.T.Q.0XE w e w T [.E.J.E.R.W.U.$X$XW.oX$X$X%X%X&XoXP.P.oXE.=XK.q r e w ) aXY.Y.Y.Y.W.oXoXoX%XI.,X%X%XU.$XE.U.R.U.Y.OXL.r I r r } 2XP.W.Y.R.XX$X$X$X$X&X$X$XXX$XE.E.P.P.W.J.=XH.t y r 8 ] 5XG.P.Y.R.W.E.oXU.oXoX%XE.$X&XU.Y.Y.Y.R.W.4X) 9 w r 6 x.9XF.G.G.P.P.$X$X&X$X%X$X$X$X$XW.W.T.G.G.Q.2X[ 8 6 5 * p 8 : & & % & $ : & & % ; % % % ; O % O $ O < +   X   X < % O = % O % % % O O O $ O O o % O O % O ; O   o +   ; % % o O O O O O O % O O O O O O O O O $ O =         + < ; , = ; =   O = = = = O = = = = O = = = = O , = = = = O = O X X   O 1 = = O = J L 1 = O 1 :.8.x O , = < O     O   X 2 = , ,   NX",
"+ 3 O   3 O X +   O 3 O O   + 3 , , , < < O , < O + < < , < 2 a , +   ; < a B   $ : : : : i c d   # 5 5 6 ].oXG.J.P.E.U.E.oX$X$X$XoXU.$X%XU.U.E.P.).Q.9X .w e w I `.P.K.G.U.R.R.E.$XI.XX$XU.$XoXXXW.R.E.W.J.@XwXR q w r T <XE.G.G.Y.U.U.U.E.$X%XoX$XoXXXoXE.oXR.Y.Y.>XK.w t w w ( aXG.P.A.W.I.E.R.oXoXoXoXoX%X$X$XR.U.Y.I./.+XB.y e w r ' 1XA.P.W.Y.R.R.$XoX$XE.oX$XE.E.U.U.E.Y.R.J.=X/.w w e 9 ' >XG.G.G.R.U.E.E.oXoX$XoXE.XX$XR.P.W.Y.R.W.5X` 9 e e 7 v.9XZ.Y.Y.E.R.oXU.oXU.R.[.U.W.U.W.W.G.W.W.R.>XQ 6 6 * $ p & & : : & : ; % % $ % $ % % O $ $ O $ $ O = . X .     = % $ O ; O O O O O $ O % O O % O O % O O = O   X     ; O o O % O O O % O O O O O O O % O O O O O =     X     , = O ; ; =   = O = 4 = = O = O 4 = = O O O , O O O O = = O O O X     , , = = O X 3 L <.6.<.V + + O = , =     + O   X 1 4 , ,   NX",
"  1 =   3 O O +   X 3 X O     3 , , ; 2 < O ; , O o 2 , ; , 2 3 , .   , 2 a N   % $ ; : : u f d   # 5 5 6 ].oXC.D.G.E.Y.W.U.oXoXXXOXoXE.E.I.R.P.P.Y.P.1X .w q w I {.W.H.Y.Y.R.oXR.oXoXU.oXU.E.oXoXoXG.R.U.Y.Q.9XU w y r I <XE.J.G.R.R.R.oXE.oXE.oXE.U.oXE.E.E.W.R.Y.>XK.6 w r w ( iXG.Y.Y.Y.A.oXE.XXR.+XoXOXoXoXR.R.E.W.A.K.+X^.y r r w ' 2XA.R.W.Y.R.I.+XR.R.oXoXoXXXoXY.R.R.R.E.G.%X/.w t r t ' >XS.Y.E.Y.R.R.R.P.oXE.W.E.oXR.Y.Y.R.Y.W.T.5X` t e t 5 x.9XD.D.W.Y.R.R.oXoXR.E.E.oXE.R.W.W.T.T.G.C.<X^ 7 6 * * i & & & $ & & % & % % ; $ % $ % % $ O % % % <     . +   ; % % % % o % O % % O % O O O % O O % O O , O   o +   % O O $ O O O $ O O O O O O O O O O O O O O %           < , = 4 = O   O = O , O , O = = O = = = 4 = = = O = = O = O O O +       = , = = = O + O X   X O O = = O       X O   X 3 = , ,   NX",
"X 1 O   3 = O O   + 3 O O     3 ; < , < < O ; < O o 2 , < < < 2 ,     , 2 2 B   % ; : : : 2 f f   # 5 5 5 ].E.n.J.D.D.Y.W.R.W.U.R.R.E.R.E.Y.Y.P.Y.Y.P.1X^ w w w I {.G.G.Y.R.R.Y.P.R.XXE.E.E.E.U.R.oXP.P.I.K.Q.wXI w w r I }.E.G.P.Y.R.R.W.R.oXW.oXE.E.R.T.E.W.Y.Y.J.OXL.7 y Y t ( pXD.G.A.Y.R.R.R.R.oXR.R.R.Y.E.R.R.R.Y.A./.XXL.r e r e { <XC.A.R.Y.Y.I.oXR.oXR.R.R.R.R.Y.Y.E.Y.W.F.>X/.7 r r 9 ) >XS.P.G.Y.Y.Y.oXP.Y.R.Y.R.P.R.W.P.Y.E.D.G.,X( 9 e r 6 x.5XZ.G.Y.G.Y.P.E.R.R.oXE.R.R.Y.G.Y.G.G.J.Z.:X[ 0 5 * * d & u : & % $ & % : & % $ % % % % % % O O O & + . X   + : O O % O % O % O O O O O O O O O O % O % ; O   . o   , O O O % O O O O O O O O O O O O O O O O O %   . X     < = = = = ,   = = , O , O = = = O 4 O O = , O = O = 4 = O = = O O X       = , , , = O O O = = = = , O       X X O X X 3 = = ,   NX",
"  3 O   3 % O X   X < O O   X 1 , , < < , O ; , o o 2 , < ; : 1 2 .   ; 2 a N   % & : & : i d d   # # 5 6 ].W.n.J.G.Y.G.P.R.P.Y.P.Y.Y.E.I.Y.Y.Y.G.T.P.2X^ 6 w w I `.G.F.G.G.Y.Y.A.P.R.I.E.E.R.R.Y.Y.Y.R.P.T.U.wXU q q e I }.[.G.T.G.Y.Y.Y.P.R.R.R.E.Y.W.Y.W.W.G.Y.K.&XL.7 r e t | iXS.J.Y.Y.P.Y.Y.R.Y.P.oXY.Y.Y.W.W.Y.G.C.L.R.^.y e e y } 2XC.G.G.Y.Y.R.R.R.R.R.I.Y.P.P.Y.P.Y.Y.W.J.,X/.7 t e 9 ' >XD.D.T.G.Y.Y.P.Y.Y.R.Y.Y.P.R.Y.R.Y.Z.D.J.1X( t q q 6 j.1Xz.F.D.Y.G.Y.Y.W.W.Y.E.W.Y.Y.G.Y.G.Y.K.C.:XQ 5 0 * @ p * & : & % : $ & % % $ % $ % % % $ % % O $ ; .   O   + < % O % % % % O $ O O % o % O % O % $ O % ; O   O .   = % % o O O O O o % O O O O O O O O O O O % =   +   X   < O < = = ,   = , = = O = = O = O = O O O = = 4 = = O = O O O O O X           O , , , , , = , , O +       X + X O + X 3 = = = + NX",
"+ 1 =   3 % X X   X l + O     1 ; , ; 2 2 O , ; o O 2 , < < , 1 2     , 2 2 B   o % ; : : a d d . # # 0 6 ].G.F.G.J.Y.Y.Y.Y.Y.G.Y.Y.Y.P.J.E.Y.A.F.K.G.2X .q w w Y /.Z.H.Z.G.G.D.G.R.D.G.Y.P.R.Y.R.G.P.W.P.J.C.wXU w r w I {.T.J.G.Y.W.P.G.W.R.E.R.R.R.Y.T.E.W.J.C.G.>XK.7 w r w ( pXn.D.D.).A.G.G.Y.P.Y.P.A.P.Y.Y.A.G.G.A.J.oXB.r w w y } #XZ.K.J.S.E.A.P.Y.P.Y.Y.R.R.P.D.Y.Y.A.J.H.XX(.q q q t ) :XS.G.).Y.Y.G.G.Y.Y.R.Y.Y.R.Y.Y.Y.P.Z.W.J.,X( 7 q e 6 k.9Xn.G.D._.G.J.G.T.Z.D.Y.J.Y.G.Y.G.Y.F.G.C.[.W 5 0 @ $ 9 < : & & ; & % % % % : % % % $ % % $ O $ % < . . .   . ; % % O ; O O O O % O % % O o o O O O % o ; O   + .   ; O o % O % O O O O O O % O O O O O O O O O =         X < = O = = O   = O O O = = O 4 = = = = = = = = O = O = , O = = = O X + X           O O O O X X             + O O O   + 1 = = =   NX",
"X 1 =   3 O X X   X 3 O O   X 1 , , , 2 < O = , O o 2 , 2 = < 2 , .   ; 2 2 A   $ $ : < i < d f   # # 0 6 ].T.z.G.A.Y.G.Y.Y.G.G.D.Y.Y.Y.P.G.P.Y.Y.F.C.2X^ q q w I `.Z.m.J.G.G.Y.G.Y.R.Y.D.P.Y.Y.Y.Y.A.G.Y.J.Q.wXU q w e e  XY.S.F.K.Y.Y.T.T.G.D.Y.Y.Y.W.G.J.Y.T.P.K.>X^.w w w w ( pXl.D.Z.G.J.W.Y.Y.T.G._.Y.Y.J.G.J.K.D.A.H.$XB.w q w q { <Xn.G.S.Z.G.G.Y.Y.Y.D.Y.P.J.Y.E.Y.Y.Y.Y.H.oX/.t w q 9 ) _.n.G.H.H.J.Y.G.P.J.J.G.Z.G.G.G.G.G.K.G.Y.1X( 9 r r 6 k.1Xz.H.G.K.D.J.J.G.Y.J.K.G.K.Z.K.G.G.F.H.n.[.W 0 5 # * d 8 & : & & % $ $ ; % $ % % $ % O $ % $ % o < .   .     ; % O % % % O % O O O O O O O O O O O O O % +     .   = o $ O O O % O O O O O O O O o O O O O % O =     X     , = = 4 = =   = O = = O > = O = = = = = = = O O = = = O ; = O = 4 O X   +                           .   + X X O O   X 3 = O ,   NX",
"+ 1 O   2 = O +   X 3 O O   + 1 , , , 2 , % , 2 O O 1 , < = , 3 2     , 3 2 B   % % : : : u d d   # # 5 6 ].E.n.H.Z.H.G.D.Y.D./.S.Y.P.D.D.Y.Y.Y.G.F.Z.2X^ 6 q w Y `.Z.m.Z.G.J.J.D.Y.G.G.Y.G.Y.Y.Y.G.G.J.Y.L.I.eXY q 7 r e `.J.n.G.F.F.G.G.K.J.H.H.J.J.Y.J.Y.J.G.D.G.oXH.6 t w 7 E wXl.S.K.H.G.Y.J.J.J.G.P.G.G.G.W.F.F.G.A.!.W.H.r q w 6 { _.D.D.Z.H.Z.J.G.Z.J.G.F.H.G.G.Y.G.G.J.G.N.%X/.7 w q 9 ` #XM.Z.n.G.G.F.H.F.J.J.G.H.S.K.H.F.J.G.G.J.5X( 9 r e 6 c.1Xz.F.F.J.H.G.H.G.T.G.G.J.G.D.J.J.G.F.n.n.[.W 5 0 # $ u : : $ % % % % % 4 % % & $ % % $ O % % $ o , . . X   + : % ; % % O O O O O O O $ O O % O % O O O , O   O .   , o O O O O O O O % O O O O O O O O O O O O =   .       < = O = = =   O = = = = = O = O 4 O O O = O 4 = O = O 4 = = O O O O O X                               X . O O O O   X 3 = = O   NX",
"  1 %   1 4 O X   + 3 O O   X 1 , , , < % O $ O O + < , , < = 3 2 .   ; 2 a N   % $ ; : : < d d   5 5 5 5 '.K.b.n.H.Z.G.F.G.S.G.G.G.J.Z.Z.G.F.J.G.H.F.2X^ 7 6 w y `.Z.m.S.S.S.G.Z.J.H.D.K.G.Y.J.G.J.H.G.G.B.F.eXI q 7 r I {.K.n.F.F.F.Z.J.F.G.H.F.T.G.H.F.F.J.J.D.H.oX!.8 t w 7 Q pXl.B.F.F.K.G.G.H.G.G.H.G.Y.H.G.J.K.H.C.B.W.B.r w 7 q [ <XZ.H.Z.F.G.K.K.G.J.F.T.H.J.F.Z.Y./.Z.Z.M.%X(.7 e w 9 ) <XM.b.m.B.Z.F.F.J.G.J.G.H.Z.S.F.F.G.n.H.F.,XQ t r t 6 x.1Xb.M.n.H.F.H.N.F.J.F.F.H.H.J.F.n.F.K.F.z.[.! 0 5 # * p & & % & : & ; % $ % % % O % % O $ O o O % < . . X X   : ; O % % % % O $ O O O O O O O O O % O O % O   O .   ; o % O O O O O O O O ; O O O O O O O O O O =       X   , = = = = ,   = O = = O O = O = O = O = 4 = = = = O O O = = = = O O O O O X                   + . X   X O O O O O   X 1 = O ,   NX",
". 3 O   1 = O +   X 3 O O   + 1 , , , , M < , 2 , , < , , < < 3 <     , 2 2 B   % ; ; : : < f f   # # 5 6 (.G.v.n.Z.H.H.H.H.Z.H.G.G.H.H.Z.G.Z.F.F.H.Z.[.^ 6 q 6 y (.D.M.z.H.H.F.H.G.H.J.H.Z.F.G.S.G.G.H.F.H.Q.1XI w w r e {.J.v.M.n.H.Z.H.z.T.H.J.K.Z.G.F.G.D.F.Y.F.E.^.0 w e 7 | wXv.M.N.n.H.N.G.H.S.H.H.S.G.S.n.F.n.H.C.!.R.B.e q e w { }.l.m.N.H.F.H.G.G.G.G.K.F.F.F.G.J.J.H.F.M.E.^.q t e 9 ' <Xb.x.m.H.B.S.H.F.H.H.n.n.S.Z.H.J.H.N.Z.Z.,X( t y w 6 x.2Xb.H.H.n.B.F.H.F.F.F.m.H.Z.K.F.F.F.N.N.z.}.! * 5 * O u & : $ : % $ : & % & $ % % % ; % 4 % % $ o < .   X X   ; O % % O % O % O O O O O O O O O O % O O < O   . .   , O % O O % O O O O O O O O % O O O O O O X =   + X   + < 4 = = = ,   O = 4 O = = = 4 = = O = O = = = O = = = = O O O = = = O . o . X X X   X   X X       X X X + X O O =   X = O + X   NX",
"O 3 ,   3 ; O O   X 3 O =   + 3 , < , ; M L P P P s , < , < , 2 <     , 3 a A   $ % ; % : u d f   # # 5 6 '.K.c.V.N.(.B.B.H./.H.H.L.J.H.H.L.L.H.Z.L.H.}.^ 6 6 6 I (.n.m.S.m.S.S.H.L.H.F.H.N.N.H.F.H.F.Z.F.L.G.eXe 6 6 w e `./.^.L.H.B.N.H.H.K.K.G.F.F.H.G.D.K.Z.K.N.W.B.* 6 q 6 E wXc.V.V.H.B.F.H.H.K.K.H./.n.H.H.S.S.S.C.B.R.B.w q 6 6 { }.b.B.V.B.F.B.H./.J.H.Z.J.H.F.K./.n.H.^.B.E.^.7 w r 8 ` [.V.M.B.V.M.H./.H.M.H.H.L.K.K.K.N.H./.Z.B.1XQ t q 6 6 c.eXx.B.n.N.F.N.N.N.B.H.L.L.N.V.N.L.N.b.B.M./.W * # @ $ u & & : : : : ; & % & % % ; % $ $ % O $ % % 2 . . X .   , % % % % O % % O % O % % O % O O O % O $ % X X . +   , O % % O O O O O O O O O O O O O O O $ X O =   +     . 2 = = O = =   O = = = = = = = = = O = = O O 4 = = = O = = O O                                                                   NX",
"                  X 3 O O     1 ; < < , 4 O O O % ; < ; , , 2 2 2 +   , 2 < N   O % : ; u < i f   # 5 5 5 ~.[.c.V.B.b.m.V.M.B.B.M.z.N.n.z.F.N.z.n.V.N.}.R 7 e w q !./.b.M.M.m.M.M.b.n.N.n.n.b.Z.N.H.B.n.N.N.W.[.w w t t q !./.x.b.M.M.M.M.V.b.v.M.B.b.m.V.v.n.H.v.n.[.} 6 6 w t e eXm.c.b.M.V.B.N.B.B.H.z.n.n.H.b.L.M.n.H.Z.:Xc.w w 6 q U {.S.b.m.B.m.v.B.H.H.H.H.H.N.F.Z.H.n.Z.n.l.9Xc.6 w q 7 E }.n.b.c.b.M.m.N.N.b.B.M.H.z.M.N.M.M.M.x.Z.<XU 9 6 w 5 ( wXb.b.v.v.M.x.M.b.n.b.b.v.N.b.v.b.b.b.B.n./.y # # # $ i u % % & $ % $ $ $ $ O $ $ % O o O O o o $ <   . X     < $ O $ O $ O O O O X O O O O O O O O X O , X   X .   = , O O . O O X O O O O + . O O X . O X % = X   . .   + , = = O = =   = = O = O O O O O O = O O = = O = O = O O O O X 1 8.<.<.<.:.@.-.@.@.@.:.@.L P P @.L L L P P J P J K V V H M       NX",
"                    3 O O   + 3 < ; , < < 2 , , < < < < , < , 2 <     ; 2 2 B   $ % % : : < u D 3 . # 5 5 e !.`./.)._._.[.T._._.[._._._.[.E.2X[.[.T.|...w 6 6 q 6 E (.}._._._._.[.[._.[.[.[.E.:X[.:X:X[.[._.).` 6 q 6 q q E ^.`.|._.[._.[._._.T.[.)._.).}.}._.:X|.).V.r 7 6 7 7 6 [ `.).).|.T._.:X:X[.[.<X<X:X_.:X}.<X:X<X_.H.T q 6 7 7 q { }.[.|.[.[.<X:XE.:X:X:X_.:X}.[.[.:X:X<X<X(.T 6 q 7 w e c.}._._.[.[.<X[.[.[.[.[.[.[.).[.[.[.[.}.}...q 7 6 7 7 q c.}.).|.[.[.[.[.[.[.[.[.[.[.|.|.|.|.|././._ 6 # # @ . $ d f f a c d a s s g p s s a 2 a s 2 s a < .   . X X   O 2 3 2 2 , < 1 2 2 2 2 2 < 2 , 2 1 2 < 1 O +   . .     = < < 1 < 2 < , 2 < 2 < 2 , , 1 < , = % X     X       = O O O O X   O X O O O O O O O = O O O = O O O O O = O O X M L 3 1 1 1 2 , 2 < < , , , , < < , , < , < 1 , 2 < < < < 3 <     NXNX",
"      o , 3 O     X l O O     1 < , , < , , , , , < , ; < < ; 2 <     , a 2 B   o % : & ; : : a @.s . # 5 # q W ^ ^ ^ [ ^ ^ ^ ^ Q [ [ ^ ^ [ [  .[ ^ W 6 6 5 5 6 5 6 I [ ^ [ [ [ ^ ^ [ [ [ [ [ [ ^ ^ [ ^ [ ^ I q 5 6 6 6 5 6 r / ^ ^ [ [ ^ ^ [ [ Q ^ ^ ^ ^ ^ ^ ^ ^ W w 6 5 6 7 6 5 5 T [ ^  .[ [ [ [ [ [ [ [ [ [ [  .[ [ [ / r 6 6 5 6 6 5 6 R [ ^ [ [ [ [ [ [ [ [ [ [ [ [ ^ ^ Q ^ W e q 6 6 6 6 5 w W ^ [ ^ Q ^ ^ Q ^ ^ ^ ^ ^ ^ ^ [ ^ ^ ^ R 0 5 0 0 0 6 5 5 Y ^ ^ ^ ^ ^ ^ ^ ^ ^ / ^ / ~ ~ ~ ! W ~ Y 6 # * * @ @ . . O O O % O O O O O o O O O o O O O O o     . . . . .     O . X + . X o . + .   + X X + . X . .     X   X +     + X   + +   X + +   X . + X X   + +       .       X O O O O O O O O O O O O 4 O O O O O O X O X X X X X X X O J L 1 O = 4 O = O = = O , = = = = , O = = = O O % O = O O , O       NXNX",
"    O L <.8.6.O   X 3 O O     3 , , , , , , , < , < < , , , < 2 ,     , 2 < S   o : % : ; : i : i #.M   @ @ @ @ @ # @ @ # @ @ @ @ # @ @ # # # # # # # # # 5 5 # 5 # # # * 5 # # # # # # # # # # # # 5 # # 5 # # # 5 # 5 5 # # # # # # # # # # # # # # # # # # # # * * 5 5 5 0 5 5 # # # @ # # # # # # # # # # # # # @ # # # # # # # # 5 # # # # # # # # # # # # # 5 # # # # # # # # # 5 5 5 5 5 # # # # # # # # # # # # # @ # # # # # # # # # # # 5 # 5 # # # # # # @ # * @ @ @ @ # @ @ @ @ @ @ @ # $ @ $ @ @ @ @ . . . . . . . . .   . .             .     . . . . . .     .       .           .     .   .         .   X   . .   X                                       .   X   , :.8.r.r.8.r.r.8.r.8.r.8.8.8.8.8.8.8.8.8.8.8.8.8.6.8.8.8.8.8.:., = = = = = = = = , = ; = , = = O ; = = = O = = % % , , O       + NXNX",
"+ X V 3 + O H :.O   < , O     3 , , , , ; ; ; , < < < , , 3 2 2 <     , 2 1 B   o $ % : : : : < < & >.s . @ @ . . . @ @ . @ . @ @ @ @ @ @ @ @ @ @ @ @ # @ # # # # # # # @ @ @ @ @ @ @ @ @ @ @ @ @ @ # # @ # # # # # # # # @ # # # @ @ # @ @ @ @ @ # @ @ @ @ @ @ # # # @ # 5 # # * # # # @ @ @ @ @ @ @ @ @ @ @ # # @ @ @ @ @ # # # # # # # # # @ @ # @ # # @ # @ @ @ @ @ @ @ @ @ # # # # # # # # * # @ @ @ @ @ @ @ @ @ # @ @ @ @ @ @ @ @ @ @ # # # # # @ # @ # @ @ @ @ @ @ @ @ @ @ @ @ @ @ . @ @ @ @ @ @ @ @ $ . . @ . @ . . . . . . . . . . . . . . . . o   . . o . . . . . . .   . . . . .   .   .   .     .   . . . X . X X       . . . X       . .   X       . X   + X   +   = J = = = O , O = = O = = = = 4 = = = = = = 4 = = 4 O 4 O = 4 + X = = O = O = O 4 = % = = = O O O , O O O 4 = O % O O ,       NXNXNXNXNX",
"+ 3 M , , < = J P X   , =   X < ; , , < , ; : ; , < , , < , ; 2 2     O 2 < A   o ; ; : : : : < < : i +.3 X . @ @ @ @ @ @ @ @ @ @ # @ @ @ @ @ @ @ @ @ $ # # # # @ # # # @ @ # # # @ @ @ @ @ # @ @ # # @ # # # # # # # # # # # # # # @ # # @ # # @ # # @ # # # # # # # # $ # # # # # # # # # # # # # # # # # # # # # # # # # # # # # # # # @ # # # # # # @ @ # @ # # # # # # @ # @ # # # # # # # # # # @ # # # @ @ # # @ # # @ # # # # # @ # # @ # # # @ # # # # @ @ @ @ @ # @ @ # @ @ # @ @ # @ @ @ @ . @ . @ @ . . . . . . . . . . . . . . . . . . . . . . . + . . . . . .   . +       . . .         .   X       .           .   X       . +   .                   .         , C % < 1 , < , < , , 1 , , , , , = , = = = , , , = , , , , = , = = = = = 4 = = = O O = % O O O = , = O = O % O , O O ,         NXNXNXNXNX",
"  3 < % = , , = J J O   O     1 , ; , , < , , , , < , < 2 , , 2 <     ; 2 < N   o ; : : , : : < i i : a O.N & , & & = < % & % & = - < & & & < & - - - - < & < & : & : & : : & : < & < 8 < & < - & - u & i = - & - - - - - u & & - - - u & & & = & < & & : & : 8 & & : 8 : u : : : u : : & & - - & & : & & & - < & & & & & : & < & : & u & & & - & & & - & - & & & & & - & & & & & - & - & & - = & < & : < & & i & : - u = = & < & - & & - & - : & : & : & & & - = & & - & - = - - = & = & % - = = % & % = % O % % $ % % O % % $ = O % O $ O O % O O O O % O % % O % ; O O O O O = O O O O O O O O O O O O = O O O O O = O O O O O O O O O O O O O O O O O O O X X O O O O O 3 l , , , , , < , , = = , , , , , , = = , , = = = , = = = = = O = = = O 4 O O O O O = O O = = 4 O = O O O = O = ; O = =           NXNXNXNXNX",
"  O 1 = , , , = = V L O     + 1 = , , , , , < < , , 2 , 2 < , 2 2     = < < B   o % % : ; < : < : i : : s ;.3.3.3.5.5.9.5.4.3.3.3.e.3.4.e.5.3.3.3.3.e.3.3.9.5.5.9.9.e.3.5.3.7.7.3.0.0.9.0.9.9.e.0.3.0.0.0.9.9.9.0.q.0.0.0.9.0.0.q.0.0.0.0.5.0.0.0.0.0.0.0.0.0.0.9.0.0.9.q.w.q.q.0.q.q.0.q.0.0.0.9.0.0.0.0.q.0.q.q.q.0.0.q.q.q.q.q.q.0.0.q.q.0.0.0.0.0.0.q.q.q.0.0.q.q.q.q.w.q.0.w.w.w.w.q.q.q.q.q.q.q.q.w.w.0.q.q.q.w.w.q.q.0.w.q.q.0.0.q.q.w.q.w.w.w.q.w.q.0.0.0.7.0.7.q.0.7.0.0.7.0.0.7.0.7.q.7.7.7.7.7.7.5.7.7.7.7.7.7.8.7.7.7.7.7.7.8.8.7.6.7.8.6.6.6.2.6.<.6.<.2.2.6.6.2.6.2.<.6.6.6.<.<.<.2.<.<.<.2.2.<.<.<.<.<.<.<.<.<.<.<.<.<.<.<.<.,.:.<.<.<.<.>.:.:.:.:.<.:.>.>.V 3 , , = , , 2 , , , , , = , < , , , , , , , , , = , , = = = % = % = = O O O O = O O % = = O , O = O O O % O % O % O O           NXNXNXNXNXNX",
"    O < = , , , , O V P +     < = = , , , , , , , , , , , , , 1 3     , 2 , N   o % % : : ; : < : < a i < : < < a 2 2 2 a s 1 a i 1 i 2 3 g s i 1 i p i 1 s a i g a s p i p p i i g 3 i a a g p a p g g s i a a a g g p a d g g a a s g i g a a g d a d a d f d f d a d d s d g d d c f s a f a a g d g d d d a d d s d s g d a d g a d d d d d g g p a g g f a d s d a d d f a f f s g g f g a d g g g s g d d g g g d a s a d g a s i s s s s s g s g g s s g s s s s s s s s s 3 s 3 g s 3 3 s s s g s 2 s s 3 2 2 s 3 3 a s 3 s 3 s 3 3 3 3 3 3 3 3 2 2 3 2 3 3 2 1 2 3 1 1 2 1 3 3 1 1 1 2 2 2 1 1 2 2 3 3 2 3 < 2 1 , 1 1 < 2 < < 1 < 2 2 < < 1 , 2 , , , , , < < 1 < , , , , , % X O O X X O X X X X O + O O X X X X X X X + X X + X X X X X X + X X X X X + X + X X X X O X O   X X +               NXNXNXNXNXNX",
"NXNXNX, < < % , , , O S L +   , , , 1 < 1 2 1 1 2 2 2 2 < < 1 s 2     < 2 2 B   $ % % % ; : < : : < i < a i a i i i < i 1 i p a i p p i a i p s a i 1 i i i a g g i p g i g g p g a d p d g a d g p g p p d d d d p d d u d p d f d d d d g p d d d d j d a d d d d p d d d j d d d d f d d f f d d d f d d p d d f d d d d g d d d p a g p g d f d d d d d d d f d d s f f d d d f d d d d d a d d d d a p f a a d a a d d d c a d a d p d f d f d d d a p g p f s s p g g s d p g 1 i g i i p a a i 3 a a 1 i a i s a a a s 3 2 i s i 2 2 i < a 2 < 1 < < < 1 2 1 < 1 1 1 < < 1 1 < < , , 2 1 2 2 2 2 1 < < < , < < < , 1 , 1 < < < 2 , , 1 < < , , , < < - = , , , , < , = , ; , O                                                                                                                     NXNXNXNXNXNXNX",
"NXNXNXNXO 1 , , ; = , O J H +   X O O X X X + + + O X X . o O o       > < < N   O % & < ; , & : ; < : : : < u < : u : u & u < 8 : i < u u u : & i i i 8 i u u i i u u i i < i u i i i i u i i i u u i i i i : i i i i i u u p i i u p u i i i i u p i g u p u p p p i p i p i p p d u p d d p p p i i u d p p i i p u d i d p i p a p p p u u p i p p g d u i i i p p i p d i i i p i 8 i p i i u u p i i i p p d p d u a a a i i a i i 1 i i i p < p i i i i i i p i i i i i i i i i i 1 i < i i u i < < u : - & i : < < < < < < & < & : < < : : : < : < < : : , : < : & < , = & & < & , ; % < % ; ; ; ; < % % , , , < = , , 4 % < = % , , , = , = = , , = = % = , = = , , , , , O                                                                                                                       NXNXNXNXNXNXNX",
"NXNXNXNXNX% 2 , = , = ; = K J M M l x x x 2 l l 3 x 3 2 3 3 s M x x x < < 2 x   % % % < : : : < : : < i < i < u i i : i < i i u i i i 8 i u i i p i i i i i i i i 8 u 8 i i i i i i i u p p p g p i p p i i i i p i i i p u i p i i g i p g p p p p p g i p g p p p i p p p p g g d p j g p j d g p p a p p i d d d d d g p p p p p u d i p p g p d d g p d p d d p p i p g p p g p p i g p p p d p u p p i p i g i p i d a p d p a i i p p p d g i u i i i i p i i p i a i i p p i i i g i i p i a i i < : < u i < : < < < i < < i < < - < < < < : < < : < & , = < < < < = < - < % = < = = < < < = , < & = < , , < , , , , = , , < = < < % % = = = = = % = = = = = = = O < , , +         X . X X +   X . X + X . . .   X   X     . + X X . .   . +   X X   . +   . + . .           X                     NXNXNXNXNXNXNX",
"NXNXNXNXNXNXO 2 , , , ; , , V V V C V V C M V V V M V V V V S V V S V < < 2 x   % % ; : ; ; ; : : i % o O O O O o o o O o O . $ o O O $ O o o O $ o X O o o o $ O O o $ $ O $ o $ $ $ o $ O % % $ $ O O $ $ $ $ $ $ $ $ $ $ O $ $ O $ $ O $ $ $ $ $ O O $ $ $ $ $ $ O $ $ o $ O $ % $ $ $ $ $ $ $ $ $ $ $ $ $ O $ O % $ $ $ $ $ o % o $ $ $ $ $ $ $ $ $ $ $ $ % $ % $ % $ $ $ $ $ $ $ $ $ $ $ O O $ o $ $ $ $ $ $ $ $ o $ $ % O $ o $ O O % O $ O O o $ $ o o $ o O O $ O O O O $ o O O O O O o O $ o o o $ O o o o $ o o $ O o o O $ O O O o . O $ O . o o O o $ . O . O o O O O . O o $ X X . $ o O . o O O . X . O . O X o X . + X X . X X + X .   + . . +     X + X X X X         + + . . X X X . X . X X   + . X X X   X . . . X     . X X + . X .   + X .   .   X + X X   + X X                     NXNXNXNXNXNXNX",
"NXNXNXNXNXNXNXO 1 ; , , , , , , , , , , , , < , 2 , ; < < < < 2 < < , : < < x   % ; , : : : : : < o                                 .                     .       .                       .         .                     .               .                           .   .       .     .                                                               .                     . .                     .     .                       .                                                                                                                                                                                                                                             . . X X o X X O O O X X . X X X X X X X + + O X   X X X X X O X + + X + X + O . X X X X . X X X +                       NXNXNXNXNXNXNX",
"NXNXNXNXNXNXNXNX4 3 ; , , < = , 1 , , , , 2 > , , ; , , 2 < , , < < ; < 2 2 M   $ % ; % < % % < o         . . . . . . @ . . . . . . . @ . @ . . @ . . @ . . . . . . . . . . . @ . . @ . . . . . @ . . . . . @ . . . @ . . . @ . . @ @ . @ . . @ @ . @ @ . . @ . . @ @ . . @ . @ @ . @ . . @ . @ @ @ . . @ . . @ . . @ . . @ . @ . @ . @ . . @ . @ @ . . . @ . @ @ . @ . . @ . . . . . . . . . @ . @ . . . . . . . @ @ . @ . @ . @ . . . . . . @ @ . @ . . . . . . . . . . . . . . . . @ . . . . . . . . . . .   . . .   . . . .   .   . .     .       . . .               .                 . .                                                                                 . + . X + O . X O . . o X X   X + X   + X + X X X X X . + X X .   X X X X X X X + X . +   + X O                           NXNXNXNXNXNXNX",
"NXNXNXNXNXNXNXNXNXO 2 , , , < < , , = < , < 2 , 2 , < , < , 2 < 2 , , < < < M   $ % % & = & < O NX. o $ $ % % & $ $ $ & * % & & * & & & & & & & * & & & & * % & & & * & * & & & # & & $ & & * & & $ & & & * & * & & * & & & & & * & & * & & & & * & & & & & * & * 8 8 & & & & & & * & & 8 & & & & & & & 8 & & & & 8 & & & & & & * & & & & & & & & 8 & & & & & & * & & & * & & & & & & * * & & & & & * & & & & & * 8 - 8 & & & 8 & * 8 & & * & & & & & & & % & % & * & * $ % & & & % & & & % * % & & % & % % $ % $ & % % & % $ & % & * % % $ O % * O % % $ $ % $ $ O $ O O * O O O * O O % O O O $ $ O $ O O @ O o o O o O $ . O $ O O O @ X O O O o O o o X X X . . +   O O $ % O % = % , % = < % ; = = % , = = = % = O , , % % O % % % % = % = = = = % = O % = O = O % = O = O                           NXNXNXNXNXNXNX",
"NXNXNXNXNXNXNXNXNXNXX < , , < < < 2 , < < 2 , , 2 , 1 1 < , < 2 < 2 1 1 < 2 3   O % % % = % O NXNX                      +                               +             +             .     . .   . .       .   +   + .       . . . . . . . .   . .   .     . . . + .   + . . X     + .     . X + .     + + X   .   + +   . .   + . . + .   . . .   +   . . .   +   .   . . . .   .     . . .   + . . .   . X   . + +   + +     X   + + + .     +   .   . . . . .   . .   . . +             +   +     . + . .   +       . .     +   +         X                         . +                   .                                                                       NX  O X + X O O O O + O O O O + X O O + O X O O X X X + X O . o X X O + + O X O X X + O X O + X X X . X +                         NXNXNXNXNXNXNXNXNX",
"NXNXNXNXNXNXNXNXNXNXNX+ X X X . X X X X + X X X + X X +   X +   X X X X . O X   O % % = < . NXNXNXNXNXNXNXNXNXNXNXNXNXNXNXNXNXNXNXNXNXNXNXNXNXNXNXNXNXNXNXNXNXNXNXNXNXNXNXNXNXNXNXNXNXNXNXNXNXNXNXNXNXNXNXNXNXNXNXNXNXNXNXNXNXNXNXNXNXNXNXNXNXNXNXNXNXNXNXNXNXNXNXNXNXNXNXNXNXNXNXNXNXNXNXNXNXNXNXNXNXNXNXNXNXNXNXNXNXNXNXNXNXNXNXNXNXNXNXNXNXNXNXNXNXNXNXNXNXNXNXNXNXNXNXNXNXNXNXNXNXNXNXNXNXNXNXNXNXNXNXNXNXNXNXNXNXNXNXNXNXNXNXNXNXNXNXNXNXNXNXNXNXNXNXNXNXNXNXNXNXNXNXNXNXNXNXNXNXNXNXNXNXNXNXNXNXNXNXNXNXNXNXNXNXNXNXNXNXNXNXNXNXNXNXNXNXNXNXNXNXNXNXNXNXNXNXNXNXNXNXNXNXNXNXNXNXNXNXNXNXNXNXNXNXNXNXNXNXNXNXNXNXNXNXNXNXNXNXNXNXNXNXNXNXNXNXNXNXNXNXNXNXNXNXNXNXNX  X       .   .                                           +                                                                 NXNXNXNXNXNXNXNXNXNX",
"NXNXNXNXNXNXNXNXNXNXNXNXNX    .       .     .   +         X             + + + O $ % , %   NXNXNXNXNXNXNXNXNXNXNXNXNXNXNXNXNXNXNXNXNXNXNXNXNXNXNXNXNXNXNXNXNXNXNXNXNXNXNXNXNXNXNXNXNXNXNXNXNXNXNXNXNXNXNXNXNXNXNXNXNXNXNXNXNXNXNXNXNXNXNXNXNXNXNXNXNXNXNXNXNXNXNXNXNXNXNXNXNXNXNXNXNXNXNXNXNXNXNXNXNXNXNXNXNXNXNXNXNXNXNXNXNXNXNXNXNXNXNXNXNXNXNXNXNXNXNXNXNXNXNXNXNXNXNXNXNXNXNXNXNXNXNXNXNXNXNXNXNXNXNXNXNXNXNXNXNXNXNXNXNXNXNXNXNXNXNXNXNXNXNXNXNXNXNXNXNXNXNXNXNXNXNXNXNXNXNXNXNXNXNXNXNXNXNXNXNXNXNXNXNXNXNXNXNXNXNXNXNXNXNXNXNXNXNXNXNXNXNXNXNXNXNXNXNXNXNXNXNXNXNXNXNXNXNXNXNXNXNXNXNXNXNXNXNXNXNXNXNXNXNXNXNXNXNXNXNXNXNXNXNXNXNXNXNXNXNXNXNXNXNXNXNXNXNXNXNXNXNXNXNXNXNXNXNXNXNXNXNXNXNXNXNXNXNXNXNXNXNXNXNXNXNXNXNXNXNXNXNXNXNXNXNXNXNXNXNXNXNXNXNXNXNXNXNXNXNXNXNXNXNXNXNXNXNX  NX  NXNXNXNXNXNXNXNXNXNXNXNXNX",
"NXNXNXNXNXNXNXNXNXNXNXNXNX. . . . . o . O . . . . o o . O O . O O . O X o O o O % O % +   NXNXNXNXNXNXNXNXNXNXNXNXNXNXNXNXNXNXNXNXNXNXNXNXNXNXNXNXNXNXNXNXNXNXNXNXNXNXNXNXNXNXNXNXNXNXNXNXNXNXNXNXNXNXNXNXNXNXNXNXNXNXNXNXNXNXNXNXNXNXNXNXNXNXNXNXNXNXNXNXNXNXNXNXNXNXNXNXNXNXNXNXNXNXNXNXNXNXNXNXNXNXNXNXNXNXNXNXNXNXNXNXNXNXNXNXNXNXNXNXNXNXNXNXNXNXNXNXNXNXNXNXNXNXNXNXNXNXNXNXNXNXNXNXNXNXNXNXNXNXNXNXNXNXNXNXNXNXNXNXNXNXNXNXNXNXNXNXNXNXNXNXNXNXNXNXNXNXNXNXNXNXNXNXNXNXNXNXNXNXNXNXNXNXNXNXNXNXNXNXNXNXNXNXNXNXNXNXNXNXNXNXNXNXNXNXNXNXNXNXNXNXNXNXNXNXNXNXNXNXNXNXNXNXNXNXNXNXNXNXNXNXNXNXNXNXNXNXNXNXNXNXNXNXNXNXNXNXNXNXNXNXNXNXNXNXNXNXNXNXNXNXNXNXNXNXNXNXNXNXNXNXNXNXNXNXNXNXNXNXNXNXNXNXNXNXNXNXNXNXNXNXNXNXNXNXNXNXNXNXNXNXNXNXNXNXNXNXNXNXNXNXNXNXNXNXNXNXNXNXNXNXNXNXNXNXNXNXNXNXNXNXNXNXNXNXNXNXNXNXNX",
"NXNXNXNXNXNXNXNXNXNXNXNXNX    +   + .     .   . .   . .   X   . + . . + . . . X . + X NXNXNXNXNXNXNXNXNXNXNXNXNXNXNXNXNXNXNXNXNXNXNXNXNXNXNXNXNXNXNXNXNXNXNXNXNXNXNXNXNXNXNXNXNXNXNXNXNXNXNXNXNXNXNXNXNXNXNXNXNXNXNXNXNXNXNXNXNXNXNXNXNXNXNXNXNXNXNXNXNXNXNXNXNXNXNXNXNXNXNXNXNXNXNXNXNXNXNXNXNXNXNXNXNXNXNXNXNXNXNXNXNXNXNXNXNXNXNXNXNXNXNXNXNXNXNXNXNXNXNXNXNXNXNXNXNXNXNXNXNXNXNXNXNXNXNXNXNXNXNXNXNXNXNXNXNXNXNXNXNXNXNXNXNXNXNXNXNXNXNXNXNXNXNXNXNXNXNXNXNXNXNXNXNXNXNXNXNXNXNXNXNXNXNXNXNXNXNXNXNXNXNXNXNXNXNXNXNXNXNXNXNXNXNXNXNXNXNXNXNXNXNXNXNXNXNXNXNXNXNXNXNXNXNXNXNXNXNXNXNXNXNXNXNXNXNXNXNXNXNXNXNXNXNXNXNXNXNXNXNXNXNXNXNXNXNXNXNXNXNXNXNXNXNXNXNXNXNXNXNXNXNXNXNXNXNXNXNXNXNXNXNXNXNXNXNXNXNXNXNXNXNXNXNXNXNXNXNXNXNXNXNXNXNXNXNXNXNXNXNXNXNXNXNXNXNXNXNXNXNXNXNXNXNXNXNXNXNXNXNXNXNXNXNXNXNXNXNXNXNXNXNX",
"NXNXNXNXNXNXNXNXNXNXNXNXNXNXNXNXNXNXNXNXNXNXNXNXNXNXNXNXNXNXNXNXNXNXNXNXNXNXNXNXNXNXNXNXNXNXNXNXNXNXNXNXNXNXNXNXNXNXNXNXNXNXNXNXNXNXNXNXNXNXNXNXNXNXNXNXNXNXNXNXNXNXNXNXNXNXNXNXNXNXNXNXNXNXNXNXNXNXNXNXNXNXNXNXNXNXNXNXNXNXNXNXNXNXNXNXNXNXNXNXNXNXNXNXNXNXNXNXNXNXNXNXNXNXNXNXNXNXNXNXNXNXNXNXNXNXNXNXNXNXNXNXNXNXNXNXNXNXNXNXNXNXNXNXNXNXNXNXNXNXNXNXNXNXNXNXNXNXNXNXNXNXNXNXNXNXNXNXNXNXNXNXNXNXNXNXNXNXNXNXNXNXNXNXNXNXNXNXNXNXNXNXNXNXNXNXNXNXNXNXNXNXNXNXNXNXNXNXNXNXNXNXNXNXNXNXNXNXNXNXNXNXNXNXNXNXNXNXNXNXNXNXNXNXNXNXNXNXNXNXNXNXNXNXNXNXNXNXNXNXNXNXNXNXNXNXNXNXNXNXNXNXNXNXNXNXNXNXNXNXNXNXNXNXNXNXNXNXNXNXNXNXNXNXNXNXNXNXNXNXNXNXNXNXNXNXNXNXNXNXNXNXNXNXNXNXNXNXNXNXNXNXNXNXNXNXNXNXNXNXNXNXNXNXNXNXNXNXNXNXNXNXNXNXNXNXNXNXNXNXNXNXNXNXNXNXNXNXNXNXNXNXNXNXNXNXNXNXNXNXNXNXNXNXNXNXNXNXNXNXNXNXNXNXNXNX",
"NXNXNXNXNXNXNXNXNXNXNXNXNXNXNXNXNXNXNXNXNXNXNXNXNXNXNXNXNXNXNXNXNXNXNXNXNXNXNXNXNXNXNXNXNXNXNXNXNXNXNXNXNXNXNXNXNXNXNXNXNXNXNXNXNXNXNXNXNXNXNXNXNXNXNXNXNXNXNXNXNXNXNXNXNXNXNXNXNXNXNXNXNXNXNXNXNXNXNXNXNXNXNXNXNXNXNXNXNXNXNXNXNXNXNXNXNXNXNXNXNXNXNXNXNXNXNXNXNXNXNXNXNXNXNXNXNXNXNXNXNXNXNXNXNXNXNXNXNXNXNXNXNXNXNXNXNXNXNXNXNXNXNXNXNXNXNXNXNXNXNXNXNXNXNXNXNXNXNXNXNXNXNXNXNXNXNXNXNXNXNXNXNXNXNXNXNXNXNXNXNXNXNXNXNXNXNXNXNXNXNXNXNXNXNXNXNXNXNXNXNXNXNXNXNXNXNXNXNXNXNXNXNXNXNXNXNXNXNXNXNXNXNXNXNXNXNXNXNXNXNXNXNXNXNXNXNXNXNXNXNXNXNXNXNXNXNXNXNXNXNXNXNXNXNXNXNXNXNXNXNXNXNXNXNXNXNXNXNXNXNXNXNXNXNXNXNXNXNXNXNXNXNXNXNXNXNXNXNXNXNXNXNXNXNXNXNXNXNXNXNXNXNXNXNXNXNXNXNXNXNXNXNXNXNXNXNXNXNXNXNXNXNXNXNXNXNXNXNXNXNXNXNXNXNXNXNXNXNXNXNXNXNXNXNXNXNXNXNXNXNXNXNXNXNXNXNXNXNXNXNXNXNXNXNXNXNXNXNXNXNXNXNXNXNXNX",
"NXNXNXNXNXNXNXNXNXNXNXNXNXNXNXNXNXNXNXNXNXNXNXNXNXNXNXNXNXNXNXNXNXNXNXNXNXNXNXNXNXNXNXNXNXNXNXNXNXNXNXNXNXNXNXNXNXNXNXNXNXNXNXNXNXNXNXNXNXNXNXNXNXNXNXNXNXNXNXNXNXNXNXNXNXNXNXNXNXNXNXNXNXNXNXNXNXNXNXNXNXNXNXNXNXNXNXNXNXNXNXNXNXNXNXNXNXNXNXNXNXNXNXNXNXNXNXNXNXNXNXNXNXNXNXNXNXNXNXNXNXNXNXNXNXNXNXNXNXNXNXNXNXNXNXNXNXNXNXNXNXNXNXNXNXNXNXNXNXNXNXNXNXNXNXNXNXNXNXNXNXNXNXNXNXNXNXNXNXNXNXNXNXNXNXNXNXNXNXNXNXNXNXNXNXNXNXNXNXNXNXNXNXNXNXNXNXNXNXNXNXNXNXNXNXNXNXNXNXNXNXNXNXNXNXNXNXNXNXNXNXNXNXNXNXNXNXNXNXNXNXNXNXNXNXNXNXNXNXNXNXNXNXNXNXNXNXNXNXNXNXNXNXNXNXNXNXNXNXNXNXNXNXNXNXNXNXNXNXNXNXNXNXNXNXNXNXNXNXNXNXNXNXNXNXNXNXNXNXNXNXNXNXNXNXNXNXNXNXNXNXNXNXNXNXNXNXNXNXNXNXNXNXNXNXNXNXNXNXNXNXNXNXNXNXNXNXNXNXNXNXNXNXNXNXNXNXNXNXNXNXNXNXNXNXNXNXNXNXNXNXNXNXNXNXNXNXNXNXNXNXNXNXNXNXNXNXNXNXNXNXNXNXNXNXNX"
};
