/* XPM */
static const char *player5_xpm[] = {
/* columns rows colors chars-per-pixel */
"397 80 234 2 ",
"   c #020402",
".  c #040A04",
"X  c #090B06",
"o  c #070C08",
"O  c #090E0A",
"+  c #040608",
"@  c #110E00",
"#  c #031403",
"$  c #0C1402",
"%  c #031A02",
"&  c #061409",
"*  c #0C120D",
"=  c #0C1A0E",
"-  c #0A1A06",
";  c #151201",
":  c #1A1601",
">  c #1D1901",
",  c #10140F",
"<  c #111A06",
"1  c #0F1410",
"2  c #0E1B11",
"3  c #07131A",
"4  c #111612",
"5  c #141A14",
"6  c #181C17",
"7  c #171D18",
"8  c #191E19",
"9  c #060E13",
"0  c #221D01",
"q  c #052104",
"w  c #0A2A08",
"e  c #152A05",
"r  c #0A3706",
"t  c #173309",
"y  c #0F2211",
"u  c #0F2A12",
"i  c #132415",
"p  c #132915",
"a  c #162319",
"s  c #1B221C",
"d  c #162A19",
"f  c #1B2C1D",
"g  c #182017",
"h  c #1B321E",
"j  c #19351C",
"k  c #262101",
"l  c #2B2401",
"z  c #2E2902",
"x  c #222C02",
"c  c #332B02",
"v  c #382F01",
"b  c #2C3804",
"n  c #3B3201",
"m  c #363903",
"M  c #20291F",
"N  c #2B301C",
"B  c #0A1B25",
"V  c #1F2521",
"C  c #1E2C21",
"Z  c #1D3421",
"A  c #1E3922",
"S  c #0C2637",
"D  c #0D2535",
"F  c #212521",
"G  c #222C23",
"H  c #2A2E2A",
"J  c #272D28",
"K  c #213224",
"L  c #213B23",
"P  c #2B322C",
"I  c #28332A",
"U  c #2E3631",
"Y  c #343A35",
"T  c #393E3A",
"R  c #343835",
"E  c #32392C",
"W  c #433902",
"Q  c #453B07",
"!  c #1A5A09",
"~  c #134B06",
"^  c #21640B",
"/  c #3C433D",
"(  c #38443A",
")  c #265609",
"_  c #564908",
"`  c #584C10",
"'  c #55490A",
"]  c #68590A",
"[  c #695B17",
"{  c #77660D",
"}  c #796819",
"|  c #6F6118",
" . c #7B6B21",
".. c #0E2D44",
"X. c #133957",
"o. c #11314A",
"O. c #3E4842",
"+. c #434C45",
"@. c #464D48",
"#. c #444945",
"$. c #445147",
"%. c #455349",
"&. c #4A544C",
"*. c #495C4E",
"=. c #465B4C",
"-. c #4C5D51",
";. c #4E5750",
":. c #555C57",
">. c #50554E",
",. c #4D6153",
"<. c #5C635D",
"1. c #526357",
"2. c #5E6B61",
"3. c #636B65",
"4. c #666D68",
"5. c #6B736D",
"6. c #66796B",
"7. c #6D7C72",
"8. c #6E7671",
"9. c #727C75",
"0. c #747B76",
"q. c #60655F",
"w. c #8C7814",
"e. c #927D13",
"r. c #927D1C",
"t. c #8B760D",
"y. c #8E7B24",
"u. c #6A816E",
"i. c #6E8273",
"p. c #6F8974",
"a. c #728376",
"s. c #738976",
"d. c #75857A",
"f. c #7A847D",
"g. c #768A7A",
"h. c #798B7C",
"j. c #978215",
"k. c #9F8502",
"l. c #A68C03",
"z. c #A98E02",
"x. c #A58B07",
"c. c #AD9203",
"v. c #B29503",
"b. c #B69904",
"n. c #BB9D03",
"m. c #B89B0A",
"M. c #AC9419",
"N. c #B59A19",
"B. c #A48C18",
"V. c #BFA004",
"C. c #BEA00D",
"Z. c #BEA21A",
"A. c #9A8629",
"S. c #9D8A31",
"D. c #AD962D",
"F. c #AE9624",
"G. c #B49C29",
"H. c #AD9631",
"J. c #B59E33",
"K. c #B69F39",
"L. c #A28C28",
"P. c #BDA329",
"I. c #B9A33B",
"U. c #B8A135",
"Y. c #C3A404",
"T. c #C7A804",
"R. c #CCAB04",
"E. c #C3A50B",
"W. c #CCAB0A",
"Q. c #C8A705",
"!. c #D0AF03",
"~. c #D0AF08",
"^. c #D4B204",
"/. c #D9B604",
"(. c #DDB904",
"). c #D5B309",
"_. c #DCB809",
"`. c #C3A61B",
"'. c #CAAC1C",
"]. c #C6A816",
"[. c #D3B215",
"{. c #D4B41D",
"}. c #DCBA18",
"|. c #CFB01A",
" X c #E2BD04",
".X c #E2BD09",
"XX c #E0BE19",
"oX c #C7AB28",
"OX c #CEB127",
"+X c #D3B523",
"@X c #D9BA29",
"#X c #C6AC35",
"$X c #CCB239",
"%X c #D7BA34",
"&X c #E0BF24",
"*X c #E6C004",
"=X c #EBC304",
"-X c #EDC50A",
";X c #E6C009",
":X c #F3CA0C",
">X c #F3C907",
",X c #EAC518",
"<X c #F3CA13",
"1X c #F5CC1C",
"2X c #F9CE18",
"3X c #FBD01C",
"4X c #DFC137",
"5X c #E7C527",
"6X c #F6CE26",
"7X c #FCD124",
"8X c #FCD12C",
"9X c #F4D02E",
"0X c #E9C937",
"qX c #FCD234",
"wX c #FDD43C",
"eX c #F7D537",
"rX c #F1CF38",
"tX c #E9CA41",
"yX c #FED544",
"uX c #FED54C",
"iX c #F8D747",
"pX c #FED654",
"aX c #FED75A",
"sX c #FED85B",
"dX c #FED864",
"fX c #FEDA6B",
"gX c #FED761",
"hX c #FFDB72",
"jX c #FFDC7B",
"kX c #BDA742",
"lX c #7D8981",
"zX c #828A84",
"xX c #FEDE82",
"cX c #000001",
/* pixels */
"cXcXcXcXcXcXcXcXcXcXcXX cXY &.>.>.;.:.:.&.;.:.:.;.&.&.&.;.;.:.:.1.<.:.<.<.<.1.2.2.d.:.B cX. cXcXcXcXcXcXcXcXcXcXcXcXcXcXcXcXcXcXcXcXcXcXcXcXcXcXcXcXcXcXcXcXcXcXcXcXcXcXcXcXcXcXcXcXcXcXcXcXcXcXcXcXcXcXcXcXcXcXcXcXcXcXcXcXcXcXcXcXcXcXcXcXcXcXcXcXcXcXcXcXcXcXcXcXcXcXcXcXcXcXcXcXcXcXcXcXcXcXcXcXcXcXcXcXcXcXcXcXcXcXcXcXcXcXcXcXcXcXcXcXcXcXcXcXcXcXcXcXcXcXcXcXcXcXcXcXcXcXcXcXcXcXcXcXcXcXcXcXcXcXcXcXcXcXcXcXcXcXcXcXcXcXcXcXcXcXcXcXcXcXcXcXcXcXcXcXcXcXcXcXcXcXcXcXcXcXcXcXcXcXcXcXcXcXcXcXcXcXcXcXcXcXcXcXcXcXcXcXcXcXcXcXcXcXcXcXcXcXcXcXcXcXcXcXcXcXcXcXcXcXcXcXcXcXcXcXcXcXcXcXcXcXcXcXcXcXcXcXcXcXcXcXcXcXcXcXcXcXcXcXcXcXcXcXcXcXcXcXcXcXcXcXcXcXcXcXcXcXcXcXcXcXcXcXcXcXcXcXcXcXcXcXcXcXcXcXcXcXcXcXcXcXcXcXcXcXcXcXcXcXcXcXcXcXcXcXcXcXcXcXcXcXcXcXcXcXcXcXcXcXcXcXcXcXcXcXcXcXcXcXcXcXcXcXcXcXcXcXcXcXcX",
"cXcXcXcXcXcXcXcXcXcXcXO U U 5 4 , , 4 4 9 5 5 7 7 7 7 5 5 8 7 s s 8 V V G J G J J Y 6.-.5 cXcXcXcXcXcXcXcXcXcXcXcXcXcXcXcXcXcXcXcXcXcXcXcXcXcXcXcXcXcXcXcXcXcXcXcXcXcXcXcXcXcXcXcXcXcXcXcXcXcXcXcXcXcXcXcXcXcXcXcXcXcXcXcXcXcXcXcXcXcXcXcXcXcXcXcXcXcXcXcXcXcXcXcXcXcXcXcXcXcXcXcXcXcXcXcXcXcXcXcXcXcXcXcXcXcXcXcXcXcXcXcXcXcXcXcXcXcXcXcXcXcXcXcXcXcXcXcXcXcXcXcXcXcXcXcXcXcXcXcXcXcXcXcXcXcXcXcXcXcXcXcXcXcXcXcXcXcXcXcXcXcXcXcXcXcXcXcXcXcXcXcXcXcXcXcXcXcXcXcXcXcXcXcXcXcXcXcXcXcXcXcXcXcXcXcXcXcXcXcXcXcXcXcXcXcXcXcXcXcXcXcXcXcXcXcXcXcXcXcXcXcXcXcXcXcXcXcXcXcXcXcXcXcXcXcXcXcXcXcXcXcXcXcXcXcXcXcXcXcXcXcXcXcXcXcXcXcXcXcXcXcXcXcXcXcXcXcXcXcXcXcXcXcXcXcXcXcXcXcXcXcXcXcXcXcXcXcXcXcXcXcXcXcXcXcXcXcXcXcXcXcXcXcXcXcXcXcXcXcXcXcXcXcXcXcXcXcXcXcXcXcXcXcXcXcXcXcXcXcXcXcXcXcXcXcXcXcXcXcXcXcXcXcXcXcXcXcXcXcXcXcX",
"cXcXcXcXcXcXcXcXcX+ O T U 5 7 6 8 8 8 8 8 8 8 6 7 5 5 5 8 7 5 6 7 5 1 7 5 s 8 B 7 5 P 7.;.* cXcXcXcXcXcXcXcXcXcXcXcXcXcXcXcXcXcXcXcXcXcXcXcXcXcXcXcXcXcXcXcXcXcXcXcXcXcXcXcXcXcXcXcXcXcXcXcXcXcXcXcXcXcXcXcXcXcXcXcXcXcXcXcXcXcXcXcXcXcXcXcXcXcXcXcXcXcXcXcXcXcXcXcXcXcXcXcXcXcXcXcXcXcXcXcXcXcXcXcXcXcXcXcXcXcXcXcXcXcXcXcXcXcXcXcXcXcXcXcXcXcXcXcXcXcXcXcXcXcXcXcXcXcXcXcXcXcXcXcXcXcXcXcXcXcXcXcXcXcXcXcXcXcXcXcXcXcXcXcXcXcXcXcXcXcXcXcXcXcXcXcXcXcXcXcXcXcXcXcXcXcXcXcXcXcXcXcXcXcXcXcXcXcXcXcXcXcXcXcXcXcXcXcXcXcXcXcXcXcXcXcXcXcXcXcXcXcXcXcXcXcXcXcXcXcXcXcXcXcXcXcXcXcXcXcXcXcXcXcXcXcXcXcXcXcXcXcXcXcXcXcXcXcXcXcXcXcXcXcXcXcXcXcXcXcXcXcXcXcXcXcXcXcXcXcXcXcXcXcXcXcXcXcXcXcXcXcXcXcXcXcXcXcXcXcXcXcXcXcXcXcXcXcXcXcXcXcXcXcXcXcXcXcXcXcXcXcXcXcXcXcXcXcXcXcXcXcXcXcXcXcXcXcXcXcXcXcXcXcXcXcXcXcXcXcXcXcXcXcXcX",
"cXcXcXcXcXcXcXcXcX* O.P 4 4 7 O O + + + + O O + O O O O O O + 9 9 O O O O O O 4 2 7 2 U a.;.4 cXcXcXcXcXcXcXcXcXcXcXcXcXcXcXcXcXcXcXcXcXcXcXcXcXcXcXcXcXcXcXcXcXcXcXcXcXcXcXcXcXcXcXcXcXcXcXcXcXcXcXcXcXcXcXcXcXcXcXcXcXcXcXcXcXcXcXcXcXcXcXcXcXcXcXcXcXcXcXcXcXcXcXcXcXcXcXcXcXcXcXcXcXcXcXcXcXcXcXcXcXcXcXcXcXcXcXcXcXcXcXcXcXcXcXcXcXcXcXcXcXcXcXcXcXcXcXcXcXcXcXcXcXcXcXcXcXcXcXcXcXcXcXcXcXcXcXcXcXcXcXcXcXcXcXcXcXcXcXcXcXcXcXcXcXcXcXcXcXcXcXcXcXcXcXcXcXcXcXcXcXcXcXcXcXcXcXcXcXcXcXcXcXcXcXcXcXcXcXcXcXcXcXcXcXcXcXcXcXcXcXcXcXcXcXcXcXcXcXcXcXcXcXcXcXcXcXcXcXcXcXcXcXcXcXcXcXcXcXcXcXcXcXcXcXcXcXcXcXcXcXcXcXcXcXcXcXcXcXcXcXcXcXcXcXcXcXcXcXcXcXcXcXcXcXcXcXcXcXcXcXcXcXcXcXcXcXcXcXcXcXcXcXcXcXcXcXcXcXcXcXcXcXcXcXcXcXcXcXcXcXcXcXcXcXcXcXcXcXcXcXcXcXcXcXcXcXcXcXcXcXcXcXcXcXcXcXcXcXcXcXcXcXcXcXcXcXcXcXcX",
"cXcXcXcXcXcX+ X O #.F 3 7 7 o U >.#.#.#.@.@.#.#.#.#.@.@.#.#.#.#.@.#.#.#.#.@.@.,   5 7 1 J g.2.5 cXcXcXcXcXcXcXcXcXcXcXcXcXcXcXcXcXcXcXcXcXcXcXcXcXcXcXcXcXcXcXcXcXcXcXcXcXcXcXcXcXcXcXcXcXcXcXcXcXcXcXcXcXcXcXcXcXcXcXcXcXcXcXcXcXcXcXcXcXcXcXcXcXcXcXcXcXcXcXcXcXcXcXcXcXcXcXcXcXcXcXcXcXcXcXcXcXcXcXcXcXcXcXcXcXcXcXcXcXcXcXcXcXcXcXcXcXcXcXcXcXcXcXcXcXcXcXcXcXcXcXcXcXcXcXcXcXcXcXcXcXcXcXcXcXcXcXcXcXcXcXcXcXcXcXcXcXcXcXcXcXcXcXcXcXcXcXcXcXcXcXcXcXcXcXcXcXcXcXcXcXcXcXcXcXcXcXcXcXcXcXcXcXcXcXcXcXcXcXcXcXcXcXcXcXcXcXcXcXcXcXcXcXcXcXcXcXcXcXcXcXcXcXcXcXcXcXcXcXcXcXcXcXcXcXcXcXcXcXcXcXcXcXcXcXcXcXcXcXcXcXcXcXcXcXcXcXcXcXcXcXcXcXcXcXcXcXcXcXcXcXcXcXcXcXcXcXcXs O./ / / / T / / T O./ / / T T / / T T R T T T T T R T T T R R R R R U R U U R R H U P P H R H H J J H H H H P F + cXcXcXcXcXcXcXcXcXcXcXcXcX",
"cXcXcXcXcXcXcX* O.H 4 6 5 4 F 0.0.f.0.f.f.f.f.lXzXlXzXzXzXzXzXlXzXlXf.lXlXf.zX>.  5 5 7 * V i.2.6 cXcXcXcXcXcXcXcXcXcXcXcXcXcXcXcXcXcXcXcXcXcXcXcXcXcXcXcXcXcXcXcXcXcXcXcXcXcXcXcXcXcXcXcXcXcXcXcXcXcXcXcXcXcXcXcXcXcXcXcXcXcXcXcXcXcXcXcXcXcXcXcXcXcXcXcXcXcXcXcXcXcXcXcXcXcXcXcXcXcXcXcXcXcXcXcXcXcXcXcXcXcXcXcXcXcXcXcXcXcXcXcXcXcXcXcXcXcXcXcXcXcXcXcXcXcXcXcXcXcXcXcXcXcXcXcXcXcXcXcXcXcXcXcXcXcXcXcXcXcXcXcXcXcXcXcXcXcXcXcXcXcXcXcXcXcXcXcXcXcXcXcXcXcXcXcXcXcXcXcXcXcXcXcXcXcXcXcXcXcXcXcXcXcXcXcXcXcXcXcXcXcXcXcXcXcXcXcXcXcXcXcXcXcXcXcXcXcXcXcXcXcXcXcXcXcXcXcXcXcXcXcXcXcXcXcXcXcXcXcXcXcXcXcXcXcXcXcXcXcXcXcXcXcXcXcXcXcXcXcXcXcXcXcXcXcXcXcXcXcXcXcXcXcXcXcXF #.:.>.:.:.>.>.>.>.>.&.&.@.@.@.@.>.@.#.>.#.#.@.@.@.#.#.#.O./ / / / / / / T / / #./ / / T T R T Y R R T R R T T T R 4 cXcXcXcXcXcXcXcXcXcXcXcXcX",
"cXcXcXcX. + * Y H 1 6 6 5 5 8 4 , , 4 4 4 4 4 4 4 4 4 4 8 4 4 6 4 6 5 5 5 1 7 Y   5 7 7 a 1 I 6.2.8 cX7 ( / O.O.O.$.O.O.$.$.( O.O.O.%.$.%.$.%.$.=.O.,.=.=.=.*.*.*.*.*.*.*.*.-.=.-.-.*.*.-.,.,.*.*.*.-.,.,.-.,.-.1.,.,.,.-.-.,.1.1.,.-.-.1.,.,.,.1.1.,.,.,.,.,.-.,.,.,.=.-.,.1.,.,.-.,.,.1.,.,.,.1.1.,.1.-.,.,.1.,.,.1.,.,.,.,.,.,.-.-.-.-.,.,.1.1.,.,.,.,.,.,.,.,.1.1.,.,.,.,.1.,.,.,.-.,.,.,.,.,.,.1.1.,.1.,.,.,.,.-.-.*.,.,.*.,.-.-.1.-.,.=.=.,.,.1.,.,.,.-.-.-.-.-.-.-.;.-.-.-.-.-.-.-.-.=.%.-.-.%.-.-.-.%.*.&.=.&.%.%.%.$.%.O.&.$.$.$.O.O.O.O.$.%.O.O.O.O.O.O.O.O.O.O.O.+.O.O.O.+.+.+.$.+.+.$.+.O.O.O.+.O.O.+./ O./ / / O./ / / / O./ ( Y Y T Y R R R Y U P U J 8 4 8 F 4 * O 4 4 4 , , 4 4 4 4 4 4 4 5 5 4 5 4 5 4 4 4 4 3 4 5 4 5 4 4 4 4 4 4 4 4 , , , 4 4 , 4 , * 4 , * , * , , * , 6 F * cXcXcXcXcXcXcXcXcXcXcXcX",
"cXcXcXcX+ * Y H 4 5 4 6 5 5 8 8 s s s s F s s V s V V F F 8 F F F F V V V V C R   1 2 5 5 7 7 P 3.7.F * 5 7 a s a a a a s s s d a V V f f V f s C C C f f V f C C C C f f Z C V K Z G C f G f C C K C C Z C C Z K Z C G Z Z K Z Z C C C C Z Z Z C K Z J K K Z Z K Z K Z C Z K K C Z Z I C Z Z Z Z K K K K K K K L K K K K Z Z Z K Z Z Z Z C Z K K K K K K K I L K K G Z Z Z J Z J K K Z L K K Z K K K Z K K K Z Z K K K Z K K Z Z C J Z J K Z C K K K K J K Z K K G K K K K K I J Z J Z J G K G G C C C C G J C J C G C C G G Z C C C C C V f s V C C C C V V f f C V C V C V V V V V C V V G G G V C V C C V V V f s s s s s s s s s s s s s s a 7 7 5 5 7 a 7 4 4 * 4 8 5 7 8 8 8 8 s 8 8 F F F F F 8 F F F 8 F V M s s V V s F 8 8 8 F 8 8 8 6 8 s 8 6 8 8 8 8 8 s 8 6 6 8 6 6 6 6 6 6 6 6 6 G , cXcXcXcXcXcXcXcXcXcXcX",
"cXcXcX+ 4 T V 4 4 5 4 8 5 6 8 8 8 s s V s V 8 s s V s 8 V 8 V F V V s V s 7 V U   1 5 5 7 i s 7 J 6.a.s       . . . . . . . . . . . . . . . # . # . # . # o & # # & & # & # & & # & & * & o & & & & & # & & & # * # # & = 9 & & & # & & & & 9 = & = & 9 & = # = & * & & & & & & & & & & = & & & & & & & & = & & 9 & & & & & & % & & & & & & = & & & & & & = & & = & & = = & & 2 = & & = = & & & & = & & * & - & = & & & = = % = & = & & & & = = & = = 1 = & = & = = & = = & & & & # & & & & & * & * & * * & * & & o & & O * & & o o & . * o O O $ X X & X * * X * O * & O O X X * * O * * X O X O O O O O O O X O * O * O O X O O O O O O * O O O . O o + o O o o o   O * O O O * 4 6 6 6 6 8 s s s F 8 F s F 8 8 8 V 8 8 8 V 6 6 6 6 8 6 8 8 8 8 6 6 8 6 6 6 4 8 6 6 6 6 6 6 6 5 6 6 6 6 4 6 6 8 F , cXcXcXcXcXcXcXcXcXcX",
"cXcX+ , / V 4 6 5 5 8 4 6 4 V s 7 6 8 8 8 7 8 6 6 8 6 6 8 7 8 8 s 7 7 7 V 7 V U   * 2 5 5 7 7 a 2 C 6.h.@./ +.+.#.+.+.+.+.+.+.$.%.$.$.$.%.%.%.@.@.%.+.$.+.+.+.@.@.$.$.@.+.@.@.+.@.@.%.@.%.%.%.%.%.%.&.%.%.%.@.$.%.%.$.$.%.%.=.O.%.$.%.%.=.O.=.O.%.=.O.O.O.O.@.$.$.%.$.$.@.%.$.$.$.$.%.$.%.%.$.%.$.%.%.O.O.%.*.%.&.=.@.%.=.%.%.%.%.%.%.%.%.=.&.&.*.*.%.%.=.%.=.$.=.$.%.%.%.%.%.&.$.$.=.$.%.%.=.&.%.$.%.%.$.%.=.$.$.%.$.$.$.$.=.O.%.%.$.$.=.$.$.$.=.$.@.%.$.$.%.$.%.+.+.$.%.%.@.%.@.@.@.@.+.$.+.+.O.+.+.+.+.+.O.+.O.@.@.O.+.+.O.#.O.O.+.O.O.O.O./ / O.+./ / / / O./ O./ / O./ / #./ / T T / / / / / / ( T O./ ( / ( ( / T / / T / ( Y T / / T T T T T T T T T / T / T T T Y Y Y U 6   6 6 6 6 8 8 s 8 8 8 8 8 8 8 F 8 8 8 8 8 6 6 6 6 6 6 6 8 6 6 6 6 8 6 6 6 6 6 6 6 6 6 6 6 5 6 6 4 8 4 4 6 6 4 5 6 M cXcXcXcXcXcXcXcXcXcX",
"cXcX, R V 4 6 4 4 5 8 5 5 8 9                                           1 7 V U   * 1 5 7 5 a a V 2 J %.6.5.5.5.5.5.6.4.5.6.6.8.7.6.6.6.6.6.7.6.6.9.6.6.7.7.6.7.a.7.i.9.a.i.a.7.i.9.7.7.a.a.9.i.a.9.a.a.7.a.i.a.9.a.7.7.i.7.i.7.i.i.i.7.i.i.i.7.i.a.i.i.a.p.a.i.a.a.a.a.i.d.d.d.d.g.a.g.d.d.d.s.g.lXg.lXg.lXh.g.s.g.g.g.p.lXlXa.d.d.d.d.h.lXg.s.g.d.h.s.a.h.lXg.g.d.g.d.g.g.s.s.d.g.s.g.g.d.h.g.lXp.s.g.s.s.a.a.s.lXd.a.a.d.lXi.i.g.d.a.d.d.a.a.i.9.a.a.a.a.d.a.g.a.d.d.d.d.a.a.d.d.9.9.a.a.0.9.a.a.0.9.i.9.5.7.9.9.7.8.8.7.8.8.7.7.7.8.5.7.5.8.8.7.9.8.8.7.9.5.8.8.5.5.5.5.5.8.8.8.5.5.8.5.5.5.5.8.5.5.5.5.5.5.5.5.5.5.5.4.4.5.4.4.4.5.5.3.3.3.3.4.4.3.4.4.5.3.3.3.3.<.3.3.3.3.3.R   5 6 6 6 6 6 s s s F 8 F 8 6 6 8 8 6 7 7 8 6 6 6 6 4 6 8 8 8 6 6 4 4 4 5 6 8 s 6 4 6 5 5 6 4 8 4 6 6 4 6 6 5 5 8 F cXcXcXcXcXcXcXcXcX",
"cX+ H J 3 5 4 5 5 4 5 4 5 ,     + . + o o o . o o o o o o o O O o +     1 a a P   * 2 5 7 a 7 a a a 7 2 = = = 2 5 = = 2 = = = 5 5 2 5 2 i 5 = i y 5 = 5 2 = y 2 2 y i 2 2 2 2 y 2 i y 2 2 2 y 5 2 i 2 2 y 5 2 y 5 2 y 2 2 2 y 2 y 2 2 2 7 2 2 y y 2 y 2 2 7 y 2 2 y y y 2 y y i y i 2 y y 2 y y = = y = y y 2 y 2 y i y y 2 i i y 2 y 5 2 y 2 y i = = 2 y y y 2 y y 2 y 2 y 2 y i y y 2 2 i 2 2 2 2 2 2 2 y y 5 2 y 2 y 2 y 2 y 2 y 5 5 2 y i i 2 2 y 2 2 i i 5 2 2 5 2 2 5 2 5 2 2 2 2 5 5 5 2 2 5 = 5 = = 5 4 2 1 2 1 5 5 1 2 2 5 = * * 4 6 = * , , , * = * * * O 1 1 1 , 4 , 4 * = , 4 * , , , , , 4 * , * * * * * * , 4 * , , * , * , 4 4 4 1 1 , 4 * * * * * 4 1 * 4 4 , 4 8 / J O 6 6 6 s s 8 8 8 8 8 8 8 8 6 8 6 6 7 8 6 6 6 6 4 8 6 5 4 4 6 6 8 8 6 6 4 6 4 6 6 6 6 4 6 4 4 6 6 4 6 4 4 6 4 6 8 s cXcXcXcXcXcXcXcX",
"cX  8 6 5 5 5 4 5 4 4 6 O       1 1 1 4 1 4 4 4 4 4 4 4 3 6 5 5 6 O     4 7 V U   * 2 5 5 5 5 5 7 a a a s f d f f d f d a f f f f f h h f f h f f f d f d d Z h f h h f h j f h Z Z h d h Z Z h Z C d Z Z h Z h h h h h h C h Z h h f h Z Z Z h Z Z Z Z h h Z h h Z Z j h h j h Z Z h Z h Z Z Z Z Z Z Z A h j h Z h h A Z h Z Z h h Z h h h h j h h f h h Z Z h Z Z j h h Z h f h j j Z A Z h h Z h Z Z h h f h h Z h Z Z C Z C h Z Z Z f K Z h Z f Z f h f h f h f f C f Z Z f C d f V C C f f f f f f f s V f s s f f s f s s s s s s s s s s s s a s a g s a 8 s s 7 7 s s s s s s 8 s s s 6 8 s M 6 8 s 8 s g g 7 7 8 s s 6 8 7 g 8 s 8 s 6 7 7 6 8 6 6 6 7 6 6 6 6 6 7 8 8 6 6 H H , 4 8 8 6 6 8 8 8 8 8 6 6 6 6 6 5 6 6 6 6 6 6 6 6 6 6 4 6 6 6 6 6 6 4 6 6 4 6 6 4 6 6 5 6 4 6 6 5 6 6 4 4 6 6 4 8 6 cXcXcXcXcXcXcX",
"cX+ 5 6 4 5 4 5 5 6 8 O         4 1 4 4 5 4 5 5 5 6 4 7 4 6 4 4 6 *     4 7 a P   * 2 1 5 5 7 a 5 a a a p s f f f d h d h d d f h f h f j j f h h h d h f j h d d f h d j f j h Z h f h h f j h Z Z j Z Z h Z Z h h h h j Z d h j Z j h j Z j Z Z Z j j Z j j Z j Z j A h Z h h h h j j Z j j j Z j Z Z j j Z h h h h j Z Z h Z j A j h j h j u j h h Z j Z h h Z Z Z j j j Z h h Z j j Z L A h j Z Z d h h j h h h h h Z Z j f Z h Z Z f Z h h Z Z d j f h h h h f Z f Z C f f C C f f f f f f f d f s f s d f f f s s f s a f s s s d a s g a s a s s s s s s s s 8 a g s s s 6 s s 6 s g s s s s 8 6 s g s 6 s g 7 7 8 6 s 8 6 8 s 6 6 7 8 6 7 7 7 8 6 6 5 7 7 6 5 6 7 8 8 6 6 6 5 H H O + + @ + + @ X X X + + + + X + + + + X X + + + + + + + X X + X + + X X + +   + + X X + + + X + + X + + + X + + + +   cXcXcXcXcX",
"cX  4 4 4 5 5 5 5 6 +     +     4 1 4 4 5 4 7 5 7 7 5 5 5 4 5 4 6 4     4 7 s U   * 5 2 5 5 a 7 a a a a d K d d f h f f f d j Z h f h f j Z f h j h j d f h h h j h j f h h d j h Z h j Z f Z A A Z Z A L A j Z j Z j A A j Z Z j Z A A Z A j j Z j Z Z A A j A A A A j j j j j j j L A A A A A A A A A A L ( A A L j A A A A Z j L L j j A j ( A j j A j j A A Z A A A L A A A Z A A A L j L j Z j Z A h h L h L L A A L A Z Z h j Z Z j A Z Z h h Z Z j Z K h Z j h h h f Z h Z C f Z Z Z C h Z f K K f f f V C C s f f s s f s d s s s f s a a s s s s s s s s s s 6 s g s s s s s s s s s s s 8 g s 7 6 7 6 6 s 7 8 7 7 7 6 6 8 8 8 6 s 8 6 8 7 g 8 7 6 8 7 8 8 s 6 7 8 s 8 6 6 5 4 H @.5.8.8.4.5.5.8.8.5.5.5.5.8.5.4.4.5.5.5.4.4.4.4.5.5.4.4.3.3.4.4.3.4.4.4.4.4.3.3.q.q.:.q.:.q.:.<.:.:.:.:.<.<.q.<.:.:.H + cXcXcXcX",
"X   + 6 5 5 4 6 6 +     O 8 + + 5 4 4 4 4 5 4 4 5 5 7 5 6 5 5 5 8 5 +   1 s a I   * = 5 5 2 5 i a a a C V O                                                                                                                 .                 .       +                     .       .           .     .             .               .           .             .   .           .     .           .                                                                                                                                                                                                                                                                             O 6 5 6 6 4 8 H H H H U H H H P H E H H H H H H U P P H H P E U H H H J H H H H H H H H H H H H J H H H H J F H J H F J H H H E U 8 cXcXcXcX",
"      + , * * , +     O F 4   + 6 4 4 4 6 4 4 7 6 5 7 5 7 4 5 4 7 4     1 s a P   = 2 5 5 2 2 a 5 a d d *   . . . . . . . . . . . . # . . # # . . # . . . # . . . # . # . # # . # # . # . # . # # . # # . # . # # # . # # . # # . # # # . # # # # # # # . # # # # # . # # # . # . # # # # # . # # . # # # # # # . # # # # . # . . # . . # . # . # # # # # # # # # # # # # # # # # # # # # # # . # . # # . . # # # . . # . # # # # . # . # . # . . . . . . # . # . . . . # . . # . . . . . . . . . . . . .       .                                                                                                                                                               , 6 6 6 6 6 4 4 4 6 6 4 6 5 6 6 6 6 6 6 6 6 6 4 6 4 6 6 4 6 4 6 4 4 4 4 5 4 6 6 4 6 6 4 4 6 5 6 6 6 6 6 4 4 5 5 , 4 4 5 6 6 , 4 J 4 cXcXcX",
"X +                   8 4 O   + 8 4 4 6 6 4 7 7 6 8 6 6 8 6 8 5 8 6     4 7 s P   * 1 2 2 2 7 5 5 d f O   # . # # # # # % % % % % % % % % % % % % % % % % % % % % # % # % % % % % % % % % % % % % % % % % % # % % % % # % % % % % % % % % % % % % % % % % % % % # % % % % % % # % % # % % % % % % % % % % % % % % % % % % % % % % % % # # % % % % % % % % % % % % % q % % % % % % % % % # % # % # % % % % % % % % % % % % % % % % % % % % % % % % # % # # % # % % % % % % % # # % # % % % % % # # # # # # # . . . . . . . . . . .   .   .     .   . .   .                                                                                                                         * 8 6 6 6 s s 8 8 8 8 8 6 6 6 F s 8 8 8 F F 8 8 M 8 s 8 8 F s F 8 8 F F s 8 8 8 F 8 8 F s 8 8 8 8 6 8 s 6 8 8 8 8 6 6 6 6 8 8 6 F 6 cXcX",
"                    X F O O   + 8 4 * X O o o o o o O X O O O * 7 7     4 s 7 P   * 1 5 5 5 y a f f o + . . # # # # # # # % % % % % % % % % % % % % % % % % % - % % q % # # % % # % # % % % % % % % % % % # # % q % % % % q q % # % % % % % # % % % % % % % % q % % # % % q $ q % % % % # # % % % % # % % % % % % # % % % % % % % % % % % q q % % % # % % % % q % % % % % % % % % % # % q % % q % q % % # # # % % % % % # % % % % % % % % % # % % % % % % % % % % # # # # # # % % # # # # % # # # # # % # # . # # . .                 +                           . .     .                                                   .                                                     * s s 8 s 6 8 8 F 8 s M s s F s F M s F F 8 s s M M F M F s F 8 F s s F M s F F s s 8 F M 6 F F s 8 s 8 6 s 8 s 8 s s 8 8 F M 8 G 4 cX",
"  + 8 O   6 M 4 +   X F O *   + 8 4 o                   +       6 4     4 7 a P   * 2 2 2 5 7 a f ; k z t.N.m.`.`.`.].].].].].Z.`.`.Z.`.Z.`.Z.`.t.0 : : ; - l 0 _ N.C.Z.`.`.`.`.`.].].`.`.`.Z.`.`.`.Z.Z.j.n > > ; ; l 0 _ M.m.`.`.`.].].].].].Z.`.`.Z.Z.`.`.Z.Z.B.n : > ; ; e 0 n j.Z.C.`.`.].`.`.].].`.`.`.`.Z.`.`.Z.Z.`.] > > : ; < x k ] N.m.`.`.`.`.].`.].`.Z.`.`.Z.`.`.`.Z.Z.e.k > : ; ; k k W M.C.C.`.`.].].].].Z.`.`.`.Z.C.`.`.Z.Z.M._ > % q % # # .                                         .     . # # # # y d f f f f C f s a s a s s s s a a s s *   .   . . .   * 7 7 6 5 6 5 6 7 5 6 5 5 6 6 6 5 4 6 5 o     . .     O 5 6 5 4 5 4 4 5 4 6 4 5 4 4 4 1 4 O o               X + +   X X + + +   +   +   + + X   X +       + + + + + X X X X +         X   + + + +   X       X X +   + X + + X + + + + .   + cX",
", , H 4   H 8 4 O   O 8 , O     6 6 R :.4.5.4.4.4.3.4.4.3.3.q.H 4 5 +   1 7 s P   = 1 5 2 7 7 C s ; l ] `.l.z.l.v.v.v.c.v.b.v.m.c.z.c.b.c.c.v.v.&X` > > < - z Q C.c.x.l.c.m.c.v.v.v.b.b.v.z.c.b.c.c.c.v.[.e.> > : @ l W `.c.l.z.v.v.v.c.v.b.m.v.v.x.l.v.v.c.c.v.[.r.0 > : @ e v t.C.k.x.c.v.v.c.c.b.b.v.b.c.l.v.v.c.v.c.m.'.' : : : - z _ `.c.z.l.c.v.v.c.m.m.v.b.v.l.c.b.c.c.c.b.}.| > > : X k n B.v.x.x.c.b.v.v.v.C.V.c.c.z.l.v.v.c.v.c.].M.c w w q % # = f f f C C G C C s C s f V V f s s s s a +   . . $ # # & d d i a a a a a i 7 7 y 5 5 5 5 5 5 5 i a O     . .   o 5 7 7 7 7 7 5 7 5 7 7 a 5 5 5 5 6 5 6 6 5 . . . X   o 5 4 5 4 4 5 5 4 6 4 4 4 6 5 5 6 4 4 4 * 4                                                                                                                                             cX",
"X   6 *   6 * + +   X M , ,   X 8 4 6 6 M s F H G s G G F 8 s F V 8     4 7 a P   o 1 2 5 2 2 d a ; > B.N.c.n.v.v.V.C.V.v.n.n.E.b.b.n.n.n.n.b.z.}.w.> > 0 y 0 { 5Xk.b.v.c.b.V.V.c.V.m.V.b.n.b.b.n.m.b.v.E.P.> 0 > @ k { 5Xk.b.b.c.m.V.V.c.V.b.V.b.n.n.V.b.m.b.v.C.N.> 0 > @ x n Z.x.v.V.c.c.C.E.b.b.n.n.C.v.b.n.n.n.b.b.z.|.[ > > : < > w.'.x.b.v.c.m.V.V.c.b.n.V.b.n.b.n.n.b.b.c.[.M.: 0 0 X x _ OXk.m.b.c.b.C.C.b.b.b.V.V.V.V.n.n.n.n.n.b.oXm ! w q % . i p i i a 5 i 5 2 5 5 2 5 5 2 5 2 2 2 5 5 =   .   # # . = = o . o o . . o o . o . o . o o o . . . . 1   .       & . + . + . . + . . .   . . + +   . . X   * .     .   * . . . + +   . . . o + . .   + +     + o X O           X       +                                                           +                             +                             cX",
"O + 8 ,   8 , X o   X F , *   + 8 5 4 5 4 4 4 6 s 8 s s s 8 8 8 s 6     4 7 s J   * 2 5 2 i 5 f a ; 0 M.'.c.m.n.C.V.Y.V.V.V.V.n.V.V.Y.V.Y.Y.n.v.5Xy.> k 0 e 0 { 0Xl.m.b.V.V.Y.V.V.Y.V.V.n.V.Y.Y.Y.T.n.b.].P.> k 0 @ k { 0Xl.b.b.V.C.V.Y.V.Y.V.V.V.V.V.Y.T.T.V.v.'.P.< k 0 ; x W P.N.m.v.V.V.V.Y.V.V.V.Y.n.V.V.T.V.Y.V.n.c.OX[ < k > e > j.+Xz.b.b.V.V.Y.n.V.Y.V.n.V.V.Y.V.T.T.b.b.{.H.: 0 0 $ k ] OXk.v.b.V.C.V.V.V.V.V.V.V.V.V.E.Y.Y.m.m.m.oXn ! q w # * y & . & o o & o & o . o . # o o o . o . . = +     % % # y = = & & = = & * & * = & * = = o & O O * o 2   . .     = O * * & o * O * O & O X O * O o o O O O * o         4 o o o X O O O O O O o O X o O o O X O o o *           , + + X X X         + .     . .   .   + X     +   . +       X   X X . o + X X X X X o o X X   X + X X +   . +               .   cX",
"O + 8 O   M , X +   X s * *     8 5 6 6 6 5 6 6 8 8 M V F 8 8 6 s 6 +   4 a a P   * 2 1 2 5 a d a < k M.'.v.b.n.V.V.T.Y.T.V.V.V.Y.V.Y.Y.Y.Q.Y.v.@Xy.> l 0 w l { 0Xc.b.b.Y.V.Y.Y.T.Y.V.V.Y.n.V.T.Y.T.Y.V.'.I.> k k @ k { 0Xl.b.n.E.V.Y.Y.T.V.V.Y.Y.V.V.Y.T.T.V.V.`.U.0 l 0 @ x m P.C.v.b.V.Y.V.Y.Y.T.V.Y.V.Y.V.Y.Y.Q.E.Y.v.%X[ 0 k : < 0 e.@Xv.b.n.Y.Y.Y.Y.Q.V.Y.V.Y.V.V.Y.T.Q.V.n.@XH.> x 0 . l ` %Xz.b.n.V.Y.V.T.R.V.V.V.V.V.V.Y.Y.Q.E.Q.C.#XQ ! % r # - y = & * & = * * & = * = * * * 9 O & O & * = +   . % % # u & 1 * = * & * = * * O * * o o = O & & O & 5 .   .   + 1 O O O O O O O o * o o * O O O O O . O O * O   . +   4 . O * O X O O o O o o O o O o O O O O O . *           , * * O * O   + X o X X X O X O X X O X O O O o O O o o O O O O X O o O O O O O O * O O o o O O O X X O o o o o X           + + cX",
"X + s O   8 4 o X   + F * ,   + 8 5 5 5 6 7 5 6 5 8 6 8 8 8 8 5 V 8     4 7 a P   * = 5 5 y i f s : k N.'.V.V.V.T.Y.T.R.R.T.T.R.Q.R.Y.Q.Y.~.T.v.5Xy.0 l > t z } 0Xv.V.V.Y.Y.T.R.!.Q.Q.T.T.!.Y.T.Y.W.T.n.|.oX0 l 0 @ l t.0Xv.n.n.T.T.T.R.R.T.T.T.Y.!.V.T.V.!.T.V.[.P.k k k @ x Q oXC.V.V.V.Y.V.!.R.R.T.Q.T.R.Q.Q.Q.Q.Q.Y.b.@X[ k l > e k j.@Xb.n.V.T.Y.T.R.R.T.T.T.T.R.T.T.Y.~.T.n.@XF.0 l 0 $ x ] @Xc.V.V.Y.T.Y.R.R.T.T.T.T.!.V.Q.T.Q.Q.V.E.OXQ ! w w # y y * * & = * * = & * O * & * . * * O & & O = X   . % % . u - 2 & = = * & & * O & & * & O & * = * * O =     .   . 5 o * * O . O O o * o & o O O O o O * O * = X     .   4 O O O O O o o O O O O * X O O O O o O o . *       . + 6 , * * * ,   + X + + X . o X X X o + o X X + o X + X X O + X X , O O , * O , O , + , O , O , X , X O , O O O O O +   + X O +   cX",
"O + s O   F , + .   + F * ,   + 8 4 5 4 5 6 8 5 6 6 5 7 6 5 8 5 s 7     4 6 a P   O * 1 5 2 i h f < l M.|.V.Y.T.T.!.R.!.R.!.!.!.Q.Y.R.W.R.T.Q.n.0Xy.l l > e c { 5Xn.T.T.R.T.R.R.R.T./.!.T.Y.T.!.W.T.Y.T.|.U.k l 0 @ l { 9Xb.Y.Q.T.T.R.R.!.T.^.^.!.V.T.^.!.Y.T.V.'.oXl l 0 * b Q oXE.V.R.T.Y.!.T.~.T.^.^.!.Y.Y.!.W.Q.Y.T.n.@X| l 0 > < k j.,Xb.T.T.T.R.R.!.R.R./.!.T.Y.R.R.R.Y.T.Y.}.G.l l 0 $ c ] @Xb.Y.T.T.Y.!.R.!.T./.!.R.V.T.^.Q.Q.Q.Y.W.#X' ! u w # y u = - & * = & & * * & & * * & o * 1 1 O * 1 o   . % % . p = = = = = * = 1 1 = 1 * * & O * o o o * O 5   . . . + 4 * . o * * * * * O O O * O O O O O O O O * X   . .   4 O O O O * O O O O O O O O O O o O O o O O O           4 , * * , ,                                                     , O , O * , , , , , 4 , , 4 , , , , O O * * O , * + , #./ #.P   cX",
"O + 8 ,   8 4 X +   + M , *     8 6 5 5 5 5 6 6 6 6 5 6 7 7 6 8 s 7     4 7 7 I   * = 2 2 2 a f d : x N.|.V.T.T.T.R.^.T.^.!.!.T.R.R.R.R.!.!.Q.b.5Xy.0 l 0 t l t.rXV.Y.Y.R.T.!.!.^.!.W.R.T.R.W.R.R.!.!.Y.|.oXk l 0 @ l w.rXb.T.Y.R.Q.!.R.^.!.!.R.T.R.!.T.!.R.!.V.[.P.k l 0 @ x Q OXC.T.T.T.T.R.^.R.^.W.!.T.R.R.R.R.R.!.T.b.%X| k l > e k B.@XY.T.Y.R.R.!.R.^.!.W.R.T.Q.W.T.!.R.R.V.@XG.0 k 0 $ x ] 4Xb.T.T.R.R.R.!.^.!.R.!.R.T.!.R.R.!.W.E.E.#XQ ! w r # y y = = = = * * 1 & 1 = = O * O * & O O * o * .   . - % & p = 2 = & = = & * * = 1 & * * * * o * * & o =     .   + 5 O * O * O O O O O * * O O * O * O . O o * o   . X   , * O * O O o * O O O O O O O O o O o O O o 4     .   + 6 * * * , ,                     .       X   + +                 4 , , , 4 , , , 4 4 4 4 4 4 , 4 , , O , , O , X , + X 8 , * 6   cX",
"O + s @   8 , O X   + M * *     6 5 4 6 7 7 7 3 7 6 6 3 5 7 5 5 s 7 .   1 7 a U   * 1 5 5 y a f d > z P.}.T.V.T.^.!.!.!.^.^.(.^.!.!.T.!.!.!.~.Y.9XA.k l 0 w c t.tXT.Y.Y.!.!.!.R./.R.(.(.^.^.R.R.^.W.).Y.}.#Xl z 0 @ c w.rXY.Y.T.!.^.R.!./.!././.^.^.T.!.^.!.).E.}.#Xl l 0 @ b _ OX].T.V.R.^.!.!.^.^.^.(./.!.R.Q.^.!.^.W.V.0X| z 0 > e l B.0XY.Y.Y.!.!.!.R.(.!.(./.^.^.Q.!.!.R.^.Y.5XJ.l z 0 & c ] 4XV.Y.V.R.!.R.!.^.!.(./.~.^.!.T.^.^.^.E.W.%X' ! w r # y i = = = & 1 = * * = * * & * & = o * & * * = .   . % % # y y = = = = * 1 * = * * * & * * & * * * O * 4 .   . .   = * . O * O * O & * O O * * o O O * O O O * o   . +   , * O O * O O O * O O O O O O O O O o O o o ,       .   6 , * , , ,     +     +   + .       +       + +   + X       + + 4 , 4 , , , 4 , X X + + + + + + 9 , , , , , X , 4 + X F 4 5 6   cX",
"X + 8 ,   8 , + X   X F O *   + 8 4 4 5 8 4 6 6 7 5 5 5 6 5 5 4 7 7     1 7 a P   o = 1 2 2 y f f > c P.+XV.T.R.!.!.T.R././. X/.!.(.^.~.!.~.!.V.9XA.l l 0 t c w.tXV.Y.T.!.^.T.T./.!. X/.!.(./.!.!.R.^.Q.[.#Xc l k ; v w.tXY.Q.T.!.^.!.T.^.^. X(.^././.^.!.R.^.R.[.#Xz c k @ b _ $XE.!.T.R.!.!.T.R./.(.(./.!. X!.!.!.^.!.n.5X| z l 0 e l B.0XV.T.T.!.!.T.Q.(.^. X(.R.(.^.!.R.R.^.Y.&XJ.l l 0 $ c { 4Xn.T.Y.R.^.!.Y.^.^. X X^././.R.^.R.^.W.W.OX` ^ w r # y y = = 2 = = = 1 & 1 & * * = * O & * * o * = .   . % - # u 2 2 = 1 = = = 9 = * * * * * * & 1 O X * * 2 + . . .   = O X * * O O * O O O O * O * o & O O O O 4 .   + .   4 O * O O O O O O O O O O O o o O O O o O o ,     .   + 6 4 , , , 4   4 8 H R H H P P H U U P P R R H H P H H H H H P R H , 4 4 4 6 X + 4 R >.T R / R 6 + + , 4 , O O , , + + 8 4 4 6   cX",
"X   6 *   8 4 O +   X F O ,   + 8 5 5 5 5 6 5 5 5 5 7 8 6 5 4 5 s 6     4 s s U   * = 4 2 i a f f > c Z.}.R.!.!.R.^.)._./.(. X/./.(./.).!.^.!.n.9Xr.l l 0 t n e.eXV.!.^.Y./.^.(././._. X/./._./.^.^.^.T.[.oXc l k ; n w.eXY.R.R.Y./.^./.).(.(.(.^./.(.).^.^.^.Y.[.#Xz z l ; b _ OX~.R.~.R.!.^.^.(./._. X/././././.^.^.Q.n.&X| c l 0 e v M.5XT.R.^.T.^./.(.)._.(.(./.(././.^.^.^.Y.&XP.l l x $ m { 0XY.R.!.T./.^././././.(././. X^./.^.^.T.W.#X' ^ w r # w y = = 1 & = = = = 1 O & * * & * * * & O * 1 o   . % q & u = y = & = = 1 * = & o = # * & 1 = * * * o =     .   + 5 O * O O * O * O * O * O O * * O O * * O * o   . .   4 # * O O o O O O O O O o O O O O O O O O O ,     .   X 5 , O , 4 4   4 4 8 8 8 8 s 8 8 6 6 8 6 8 F 8 s F 8 8 8 8 8 8 F 4 4 , 4 4 + 4 >.<.R F F 8 8 F #.T 8 + X 4 , , 4 ,   9 8 4 4 5   cX",
"O   6 *   s , X X   O 8 O ,   + 8 5 4 4 4 6 7 7 4 5 8 6 6 6 5 5 8 7 +   1 s s P   O 1 2 5 2 5 f d > v P.+XT.!./.^./.*X*X(.(.*X X.X(.*X(.!. X^.Y.9XA.l l 0 t c j.iXV.R.^.^./. X*X.X/. X X X/. X X^./.(.T.}.#Xl z k @ n e.iXV.R./.!./. X*X.X/.*X*X X(. X*X^./.(.R.}.#Xz l k ; b _ %XE.T.!.^./.(.*X;X(. X*X X X X-X/.!. X!.n.4X| c k 0 e c M.0XY.!./.^.(.*X*X(.(.*X X X(.*X(.^.(./.Y.,XJ.l l k $ m { 4Xn.R.^.^.(.(.*X X^.;X*X X(.(.*X/.^.(.W.W.%X' ! w r % i u = = = = 9 = & = 1 & & * o O * = * * * * = +   . % q & u = = = = = & 1 & = * = * * * * 1 O * * * O = X   .     5 * * o O O o O O * O O * o o O * O o O O * X   . .   4 * O O O * O O O O O O O o o O O o O O o o O   .     + 5 4 4 O 4 4   O X O 9 O O O + O O X X O X + O O + X X O X O O O O 4 4 , O T <.H O O X , , , * X 4 P H X + , , O ,   X F 6 4 4   cX",
"X + 6 *   6 , X X   X s O *   + 8 3 5 5 4 5 7 5 6 6 7 8 3 6 5 4 8 7 +   1 a s I   * 1 2 2 2 i f d > n oX5XT.^./. X=X=X<X:X:X-X=X-X=X=X X/.^.(.Q.9XA.l v k t m j.iXT.^.^.(.;X=X:X-X<X>X=X>X-X=X X(.^.(./.}.#Xc c l : n e.iXT.R./.(.*X>X-X:X,X>X=X>X;X=X*X(.!.(./.}.oXc z l : m _ %X[.R.^.(. X>X=X<X-X:X=X>X-X X X X/./. XY.4X .c c 0 e m M.0XT.!./.(.*X=X<X-X<X>X=X-X=X=X X(.W. X^.5XU.l v l : m { 0XY.R.^.(.(.>X>X<X:X<X=X-X-X=X=X(.^.(.(.).%X' ^ r r % y y & = = = 1 & 1 * & * = * * = * o * O * O = .   . q % & y = = = 1 = 1 * = & * & * 9 & O & O & * * O = X   . + . 5 O O * * O * O * O * O * O O O O O O O O , X   . +   4 O O * O O O O O O O O O o o O O O O O O o 4           6 , O , 4 4   * , O , , O , , , , * , * O , 9 O , , , O , O O , , , , , T #., O 4 , O , , 4 4 6 4 4 8 H , + O , , + X 8 , 5 6   cX",
"O + 6 *   8 * O X   X s O *   X 8 6 4 7 5 5 O o O * * 8 7 5 1 5 s 7 +   4 8 a P   O = 5 = 2 i f p 0 v oXXX!.).(. X>X:XqX8X7X3XqXqX7X2X-X(.(./.!.9XL.c c k t m e.iXR.^.(.(.=X>X7X8X7X8X6XqX8X2X<X X(.(./.@X$Xv z x : n j.iX!.^./.(.-X>X7X8X7X6X6XqX8X2X<X X X X^.}.$Xv v x : m _ %X).)./.(.*X>X:X8X8X8X1XqX8X1X2X.X X/./.R.0X} c l 0 e n F.rX!.^.(.(.=X:X8X8X7X7X8XqX7X2X-X(.(.(.^.5XI.v z l - m { 0XT.^.^.(.=X>X2XqX7X9X6XqX8X2X2X;X(.(./.).%X` ^ w r # y w = = 1 & = & = 1 & O & 1 O & O * O * * O 1 o   . q % - u = = = = = = * = = * * * * & 1 * O & * O * 2 .   . +   5 & O * X * O O & * O * * * O * O O * * O , o   . X   4 O O O * * * O O O O O O O O O O O O O O O 1   +     X 6 4 * 4 4 ,   O 4 * O , O O O , O O , O , O , 9 O , O , , 9 O , , , O R H X 4 4 , 4 , , , 5 5 5 5 4 4 6 H @ + , , + O s 4 4 5   cX",
"o   8 *   6 4 O X + X 8 * *     8 4 4 4 5 4   o +   + 7 7 5 5 6 s 7     4 7 7 P   * = * 2 5 i f p 0 W P.5X^. X(. X<XwXyXuXpXpXwXwXwX8X1X=X X/.R.9XA.z c l t W j.iX^.(.(.(.-X8XyXyXuXaXyXwXyXwX6X>X*X^.^.XX$Xv c l > W j.iX^.(.(.(.-X8XyXuXuXaXyXwXwXwX7X>X X^.^.XX$Xv l z : b ] %X[./.(.(.;X7XyXyXuXpXpXwXwXwX8X2X=X X/.R.5X} c v 0 e W N.rX^.(.(. X<XeXyXuXpXsXyXwXyXqX7X=X X/.R.5X#Xc c l < m } 0X^.(.(.(.=X8XyXuXyXaXuXwXwXwX7X:X*X/./.[.%X` ! w ~ % y y = = = 2 * = * = * 1 * * 9 = O & & * * * 2 o   . q - % y y = = & = 2 = * * * = * * & & O 9 O * & o 5 . . . X X 5 X * O O O * O o O O * O O * O * X O O O , o   . .   5 * O * O O O O O O O O O O O O O O O O O O 1         X 7 , * * * 4 + O * , 4 O 4 , O , 4 O O , , , , O 9 , , , 4 O , O 4 + F H , 4 , , , +   +   +   , 6 6 5 4 4 F + X , + O s 4 5 6   cX",
"o + 6 O   8 , + X   X 8 O ,   + 8 5 4 4 6 4 o 1 4 O + 6 5 5 6 4 8 7 +   4 7 i I   O 4 = 2 2 i f s > W oX5X!.^.*X;XiXfXfXxXsXdXdXyXpXuX7X:X=X_.T.qXA.c v k t W j.uX!.^.(.*X1XdXfXxXfXaXfXuXyXaXqX<X-X X^.XX#Xn c l : W j.iX^.^.(. X1XdXfXxXfXaXfXpXyXaXqX<X X X!.XX#Xv c z ; b ] %X_.~.(.*X-XpXfXhXjXaXfXgXuXpXyX3X-X X/.Y.0X .c c 0 e W N.rXR.^. X*X9XdXfXxXdXsXdXuXuXpX8X<X=X.X^.5XK.c c l : m } rXR.^.(.*X<XsXfXjXhXpXfXaXyXgXwX1X-X=X^.).%X` ^ r ~ % u y 2 = = = = 1 1 & = & 1 & * * * * o & * O 2 O   X w q - p = = = = = = = = * & * O 1 = * * = O * * * 5 + . X . . 5 * O O * * O * O O O O O * O O * O * O * , o   . X   4 O O O O O 9 O * O , O * O O O O O O O O O 1     +     6 O O 4 , 4 + 4 , , O 4 , O O 4 4 , O , , , 4 O , , , , , O 4 , O O H 6 * * 4 1     + 9 3 O     + 8 5 5 4 6 ,   ,   X s 4 4 5   cX",
"X + 6 ,   8 4 X +   O s O X   + 8 4 4 4 7 5 O 1 4 * + 5 5 5 6 4 s 7 +   5 7 a J   O = 5 2 5 a f d : W oX5X(.(.*X-X2XqXsXdXfXfXfXhXfXdX8X>X(. X(.8XA.v l l t W j.iX/.(. X*X2X7XuXdXdXfXfXfXhXfXuX2X X X(.<X#Xn c l : m j.iX^./. X*X1X7XuXdXdXfXfXfXfXfXuX2X X X X<X#Xn c z : b ] %X}.(.(.;X<X2XeXgXgXhXgXfXfXhXgX7X-X X X X0X| z v 0 e W M.rX/.(.*X*X1X8XsXdXdXfXfXfXfXdXwX:X X X(.1XU.c c l < m } tX^.(.(.*X1X3XyXgXgXhXgXfXfXhXpX2X;X.X.X;X5X` ^ r r % p y = & = = = = 1 * * 1 & O = = * * * * & O 5 o   . - q % p = 2 = 1 = = = * * = & O & 1 * * O * * * O 2 +   .     5 * O O * O * O * O = , O O O O * * O O X , o   +     4 * * O O O O O O O + O O O O O O O o O O O *   .   . + 6 4 , , , ,   O O , 4 O , 4 O , O , O , , O 4 , O O , O O , , 4 + 4 H , , 1 *   + B D ....S D 3   X 6 4 4 4 6   O + X s 4 4 4   cX",
"O   s ,   8 4 O O   X 8 O O + + 8 4 4 5 7 5 o 1 4 , + 6 5 4 5 6 7 6     4 s a I   o = = 2 5 i h d > n oX}.^.(.*X;X9XuXhXfXfXhXfXdXhXgXpX>X X X/.8XS.v c x t n j.wXR.(.;X X,XiXsXfXdXhXhXfXhXdXpX7X X X X,X$Xn c l : n e.wX^.(.;X X1XyXdXhXgXhXhXdXhXdXpX7X X X X,X$Xn v z < b _ @X_.(.;X*X;XwXuXfXdXhXjXfXfXfXaXyX>X X X/.0Xw.c l 0 e n M.9X^.(.;X X6XiXfXfXdXhXfXdXhXdXpX2X X.X/.1XI.n v z < m { 0XR.(. X X-XyXaXfXdXhXjXdXhXfXaXqX;X*X X_.%X` ^ r r % u y = 2 9 = 1 & = * * * * & * * * o * * * O 2 o   . q q % u = 2 = * & = 9 = * * * * & * * & * * # * * 2 X   X . . 5 * O * O * * O O O * O O * O O * O O O O * o   . +   4 * * O * O O O O O O O O O O O * * O O O O 4   .     + 6 4 O , , 4   * , O , , O , , , , 9 , O 9 O , , , , 9 , , , * , + F 6 , 4 4 +   B ..o.X.o.......B + 4 4 4 4 8 + +   O 6 , 4 4 + cX",
"X + 8 , + 8 * O o   X 8 , @   + s 4 5 4 7 5 O 4 4 O + 6 5 6 5 5 s 6 +   4 s a I   & = 1 2 y 2 d d > n oX5X^.(.(.-X8XpXhXhXdXjXfXdXfXyX7X>X X X^.eXA.c c l t n e.iX!./.(.=X<XiXfXhXfXdXjXgXhXsX8X:X X=X X,X$Xv c l : W e.yXR.(..X*X:XuXdXhXfXgXjXdXhXaX8X2X X=X X,X$Xn c l ; b ] %X[.).(. X-XeXsXhXhXgXjXfXfXdXqX7X X-X X/.0X .c v 0 e n N.rX^.(..X=X1XpXhXhXfXfXhXgXhXuX7X>X=X X/.6XI.c c x < m { rXR.(. X X-XyXdXhXhXaXjXgXfXdX8X1X=X=X(.XX%X` ^ r r % u y = = & = = = = & * 1 * & * * & * * o * * 1 X   . q q & u y = = * = = & = * * 1 & = * . * * * * * O = .   .   + 4 * O * O O O * * O * O * O O O * O * O * * O   + .   , X o * O * O O O O O O O O O O O O O O O O *       X   5 4 , O , *   * O , , 9 , , , O O , O , O , , 4 9 , , , O , * X   F , , * 1   3 D ..X.X.X.X.X...o.9 O 6 , 4 6 X + + X 6 , 4 4   cX",
"X + 8 ,   8 * O +   + s , O   X s 1 4 5 6 5 O 4 4 *   6 5 4 5 1 7 7 +   4 7 7 H   o 1 1 2 5 5 f d > n oX5X/.(.*X>XwXhXsXhXfXdXhXhXpXyX2X X X X X9XL.m c l t W e.iX^.(.*X>X3XdXdXfXjXdXfXjXaXpX6X>X X_..X,X$Xn c l > n e.iX^.(. X=X7XdXdXfXjXgXfXjXpXpX8X>X X_. X,X$Xn c z > m ` %X[.(.(.=X:XuXjXgXjXfXgXjXfXpXyX<X=X X.X/.5Xy.v l 0 e n M.9X^.(. X>X8XfXdXhXhXdXhXxXpXuX7X>X X.X(.5X#Xv v l < m { 0XR.(. X=X2XpXhXfXjXgXfXjXaXpXqX>X*X_.*X.X%X` ^ r r % u y = = = = 1 = = = & = = * * * * * * & * o = o   . % - % p y & = = = * 1 1 = * & O * * = & * * O & O 5 X + . .   5 O * O * * O O * O O O * * O X O O O O O * O   . X   4 * * O O O O O O O O O O O O * O O O O * O 4     .   + 4 * , , , , + O O 4 , , , O , , , , O 9 , O 4 4 O 4 , , , , * +   F , O 4 O   V o...X.o.X.X.X.S ..B + B , 4 4 ,     X 8 4 4 5   cX",
"X X 8 *   8 , O o   X s * O     7 4 5 4 7 5 O , 4 * + 6 4 6 5 6 s 7 +   5 7 a P   * 2 2 2 2 i h f > W P.,X.X*X*X-XwXsXsXjXdXfXfXfXfXdX3X>X X X/.qXS.c c 0 t W e.eX X(.*X*X1XsXsXhXfXfXdXdXhXfXyX>X X.X X,X$Xv v l @ W e.eX(. X X=X1XpXaXhXfXfXdXfXhXfXyX>X X.X X,X$Xv z l @ b ` %X;X X X*X<XuXsXgXhXdXfXdXfXhXdX2X>X X X!.0X .l c 0 t n M.9X(. X X=X8XsXpXjXdXfXdXdXhXdX8X>X X X/.6XkXc z l $ m { 0X(. X X X<XpXaXfXfXdXfXdXfXfXsX2X=X X;X}.4X` ^ r r % u u = 2 2 = & 1 & 1 * O o = * * O & * * o * 2 o   . q q & p y 2 & 2 = & & * * * = * * & O * o * * * O 2 .   X   . 5 * X * O O * * O O O O O O * * * O * O O * o   . .   * O * * O * O O O O * + * O O O , X O O O O ,   X   +   6 4 , O 4 ,   , O , O , 9 O , O , O , 4 O , , O , O , O X , , + + F O , 4 + + D ..S X.X.X.X.o.S o.B + V , 4 4 ,     + 5 O * 4   cX",
"O + 6 O   8 4 O +   X 8 * O   + 8 5 5 5 7 5 9 4 4 O + 6 5 6 7 4 8 5     5 a a I   o = 1 2 7 a d d > v oX5X(. X*X-XqXsXdXdXgXdXgXgXgXuXwX X X X^.eXS.c c 0 t W e.iX/.*X*X*X1XuXdXdXsXdXdXdXfXpXyX2X X X XXX$Xv c l : n e.uX/. X*X*X1XuXgXdXgXgXgXdXfXpXyX<X X X/.5X$Xv c l : ) _ %X_.;X;X*X:XyXsXdXdXgXdXgXfXaXyX8X X X.X~.0X .c c 0 e n M.rX/. X*X=X9XpXdXdXdXdXgXdXfXpXwX-X X X/.9XI.c v l q m { tX!.*X X*X<XyXsXfXgXgXgXdXfXpXyX7X X X.XXX%X` ^ r ~ % p y = & & 2 = & = - * * * = o & & O * O * * 2 O . . q - % p = y = y 2 = = = = = & * * * = o * * * * O = . . X     5 * * * O * * * O O * * O * O O O O * * O , O   .     4 o O O O O * O O O O O O O O O * O O O O O O     .   X 6 , , , , 4   O , , 4 , O 9 , , , O , , X , , 4 , , , O , , , +   F , O 4 + + B D ..o.X.o.X.o.S ..B + F X 4 4 ,     X 8 , , 4   cX",
"X X 6 *   8 4 O X   + M * O   X 7 5 5 4 7 4 O 4 4 * + 6 5 6 6 4 s 5 +   4 7 V H   o 2 1 2 2 2 f d > W oX5X^.(.(.-XqXqXuXpXpXsXpXaXsXwX7X:X X X/.qXS.c l k t W j.iX^.^.(. X1XwXwXuXpXsXaXpXgXuX8X2X=X X/.,X$Xv c k ; W j.yXR.(.(. X2XwXyXpXuXgXsXpXgXuX8X2X X X X,X$Xn c l : m _ @X[.^.(.(.-XwXeXuXuXaXgXpXaXaXqX3X-X X(.^.4Xy.c l 0 t n N.9X!.(.(.*X7XqXyXuXpXsXpXpXsXyX7X<X X(./.5XkXv z k < W } rXT./.(.(.2XwXwXuXuXgXaXpXgXpX8X1X=X X(._.%X` ^ w r % u y y = y 2 = = = = * = * * * * * * * & * O = .   . q q % p y = = & = = = & * * & * * * * * & * * O * 2   + X   . 5 * * O O O O * O O * * O o O * O O O O O , X   . .   4 O * O * O * O O O O * O * O O O O * O O O ,     .     6 * * * , ,   , O O O O O , , , , , O , , 9 , O O 9 , , , X O +   8 , O 4 O   3 B D S S ......S D + 6 6 , 4 4 X     X 8 , , 4   cX",
"X . 6 *   8 * O o   O 8 O O     8 5 4 4 4 5 O 4 4 O   7 4 6 6 4 7 6     5 7 a I   & = 1 5 5 2 h d 0 W oX5X!.^.^. X6XwXqXuXyXyXqXuXuXyX:X X(./.!.eXS.v l k t W j.iX^.^.^._.<XeXqXuXyXyXqXyXwXaX7X-X/./.!.&X$Xv z k : W j.iX^.^.^.(.<XeXqXuXyXwXwXyXwXsX7X-X(.(.!.,XkXn l k ; m ] %X[.(.^.^.-X8XwXwXuXwXwXwXyXpXwX:X X/./.!.0X .z l 0 t W N.rX^.^.!..X1XqXqXpXyXwXqXuXyXpX2X-X/.(.^.6XkXc l k ; m { rX!.^.^._.=XeXwXyXyXwXwXwXyXsXqX>X(.(.^.}.4X` ^ r r % u p = = = = = * * & = & * * * * o * * * * o , X   X q % - p y - = = = = = * * * * * = & * * * o * . O 5 . . . .   5 * * O O O * * . o O O O * * O O * O o O , o   . X   * O O O O * O O O * O O O O O O O O O O O O *     .   + 6 , * , , ,   , 4 * O 4 , , , O , , , O , O O , , , O , , O , X   4 , O , 6   + B D D D S S D S B + F 4 , 4 4 +     X 8 * , 4   cX",
"X . 6 O   8 , o X   + s X *   + 8 7 4 1 7 6 O 4 5 O + 6 4 6 5 4 7 5     4 7 7 I   o = 1 2 2 y d s 0 c oX&X!.R./.(.*X8XqX7X2X7X2XpX7X8X2X X X/.Q.9XS.l v 0 t n j.iXT.!.^.(. X<XqX8X:X7X7XuX7X8X3X-X/. X!.@X$Xv c l ; n e.iXR.R.^.(. X<XqX8X:X7X7XuX6X8X1X X X_.!.}.$Xv c k ; m _ %X[.^.R.(. X*XqX8X3X3X8X7XyX6X6X<X X X!.Q.0X .z l 0 t c G.0XR.R.^._.*X6XqX7X2X7X3XaX7X7X1X X/./.R.5XI.v c k $ m { tXT.^.!.). X>XqX8X2X2X8XwXqX6X7X-X(._.!.}.%X` ^ r ~ % u y = = = * = = & * * * * = * * * * & * & o = O   . - q & u = y = = * = = * = * * * * * * * * * * * . 5 X   X     5 O O O O * O o * * * * O O X O O * O * O , o   . +   4 O * O O * O O O * O O O O O * O O O O O O ,   .   .   4 * , , , 4   * O , 4 , O 4 O 9 , , O 4 , , , , , O , , O O O +   , 4 O , 4 4   9 B D D S S D B + 8 F , 4 4 O +   + + 8 * 4 6   cX",
"o + 8 4   8 * O X   + 8 , O   + 8 4 4 5 7 4 * 4 4 O + 5 5 5 1 5 s 7 +   1 5 7 I   o * 1 2 2 i f d > c oX+XW.!.^./. X=X*X>X>X=X X>X X X X/.!.!.!.0XL.z c 0 t n e.iXn.!.^./.^.=X=X>X-X>X*X>X=X X=X X^.!.^.XX$Xv l l ; n j.iXV.!.^./.^.=X=X>X-X>X X-X=X X=X X^.R.^.,X$Xc z l : m _ %XE.).!.).^.*X=X=X>X>X X X>X X-X X/.!.^.!.5X} c v 0 e c N.4XY.!.^././.>X*X>X>X>X X:X>X*X=X(.^.!.^.5X#Xl c k ; m { 0Xb.^.!.).^.=X>X=X>X>X X-X>X*X=X X/.W./._.%X` ^ r r % u y - y = * = = * 1 * * & * * * * * * * * O = X   . q % % p = = = = = * = * = O * * * & * o & * O * O 2 +   .   . 5 O * * * O * O o o o O O O O * O O O O * = o   . +   4 O * O * O O O O * O O O O O O * O O O O O ,           6 O , O , ,   O 4 O , , , , 9 O , , 9 O , O , O , 4 O , O X O O   + 5 * O + F 4     + B B B +   6 R 4 , * 4 O   + + X 6 4 4 4   cX",
"o + 8 O   5 O O +   X 8 O O     8 4 4 4 7 5 o = 4 X + 6 4 5 5 5 7 5     1 6 7 I   O = 1 2 5 5 h d > v P.}.T.T.^.^.(.*X(. X X=X X X X X/./.!.~.!.9XA.l l 0 t n e.rXY.R.W.^.^.*X;X*X(. X*X X X_./.^.~.R.~.XX$Xv l k ; n e.tXY.R.!.^./. X(.*X X X*X X X X/./.~.R.!.}.$Xc z k ; b _ OX[.R.R.).!. X*X X X X-X X X X/./.).!.~.Q.0X .l l > t c M.5XY.W.~.^./. X X=X/. X X X X/././.W.W.R.5X#Xl z k - m { 0XY.W.R.^.^.*X X X X X=X X X(././.~.R.W.).%X` ^ u r % p y = 2 & = = = = = * * * = * & * & * o o * 1 o   . q - & u = = = = & = * = = = & = * * * * o * & O O 2 + . X     5 * * * * * O * * * O O * o O o O O O * O 4 O   . +   4 O * O O o O * O * O O O * O O O O O o O * =       X + 4 , , 4 4 ,   , O , O 9 O , , , , O O , 9 , O , O , , 9 * , , O +   , 4 , , , F 8 , + +   + O F @.6 * * 4 ,     O   X 6 * 4 4   cX",
"o + 6 *   8 * + X   + M O O   + 8 4 4 4 6 5 O 4 4 O + 5 5 5 5 5 s 5 +   1 7 a I   O = = 2 5 i d d > v oX@XT.T.^./.(.(. X(./. X X X_./.!./.!.!.R.0XA.z c 0 t n e.iXY.T.^././.(.(.*X/./. X X(./.!./.~.^.R.XX#Xl c l ; v j.iXV.Q.^././.(. X X^.(. X X(./.^.^.~.^.R.{.#Xz c l ; b _ $XW.T.R./.(.(.(. X/./. X X X(.!./.^.!.!.!.4X .z c > e v F.0XT.Q.^././.(. X X/.(. X(.(.^.^./.^.^.Q.5XK.l c k $ m | 0XY.T.!.^.^.(./. X/./. X X X/.^.^.^.^.W.).$X' ! r r % u y = = 1 = = & = = * = * & * * * O * * * O 1 . + . q - - p = 2 = = 1 = = = = & * * * * * * * * * O X 5 .   X     5 O * * * O * & O O O * o O O O O O * O O 4 o   . .   1 O * O O O O O O O O O O O O O O O O O O X ,   X   + + 4 4 , , , , + O 4 , , , , , O , , , O , O , , O , O O , , O * X +   + 4 , , * * F R H H H R / / 4 O , , 4 +     O   X 6 , 4 4   cX",
"X + 6 ,   8 * O +   X s O O + + 8 4 1 4 6 6 O 4 4 O + 6 4 4 5 5 s 5 +   4 7 7 J   O = 1 2 2 5 f d > z P.{.T.!.^.^.^.(. X/.(./. X^.(.!.!.!.!.R.n.0XS.l l 0 t v e.tXV.R.^.^.^./.(././. X(./././.!.!.!.R.Y.{.#Xc l k ; c w.rXV.Q.^.^.^./. X(./.(. X/././.~.!.!.!.Y.{.$Xc l k : b ' OX].T.!.!.^./.(. X/././. X/./.~.!.!.!.Q.m.%X| z k 0 e c M.5XY.R.^.^././. X/./.(. X^.(.^.^.R.!.R.n.@X#Xl l k $ c { %Xn.T.^.^./.^. X/./. X X/././.~.!.!.!.T.].$X' ! w r % t y = = 2 = = * * = * * * * * * * & O * o * = O . . q - q p = = = = = = = & * * * * & * O * O & O * & 5   . . . . 5 * * o * O O O O * O O * * O O * O O O O 4 O   o .   1 O O O * O O O O O O O O O O O O O O O O X ,   X     + 4 O 4 O , 4 + O , O O , , O , O , O , 9 , O , , O O , , X , O O O     , 4 , , * O 4 8 J H F 6 + O , , 4 X     + O + + 8 , 4 4   cX",
"O + 6 *   8 * + +   X 8 O O   + 6 4 4 4 7 6 O 1 4 O o 7 4 4 5 5 7 4     1 7 i I   O = 1 2 2 y f d > z P.{.Y.Q.R.Q.R.^./.^./.(.^.^.^.W.R.^.T.R.T.5XA.l l 0 e v t.rXV.Q.W.Q.R.!./.^.!. X/.~.(.^.T.~.T.Q.R.[.#Xv l k @ c e.rXn.T.R.Q.R.~./.^.!.(.^.~.(.^.T.~.T.T.R.[.#Xz k 0 @ b Q #X[.V.Q.R.T.W././.!.(./.^.^./.T.~.R.T.!.Y.@X} l l 0 e l M.5XY.T.W.T.R.!./.^.^. X^.R./.!.R.!.Q.T.T.&X#Xl l 0 $ m ] 0Xb.Y.T.T.R.~./.^.!. X/.~./.^.Q.!.R.Q.!.W.%X' ! w r % p u = = = = = = * = * = * & * O O * & O * & = +   . q q & d = = = = = & = * = * * = o = & * * * * . * =   . X . + 4 O * * * O 1 * * * O O = O O O O O * O O 4 o   o .   = O O O O O O O O X * O O O O O O O O O O O =     .     6 , O O 4 4 + * , , O * O , O , 9 O , , , , O , O O 4 , O , 9 X X +     X 6 , O 4 , O O O O O O * , 4 X     + X ,   X 8 , , 4   cX",
"X . 6 O   8 * O O   o 8 + O     7 4 4 4 5 1 * 1 5 O + 4 1 5 4 5 7 5 +   4 7 7 J   & = 2 2 2 y C d > n Z.|.V.Y.!.^.Q.R.!.^.R.^.^.^.R.^.W.W.R.T.n.5XA.k l 0 w v e.rXv.T.T.^.!.Q.!.^.W.R.^.~.R.!.~.R.~.T.Q.[.#X0 l 0 @ v e.rXv.T.Q./.R.T.!.^.R.!./.^.W.R.~.R.~.R.T.[.#Xl k l * m _ OXE.Y.T.!.~.T.R.^.!.R./.^.W.R.~.R.~.W.R.b.5X| l k > e v N.@Xb.T.R.^.R.R.!.^.R.^./.~.R.!.~.W.~.R.Y.XXG.0 l 0 $ m { 4Xv.Y.T.^.R.T.!.^.!.R.^.^.W.!.!.!.W.W.Q.Q.$XQ ! w r % u y = = & = * * * * = * = o = * & * * * O * = X   . % - - d y = = = 1 - * = = * * * * * O O o * * O O 2 . . .   + 6 O O * O 9 O O O o * O . o O O O O * O O 1 o   o o   1 O * * O * O O O O O * o O O O O * O O O O 4     . . + 6 * 4 4 4 ,   * , , , , , , , , , , O O 9 , , , , , , O , , O + X X         4 6 4 O * * O * * 4 4 4           + O + + 8 4 , ,   cX",
"O   6 *   8 1 O +   + 6 O O   + 7 1 4 7 7 4 O 1 4 O o 6 4 5 5 4 7 6 +   1 a 7 J   O 2 2 2 5 2 d d > c Z.{.Y.T.R.~.Q.!.Q.R.T.W.Q.R.T.R.R.T.Q.Y.n.5Xy.0 l > t n e.0Xn.Y.Q.!.Q.!.Q.!.T.R.R.T.R.Q.R.R.R.Y.Y.[.G.0 l 0 @ n e.rXb.T.Q.!.T.R.R.!.Q.R.R.T.R.Q.R.R.R.Y.Y.[.P.0 l 0 X m _ OXE.Q.Y.R.Q.R.R.T.R.T.!.T.R.T.^.Q.W.T.Q.b.@X| k k : e c M.@Xn.T.T.^.T.W.T.!.T.R.Q.R.R.T.W.R.R.Y.n.@XJ.0 l > $ b { 4Xv.T.Q.!.Q.R.R.R.T.Q.R.T.R.T.~.R.R.Y.Y.E.OXQ ! w r # p i = 2 = * = & = = = * * * * & * O O 1 O * , .   X % % % p & = 1 = = = & = * = o = * & * * * * * & * 2 + . .     5 - O O * O & O * O O O * * O O O * O * * 1 O   X +   1 * O O O O O O O * O O O O O O O O O o O o ,   X   +   4 * , O O *   * , X O , 9 O , O O 4 O O O , O O , , O 4 O , , O , + + +       + , 4 , , 4 , , , O         . O X X + X 8 , , ,   cX",
"O + 6 ,   8 * O o   O 8 O O   X 7 4 1 1 6 4 O 4 4 o o 7 2 5 5 4 7 5     1 7 a H   o 1 1 2 2 y f f > c G.oXV.n.Y.Y.Y.Q.T.R.^.^.R.R.Y.T.R.Q.Y.V.b.9Xy.0 l 0 t c w.tXv.Y.Y.R.Y.Y.Y.T./.R.!.!.T.Y.W.W.Y.n.b.|.#Xl l k @ v w.tXv.Y.Y.Q.Y.Q.Y.T./.R.!.R.Q.Y.!.R.Y.n.b.[.P.l l k @ b _ #Xm.Q.Y.Q.T.T.T.T.!.!.~.!.T.Y.T.~.Y.Y.n.v.@X| 0 k 0 e l M.@Xb.Y.Q.Q.Y.Y.T.R.^.W.R.R.T.T.!.Q.Y.n.b.}.D.0 l 0 $ c ] %Xz.Y.Y.Q.Y.Y.Q.Q./.R.!.R.Q.Y.R.R.Q.V.n.E.#X' ! r r # u y = = = = = * = * * * O & * & * * O & * * 4 o + . % % - p y = = = = * * = * * = o O * * o * & * O & 5 .   . .   , X * * * O O * O O * O O O X O O * O * o = o   + .   1 O O O O O * . O O O O O O O O O O O o O o 4       X + 4 , * , 4 4   , , , O , , , , , , O , , , , , 9 O O , O , O , O X O X +           + X + X +             + X O O , + + 8 , , ,   cX",
"*   6 O   6 * + +   X 8 O O   + 7 4 4 4 8 4 O 4 4 O X 6 4 5 5 4 7 5 +   4 7 7 P   * * = 5 2 2 f d > z Z.+Xn.b.Y.R.Q.Y.n.!.T.Y.T.V.R.Q.V.Y.R.n.c.,Xy.0 k > t c e.0Xv.n.n.W.Q.Y.V.!.Q.T.T.Y.T.W.Y.T.!.Y.v.W.G.k 0 0 @ v e.0Xv.n.n.W.Q.Y.n.!.Q.Y.T.T.T.W.Y.Y.!.Y.v.W.oXk 0 0 @ b _ OX`.V.n.Y.T.Y.m.T.W.Y.Y.Q.Y.Q.Q.n.R.T.b.z.@X[ 0 0 : e l M.&Xn.n.n.R.T.Y.n.!.Y.T.Q.n.Q.R.Y.Y.^.n.v.{.F.0 0 > X b { 4Xv.V.n.Q.Q.Q.n.R.Q.Y.Q.Y.Y.W.E.V.!.Y.n.m.oXQ ! w r % u y = = & = = * & * * * * & 1 * & * & * * X 1 . + . % - # p = 2 = & = = * = * * * * * * & * O * * & O 5   . X + + 5 O * * * O O O O O O O O O O O * O O O O 4 O     X   1 o * O O * O O O O O O O O O O O o O O O O ,     X     4 4 4 O , ,   , O , , , 4 O O , O , O 4 O , , O O , , 9 O , , , , X O + .                           + + X o X O O   X 6 4 * O   cX",
"o . 6 *   8 4 O O   + 8 O O X + 7 1 4 5 7 4 O 5 7 O o 5 4 4 4 4 7 7     4 a a J   O = = 2 2 5 d d > n Z.'.b.v.Y.V.n.n.Y.Y.T.n.Y.V.Y.Y.V.n.T.Y.c.5Xy.0 k > w n e.0Xz.n.V.V.n.V.V.Y.T.V.n.Y.n.T.n.b.Y.T.n.|.P.0 k 0 X v e.0Xz.n.n.Y.n.V.V.Y.Q.V.Y.Y.n.T.n.b.Y.R.b.].U.0 k 0 @ b _ OXm.n.b.Y.V.V.Y.V.Y.Y.n.T.n.Y.Y.n.n.T.Y.v.@X[ k 0 : e v M.@Xv.v.V.V.n.Y.Y.Y.T.n.Y.Y.V.Y.n.n.Y.T.b.}.H.0 k 0 $ v { @Xz.n.n.V.n.V.E.n.T.Y.n.T.Y.Y.V.n.V.Q.V.C.#XQ ! w r # p y = = = * & * = * = * * * & * * * O * * & 2 O   X % % % p y 2 * * = * * * & * = * & * O & & * O O O 2 X   .     5 * * O * * * O * O o . * O O O O O O O o * o   . .   1 O o O O O O O O * O O O O O O O O O O O O ,   X     X 4 4 O O , , + X , O 9 , O 9 4 O O O 4 O , 9 , , , , O O , , 9 X X , X +   .                       X X + X o O O O   X 6 , O ,   cX",
"o . 8 *   5 * + +   + 8 @ O   X 7 4 4 1 7 O + o + + + 5 4 1 5 1 7 6     4 7 7 J   O * * 2 2 5 d d : c P.oXb.n.n.n.Y.n.n.n.V.n.Y.V.V.V.Y.V.n.b.c.@Xw.0 0 > e c e.tXz.n.V.n.V.V.V.V.n.V.Y.Y.n.Y.E.Y.b.b.v.].G.0 0 0 @ v e.tXz.n.V.n.V.n.n.n.n.E.n.Y.n.T.Y.Y.b.b.v.].G.0 0 0 X b _ #Xm.n.n.n.n.n.V.n.n.n.Y.Y.n.Y.V.Y.n.v.n.z.+X[ 0 l > e l M.%Xv.V.n.n.n.V.n.n.n.E.Y.Y.V.Y.Y.Y.b.b.v.{.F.> 0 0 $ b { 4Xx.V.n.n.V.V.n.n.n.Y.n.Y.n.Y.V.Y.n.v.n.m.oXQ ~ u ~ # p y - = = = = * * = O = * * * * & o * o X # 4 .   . % & * p = & = 1 = * = * & * * * & * = O O o & * * 2 + . X . . 2 O O * * * O * O O O * O * O o O O * O O = O   X X + 4 O * O O O O O O O O 1 O O * O o O O X O O ,   +   + + 4 4 , , 4 4 + , , , O , , , O , 4 , , O , , , O O O O 4 , O , 4 , O , O O O X X X X       X X X   X O + o o O O ,   X 6 4 O ,   cX",
". . 8 *   8 * O o   X 8 O O     8 4 4 4 4 J F 8 F F 6 4 4 4 5 6 7 6     4 7 a J   O = 1 2 5 y d f : z F.oXc.v.z.v.z.c.v.v.v.v.v.c.v.c.v.c.z.c.c.5X} : > > e c } iXl.c.z.c.v.z.v.z.v.v.v.c.v.c.c.c.c.z.v.].M.0 > > @ l { iXl.v.z.z.v.c.v.c.v.v.v.z.v.v.z.c.c.z.v.].M.0 > > ; x W #Xm.v.c.z.v.z.c.v.v.v.v.v.v.v.z.v.c.z.v.z.+X` > > > e l j.4Xl.v.l.v.v.z.v.v.v.v.v.z.v.c.z.v.z.z.c.[.A.> > > $ b ] %Xx.z.z.c.v.l.v.v.v.v.v.c.v.v.z.v.v.l.v.m.P.n ! r r # p y = = 1 1 * = 1 & * & * * & * * o * & * * 1 o . X % % & p * = = = = * 1 = * = * & O = O * * * O O o 7 . . . . + 4 O 1 O O * * O * O O O O O O O * O O O O 4 o   . .   4 O * O O O O O O O O O O O O O O o O * O + 4     X   + 4 9 , , , , + O , O , O 4 O 4 4 O O O O , O 4 O , , , , O O O , O + + + + X   +       + X         + + X + X o + O +   O + + +   cX",
"+ + 4 *   5 O + +   X 8 * O   + 7 4 4 4 1 8 G G F J 7 4 5 4 4 5 7 5     4 7 7 I   o = * = 5 5 d f : c ] 0X{.oXOXOXOXOXOX+X+X+X+X+X{.'.OX{.{.'.}.[._ 0 : : e c W #X0X'.oXoXOXOXOXOX{.+X+X+X@X+X'.+X{.'.[.}.{ 0 > > @ v W OX0X`.oXOXOXOXOXOX+X+X+X+X}.|.oX+X+X|.[.XX{ 0 0 > @ x v r.0X'.oXOXOXOXOX+X+X+X+X+X+X{.'.+X+X'.'.,XN.n > : : < c _ %X@XoX+XOXOXoXOX+X+X+X+X+X{.+X+XOX{.'.{.{._ 0 > : $ z n D.rX'.oXoXOXOXOXOX+X@X+X+X+X{.OX'.+X'.|.XXe.v ~ r r # y y * = 2 = = = = * = * * * * = O * * * & * 5 O . X & % # i = * & = = & * & & & * & O * * . O O o O * 7 + . . +   5 * O o * o o * O O o O O o O o o X O O * = X   . .   1 O O O O o o o o o o . o o . o o X o o o O ,   + .     6 , , X , 4   O , X , O , O , , , O , , O , O , , O , 9 O O X X F F 8 F M 6 8 s 8 8 8 8 8 8 8 8 8 8 8 4 8 4 8 4 6 4 4 4 *       cX",
"                    + 8 * O   + 7 4 4 6 4 1 1 1 1 4 5 5 4 4 5 4 5 6     1 6 5 J   o * = 1 2 5 p C : c v ` L.G.J.I.K.I.K.J.U.I.J.J.D.H.H.D.H.D.j.W k 0 : ; e c c W r.G.J.K.K.I.K.U.J.U.J.J.D.D.H.D.H.H.L.] v 0 > : ; v l n r.G.J.I.I.K.K.U.U.K.J.U.D.D.H.D.H.H.A.] v 0 0 : ; x c v { D.G.K.I.K.I.J.J.J.I.J.J.D.H.D.H.H.D.t.W k 0 : : e c l _ j.G.J.K.I.I.K.J.U.J.J.J.D.D.H.D.D.D.j.] l 0 > : : x c n w.D.G.K.kXU.I.J.G.K.K.J.J.D.H.D.D.H.D.{ n 0 r w w % y y & * & = * & o & & o * o & o o . o o o . 5 .   . # % # y p a p s i 5 5 5 i 5 5 5 2 5 2 2 5 = 5 4 = =   . X .   5 2 5 5 1 2 1 2 1 4 1 2 1 4 1 4 5 4 4 4 4 4 +   X .   o 6 1 1 1 1 1 1 1 4 4 4 4 1 4 4 4 , * , = * +   X     + 4 , , X O O   4 , , O , , O , O , , O , , O , O , , , O , X X H #.R R R U H P P H H H H H H H R H H H H H J J J H F F H F +   cXcX",
"  +                 + 6 O X   + 7 4 4 4 7 4 4 5 4 5 5 4 5 5 5 5 7 6     1 7 a J   o * 1 2 1 5 = I N 0 0 > > > > > 0 0 > 0 > > > > : : : : ; : > > : ; : ; - k k 0 : 0 0 0 0 0 0 0 0 > > 0 : : : : @ : : 0 > : : ; ; k 0 0 : 0 0 > 0 0 > 0 0 > > > : : : : ; : : 0 > ; : ; ; e x 0 : > 0 > 0 0 > 0 0 0 > > > : : : : ; : > > : : ; ; < k 0 > > > > 0 0 0 > 0 > > > > : : : ; ; : > > : : : ; $ x 0 0 : > 0 0 0 0 0 0 0 > > > > : : : ; : > > > : w w w % & h d d a a a a a a a 7 p 7 a i 7 a 5 i 7 5 2   . . # # # . = a a a s s 7 a 7 a a 7 7 7 6 5 7 7 7 5 O     . . .     * 5 4 4 1 = 5 4 4 1 4 1 1 4 1 4 4 = 1 * o   + . X +   o * 4 1 1 1 * 1 4 * 4 , 4 , , 4 1 1 O X       X   .   + + + + +     + + + X + X + + + X + X X + X O O X O X O + X R R + 4 , 9 , , , , , , O 9 , , 9 O O 4 O , , , , O , , 4 6 X cXcXcXcX",
"        * 8 H ,     + M O @   X 7 4 4 4 1 4 4 4 1 4 5 4 4 4 4 4 6 5 +   4 7 a I   o * 1 = = 5 2 # ( > > > : : : : ; ; : ; : ; ; ; ; ; ; ; ; ; ; : ; ; ; ; $ > > ; : ; : : : ; : : ; ; ; ; ; ; ; @ ; ; ; : @ @ $ @ @ 0 > : > : : : : ; : : ; ; ; < ; ; ; ; ; ; : @ ; @ @ @ @ > > > > : : : : : ; : ; ; ; ; ; ; ; @ ; @ : ; ; @ @ ; ; $ > > : > : : : : ; : : ; : ; ; ; ; ; ; ; ; ; ; ; @ @ ; $ > > > : : : : : ; ; : ; ; : ; ; @ ; ; ; ; : ; ; $ % % q % . . 5 a a a s a 7 a a 5 5 7 7 5 5 5 7 5 6 *   + . . # # # .                                           . . X . . .                                               . . . .                                             X X   .   O , , 4 4 , , , 4 , , O O , O , , , , O O O O O O O O O X 4 >.T + , , , , , , , , , 4 , , , 4 4 4 4 4 4 , O , , O , , 5     cXcXcXcX",
"X     6 O.#.:.:.6   X 6 O ,     6 1 1 1 4 1 4 4 5 5 5 5 5 4 5 4 7 4     4 7 7 I   . = = = 1 2 5 5 & ( I . # # # # # # # # # # # # # # % # # % # % % % % % % % % q % % % & % % % % % % % % % % # & % % % % % % q % q % % % % % % % % % % % % % % # % % % % % # # # % % q % q q q % % % % # % # % # # % # % # % % # % % # # % % % % % % % q % % % % % % % # # % # & % % % % % % % % % % % % q % q % % % % # % % % % # % % # # % % % % # # # % % % % % q % % % % % # % % # # % # % # # # # # # # # # # % # # # # # # # # . . . . . . . . . . . . .   .   . . .   . . . . . . . . . .   . . .     +   . .     . .   .       . . X . .   . . .     +           X           .   .     .   8 @.:.3.q.:.q.q.:.3.:.q.<.:.:.:.:.:.:.:.:.:.<.:.:.:.:.:.<.:.:.R 9 , , , , , O O O , , , , , , 9 , 9 , O O O , O O 9 4 4 +   cXcXcXcXcX",
"    , J 4 O O F / 6 + * 5 O   + 6 1 4 4 5 4 4 4 4 4 5 4 4 5 5 5 7 4     4 7 7 H   o * * 1 2 2 5 5 2 - ( I & # # # # # # # # . # # # # # # # # # # # # # % # % % % # % % # # # % % # # # # # # % % # # % % % % % % % % % % % % % % % % # # % # # # % % # # # % % % % % % % % % % q % % % % % % % # % # % % % % % % % % # # % % % % % % % % % % % % # % % % % % # # % # # # # # # # % % % % % q % % % # % # % # % % % # # # % % # # % % # % # % % % % % % % % % % % % # # # # # # # # # # # # # # # # # # # # # # . . # . . . # . . . . # . . . . . . . . . . . . . . . . . . . . +     . . . . +   .   . +     .   . X +   . .       .     + .     . . . +   .   .     +   . +   X 8 F 4 , * , , , , * , , 4 4 9 , , O , 4 , , 9 4 O , 9 O O O O O X O , , O O , O 4 , , 4 O , X , O O , , O , , O , , , *     cXcXcXcXcXcX",
"    s 8 , 4 4 4 F / ,   * ,   + 6 1 4 4 4 4 3 4 4 4 5 4 4 5 4 4 7 5 +   1 7 2 H   . 1 1 2 2 5 2 5 2 2 2 I U . . . # . . . . . # . # # . # # # # . # # . # # # # # # # # # # # # # # # # # # # . . # # # # # # # # # # # # # # # # # # # # # . # # # # # # # # # # # # # # # # # # # # # # # # # # # # # # # # # # # # # # # # # # % # # # # # # # # # # # # # # # # # # # # # # # # # # % # # # # # # # # # # # # # # # # # . # # % # # # # # # # # # # # # # # # # # # . # # # # # # . # . # . # . # . . . . . . . . .   .   .   .   .       .       .     .   . .   .                                                                                                       O M 6 4 4 4 4 6 5 , 4 4 5 4 , 4 4 , 4 4 4 4 , 4 4 4 , 4 4 4 , , , , , O , , O , , , 4 O , O 4 O , O O , O , O , O 4 O , X   cXcXcXcXcXcXcXcX",
"+   6 6 4 4 4 4 , 8 >.,   +   + 6 1 4 4 5 5 4 4 5 1 4 5 5 5 5 4 7 5     1 5 5 I   o = 1 2 1 2 2 y 5 i 5 = E $.G G s f G f f s f f f M f f f M f h M h h Z K C f C f h f f G f f f f f M K f M Z h Z M h K G h M Z f K M Z K f f Z M f M f h f f f V f f G f h h f f M h h G G f C G C h f M h M f f f f d G f f f V f f f f f G f f f M f f f f C f f f f f f f f f f f d f f f f f M K f M f f h M M f M Z f M f f Z G M G f f M M f f f f f M f M f f M M s M f d f s f f f s f M f M f d s f s M s p s s a 8 g a s 8 s s 6 7 s 8 8 6 s 8 8 8 6 8 6 6 6 7 6 6 7 6 6 6 8 8 7 7 6 7 6 7 6 6 4 6 5 5 6 6 6 6 6 5 6 6 6 4 6 4 6 6 6 6 5 5 6 6 6 4 5 5 4 6 4 6 4 5 5 4 5 4 6 5 4 F 6 4 4 4 4 6 4 4 4 , 4 4 4 4 4 4 , , , 4 , 4 4 , 4 , O , 4 , O 9 , , O , 9 X O O O O O 9 O O 9 , O , O , O O O 9 O , X     cXcXcXcXcXcXcXcX",
"cX  o 5 4 4 , 4 4 * 4 :.4       6 4 4 4 4 4 4 6 5 4 4 5 5 6 5 4 6 7     O 6 5 J   o * * = 4 5 5 2 2 7 5 i 1 U 6.6.6.6.u.6.6.6.6.6.6.6.6.2.6.u.6.6.6.6.6.6.6.6.u.6.6.u.u.6.6.6.6.7.u.i.u.u.u.i.u.6.u.6.7.i.u.7.u.u.i.s.p.p.p.i.p.i.s.s.a.a.i.7.i.a.a.p.i.p.i.s.a.p.p.p.u.i.s.g.g.s.p.s.s.s.a.s.p.i.i.s.s.s.g.g.s.s.s.h.s.s.g.g.d.a.g.g.p.s.s.g.s.s.a.s.s.s.s.g.a.d.d.g.lXh.h.h.h.s.h.lXh.g.g.g.g.s.s.s.s.g.h.g.g.s.s.g.h.h.d.d.g.g.d.d.a.a.f.h.s.f.h.h.h.h.h.h.d.h.h.d.h.a.h.f.d.f.a.a.a.h.a.h.9.d.a.f.9.i.d.d.9.f.9.d.f.0.d.0.0.d.f.f.0.f.9.a.9.9.0.0.0.9.9.5.8.5.8.5.5.5.0.8.8.9.5.5.8.8.8.5.5.5.5.5.5.5.5.8.5.5.5.5.4.5.5.4.4.4.5.4.4.4.4.4.4.3.3.4.4.4.3.q.q.q.<.3.q.3.3.T 4 4 4 4 , 4 6 4 6 5 6 5 4 5 5 5 4 4 5 6 5 4 6 5 4 5 4 4 4 , 4 4 4 4 , , O O , * , , , * , , , , 4 , , , 4 O , = * 4 + cXcXcXcXcXcXcXcXcXcXcX",
"cXcXcXo 4 4 4 4 4 4 + 8 / 4   + 4 4 4 4 4 4 5 4 , 5 5 4 4 5 4 4 8 6 +   4 7 5 G   O = * 4 1 = 4 5 4 2 i 5 2 & . . . . . . # o . . . . . & . # # . . # . . # . # # & . # & # # # . # . . . & # # # # # = # # & # # . . # o # . # # & . # # # # # # # # & & & # & # & & & # . & % & & & & & # & & & # # # # # % # # & # # & & . # # # o o # # # # & # # # # & # # # # # # # & % # % & & . $ # & # # & X & o # # & # # o # # # # o & # # & . # X O & & . . # . & . # . # X X . . . . & X # . . . . X X X . . . + . . . . . . . . O . . . . . o . . . . . .   . . . . X . . . . X +   . X + X   . X   . +   +   X   . . +   . + X     + X + X X .   X + + X +     .   +   .   X O 4 4 4 * 4 * + +             +     + +                       +                         +     +         +   +         cXcXcXcXcXcXcXcXcXcXcXcX",
"cXcXcXcXX 4 4 4 , 4 4 O F T 4   , * , 4 4 4 4 4 4 4 5 4 4 5 4 4 6 *     4 7 6 J   O * * = 1 1 2 2 4 5 5 2 i i a i 5 i y y a i a y y i i i i i i i p i i y i i p i p i i p i i i p p p a p p d p p i p a p i a d d d p p d y y p d p d p a p p p p i p p d p p p p p p p d d d d d p d d d d d d d a p a a d d d a d d d p a d p d d d p a d i p d d d a a d p d d d d d a d d p p d d p i d d a i p p p d i p d a a d a a d a d d a a a p a p p s d p d i p a p p a a p g p p s p g a i i a 5 i a i p 7 i a i 5 a i a i a a s a 7 5 5 i 7 5 i 5 5 5 7 6 5 5 5 5 5 5 5 5 5 6 5 5 5 5 5 5 5 5 4 4 5 5 6 5 5 5 5 4 5 5 5 5 5 4 6 4 5 4 5 5 4 5 , 5 5 5 4 4 4 4 4 4 4 4 4 4 4 4 4 * 4 4 4 +                                                                                                     cXcXcXcXcXcXcXcXcXcXcXcXcXcXcX",
"cXcXcXcXcX+ 5 5 4 4 * 4 O F T 4   + + + + + + +       +     +   + +     4 7 5 V   O = 1 2 1 5 5 2 2 5 2 5 5 2 2 a 2 2 2 y 2 y y y y y i 2 y 2 y y i i i y y y i i y y i y y i i i i i i i y i i i i y i i i i y y i p i d u y p i i i i i i i a i i p a p p i p p p i u p p i p p p p p d d p p p d i p y d p i p p i d d u p p u a d p y p u i u p p p d d p i p a y u d d d i p p p y i i p i d i p i p i i i d a u u y p a p d i i i p a p a p i i i i i i y a i i i i i i p i i i 5 i p i i i i i i 5 y 2 5 5 = 5 2 5 = 5 5 i 5 2 5 2 5 5 5 5 2 2 5 5 = 5 = = 4 5 2 2 , 2 2 , = = , , 4 = 2 2 2 , , , 2 , = 4 , = , 5 = , , * = 4 4 4 5 = = = , , = , , = , , , * , * 4 4 4 6 *         + . +   .   X   .   X     . X     . X   .   X   .   X   X       .   .     .                 +   cXcXcXcXcXcXcXcXcXcXcXcXcXcXcX",
"cXcXcXcXcXcXX 6 5 , 4 * 4 * G @./ / / / T T T T T T T T T R T / / / #.T 5 4 a F   o , 1 5 = 1 1 5 = 5 a i 5 i 5 5 i 5 5 i 5 5 i y 5 i i i i 2 i i a i 5 i i 5 i i i i i = i i 2 i i i i i p s p p d a p p i i i p i i i i i i i p p i i d i d d i p d p d p p p p p p p i p i p d d d d d d d d d d d i p d p i d a p f d d p p d a i p i i p p d p p d i p d d d d d a i i p d p a d i p p p i i d i i i p i p p p d i d a d a a p i i a p p i d d i i i i i i a i a p g a a i a i p i i a a a a p a a i 5 2 i i 5 2 5 i 5 5 i 5 7 a 5 i 5 5 5 i i 5 i 5 5 5 5 5 5 2 5 5 5 5 5 5 5 = 4 5 2 5 5 5 2 4 5 5 = 4 5 5 4 5 1 5 4 4 , 1 4 1 1 4 1 = * , , * = * , * * O * * , * , 4 , o       +   . . X X X   o + . . . . . X . . +   .   X .   . X . + + X     X X . .   .   +   . .   .   X + cXcXcXcXcXcXcXcXcXcXcXcXcXcXcXcX",
"cXcXcXcXcXcXcX+ 7 4 4 4 , 5 1 O 4 4 4 4 4 4 4 5 4 5 4 5 4 6 5 5 5 7 5 4 1 5 7 V   & * = 1 1 = 2 = 5 i +                                                                                                                                                                                                                                                                                                                       +                                                                                                                                                                                                                                                         X o . . X X X . o . X X   X + X . + X X X . X   X + . . X . . X + + X . + . X X . X X   X   X X cXcXcXcXcXcXcXcXcXcXcXcXcXcXcXcXcX",
"cXcXcXcXcXcXcXcXO 5 4 4 4 1 6 4 4 6 4 4 4 4 5 5 4 6 4 4 4 5 5 4 7 3 5 5 5 5 5 G   O = 1 1 5 = 2 = 4                                 .   . .     .   . .     . .     .       . .   .     . .     .   .     .   . . .   .   . . .     . . . .   . . . . .     . . . .   . . . . . . . . . . . . . . .   . .     .   .   . .     . . .     . . . . . .     . .   . . .   . .   . . .       .     .   . . .   .   .     .   . .   . . .   .       .   . . .                                                   .                                                                                                                                                                         . X o o o o O . O O o X o X o . X . X o . X o X . o X o X o o o o o o o o o o . . o + . . X X X   cXcXcXcXcXcXcXcXcXcXcXcXcXcXcXcXcXcX",
"cXcXcXcXcXcXcXcXcX+ 5 4 1 4 4 4 4 6 4 4 4 4 5 4 4 4 4 4 5 4 5 5 1 5 5 1 7 5 7 G   o * 4 = 1 1 1 = +   . . # . # # # # # # # # # # & # & # & & # # # # & # & & & # # # # # # # # # # # # # # & # # & # # # # # & # # # # % & # & & % % & # % # # & % # % # & # & # # % & % # # & % # # # & % # * % & # # & % # & % & & # & % # & # & & % & # # & # & % & * % % % # & # # & % # # & % # # # & # & # & # # # & # & & & & % # & # # & % # & & # # & & # # & & & & # # # & # # # # # # # & & # # # # . # # # # . . # # . # o # # # . . # . # . . . . . . . . . . . # . . # . . . . . . . . . . . . . . . . . . . . . .   . . . . .   . . . . .   . +   .   .   .   .   .     cX. + . X O O o O O O O O * o * * O O O O O O O O O O X O o O O O O O o o O O O O O O O O o O O O O O O * + cXcXcXcXcXcXcXcXcXcXcXcXcXcXcXcXcXcXcX",
"cXcXcXcXcXcXcXcXcXcX+ 4 5 4 4 6 6 5 6 4 5 2 5 6 6 6 6 6 6 6 5 5 6 5 5 5 7 5 7 V   . * * * , = = +     . X o . O X # O . * # O * & & X * * # . * # * & X * # O . . & # * # * # * # * # * . * & & * # * # O * & & & * # * & & * * * * & # * & # * & * # * * & & & & & * * % * * & * & & & & & - * & * * & & * & & * & % * * & * & & # * * & * & * * * & * & & * & & & * & # & * & * & & & # * * & & * & * & * & * & & * & & & = & * * & & * & & * & * & * % * & * & * # O * # O * * & . * * . * & . * & * * O & o * . * . * * # O * # O o * . . * . * . X . * . O . . O . O . X o . & X . O . X o o . o . O . . . . . . . X . . O o X . X . . o . . . X . X . . . . + .   cXO O O * * * * , * , * 4 * * , , * 4 O , * * * * , , * , O * * O * O * 4 * , O , O * O O * O O * O * , .   cXcXcXcXcXcXcXcXcXcXcXcXcXcXcXcXcXcXcX",
"cXcXcXcXcXcXcXcXcXcXcX  * 5 4 5 1 1 1 5 4 5 4 5 4 4 3 5 4 1 1 4 5 5 4 5 5 1 7 5   * * * * 4 * +     cXcXcXcXcXcXcXcXcXcXcXcXcXcXcXcXcXcXcXcXcXcXcXcXcXcXcXcXcXcXcXcXcXcXcXcXcXcXcXcXcXcXcXcXcXcXcXcXcXcXcXcXcXcXcXcXcXcXcXcXcXcXcXcXcXcXcXcXcXcXcXcXcXcXcXcXcXcXcXcXcXcXcXcXcXcXcXcXcXcXcXcXcXcXcXcXcXcXcXcXcXcXcXcXcXcXcXcXcXcXcXcXcXcXcXcXcXcXcXcXcXcXcXcXcXcXcXcXcXcXcXcXcXcXcXcXcXcXcXcXcXcXcXcXcXcXcXcXcXcXcXcXcXcXcXcXcXcXcXcXcXcXcXcXcXcXcXcXcXcXcXcXcXcXcXcXcXcXcXcXcXcXcXcXcXcXcXcXcXcXcXcXcXcXcXcXcXcXcXcXcXcXcXcXcXcXcXcXcXcXcXcXcXcXcXcXcXcXcXcXcXcXcXcXcXcXcXcXcXcXcXcXcXcXcXcXcXcXcXcXcXcXcXcXcXcXcXcXcXcXcXcXcXcXcXcXcXcXcXcXcXcXcXcXcXcXcXcXcXcXcXcXcXcXcXX .         +         +                                             +           +                         cXcXcXcXcXcXcXcXcXcXcXcXcXcXcXcXcXcXcX",
"cXcXcXcXcXcXcXcXcXcXcXcXcXcXcXcXcXcXcXcXcXcXcXcXcXcXcXcXcXcXcXcXcXcXcXcXcXcXcXcX  cX* * 5 ,       cXcXcXcXcXcXcXcXcXcXcXcXcXcXcXcXcXcXcXcXcXcXcXcXcXcXcXcXcXcXcXcXcXcXcXcXcXcXcXcXcXcXcXcXcXcXcXcXcXcXcXcXcXcXcXcXcXcXcXcXcXcXcXcXcXcXcXcXcXcXcXcXcXcXcXcXcXcXcXcXcXcXcXcXcXcXcXcXcXcXcXcXcXcXcXcXcXcXcXcXcXcXcXcXcXcXcXcXcXcXcXcXcXcXcXcXcXcXcXcXcXcXcXcXcXcXcXcXcXcXcXcXcXcXcXcXcXcXcXcXcXcXcXcXcXcXcXcXcXcXcXcXcXcXcXcXcXcXcXcXcXcXcXcXcXcXcXcXcXcXcXcXcXcXcXcXcXcXcXcXcXcXcXcXcXcXcXcXcXcXcXcXcXcXcXcXcXcXcXcXcXcXcXcXcXcXcXcXcXcXcXcXcXcXcXcXcXcXcXcXcXcXcXcXcXcXcXcXcXcXcXcXcXcXcXcXcXcXcXcXcXcXcXcXcXcXcXcXcXcXcXcXcXcXcXcXcXcXcXcXcXcXcXcXcXcXcXcXcXcXcXcXcXcXcXcX  .   . X   X . . . . .   .     . X + . .   .   X   + +   . +   .   X X   .     X   . + .   . X         cXcXcXcXcXcXcXcXcXcXcXcXcXcXcXcXcXcXcXcX",
"cXcXcXcXcXcXcXcXcXcXcXcXcXcXcXcXcXcXcXcXcXcXcXcXcXcXcXcXcXcXcXcXcXcXcXcXcXcXcXcXcXcXcXcXcXcXcXcXcXcXcXcXcXcXcXcXcXcXcXcXcXcXcXcXcXcXcXcXcXcXcXcXcXcXcXcXcXcXcXcXcXcXcXcXcXcXcXcXcXcXcXcXcXcXcXcXcXcXcXcXcXcXcXcXcXcXcXcXcXcXcXcXcXcXcXcXcXcXcXcXcXcXcXcXcXcXcXcXcXcXcXcXcXcXcXcXcXcXcXcXcXcXcXcXcXcXcXcXcXcXcXcXcXcXcXcXcXcXcXcXcXcXcXcXcXcXcXcXcXcXcXcXcXcXcXcXcXcXcXcXcXcXcXcXcXcXcXcXcXcXcXcXcXcXcXcXcXcXcXcXcXcXcXcXcXcXcXcXcXcXcXcXcXcXcXcXcXcXcXcXcXcXcXcXcXcXcXcXcXcXcXcXcXcXcXcXcXcXcXcXcXcXcXcXcXcXcXcXcXcXcXcXcXcXcXcXcXcXcXcXcXcXcXcXcXcXcXcXcXcXcXcXcXcXcXcXcXcXcXcXcXcXcXcXcXcXcXcXcXcXcXcXcXcXcXcXcXcXcXcXcXcXcXcXcXcXcXcXcXcXcXcXcXcXcXcXcXcXcXcXcXcXcXcXcXcXcXcXcXcXcXcXcXcXcXcXcXcXcXcXcXcXcXcXcXcXcXcXcXcXcXcXcXcXcXcXcXcXcXcXcXcXcXcXcXcXcXcXcXcXcXcXcXcXcXcXcXcXcXcXcXcXcXcXcXcXcXcXcXcXcXcXcXcXcXcXcX",
"cXcXcXcXcXcXcXcXcXcXcXcXcXcXcXcXcXcXcXcXcXcXcXcXcXcXcXcXcXcXcXcXcXcXcXcXcXcXcXcXcXcXcXcXcXcXcXcXcXcXcXcXcXcXcXcXcXcXcXcXcXcXcXcXcXcXcXcXcXcXcXcXcXcXcXcXcXcXcXcXcXcXcXcXcXcXcXcXcXcXcXcXcXcXcXcXcXcXcXcXcXcXcXcXcXcXcXcXcXcXcXcXcXcXcXcXcXcXcXcXcXcXcXcXcXcXcXcXcXcXcXcXcXcXcXcXcXcXcXcXcXcXcXcXcXcXcXcXcXcXcXcXcXcXcXcXcXcXcXcXcXcXcXcXcXcXcXcXcXcXcXcXcXcXcXcXcXcXcXcXcXcXcXcXcXcXcXcXcXcXcXcXcXcXcXcXcXcXcXcXcXcXcXcXcXcXcXcXcXcXcXcXcXcXcXcXcXcXcXcXcXcXcXcXcXcXcXcXcXcXcXcXcXcXcXcXcXcXcXcXcXcXcXcXcXcXcXcXcXcXcXcXcXcXcXcXcXcXcXcXcXcXcXcXcXcXcXcXcXcXcXcXcXcXcXcXcXcXcXcXcXcXcXcXcXcXcXcXcXcXcXcXcXcXcXcXcXcXcXcXcXcXcXcXcXcXcXcXcXcXcXcXcXcXcXcXcXcXcXcXcXcXcXcXcXcXcXcXcXcXcXcXcXcXcXcXcXcXcXcXcXcXcXcXcXcXcXcXcXcXcXcXcXcXcXcXcXcXcXcXcXcXcXcXcXcXcXcXcXcXcXcXcXcXcXcXcXcXcXcXcXcXcXcXcXcXcXcXcXcXcXcXcXcXcXcXcX",
"cXcXcXcXcXcXcXcXcXcXcXcXcXcXcXcXcXcXcXcXcXcXcXcXcXcXcXcXcXcXcXcXcXcXcXcXcXcXcXcXcXcXcXcXcXcXcXcXcXcXcXcXcXcXcXcXcXcXcXcXcXcXcXcXcXcXcXcXcXcXcXcXcXcXcXcXcXcXcXcXcXcXcXcXcXcXcXcXcXcXcXcXcXcXcXcXcXcXcXcXcXcXcXcXcXcXcXcXcXcXcXcXcXcXcXcXcXcXcXcXcXcXcXcXcXcXcXcXcXcXcXcXcXcXcXcXcXcXcXcXcXcXcXcXcXcXcXcXcXcXcXcXcXcXcXcXcXcXcXcXcXcXcXcXcXcXcXcXcXcXcXcXcXcXcXcXcXcXcXcXcXcXcXcXcXcXcXcXcXcXcXcXcXcXcXcXcXcXcXcXcXcXcXcXcXcXcXcXcXcXcXcXcXcXcXcXcXcXcXcXcXcXcXcXcXcXcXcXcXcXcXcXcXcXcXcXcXcXcXcXcXcXcXcXcXcXcXcXcXcXcXcXcXcXcXcXcXcXcXcXcXcXcXcXcXcXcXcXcXcXcXcXcXcXcXcXcXcXcXcXcXcXcXcXcXcXcXcXcXcXcXcXcXcXcXcXcXcXcXcXcXcXcXcXcXcXcXcXcXcXcXcXcXcXcXcXcXcXcXcXcXcXcXcXcXcXcXcXcXcXcXcXcXcXcXcXcXcXcXcXcXcXcXcXcXcXcXcXcXcXcXcXcXcXcXcXcXcXcXcXcXcXcXcXcXcXcXcXcXcXcXcXcXcXcXcXcXcXcXcXcXcXcXcXcXcXcXcXcXcXcXcXcXcXcXcXcX",
"cXcXcXcXcXcXcXcXcXcXcXcXcXcXcXcXcXcXcXcXcXcXcXcXcXcXcXcXcXcXcXcXcXcXcXcXcXcXcXcXcXcXcXcXcXcXcXcXcXcXcXcXcXcXcXcXcXcXcXcXcXcXcXcXcXcXcXcXcXcXcXcXcXcXcXcXcXcXcXcXcXcXcXcXcXcXcXcXcXcXcXcXcXcXcXcXcXcXcXcXcXcXcXcXcXcXcXcXcXcXcXcXcXcXcXcXcXcXcXcXcXcXcXcXcXcXcXcXcXcXcXcXcXcXcXcXcXcXcXcXcXcXcXcXcXcXcXcXcXcXcXcXcXcXcXcXcXcXcXcXcXcXcXcXcXcXcXcXcXcXcXcXcXcXcXcXcXcXcXcXcXcXcXcXcXcXcXcXcXcXcXcXcXcXcXcXcXcXcXcXcXcXcXcXcXcXcXcXcXcXcXcXcXcXcXcXcXcXcXcXcXcXcXcXcXcXcXcXcXcXcXcXcXcXcXcXcXcXcXcXcXcXcXcXcXcXcXcXcXcXcXcXcXcXcXcXcXcXcXcXcXcXcXcXcXcXcXcXcXcXcXcXcXcXcXcXcXcXcXcXcXcXcXcXcXcXcXcXcXcXcXcXcXcXcXcXcXcXcXcXcXcXcXcXcXcXcXcXcXcXcXcXcXcXcXcXcXcXcXcXcXcXcXcXcXcXcXcXcXcXcXcXcXcXcXcXcXcXcXcXcXcXcXcXcXcXcXcXcXcXcXcXcXcXcXcXcXcXcXcXcXcXcXcXcXcXcXcXcXcXcXcXcXcXcXcXcXcXcXcXcXcXcXcXcXcXcXcXcXcXcXcXcXcXcXcXcX",
"cXcXcXcXcXcXcXcXcXcXcXcXcXcXcXcXcXcXcXcXcXcXcXcXcXcXcXcXcXcXcXcXcXcXcXcXcXcXcXcXcXcXcXcXcXcXcXcXcXcXcXcXcXcXcXcXcXcXcXcXcXcXcXcXcXcXcXcXcXcXcXcXcXcXcXcXcXcXcXcXcXcXcXcXcXcXcXcXcXcXcXcXcXcXcXcXcXcXcXcXcXcXcXcXcXcXcXcXcXcXcXcXcXcXcXcXcXcXcXcXcXcXcXcXcXcXcXcXcXcXcXcXcXcXcXcXcXcXcXcXcXcXcXcXcXcXcXcXcXcXcXcXcXcXcXcXcXcXcXcXcXcXcXcXcXcXcXcXcXcXcXcXcXcXcXcXcXcXcXcXcXcXcXcXcXcXcXcXcXcXcXcXcXcXcXcXcXcXcXcXcXcXcXcXcXcXcXcXcXcXcXcXcXcXcXcXcXcXcXcXcXcXcXcXcXcXcXcXcXcXcXcXcXcXcXcXcXcXcXcXcXcXcXcXcXcXcXcXcXcXcXcXcXcXcXcXcXcXcXcXcXcXcXcXcXcXcXcXcXcXcXcXcXcXcXcXcXcXcXcXcXcXcXcXcXcXcXcXcXcXcXcXcXcXcXcXcXcXcXcXcXcXcXcXcXcXcXcXcXcXcXcXcXcXcXcXcXcXcXcXcXcXcXcXcXcXcXcXcXcXcXcXcXcXcXcXcXcXcXcXcXcXcXcXcXcXcXcXcXcXcXcXcXcXcXcXcXcXcXcXcXcXcXcXcXcXcXcXcXcXcXcXcXcXcXcXcXcXcXcXcXcXcXcXcXcXcXcXcXcXcXcXcXcXcXcXcX"
};
