/* XPM */
static const char *player6_xpm[] = {
/* columns rows colors chars-per-pixel */
"397 78 238 2 ",
"   c #020302",
".  c #040A04",
"X  c #090C06",
"o  c #070C08",
"O  c #0A0E0A",
"+  c #040706",
"@  c #110E00",
"#  c #021302",
"$  c #0C1402",
"%  c #031A03",
"&  c #0A1B03",
"*  c #061409",
"=  c #0C120D",
"-  c #07190A",
";  c #0B1A0D",
":  c #131400",
">  c #1A1601",
",  c #151A01",
"<  c #1D1901",
"1  c #10140F",
"2  c #10190F",
"3  c #0F1410",
"4  c #0E1A10",
"5  c #07131A",
"6  c #111612",
"7  c #141B14",
"8  c #181C17",
"9  c #171D18",
"0  c #191E19",
"q  c #231D01",
"w  c #052303",
"e  c #0C220C",
"r  c #082905",
"t  c #1C2605",
"y  c #152C04",
"u  c #1C2A05",
"i  c #122806",
"p  c #173309",
"a  c #0F2311",
"s  c #0E2812",
"d  c #132415",
"f  c #132915",
"g  c #162419",
"h  c #1B221C",
"j  c #162A19",
"k  c #1A2C1C",
"l  c #182017",
"z  c #1A321E",
"x  c #17321C",
"c  c #262101",
"v  c #2B2401",
"b  c #2F2802",
"n  c #222B05",
"m  c #332B02",
"M  c #382F00",
"N  c #2C3804",
"B  c #3B3201",
"V  c #313E04",
"C  c #20241F",
"Z  c #0A1B25",
"A  c #0C212D",
"S  c #1F2521",
"D  c #1E2B21",
"F  c #1C3521",
"G  c #1C3821",
"H  c #0C2739",
"J  c #102A3E",
"K  c #222622",
"L  c #232924",
"P  c #272D28",
"I  c #292E2A",
"U  c #282B27",
"Y  c #2B332C",
"T  c #2D3B2D",
"R  c #263327",
"E  c #2E3C30",
"W  c #2E3530",
"Q  c #313632",
"!  c #333C34",
"~  c #393E3A",
"^  c #363D39",
"/  c #303C2D",
"(  c #403701",
")  c #443A02",
"_  c #493D01",
"`  c #364339",
"'  c #3B433D",
"]  c #37463B",
"[  c #2F402F",
"{  c #354104",
"}  c #564908",
"|  c #524608",
" . c #665607",
".. c #695B17",
"X. c #77660E",
"o. c #7C6C1E",
"O. c #756518",
"+. c #6F6119",
"@. c #7D6C21",
"#. c #40433F",
"$. c #0D2D45",
"%. c #133857",
"&. c #103049",
"*. c #3D4C42",
"=. c #3E4541",
"-. c #3F5244",
";. c #414542",
":. c #444B46",
">. c #464D49",
",. c #494E4A",
"<. c #415546",
"1. c #445549",
"2. c #4C534D",
"3. c #44594A",
"4. c #4A5B4D",
"5. c #435947",
"6. c #4E5550",
"7. c #4E5C52",
"8. c #525C55",
"9. c #565E59",
"0. c #565C58",
"q. c #4F6252",
"w. c #536355",
"e. c #556359",
"r. c #5A635C",
"t. c #58685B",
"y. c #4D604F",
"u. c #5E6A62",
"i. c #646B66",
"p. c #68736B",
"a. c #8A7716",
"s. c #937E13",
"d. c #887410",
"f. c #867424",
"g. c #897724",
"h. c #8A7826",
"j. c #867322",
"k. c #6E8375",
"l. c #9C8400",
"z. c #988215",
"x. c #A58B01",
"c. c #AA8E01",
"v. c #A18705",
"b. c #AD9101",
"n. c #AC910B",
"m. c #B29602",
"M. c #B69904",
"N. c #BB9D04",
"B. c #B79B0C",
"V. c #AC9419",
"C. c #B39919",
"Z. c #A48D19",
"A. c #BFA004",
"S. c #BEA00A",
"D. c #BDA21C",
"F. c #9A862A",
"G. c #9C8931",
"H. c #AC9427",
"J. c #B69C24",
"K. c #AF9831",
"L. c #BDA329",
"P. c #BCA439",
"I. c #C3A404",
"U. c #C7A805",
"Y. c #CCAB04",
"T. c #CBAA09",
"R. c #C4A509",
"E. c #D0AF04",
"W. c #D0AF0B",
"Q. c #D4B204",
"!. c #D9B604",
"~. c #DDB904",
"^. c #D9B609",
"/. c #D8B609",
"(. c #CCAC13",
"). c #C8A918",
"_. c #D4B415",
"`. c #D4B41A",
"'. c #DBB918",
"]. c #CFB01B",
"[. c #E2BD04",
"{. c #E4BE09",
"}. c #E1BE18",
"|. c #C5AA27",
" X c #CEB128",
".X c #D4B525",
"XX c #DBBB23",
"oX c #D3B52B",
"OX c #D6B92C",
"+X c #DABB2A",
"@X c #C5AB35",
"#X c #CCB134",
"$X c #CBB23B",
"%X c #D1B531",
"&X c #D8BB33",
"*X c #E0BE24",
"=X c #E6C004",
"-X c #EBC304",
";X c #ECC50B",
":X c #E6C009",
">X c #F3C90B",
",X c #F2C906",
"<X c #E8C418",
"1X c #F4CA14",
"2X c #F5CC1C",
"3X c #F9CE1B",
"4X c #F9CE14",
"5X c #FCD01B",
"6X c #E4C223",
"7X c #E9C72A",
"8X c #F6CE27",
"9X c #FCD023",
"0X c #FCD22D",
"qX c #F5D12F",
"wX c #EBCA34",
"eX c #E8C837",
"rX c #FDD334",
"tX c #FDD33B",
"yX c #F6D437",
"uX c #F1CF34",
"iX c #DFC02E",
"pX c #FDD443",
"aX c #FED64C",
"sX c #F8D846",
"dX c #FED653",
"fX c #FED75C",
"gX c #FED85C",
"hX c #EBCB43",
"jX c #FED864",
"kX c #FEDA6C",
"lX c #FFD761",
"zX c #FFDB73",
"xX c #FFDC7B",
"cX c #B9A440",
"vX c #7E9083",
"bX c #FFDE81",
"nX c #84998B",
"mX c #000001",
/* pixels */
"mXmXmXmXmXmXmXmXmXmXmXmXmX6 ^ ~ ' ' ' ;.;.` =.=.:.=.=.' ' ' =.*.>.1.>.>.2.6.6.2.7.6.i.u.D mXmXmXmXmXmXmXmXmXmXmXmXmXmXmXmXmXmXmXmXmXmXmXmXmXmXmXmXmXmXmXmXmXmXmXmXmXmXmXmXmXmXmXmXmXmXmXmXmXmXmXmXmXmXmXmXmXmXmXmXmXmXmXmXmXmXmXmXmXmXmXmXmXmXmXmXmXmXmXmXmXmXmXmXmXmXmXmXmXmXmXmXmXmXmXmXmXmXmXmXmXmXmXmXmXmXmXmXmXmXmXmXmXmXmXmXmXmXmXmXmXmXmXmXmXmXmXmXmXmXmXmXmXmXmXmXmXmXmXmXmXmXmXmXmXmXmXmXmXmXmXmXmXmXmXmXmXmXmXmXmXmXmXmXmXmXmXmXmXmXmXmXmXmXmXmXmXmXmXmXmXmXmXmXmXmXmXmXmXmXmXmXmXmXmXmXmXmXmXmXmXmXmXmXmXmXmXmXmXmXmXmXmXmXmXmXmXmXmXmXmXmXmXmXmXmXmXmXmXmXmXmXmXmXmXmXmXmXmXmXmXmXmXmXmXmXmXmXmXmXmXmXmXmXmXmXmXmXmXmXmXmXmXmXmXmXmXmXmXmXmXmXmXmXmXmXmXmXmXmXmXmXmXmXmXmXmXmXmXmXmXmXmXmXmXmXmXmXmXmXmXmXmXmXmXmXmXmXmXmXmXmXmXmXmXmXmXmXmXmXmXmXmXmXmXmXmXmXmXmXmXmXmXmXmXmXmXmXmXmXmXmXmXmXmXmXmXmXmXmXmXmX",
"mXmXmXmXmXmXmXmXmXmXmX+ 7 ^ L 7 6 5 6 = 6 6 6 6 7 4 7 4 6 5 9 7 9 9 9 7 9 0 S h S S P u.i.S mXmXmXmXmXmXmXmXmXmXmXmXmXmXmXmXmXmXmXmXmXmXmXmXmXmXmXmXmXmXmXmXmXmXmXmXmXmXmXmXmXmXmXmXmXmXmXmXmXmXmXmXmXmXmXmXmXmXmXmXmXmXmXmXmXmXmXmXmXmXmXmXmXmXmXmXmXmXmXmXmXmXmXmXmXmXmXmXmXmXmXmXmXmXmXmXmXmXmXmXmXmXmXmXmXmXmXmXmXmXmXmXmXmXmXmXmXmXmXmXmXmXmXmXmXmXmXmXmXmXmXmXmXmXmXmXmXmXmXmXmXmXmXmXmXmXmXmXmXmXmXmXmXmXmXmXmXmXmXmXmXmXmXmXmXmXmXmXmXmXmXmXmXmXmXmXmXmXmXmXmXmXmXmXmXmXmXmXmXmXmXmXmXmXmXmXmXmXmXmXmXmXmXmXmXmXmXmXmXmXmXmXmXmXmXmXmXmXmXmXmXmXmXmXmXmXmXmXmXmXmXmXmXmXmXmXmXmXmXmXmXmXmXmXmXmXmXmXmXmXmXmXmXmXmXmXmXmXmXmXmXmXmXmXmXmXmXmXmXmXmXmXmXmXmXmXmXmXmXmXmXmXmXmXmXmXmXmXmXmXmXmXmXmXmXmXmXmXmXmXmXmXmXmXmXmXmXmXmXmXmXmXmXmXmXmXmXmXmXmXmXmXmXmXmXmXmXmXmXmXmXmXmXmXmXmXmXmXmXmXmXmXmXmXmXmXmXmXmXmXmX",
"mXmXmXmXmXmXmXmXmXmX  6 >.L 6 0 9 0 0 0 9 0 l 0 0 0 0 g 0 S 9 0 0 0 g 9 h g h S h g l h p.u.9 mXmXmXmXmXmXmXmXmXmXmXmXmXmXmXmXmXmXmXmXmXmXmXmXmXmXmXmXmXmXmXmXmXmXmXmXmXmXmXmXmXmXmXmXmXmXmXmXmXmXmXmXmXmXmXmXmXmXmXmXmXmXmXmXmXmXmXmXmXmXmXmXmXmXmXmXmXmXmXmXmXmXmXmXmXmXmXmXmXmXmXmXmXmXmXmXmXmXmXmXmXmXmXmXmXmXmXmXmXmXmXmXmXmXmXmXmXmXmXmXmXmXmXmXmXmXmXmXmXmXmXmXmXmXmXmXmXmXmXmXmXmXmXmXmXmXmXmXmXmXmXmXmXmXmXmXmXmXmXmXmXmXmXmXmXmXmXmXmXmXmXmXmXmXmXmXmXmXmXmXmXmXmXmXmXmXmXmXmXmXmXmXmXmXmXmXmXmXmXmXmXmXmXmXmXmXmXmXmXmXmXmXmXmXmXmXmXmXmXmXmXmXmXmXmXmXmXmXmXmXmXmXmXmXmXmXmXmXmXmXmXmXmXmXmXmXmXmXmXmXmXmXmXmXmXmXmXmXmXmXmXmXmXmXmXmXmXmXmXmXmXmXmXmXmXmXmXmXmXmXmXmXmXmXmXmXmXmXmXmXmXmXmXmXmXmXmXmXmXmXmXmXmXmXmXmXmXmXmXmXmXmXmXmXmXmXmXmXmXmXmXmXmXmXmXmXmXmXmXmXmXmXmXmXmXmXmXmXmXmXmXmXmXmXmXmXmXmXmXmX",
"mXmXmXmXmXmXmXmXmXmX6 7.h 3 6 9 +                             +                 O 1 9 5 g k.p.9 mXmXmXmXmXmXmXmXmXmXmXmXmXmXmXmXmXmXmXmXmXmXmXmXmXmXmXmXmXmXmXmXmXmXmXmXmXmXmXmXmXmXmXmXmXmXmXmXmXmXmXmXmXmXmXmXmXmXmXmXmXmXmXmXmXmXmXmXmXmXmXmXmXmXmXmXmXmXmXmXmXmXmXmXmXmXmXmXmXmXmXmXmXmXmXmXmXmXmXmXmXmXmXmXmXmXmXmXmXmXmXmXmXmXmXmXmXmXmXmXmXmXmXmXmXmXmXmXmXmXmXmXmXmXmXmXmXmXmXmXmXmXmXmXmXmXmXmXmXmXmXmXmXmXmXmXmXmXmXmXmXmXmXmXmXmXmXmXmXmXmXmXmXmXmXmXmXmXmXmXmXmXmXmXmXmXmXmXmXmXmXmXmXmXmXmXmXmXmXmXmXmXmXmXmXmXmXmXmXmXmXmXmXmXmXmXmXmXmXmXmXmXmXmXmXmXmXmXmXmXmXmXmXmXmXmXmXmXmXmXmXmXmXmXmXmXmXmXmXmXmXmXmXmXmXmXmXmXmXmXmXmXmXmXmXmXmXmXmXmXmXmXmXmXmXmXmXmXmXmX                                                                                                                mXmXmXmXmXmXmXmXmXmXmXmXmX",
"mXmXmXmXmXmXmXmXmX6 >.0 3 9 9 O ;.r.0.0.0.r.r.0.9.9.r.0.r.0.0.0.r.r.9.8.9.0.r.r.0   7 9 3 9 k.p.L mXmXmXmXmXmXmXmXmXmXmXmXmXmXmXmXmXmXmXmXmXmXmXmXmXmXmXmXmXmXmXmXmXmXmXmXmXmXmXmXmXmXmXmXmXmXmXmXmXmXmXmXmXmXmXmXmXmXmXmXmXmXmXmXmXmXmXmXmXmXmXmXmXmXmXmXmXmXmXmXmXmXmXmXmXmXmXmXmXmXmXmXmXmXmXmXmXmXmXmXmXmXmXmXmXmXmXmXmXmXmXmXmXmXmXmXmXmXmXmXmXmXmXmXmXmXmXmXmXmXmXmXmXmXmXmXmXmXmXmXmXmXmXmXmXmXmXmXmXmXmXmXmXmXmXmXmXmXmXmXmXmXmXmXmXmXmXmXmXmXmXmXmXmXmXmXmXmXmXmXmXmXmXmXmXmXmXmXmXmXmXmXmXmXmXmXmXmXmXmXmXmXmXmXmXmXmXmXmXmXmXmXmXmXmXmXmXmXmXmXmXmXmXmXmXmXmXmXmXmXmXmXmXmXmXmXmXmXmXmXmXmXmXmXmXmXmXmXmXmXmXmXmXmXmXmXmXmXmXmXmXmXmXmXmXmXmXmXmXmXmXmXmXmXmXmXmXmXI ,.,.,.,.:.:.,.,.:.:.>.:.:.:.:.>.:.>.:.;.;.;.;.;.;.;.;.;.;.~ ~ ~ ^ ~ ^ ~ ~ ~ ~ ~ ^ ~ ^ ! Q ! Q Q I Q Q Q Q Q Q U mXmXmXmXmXmXmXmXmXmXmXmXmX",
"mXmXmXmXmXmXmXmX0 ~ K 7 9 7 6 S 0.0.0.0.0.0.0.0.r.r.r.u.i.r.i.r.r.r.r.r.r.r.0.i.:.  7 7 9 3 g u.p.I mXmXmX0 l l C h h 0 S S h 0 9 g S S S h h S h h h D S S h S S D K C K S D S k h K K K S S D K S S D K S S D D L K L K S D L D D L S L L D D S L D S L S L S D S S S S S S L D S S S L K S D K D D D K S S K L D K D K D K S D D S S S S S D L L S S K D D D K D K K L D S L D D L S S D S S S L K K L K L D L D S S S S S S S S S K K S S S S S K D D K S S K h S S S S K S S S S S S S S h h S S h S S h h S h S S h 0 C S S g h 0 0 h 0 0 h 0 0 0 0 0 0 0 0 9 0 0 0 0 0 0 0 0 0 0 0 0 0 0 0 0 0 0 0 0 0 0 0 0 0 7 0 0 0 0 0 9 0 9 0 0 0 7 7 7 7 7 7 7 6 6 6 7 6 mXmXmXP ~ ~ ~ ~ =.~ ~ ^ ~ ^ ^ ~ ! ! Q ~ ~ ^ Q ^ ! Q ! ! ^ ^ Q Q Q Q Q Q Q I W Q I Q I Q Q I Q I I P I I K I I U I I I I I 0 mXmXmXmXmXmXmXmXmXmXmXmX",
"mXmXmXmXmXmX+ 0 ~ S 6 6 9 7 6 0 0 7 8 0 0 0 7 0 0 0 C 0 0 0 0 0 0 0 h 0 g 0 0 S !   4 7 7 l 7 S t.p.W mX7 W ! ` ^ ` ] ` ] ] ] ! ` ` ] *.*.*.] ] ] ] *.-.*.-.-.*.<.*.<.' -.-.<.-.-.-.<.<.-.-.-.-.<.*.<.-.5.-.5.-.<.4.5.3.<.-.-.5.-.3.3.-.-.3.-.y.4.3.3.-.4.3.-.-.<.<.5.5.5.-.3.3.5.3.-.5.3.3.3.-.3.3.3.4.3.5.3.3.3.3.5.3.5.3.5.-.-.3.-.-.3.-.-.3.3.3.3.3.5.5.3.4.4.3.3.3.5.<.5.3.5.3.3.5.<.3.5.5.3.5.3.3.5.5.3.5.-.3.5.5.5.3.3.5.-.5.1.3.3.3.5.-.<.5.3.3.3.3.5.-.5.<.<.3.5.<.3.1.5.3.1.3.5.1.1.>.1.-.-.-.*.<.<.<.*.1.*.-.*.*.*.*.*.*.-.*.*.*.=.] =.=.*.*.*.] ' ] ' ` ] =.] ' =.*.] ' ] =.=.*.*.*.=.*.] =.=.=.] ` ' ' ] ` ` ^ ! ! ^ ` ` ` ^ ^ Q W W Q W W Y I W Y I I K 6 3 S C 7 6 7 6 6 8 8 8 0 0 8 8 0 0 7 0 0 9 0 0 0 0 0 9 9 0 0 0 6 8 0 0 8 7 7 8 8 7 6 6 8 7 7 6 8 7 6 7 7 6 6 6 7 7 6 6 8 K 8 mXmXmXmXmXmXmXmXmXmXmX",
"mXmXmXmXmX  8 ' 0 6 6 7 7 7 9 9 0 0 0 0 0 C 9 0 0 0 0 0 C 0 0 K K K S 0 S S h S !   4 7 7 7 9 9 D q.vX! o = = = 3 3 = 4 3 6 6 4 7 4 7 7 4 4 7 d 7 7 7 7 7 4 7 a 7 d d d 4 7 d 7 7 d 9 d 9 d d 7 9 d l d 9 d d 9 d 7 7 d d l d g 7 j 7 d 7 9 7 d d d g d g d d g d l d d d l d d g d d d h d d d g d d d g d d g g g d g g d j d g g j s g g d d g d d g d d l g d j d l d d d g l g d l d j d d d d g g g d l g d g g d d d d d d d 9 g g d d d l d d l g 9 g g d 9 g d 9 d l 9 l l 9 7 d 9 9 g g 9 9 9 9 d 9 9 7 9 d 7 7 g 7 9 d 7 7 4 7 7 7 6 4 3 4 7 7 7 7 6 7 7 7 4 7 7 7 7 7 7 7 7 9 7 7 7 9 9 7 7 7 7 5 9 7 6 6 6 6 7 6 6 6 7 3 6 6 6 7 6 6 6 3 = 3 = 3 6 3 3 = O 6 6 9 6 0 0 0 8 0 0 0 K h C h C K K h h 0 K h h h 0 h h h 0 0 0 0 0 0 0 0 0 0 0 0 0 0 0 7 C 8 0 0 8 0 0 7 8 8 0 8 0 8 8 7 L 7 mXmXmXmXmXmXmXmXmXmX",
"mXmXmXmX+ 0 >.7 7 6 6 9 9 0 9 0 0 S S S S h C S C C S C C S S K K K S S S h 0 D W   = 6 7 7 g l 7 9 t.nXP               . .   .     . .   .   . .   . . . . o . .   # # . # . * . . # * o * . * * * * * # * * . * # * * . * * # * * # * . * * * * * * * * * * * - # * * * # * * * * * * - * # * * * * * * * - - - - * * - - - * # * * * * % * = * = * - * = - - ; ; - * ; - = - ; = - * ; ; - - - = ; - * = ; - % * * * - - - - - - * * ; * * * ; - * = = ; - = * = - # - = * * * * * * * - # o = * * = = * - = * * o * o = * o = + * o * o o * o $ = X = o o = + * O = O O = o X X O = = O o X X X o o o o = + O O = o = X = X X = X O o O = X + X + + + + o X + +     X o X + + X 1 7 6 8 6 0 0 h C l 0 0 0 C 0 0 0 0 h 0 0 0 7 0 0 0 0 0 0 0 0 0 8 8 0 8 8 7 6 8 0 0 8 8 0 8 8 8 8 8 8 6 8 8 7 8 K 6 mXmXmXmXmXmXmXmXmX",
"mXmXmXmX7 ' 9 6 7 9 0 6 6 6 9 0 9 6 6 7 6 7 6 7 6 7 6 6 6 7 6 6 6 6 6 6 7 9 0 h W   = 6 7 9 l g g 7 g t.vX9.2.8.8.8.0.7.7.8.8.8.9.9.w.8.w.w.r.e.w.e.w.8.q.w.8.8.e.w.r.e.e.e.e.9.e.e.9.e.e.r.e.e.r.e.e.e.w.e.e.e.9.e.r.e.e.e.e.w.e.e.e.e.w.e.e.e.8.e.e.e.8.7.w.r.e.e.r.e.e.9.e.e.e.e.w.e.e.t.e.e.e.e.e.e.e.w.e.t.e.e.e.e.e.e.e.e.e.r.e.e.e.e.t.e.t.u.t.t.w.t.t.w.e.e.e.e.r.e.e.e.e.t.t.e.e.e.e.r.t.e.e.e.t.w.w.w.e.e.t.e.e.e.e.e.e.e.e.e.e.e.9.e.e.t.e.e.w.e.w.e.e.e.e.e.r.e.e.e.9.e.9.7.8.9.e.8.7.8.8.8.8.9.8.4.8.8.8.8.7.8.8.8.7.6.6.8.7.6.6.6.2.6.2.6.6.4.2.2.6.6.6.2.2.6.,.2.2.7.2.,.,.2.2.2.2.6.2.2.2.2.2.2.2.2.2.2.>.2.2.>.,.,.>.,.2.2.>.>.>.>.1.>.>.,.,.,.6.,.2.>.:.:.:.:.' U X 6 0 8 0 0 0 0 8 C C C 0 0 0 C 0 0 K 0 8 0 0 8 0 7 8 8 8 8 8 6 8 8 8 8 7 8 8 8 8 7 6 8 8 8 8 8 6 8 8 6 6 8 7 6 8 K 1 mXmXmXmXmXmXmXmX",
"mXmX+ 0 Q 0 9 6 6 7 7 0 9 6 0 O       + + +   +     +                     6 7 S Y   = 4 7 7 7 g h h 7 D ! 3.4.4.4.4.2.4.1.3.3.4.7.7.4.4.4.4.7.7.4.4.8.4.3.7.4.7.q.7.7.q.8.4.8.8.7.7.8.7.7.q.8.7.7.7.8.7.7.7.8.q.7.8.8.7.7.7.7.7.7.7.q.7.7.q.7.q.7.q.q.7.7.q.q.w.q.7.w.8.q.q.w.w.e.w.e.7.w.w.w.w.q.e.e.w.e.e.w.t.e.w.w.w.e.w.e.e.w.e.e.w.e.w.e.w.w.q.q.w.w.w.e.t.w.q.w.w.w.w.t.w.w.w.e.e.w.w.e.w.w.e.q.q.q.w.w.w.q.q.e.e.7.w.7.e.w.7.w.9.w.e.q.w.w.7.q.7.w.q.9.e.w.w.e.e.8.e.e.w.7.9.8.7.8.8.8.8.8.8.8.8.7.7.7.2.6.7.8.6.4.7.6.6.7.7.6.7.6.4.6.6.2.7.6.7.6.2.6.6.6.6.2.6.2.6.2.2.6.2.6.2.2.6.2.2.6.2.2.2.2.2.2.2.2.2.2.2.2.2.2.>.2.,.,.,.,.2.,.,.2.>.,.2.,.,.,.,.>.,.>.>.:.>.,.>.:.6.~ O 1 0 8 0 0 0 0 0 0 C 0 C 0 C 8 0 0 0 8 0 0 8 7 0 8 8 8 8 0 0 8 8 8 8 7 7 8 6 0 8 6 8 8 7 8 8 8 6 7 8 7 7 7 7 6 0 K mXmXmXmXmXmXmXmX",
"mXmX+ I S 6 6 9 7 6 6 6 6 6 O     O X O O O O O = = = = = = = 6 = = O     5 0 g W   = 4 4 9 g 7 9 d 9 g d 6 7 9 9 l d 7 9 7 d 7 g d g l d d f g j d d d d l d j s d g k j d j f j j j d d j g j g j j j d g k k k d f d d d d k j j d j d j j d j j j g j g j j j s j j j f j x j j j d j j j k j d g j s j f j j j j k F f f D d j j k k g k g j j g f d f j j j j j j f j f f f f x j f j j f j d g j f d j f d j j d k j j h j g d k j g j j j j d j g h g k g g d g d l g g h g g d g g l l l d f d l 9 l g g 9 9 9 9 7 9 l 9 9 l g 7 7 9 9 7 7 7 7 8 2 8 7 6 7 7 6 7 7 8 8 9 7 7 9 7 7 7 8 7 7 7 7 7 7 7 7 6 7 2 6 1 7 7 7 7 6 7 7 6 8 8 7 7 7 7 7 7 6 6 7 6 7 6 7 6 8 8 7 7 0 Q Q 1 1 0 0 l l C l 0 7 0 0 0 0 7 0 7 0 7 0 8 8 7 7 7 7 7 7 7 7 7 8 8 8 7 7 7 8 8 8 8 7 8 7 7 6 7 0 8 7 7 6 6 7 7 7 0 h mXmXmXmXmXmXmX",
"mXmX+ 7 6 9 9 6 7 7 6 7 0 o     + 6 O 1 6 3 6 6 6 6 6 7 9 6 9 6 6 9 =     6 0 S W   = 4 7 7 7 7 g d d g h j k k k k k k j g k k j k k k x j x k k j k j j j j D k k j k j z x x k k z z j k z z z z k x z F z F x x x z F j F j z j z x x x z z D x F F z z z z k z G z z z z z k z z x x z G F k x F k G z z x z z z x F F j F z z z z k z z z z z z k x x z F F D z z z x z z F k z z z G x x F k x F z z k j z F z z D k x k k z k F k k z z F F k k k k k k k k j k k D k D k k k k k k D k k k h k h k h h h g g h g h h k l l h g g l l l l l l l l l l 0 9 9 l 0 9 9 h 0 8 l l h 0 l 0 8 l l l l 8 l h 8 8 0 8 7 8 8 l 0 8 8 7 0 7 8 0 0 8 7 7 8 8 7 7 7 7 8 7 7 7 8 8 0 8 0 7 K Q 1 1 8 0 8 0 0 0 0 0 0 0 7 8 8 8 7 8 7 8 8 7 7 7 8 7 7 7 8 8 0 8 8 7 7 8 7 7 8 6 6 7 8 8 6 7 7 7 6 7 7 6 6 8 8 7 7 0 mXmXmXmXmXmX",
"mXmX  9 7 6 6 6 6 6 7 0 +       + 7 1 6 7 6 7 9 9 7 7 7 6 6 6 6 7 0 3     6 h g Y   = 4 4 4 9 d 9 9 g g g g g k z j k k k F j k k x z F z z R x z F z j z z z z x x x z z z z x F G z x z F x G z F F z G z z z G z z z F F F x G G F z G z z x F F F x x z z z G z z x G z z z x z x z z G z z x G F G z z R G z x z x x F F F z z z G x z x z z G z x z z z z F F z G z z z G F F z z x G [ z x x F F x x x R F z z z F F F z z z z F R F F z F k F j x x F z z z z G F F z z k D D F D D k k k D k k k k D h k k K k h k k h k g h h h h h g g h h h h h h k h g h l g l h h h l h h l h h C C C C h 8 h h 0 h h l 0 9 l 8 h h 0 h h 0 0 8 0 0 8 8 0 0 0 8 0 0 9 0 7 7 0 0 0 0 7 8 6 K Q O                                                                                         +                           mXmXmXmX",
"mXmX  6 0 6 6 6 6 0 7 +     +   + 6 5 6 6 7 7 6 6 9 9 7 9 9 6 7 7 9 6 +   6 9 g W   = 7 7 7 7 9 d 9 g 9 h k k d l d d j d d d k k j k d j j j j j j j j f j f j g f j f d j j f j j x j j j j j k x k k x k x j z j x j j x j j j f j x x k x x x j f D x x x x x x z x j f x f x x j z z x x x x x x j x z z z z z x x z x j x x x z x x x x x x x x j x x j x x x k x z x x x j x z x x z z x k x j k x x x x k z z x z z k k x x j x k j x k k j j j x j k k k j k j j k g k j j k d k k g k g k g k k g g l h g g 9 g g l 9 9 7 l 8 l g 9 7 9 7 l l 7 9 l g l 9 9 7 8 7 8 9 l 9 8 7 0 7 0 7 8 7 7 7 7 6 6 6 7 7 6 7 7 6 7 7 6 6 7 7 8 7 7 7 7 6 7 7 7 7 6 6 7 7 7 7 7 7 7 8 8 0 7 0 7 K :.p.p.p.i.p.p.p.p.p.p.p.p.p.p.i.i.i.p.i.p.i.i.i.p.p.i.i.i.r.i.i.i.i.i.i.i.i.i.i.r.r.0.0.r.9.0.r.9.0.0.0.9.i.r.r.9.9.Y mXmXmXmX",
"mX+ + + 6 0 6 7 0 6 +     6 0 + o 6 6 6 6 6 6 6 9 7 7 7 6 0 6 7 7 9 6 +   3 0 0 R   = 3 7 4 7 d 9 d d h k g o                                                                 .           .   .         .     .     .     .   + . .   .     .     .   +               .   .   .   .   .       .   .     .   .     . .     .             + + .     .     .     . +     . . .   . +   .   #                   +             .           .     .         +                                         +                                                                                                                                                                               X 0 8 7 0 7 8 C K K K K K K K U K U L K L K K L U K U K L L L P K K K K C K K K K K K K C K K C K K L L K C C C K 0 C C K K K K I C mXmXmX",
"+ +     + X X o o +     O 0 3   + 9 6 6 7 6 6 6 7 8 7 7 9 7 6 0 6 0 7 +   5 0 h Y   = 4 4 7 5 7 7 d d D g o   . . # # . . . # . # . # # . # # # # # # # # # # # . # . # # # # # # # # # # # # # # % # # # # # # # # # # # # # % # # % # # # # # # # # # # # # # # # # # # # # # # # # # # # # * % # # # # # # # # # # # # # # # # # # # . # . # # # # # % # # # # # # # # # # # # % # # # # # # # # # # # # # # # # # # # # # # # # # # # # # # # # # . # . # # . # # . # # . # # # . # # # . # . # . # # . .     .     .                                                                                                                                                         O 6 9 8 0 8 8 8 0 0 8 0 0 0 0 0 0 0 0 0 0 0 C 8 0 8 7 8 8 0 0 0 0 8 8 7 0 0 0 8 8 0 0 0 0 0 0 8 0 0 8 8 0 7 8 7 6 7 7 7 8 8 8 7 K 0 mXmX",
"+ +                   + K 6 O   + 9 6 7 8 8 6 0 0 0 0 0 0 0 0 8 6 0 7     7 0 0 I   = 4 4 4 7 d d 7 D d .   # # # # # $ % % % % % w % & & % & - % % % % % % # % % % % % % & % & % % % & w - % % % & w & % % & # % % % % % # % & % % - % & w % % w % % w w % w % & % % % % % % % % % % % % % % % % w % % w w % % % w % w % w & % % % % # % % % % w % % % % & % w % w w w & w w - % % % % % % % # # . . # . # . . # . . . . . . . . . . + . . . . . . . # . # . . . # . o   # . o   . . . . .   + . . .     . # . # . . . # . # . .   . . .             #                       .                                                                                                     X 0 0 8 7 0 0 0 0 0 0 0 0 0 0 C 0 C C 0 C 0 0 h C C 0 h h 0 0 h 0 0 K 0 C 0 0 0 C 0 8 0 0 0 0 0 C 0 0 0 8 0 0 0 0 0 8 8 8 8 0 9 C 0 mX",
"+ .                   O K O O   + 0 6 o   + o +   +     + + + + O 0 7 +   6 9 g Y   = 7 7 7 4 g 9 D g + X : t c t t t t t t u y t t y u y y u u t & % $ # & & w & & y n t t t t u u y u t t u t y t y t u & # # $ & - & & & y n u t u y u u u u u u t t u y u t t i # # % & % w & & i n u t t t t u t u u y t t u t t t u t % # & & & & & & w u u u t t u u u u u t t t t y u u y u i # & & # % # # = ; 4 6 ; ; 6 3 = 3 = = 6 6 = = = = = = .     . . # # = ; ; ; ; 6 6 ; = 1 = = ; 3 3 = = 3 = = *   . . . # . # # .                                           .   . . . .                                                 .     .                                                   X C h 0 h 0 0 C C h 0 h h C K h K K C C K C 0 h h K K K K K K K C C h C h h C K C K 0 C h C C K 0 0 C 0 h C 0 C C C C 0 K K K 0 L mX",
"  + + K O   0 K 6 X   o h = =   o 0 6 6 6 6 8 8 8 7 8 8 7 8 8 6 X 6 7     6 g h Y   = 6 4 4 7 7 d k : v m v.].T._.`._._.^._.'._._._.`._._.`.`._.`.V.c < > > $ v c  .`.(.(._.`.'._._._.'._.`.`._._._.'.].`.).| < < > @ b c  ._.(.W.`.`.'.^._._.'.`.`.`._._.`._._.].).| > < > : t c | C.(.T._.'._._._._.'._._.`.`.W.'.`.].(.XXa.c > > : , v c d._.(.W.`.'.'._._._._.`._.`._._._._.`.`.C.v < > > $ . - k k k D h k k h g j g g g g g g g g g k 7 .     # # # d k k D k k k k g g g l g h l g d 9 g h l o       % # # # # d k D D k K D k k k h h k h k h g h k h 6       .   .   4 0 9 h 9 l 9 0 g 9 9 9 9 0 0 9 7 7 9 9 O       .     = 9 7 9 6 7 7 7 9 7 7 7 7 9 7 7 7 6 = O X                                                                                             +                                             mX",
"+ O O L 6   U 7 3 O   o h = O   + 0 9 U ,.6.0.6.9.8.2.8.6.6.2.,.L 8 7     3 7 l I   = 4 4 7 7 d k g > v X.).s.x.l.x.b.x.x.c.b.b.b.x.l.x.b.x.x.v.b.8X+.< < > & b | XXl.l.l.x.b.x.x.x.b.b.b.c.l.l.c.x.x.x.x.(.Z.< < > @ v | .Xv.l.l.x.b.x.v.x.b.b.b.x.l.l.b.x.v.x.x.(.Z.< < > @ c M z.M.s.x.l.c.c.x.x.b.b.c.b.x.l.x.c.x.x.x.b.`.} < < > & c  .].l.l.l.x.c.x.x.b.b.b.b.x.l.x.x.x.x.x.c.'.a.< < > $ . a * . o + + o . o o o + o o + + O + + + . O =     - # ; - * . + + o . * + o o o o . o + X + + + o 6 +     % % # . ; s 7 ; 7 4 4 4 4 3 4 3 = 3 4 6 3 = = ; ; 6 ;     + +   * = 3 6 4 3 2 6 1 = 4 = 4 3 = 3 = 3 = = 1 7 o   + . + O = 3 = 3 = 3 3 3 3 3 = 3 3 3 3 3 O O = O = +                                                                                                                                         mX",
"  X + 0 O   0 O + +   X K 1 6   + 0 6 7 8 8 0 0 C C l C C C 0 C C K 0 +   6 0 l R   * 3 7 4 d 7 k g : q V.C.b.M.M.M.N.R.N.B.N.N.I.M.N.N.M.A.N.N.b.`.a.> q < s c X.6Xx.M.M.b.M.S.I.m.A.N.N.N.N.N.N.N.N.N.M.R.L., q q @ q X.7Xv.M.M.m.N.A.R.m.A.N.A.N.N.N.A.N.A.M.m.R.L., q q @ u B L.b.M.M.m.M.N.R.N.M.N.A.N.M.N.A.N.N.N.N.x..X..< q > w < s. Xx.M.M.m.N.S.A.m.N.A.A.M.A.N.N.N.N.N.b._.H.> q < # - a ; = * ; ; = ; = = * = * = * = * * = = = o =   . # . a 4 = = = ; = ; = = = * = = = * * = 3 * = = ;     . % % % # 4 ; * o = * o * = * o o * * * o o o O O o o ;   .       = o o o o o + X o o + o + o + O X + X X X O +     .   3 + o X X + + O + + O + X + + + X o o + + X O           o + + X X +         +       +               +               +     + + + + + + + +   + + + +   + +                             mX",
"  X X 0 O   C 1 X +   o K = O + + 0 6 7 8 6 8 8 8 0 k C h h h h 0 C 0 +   3 g h I   = 4 4 7 d 7 k k : q V.|.b.M.M.S.N.I.A.I.A.I.M.A.A.I.A.U.I.N.m.+Xh.< c q i c X.eXx.B.M.I.N.A.A.I.A.A.N.A.N.A.R.U.U.N.N.).L.< c q @ q X.eXc.M.M.I.N.A.A.I.A.A.A.N.N.I.I.I.U.A.M.).L., c q : u B L.B.m.M.N.N.N.I.I.A.A.I.N.N.A.U.A.U.I.N.m.oX..< c < , < z.OXb.B.M.I.N.I.A.I.A.A.A.A.A.I.I.U.R.N.m..XK.> c q # ; s - = * = = = = = # = = = = o = = * o o = = =     o # a - ; = * = = = = = = = * = = * = o o O # * 6 +     w w % # e ; = = = * = = = * = = = = = = = # = * = = 7 .   .   + 3 O = o = O = o O o = O O o O O O X o = O = O     .   6 O o o o O O O O o O O O O + O O o o O O X =         + O O X X O o     + + .     + . + +   + X X   + . + + + + X + X + + X X + X . X O o O O X X X . + O O + + + + o + +         + + + ",
"  X X 0 O   C 6 X +   o S O O   + 0 7 8 8 8 8 7 8 l 8 C C C 0 h 7 h 0     3 9 h Y   = 3 4 4 7 d k l > q V.).M.N.N.I.I.U.I.U.A.I.I.U.A.I.I.U.U.U.M.7Xh.c v < i v X.wXb.M.N.I.U.U.R.Y.I.A.I.I.I.I.I.I.U.U.N.).P.q v q @ v X.eXc.N.N.A.U.U.R.Y.I.A.I.I.I.A.I.U.U.I.A.).@Xq c q @ n ) |.B.M.N.N.U.I.U.R.U.A.R.I.I.A.R.I.U.R.I.b.%X..c v > w q z.XXm.M.M.I.U.U.I.U.I.A.I.I.A.I.I.U.U.U.N..XK.< v q $ ; f ; ; = = ; * = = = = - = = * o = = = = # = =     # * s ; ; * = ; * = * = = * = = = o = * 3 * = o 7     * e w ; # f ; ; = * ; = ; = = = * = * o o = = o = o o ;     .     3 o O = o O = o o = o O o o = O O O o o = = o   o +   6 + = O X X O + o O + O O o O o O O O o O o =         + 6 1 O X O O + + O o O o = o = o = O O O O = = = O O O O O O O O X O O O X O O O O O O = O O X O O O O O O O + O X           + mX",
"  O + 0 O + C 1 o X   + S O 6 + + 0 7 7 7 9 9 9 6 9 9 9 9 0 7 0 8 h 9 +   6 9 g Y   O 3 4 d 7 d k j > c H.].N.N.I.U.U.U.Y.Y.U.U.Y.U.Y.U.Y.A.E.S.M.7Xh.c c q p v d.eXm.A.A.U.U.I.Y.Q.U.U.Y.U.Q.R.Y.I.E.R.N._.|.q v q @ b X.eXm.A.N.U.U.U.Y.E.U.Y.Y.U.Q.I.Y.A.E.U.N._.|.q q q @ n ) @XS.S.A.I.U.I.Y.Y.U.U.U.Y.Y.U.U.U.U.Y.I.N.XX..c c > i c z.iXM.A.A.Y.A.U.E.E.T.Y.Y.Y.E.I.U.S.E.I.N.*XJ.q c q . - j - ; - = 4 = - ; 3 = = = * = o * = = * = O =     - . a ; 4 ; ; = ; = = = 4 = = = # = = * = = = = 6 .   . w w % o s ; 7 ; = = = * = = = * = = = O = = = = = = 7     .   . 6 = o = = o = o O = O o o O o o X O = O = = X   .     1 O O O o O O O O O O O = o o X O O + O + + 3   +     + 7 O 1 1 = 1     + + + + . + + + + + + + + + + + o + + + + + X O O O O 3 O O 6 O O O 1 1 1 O O O 1 O O O O O O + 1 + + 8 8 0 O mX",
"  O o 0 O   0 1 o +   o K 6 O   + 0 6 7 6 9 6 9 0 0 6 7 9 9 7 0 0 h 7 +   6 9 9 R   = 3 4 4 4 g k k > c C._.A.U.U.U.Y.Y.E.Y.Q.Q.E.U.I.Y.Y.E.U.U.A.6XF.c v < i v d.wXM.U.U.Y.U.E.Y.Y.U.Q.Q.Y.I.U.Y.E.U.U.I.(.P.q v q @ b d.uXN.U.U.U.U.Y.Y.E.Y.Q.E.Y.A.U.E.Y.U.U.I.].@Xv v q @ N ) ).R.R.U.U.U.Q.Y.E.Y.Q.Q.Y.U.R.E.Y.U.U.R.N.+X..b c > i v z.'.A.U.U.Y.Y.Y.E.Y.Y.Q.E.Y.A.Y.E.Y.U.R.A.XXK.c v q $ e f ; ; 3 - 4 = = = - = = * = = = = * o = O O =   + - # f ; 4 ; = ; ; = = - = = * = = = = + o = = o 2 .     e w % # s ; ; ; = ; ; = - 3 = 3 * = = * = o o = * o ; . + . + + 6 o = O o = o = = O = = O O = o = X O O O = X   . +   6 = O O O O O O O O O O O O O O O O O O O X 3     +   + 7 6 O O = =                                                   + 6 6 O 3 6 O 1 6 6 6 6 6 6 6 1 1 1 1 O = O O 1 O 1   1 Q I Q U mX",
"+ O + 0 O + 0 6 o o   o h O O   + 0 8 6 6 9 6 9 0 6 0 9 7 9 9 9 9 h 0 +   6 9 g Y   = 3 7 7 4 g k k > v C.`.I.U.U.Y.Y.Q.Q.Q.E.Q.Y.E.Y.Y.Y.E.E.Y.N.7Xh.c v < p v d.uXS.U.U.Y.Y.Y.E.!.E.E.Y.Y.Y.Y.U.E.Y.E.I._.@Xv v q @ b d.eXN.U.U.Y.Y.E.Q.!.Y.Q.E.Y.E.Y.Y.Y.Y.Q.A.`.|.q v q @ N | |.(.U.U.U.Y.U.Q.Q.Q.Q.Q.Y.Y.Y.U.Y.Q.Q.U.N.+X+.c c > , v Z.6XA.U.A.Y.Y.E.E.!.E.E.Y.E.E.Y.Y.E.E.E.I.6XK.q v q $ & f = ; ; = ; = = = 3 = ; = = = = = = O = * = =     - . d e ; ; ; 4 = = = = 4 = * = = = = = = O = * ; +   * w w % - i ; 4 ; ; ; = = * ; ; = = * * = = * = = = o 7     o     6 = o = O = o = = o O = = O = o = O X O O = o + . +   6 = X 3 O O O = O O O O O O O O O O + O O O =           7 6 1 6 6 1   + + + + + + + + + +   + + + + + + + +     +     + 6 O 6 1 1 1 6 6 6 6 6 1 O 1 1 6 1 1 1 O 1 6 O O 1 + O 0 6 6 0 mX",
"  X + 0 O + 0 1 o X   + K 6 O   + 0 6 7 9 0 0 0 0 9 9 7 9 7 9 9 6 0 9 +   6 9 g Y   = 4 4 7 4 g k k > b L.XXI.A.U.E.Q.U.U.Q.Q.~./.E.E.E.E.Q.Y.E.A.8XF.b v q i m d.eXA.A.I.E.Q.Y.U.!.Y.~.~.Q.Q.E.E.E.Y.!.I._.@Xb v v @ m a.uXA.I.U.Y.Q.Y.U.Q.Y.~.^.Q.Q.Y.E.Q.Y.Q.U._.@Xb v q @ N | @XT.I.A.U.Q.Q.U.Y.Q.!.~.!.E.E.Y.Q.Y.Q.Y.N.eXO.b b > i b Z.eXA.A.U.E.E.Y.U.!.E.~.~.E.E.Y.E.E.Y.Q.R.<XK.v v c # ; j ; ; 4 ; ; 4 ; 3 - = = = = = * = = = o = = = + + & # a a ; ; ; ; ; 3 4 - = = = = = * = = = * O O 7 +   . r r % o d 4 4 ; 4 ; 4 3 3 = = = = = = = = o = O o = 4 +   # o   = = o = O O = X o = o O = = = o O O O = O 1 o   . .   6 = O O O O O O O O O O O O o O O O O + X O 3     + + X 7 1 O O 3 6         +                       +                 + 8 6 6 6 = 6 6 O   + + + + + + + O 1 6 1 O 1 1 1 6   O C 6 6 8 mX",
"  X + 0 X   0 6 X o   o C O O + + 0 7 6 6 8 6 6 9 9 6 0 0 9 6 0 7 0 9     3 0 9 Y   O ; 4 4 7 d k k > M L.`.U.R.U.Q.E.U.Y.~.~.[.!.Q.=XQ.Q.Y.E.Q.I.7XF.b v c p M s.hXA.Y.U.Y.Q.Y.U.~.!.{.!.Q.{.~.E.Y.E.!.U._.@Xb m c @ B d.pXA.Y.U.Y.Q.Y.U.~.!.{.~.Q.=X^.E.Y.Y.!.Y.`.@Xb b v @ N |  X).Y.U.Y.Q.Y.U.Q.!.[.~.Q.!.[.W.E.Y.E.E.N.iXO.v v q y b V.7XA.Y.Y.Y.E.Y.E.!.!.~.~.E.=X!.E.Y.Y.Q.U.*XK.v b c $ ; s ; ; ; = 4 = = = 5 * * = = * = = = = = = = O   . - # d ; d = - = ; - = - = * = = * = = = = * = = = + + . r w % # f ; 4 = ; ; 4 = 3 - = = = = = * = 3 # O = = 2 + + . .   6 = o = = O = O o O = O O O = O = X X O O 3 + + o .   6 o = O O O O O O O O O o O O + O O O O O + 6   +   + o 6 3 1 1 6 6   6 U ~ #.~ ~ #.;.~ ;.#.' #.#.;.;.#.#.~ ~ ^ ^ ~ ~ ;.Q O 6 6 8 8 + + 0 ,.i.0.,.0.,.C + + 1 7 1 O 6 O 6   O 0 6 8 6 mX",
"  X + 0 O   0 6 X o + X C O 1   + 0 6 8 6 7 9 9 9 6 6 0 0 6 6 6 9 h 7 +   3 l h Y   = = 4 4 d d k k < M |.'.U.Q.Q.Y.Q.^.~.^.!.[.^.!.!.^./.Q.Q.E.N.8XF.b v c p B s.yXU.Y.Q.U.Q.Q.{.^.!.^.[.Q.!.^.~.Q.Q.E.U._.@Xm v v : B s.yXI.Y.E.U.!.Q.~.!.~.^.~.!.!.~.^.Q.Q.Q.U._.|.b b q > V } oXW.Y.Y.Y.Q.Q.~.~.^.^.{.~.!.~.^.!.Q.Q.Y.N.7XO.m v q y m V.7XY.E.E.U.!./.~./.!.~.~.Q.~.~./.Q.!.E.I.<XP.v v c & e f ; ; ; ; ; - ; = = = = = o 3 = = = * O * = = + + & # f ; 4 ; 4 4 ; 5 = = = = = = = = = = = = = o ; +     r r % - f ; 4 ; = 4 - 3 = = = * = * * = = = = = = O = +   . +   = = = O O = O = = O o = O = o = o = O O = = X     .   3 = O O O O X O O O = o O O X O O O o O O o 3   + +     7 1 O = 7 6 + 6 7 6 6 9 6 6 6 6 7 6 6 6 8 8 6 8 6 8 8 6 7 7 7 8 6 6 6 6 O O U 6.,.U 0 0 6 5 8 ~ Q K O + 1 6 O O 6 + O 0 6 6 6 mX",
"  o + 0 O   0 1 O X + o 0 O O   + 0 6 6 6 6 9 6 7 7 8 7 0 9 9 6 6 0 7 +   3 l S R   = 4 3 7 4 d k j < M L.XXU.E.Q.!.[.-X:X{.[.=X=X~.=X=X~.Q.!.!.I.8XF.c b q p B s.sXI.Y.Q.!.~.=X-X{.!.-X[.[.[.[.[.Q.Q.[.Y.'.@Xb b v @ M a.sXI.Y.Q.!.!.[.-X{.~.:X=X:X[.[.=XQ.Q.=XE._.@Xb b v @ N } &X(.Y.Q.!.^.[.-X:X[.=X[.[.[.[.-X!.Q.~.!.I.+XO.v v > y m C.wXA.E.!.!.~.=X=X=X[.=X=X:X~.=X[.Q.!.~.U.*XP.v v c # ; s ; ; 4 ; 4 = = ; = = = = = * = * = = O = O =   + $ # s ; ; 4 4 ; = = ; = = = * = * = = * = O = = ; X   o r w & * s ; 4 - 4 - = - = - = = 3 * * = = * O = O = ; + . . +   7 = O O O o O O = O = O = O O o = o O o O = +   + +   6 O O O O O O O O O O O O O O O = O O O O + 6     +   + 8 6 1 O 6 1   O O O O = O O O O X O O O O O O O + O O O O O O O 6 6 8 O 8 ,.#.C O 1 O 1 1 3 6 O 6 K U 8 + O 1 1 6 + + C 6 7 7 mX",
"  X + 9 1   0 = O +   o C O 6   + 0 7 6 9 6 9 9 7 9 9 9 0 9 7 7 7 h 9     6 g h I   O = 7 4 4 l k j < B L.<XU.Q.!.[.-X,X1X1X1X>X>X>X-X-X=X!.Q.^.Y.wXF.b b q p M s.sXU.E.!.~.=X,X>X1X1X1X>X>X,X-X-X[.E.~.!.'.@XM m v : B s.sXU.E.!.~.-X,X>X1X1X1X-X>X;X,X-X~.Q.^.!.'.$XM b v > N } OX_.Y.Q.!.[.,X,X1X1X1X,X>X;X,X-X[.!.Q.~.U.&X@.b m t p M V.wXY.E.Q.[.=X,X1X1X2X>X,X1X-X-X=X~.E.!.E.6XP.m M b $ e s ; ; 4 ; = 4 - = - = ; = * = o = o = = = 3 = + . - # e e 4 ; 4 4 ; ; = - = = = = O = = o = = O = 6 +   + r r & - s - 4 4 4 4 4 = ; = = = = = O = = o = = = = = X   o + + 7 O O = = = = o O = o = O O O = o = = = O = X   + o   6 O = O = = O O O O O O O O + O O O O O O O =       + + 8 6 1 6 1 6   O O 3 6 = = O = 6 1 1 1 1 3 O O 6 O O 6 O O O 1 O 1 1 O 0 ;.U O 1 1 1 1 6 6 6 7 6 6 6 8 U 8 + O O 6 + O 0 6 7 7 mX",
"  X + 0 O   0 O o o + X C O O   + 0 6 6 6 6 6 + +   + O 0 6 6 6 7 0 0 +   6 9 g I   = = 7 ; 4 d k g < B L.6X/.!.~.[.,X4XyXrX0X0XtXpX0X9X<X[.[.~.Y.qXF.m b c p B s.sXY./.~.!.-X,X8XtX9X0XrXpXtX9X2X-X[.[.Q.}.$XM m v > B z.sXY./.~.!.-X>X0XtX8XrXrXpXrX9X2X{.[.[.Q.}.#XM b v > V } &X_.!.!.~.[.,X3XtX0XrX8XpXtX0X9X;X[.[.!.E.7Xo.b b q y M V.wXQ.!.~.!.,X>XrXtX9X0XtXpXrX9X2X[.[.~.Q.6X@Xm v v $ e a 4 4 ; = * 4 3 ; 3 = = = = = = O # = = = = = + . & # a a 4 ; = - ; 3 = = = = = * = = = * # = = O 4 +   o r r w % s ; 4 ; ; = 4 = = = = = 3 * 3 * O * = = = O 4 + . . + + 2 O = = + O = O O = O O = = 1 O = O = O = 6 o   + .   6 O O O = O = O O O O O O O O O O X O o O X =   +     + 8 6 = 6 O 6   1 O 6 O 6 O 1 O O O 1 O 1 O 6 6 O 6 1 1 O 1 1 O 6 6 O 6 ~ 0 6 6 6 6 6 1 O O 6 7 7 7 6 7 1 U 1 + 1 1 + X 0 6 6 6 mX",
"  X   8 = + 0 6 X X   o 0 O O + + 0 7 6 9 6 3 + O O + + 0 0 0 6 7 S 0     6 9 0 I   * = ; 7 7 d k j < ) |.6X/.[.!.=X8XaXpXdXgXjXrXrXpXrX3X,X~.Q.Y.qXG.m m v p | z.sXQ.~.~.[.>XtXaXaXfXkXaXrXtXpX9X>X[.E.E.}.$XM m m > ) z.sXQ.~.~.[.;XtXaXaXfXjXaXrXtXpX9X,X-XQ.E.}.$XM m b > V  .&X'.~.[.~.-X8XdXpXdXjXlXrXtXpX0X1X-X!.Q.U.eXo.b M q u ( C.uXQ.[.!.[.2XsXsXaXgXjXtXrXpXtX3X,X[.Q.E.7X@Xm m v $ ; f - ; ; ; 3 4 ; = = * = = ; = = = = = = = = ; + . ; % s ; 4 ; = ; 4 4 ; = = 4 = = = = = = = = O = 9 o + o r r & - e ; d ; = ; 4 ; 4 = = - * = = = O = o o # O l +   o . + 7 O O = O = O O o O = = O O O O = o O O O = o   o o   6 O O O O O O O O O O O O O O O O O O O O o 3     +   + 8 1 = 6 6 6   1 6 O 6 O 6 1 1 6 1 O 1 O 1 O O 6 O O 1 1 5 O 6 1 6 + U K 1 1 O 6 O             O 0 7 6 6 1 C + + 1 + O C 6 0 8 mX",
"  o + 0 O + 0 6 o o   o 0 = O + + 0 7 6 7 9 7 O 6 6 = + 9 7 8 8 6 h 0 +   6 9 g I   = 4 4 4 4 d k j < | |.6XQ.Q.=X;XyXjXkXxXjXjXkXdXdXdX9X>X-X~.E.0XF.m m c p B z.sXE.Q.[.[.8XdXjXbXkXfXjXfXaXjXtX1X-X{.!.}.@XM m v , ) z.sXE.Q.[.=X8XdXjXxXjXfXkXfXaXjXtX1X-X{.!.}.@XB m b : N  .&X'.W.!.[.>XsXjXzXzXfXjXjXdXfXaX3X,X[.~.Y.7Xo.m m q y ) J.uXE.Q.=X=X8XgXjXbXkXjXkXdXdXfXrX1X=X[.E.7XP.m m v & e f - 4 ; 4 - 4 = = = = = = = = = = o = = = = =     - # f ; 4 ; 4 ; 4 = - = = = * = = = = O = = = = 4 +   # r r w % f ; ; = ; ; 4 3 = = = = * = = = 3 = = = = = 7 + . . + + 7 = O O = O = O O = O O O O X = 1 O O O = = o   o     6 O = = O O O 3 O O O O O O O O O O O O O O 1     + + + 8 1 = 1 O 6   O O 1 O 1 O O O O 6 1 O 1 1 6 6 6 O 6 O O 6 O O 6 + O I 6 1 O 6 O   + 5 5 5 5 o + + 0 6 6 6 8 1   6   O 0 6 6 7 mX",
"  O + 0 =   0 1 o o + X h O X   + C 6 6 6 9 6 X 1 1 = + 9 6 6 7 7 0 9 +   7 g g P   * = 4 7 7 d k j < B |.6X!.~.=X:X9XyXjXjXkXkXzXkXkXjXtX,X[.{.!.0XF.m M n p | z.sXE.~.[.[.2XrXdXjXjXzXkXkXzXjXaX3X[.[.[.<X#XM M v , B z.sXE.~.[.[.2XrXdXjXjXzXkXkXkXkXaX3X[.[.[.<X#XB m b > V } &X_.[.[.[.<X0XpXjXjXzXkXkXzXkXfXrX,X{.[.!.wXo.m M q y B V.uXQ.~.=X=X8XrXgXjXkXkXkXkXkXjXpX,X[.[.!.2XP.M m v $ e s - 4 4 ; = 4 ; = = = = * * = o = = o = = = = + . - # f e 4 ; - 4 = ; = = = = = * = = = = O o = = 7 . . % r r % - f ; 4 ; ; ; ; = ; = = = = * 3 3 * O = = O O 4 +   o + + 7 = O = = = = O = O 1 1 = = O O O = O O O = o   . + + 6 = O O O O O + O O O O O O O O O = O O O O =   +   + + 7 6 1 6 6 6   1 1 O 6 1 3 1 1 1 1 O 1 1 O 1 O O 6 O 6 1 O 6 1 1 + 8 U O 6 6 O + O A J &.$.$.H Z + O 6 6 6 6 8 + O + O 0 6 6 7 mX",
"  O + 0 1   0 1 O o   o 0 = 1   + 0 6 6 6 9 6 O 6 3 = + 0 7 6 7 9 0 0 +   6 h g R   * 4 4 4 4 d x k < B |.<XQ.[.:X:X8XsXzXkXjXzXkXjXkXjXaX,X[.{.~.qXG.M M c p B z.sXE.~.=X[.<XtXlXzXjXkXzXjXzXjXdX8X-X[.~.<X$XB m b : B s.tXE.~.=X=X<XtXjXzXjXkXzXlXzXjXdX9X[.[.~.<X$XB M b @ V } OX^.^.[.=X:XrXdXzXjXjXxXjXjXkXfXpX-X[.[.!.eXO.M m q y B V.qXE.[.:X[.2XpXkXkXjXkXzXfXzXjXaX4X[.[.~.8X@Xm m v & e f e ; = - 3 4 = - = 3 = = = = = O = = = = = = + + & # s e ; ; = ; 5 * 4 - = ; = = = * = * = = = * 7 o   o r r w - s ; 4 ; ; = 4 * 4 = = 3 = * * O O = = = = O 2 + + . + + 2 O O = = O O O O O = O = O O O = = O = O = O   + +   6 O O O O = O O O O O O O O O O O O O O O O =   +     + 8 6 1 6 6 1 + O 1 O 6 1 O 5 1 O O 1 O O 1 1 1 O 1 1 O 1 1 O = O   K 8 O 1 6 + + A J %.%.%.&.&.&.H + 5 8 6 6 6 + +   O 0 3 3 6 mX",
"  O + 0 1   0 1 O o   + 0 O O + + 8 6 6 6 0 9 O 6 6 O + 7 7 7 7 6 g 9     6 h 0 I   o 3 4 9 a 7 k d < ( |.6XQ.~.{.-XrXjXzXzXjXxXkXjXkXrX5X-X-X[.!.qXF.m m c p ) z.sXE.!.!.;X4XaXkXzXzXjXxXjXzXdX5X,X-X-X/.<X#XM m b : ( z.sXE.!.^.-X4XaXkXzXzXjXzXkXzXdX3X>X-X-X!.<X$XM m v > V  .&X'.^.!.[.>XtXjXzXzXlXbXkXkXjX9X4X-X-X[.Q.eXO.m b c y B C.uXE.^.^.-X8XgXzXzXkXzXzXjXzXtX5X-X[.[.!.7XP.m b v & e f ; ; ; - = - 4 = = = = = ; * # = = = O # = = + + & # f a = ; ; = ; ; = = = = * = = = * = = O = O ; + . . r r w % f a ; ; ; ; 4 = * = = = = ; = O * = = * = * 2 + + X + + 7 X O O O = = = O O O O = O O = O O O O O = +   + +   6 X O 3 O = O O O O O O + O O O O O O O O O 6     +   + 6 1 1 O 1 O   3 O 6 O 1 1 O 1 O 6 6 O 1 O O 6 6 6 6 O O O 1 1 +   K 6 1 1 1   5 J $.%.&.%.%.%.$.$.5 + 8 6 6 8 X +   O 0 6 6 6 mX",
"  O + 0 1   0 1 o o   X C 1 1   + 0 7 7 7 8 7 O 6 6 1 + 6 0 7 7 7 0 9     6 9 g I   * ; 3 3 7 d k j < B L.6X^.~.=X>XtXzXgXzXkXjXzXxXdXdX2X,X[.{.~.qXG.B m c p B z.yXQ.~.=X-X9XjXjXzXxXlXjXbXdXdXtX,X[.^.{.<X$X( m b > B z.sXQ.~.=X,X9XjXjXkXxXjXkXbXdXdXrX,X[.{.[.<X$XB M v > V } &X^.~.[.-X4XaXzXlXxXjXlXxXkXfXaX1X-X[.{.!.wXj.M v c y B C.wXQ.[.=X,XrXkXfXzXzXjXkXxXdXdX9X,X[.{.~.7X@XB m v $ e f ; ; 4 a = = = = = = = * = - = = * = = = = = + . ; % f e ; ; 4 ; - 3 = = = = = * = * O = * = o o 4 + + . r r w = s ; - 4 4 = - ; 3 = = * * = = = * 3 O = o O 2 . + . +   7 = = O 3 O O = = = O O = = o X O o O O = = X   X .   3 3 = O O O O O O O O O 3 O O O O O O O 1 O =   +   +   6 O 1 6 1 6   O O O 6 6 O O O 6 O 6 O 1 O 5 1 1 6 6 6 1 6 1 1   + K 1 O 6 X + A &.$.%.&.%.%.%.H $.Z + 8 1 6 6 1 + + + 0 1 6 8 mX",
"  O + 0 O + 0 1 o + + X 0 O X   + 0 7 6 6 0 7 O 6 6 O + 7 7 7 7 9 0 0     6 9 g P   O 3 4 4 4 d k k < ( |.<X~.=X[.;XtXgXgXzXjXjXjXjXkXfX9X,X[.[.!.0XG.M m c p B z.yX~.[.=X-X2XdXfXzXjXjXjXjXzXfXaX>X-X[.{.<X$XM m v : ( s.tX~.[.=X=X2XdXfXzXjXlXjXlXzXjXaX>X[.[.{.}.$XB m v @ V } OX'.=X[.-X;XaXfXjXzXjXjXjXjXjXfX9X-X[.{.Q.wX@.m m < p B V.qX[.[.=X-X8XgXfXxXjXjXjXjXzXlXtX,X[.[.~.8XcXm m v = e f ; 4 4 4 - - 4 4 ; - = = = = = o = O = = = = + + # - d e d 4 4 4 ; = ; ; ; = = = = = = O = = = = 4 o + . r r w - f a 4 ; 4 ; = = ; = ; = = = * = O O = = = = 6 . + . + + 7 = O O O = O = O O = O O O O = = = O O O 1 X   . .   3 O O O O O O O O O O O O O O O = O O O O O 6   + X   X 7 6 O O 6 6 + O 6 6 O 1 1 1 1 O 6 O 6 1 O O 6 O O O 6 1 O O 1 + + K 1 1 6 + + A $.H %.%.%.%.&.H &.Z + C 1 6 8 O +   + 8 O 3 6 mX",
"  X + 8 =   0 6 O o   + C X O + + 0 7 7 6 0 9 O 6 6 O + 7 7 0 0 6 g 9     6 0 g Y   o 3 3 4 4 g j k q B |.6X~.[.=X,XrXdXjXfXlXjXjXjXlXpXrX:X[.[.~.yXG.m m c p ) z.sXE.[.=X=X5XaXjXgXgXjXkXjXjXdXtX1X-X[.!.<X$XB m v > ( s.aXQ.[.~.=X5XaXjXgXfXjXjXkXjXdXtX1X[.[.{.6X$XB m v > V } &X'.~.=X=X>XrXfXlXfXjXjXjXjXfXpX9X[.[.[.!.hX@.m m q p B V.uXQ.~.=X-X9XdXjXgXgXkXjXkXjXaXrX;X-X=X!.qXcXm m v $ e f ; ; ; ; = 4 = - = = * = = = = * = O = o = =   . * # f ; ; ; - ; ; = * = ; = = = = = = = O O = # 4 .   . r r & - s e a ; 4 ; ; 3 = ; = = = = = = = = = O = = 2 . . +   + 6 = = = O O = O O O O = o = O = O O O O = 6 O   + .   6 o = O O O = O O O = O O O O O O O O X O O =   + .   . 8 = 1 1 1 6 + O O 1 1 6 O O 6 1 6 O 6 1 O 1 O 1 O O 1 O 6 1 O +   C 1 O 6 O + Z H H $.&.$.%.$.H H 5 O 0 O 6 8 O     O 0 O 6 7 mX",
"  X + 7 =   0 O o o   o C O O   + 8 7 7 6 6 6 O 6 6 O X 8 7 6 7 6 0 9 +   7 0 g I   * 3 4 7 4 d k k q ( |.6XQ.!.!.:XrX9XtXdXdXdXaXaXlXtX9X>X[.~.Q.qXG.m v c p ) z.sXY.!.!.~.2XyX0XaXaXgXaXpXjXdX9X1X[.[.!.<X$XB m q @ ) z.pXY.^.!.~.2XtX0XaXaXfXaXaXjXaX0X1X[.[.Q.<X$XB b v @ {  .+X_.Q.!.^.>XpX9XpXaXdXdXaXdXfXrX3X;X[.!.E.eX@.m v q y ( C.uXE.^.Q.[.8X0XrXaXdXdXaXpXjXpX9X1X[.~.Q.8XcXM b c $ e f - ; 4 ; = ; = = = ; = = = - = = = = = O = = + + & - f e ; e 4 = ; ; = = = = = ; = * * = = = O = 7 +   . r r & - f ; ; ; ; ; 4 = = = = ; = = = * = = O = * = 6 + . . + + 7 = = X O O O = O O = O = o = X O O O O O = X   . +   3 O = O = O O O = O O O = O O O O = O O O O =         . 8 6 O O 1 1 + 1 1 O 6 O O 6 O O O 1 O O 6 O 6 O 1 1 5 3 O O O + + 8 1 O 1 6 + 5 Z H J $.$.H $.$.A O 8 7 6 6 6 +     O 0 1 6 6 mX",
"  O + 8 =   C O X o   o 0 O O   + C 6 6 6 7 0 O 6 7 O + 7 6 8 0 6 0 9     6 h g I   o 3 3 4 4 7 k k < ) |.6XQ.E.Q.{.8XpXrXaXtXtX9XaXpXaX,X[.!.^.E.rXG.b b c p B z.sXE.Q.E./.>XyXtXaXtXtXrXaX0XjX9X-X^.^.Y.<X$Xm b v : ) z.sXQ.Q.E.~.;XyXtXaXtXtXrXpXrXlX8X-X~.~.E.<X$Xm b v @ V  .&X'./.Q.Q.=XqXaXtXaXrXtXrXpXdXpX,X[.!.Q.E.eX@.b v q p ( C.wXQ.Q.Q.[.1XpXtXdXtXrX0XdXtXdX4X-X^.!.E.7XP.b b q $ e f - a 4 = ; ; ; ; = = ; = = = = * O = O # = = . . & * f e ; ; ; ; ; 4 = ; * = - = = = = O O = O o 7 o . o r r % - s ; a ; = ; ; ; ; = = = ; = = = * O = = + o 2 + + X   + 2 = = O = O O O = o O O O o O O = = = O = = X   + +   6 = O = O O O O O O O O O O 3 O o = O O O = =   + +     7 6 O O 6 1 + O 1 = O 6 1 O 6 O 6 6 1 O 6 O 6 1 1 1 O 3 O O 3 o   6 6 1 1 0 + + Z A A H H A A $.5 X U 6 6 6 6   +   X 8 O 1 7 mX",
"  + + 7 =   0 6 o o   o 0 O O +   0 7 6 6 0 6 O 6 6 O + 8 7 7 6 9 g 7     7 0 d R   * = 4 4 7 a j h < M |.XXE.Y.!.!.[.3X8X3X1X3X1XpX3X3X1X[.!.Q.E.uXG.m b c p B z.sXU.E.Q.~.~.;X0X9X>X4X1XtX3X3X1X;X!.^.W.<X$Xm m v @ B z.sXU.Y.Q.~.~.>X8X9X,X3X1XtX3X3X1X{.!.^.E.}.$XM b v > V | &X(.Q.Y.^.!.=X9X8X4X4X9X2XrX2X1X>X[.!.E.E.iX@.m m < y M C.wXU.E.Q.^.[.1X8X9X>X2X4XaX3X2X1X[.Q.Q.E.7XP.m m v & e f - 4 ; ; = 4 = ; ; = = = = = = = = O = = = = + + & # f ; ; 4 = = ; = ; ; = = = = = = = = = = = = ; o   . r r w - f ; ; ; = 4 = ; ; 4 * = * = = = = = O = = O 2 . + . + + 7 O O O O = = O O = O = O = O X O O O = O 3 O   o +   6 O O O = O O O O = O O O O O O O O o O O = =   +   +   6 1 6 1 1 1 + O 1 O 1 O 6 6 6 O 6 6 O 1 6 1 O 6 1 O 1 O 3 3 O o   O 6 O O 1 6   + Z A A A A H 5 + K K O 6 6 O     + X 8 6 6 6 mX",
"  O + 0 1   8 = O +   o 0 O O   + 0 6 6 7 0 6 = 6 6 o + 8 6 6 6 7 0 9 +   3 7 9 I   * = 3 4 4 d j k < m L.`.Y.Y.Q.Q.[.-X[.,X-X,X[.,X[.[.{.!.E.Y.Y.wXF.m b q p B z.hXA.E.E./.Q.-X-X-X-X-X-X-X-X[.=X~.Q.Y.Q.'.$XM b v : B s.sXI.E.Q.Q.Q.-X-X,X:X,X[.,X-X[.[.[.Q.Y.E.*X#Xm b v : V | %X(.Q.Y.Q.Q.=X[.-X,X-X,X[.,X[.[.{.!.E.E.E.eXO.v m < y m C.eXU.Y.W.Q.!.-X[.,X-X-X=X-X-X=X=X^.E.E.E.7XP.v m v $ e f ; ; ; - 3 ; ; = ; = = = = = = = * = = * 3 = + + $ % f d ; ; 4 = = ; = ; ; = = * O = = * = O o = 2 + + . r r % - f ; ; ; ; = ; = = ; = = = = = = * O = O * O 6 + + . + + 7 = = = O O = O o o O O O O O O O O O = O 3 O   X . + 1 O O = O O O = O O O O O O O O O O O o O O 1   + +   X 8 O O 1 1 1 + 1 O O 6 6 6 O 6 O O 6 O O 1 O 5 O 1 1 1 6 O O O X + + 6 1 1 O 0 0 + + O 5 5 5 +   K Q 1 = 3 6 X   o + + 0 6 6 6 mX",
"  X   0 O + 8 O O O   + 0 O O   + 0 6 6 6 0 6 O 6 6 O + 7 7 7 8 7 0 7 +   3 7 g I   = = ; 4 7 d k j < m |.XXY.Y.Q.Q.~.[.~.[.~.{.[.~.[.Q.Q./.Y.Q.Q.qXF.b b q p B z.hXA.E.E./.!.[.~.=X~.[.=X~.~.~.Q./.Y.E.Q.}.@Xm b v @ B s.hXI.Y.E.Q.!.[.~.[.~.[.[.[.~.^.Q.Q.T.E.Q.}.@Xb b v @ N } %X(.T.Y.Q.Q.[.[.[.[.!.{.[.~.~./.E.W.Y.Q.E.iX@.b b < y M V.eXI.Y.Q.Q.~.[.!.-X~.=X=X~.~.^.Q.Q.Y.E.Q.7XP.v m q $ s j ; 4 4 = = ; = ; = ; = = = # = = O = o O O 3 + . - # f ; a ; ; ; ; = 4 = = = ; = = * = O O # = o 6 . + + r r w % f 4 7 ; 4 ; ; = ; = ; = = * * = = O = O O = 6 + . .   + 2 = = O = O O = = O O = O O O o O O O O O 3 O   + . + 5 O 3 O O O O O O O O O O O O O O O O O O O =   + +   + 8 6 1 3 1 O + O 1 6 O O O O 1 1 6 O 1 1 O O 1 3 1 O 3 6 O 6 O O +   O 6 O 1 1 0 K C O + + O C ^ ^ 6 6 = 6 O     X + X 0 O 6 6 mX",
"  + + 0 O   0 O + +   O K O O + + 0 6 6 6 6 6 1 6 6 O   7 7 7 7 7 h 7 +   6 9 0 R   o ; 6 6 d 7 k k < M |.`.U.U.Q.^.!.~.[.[.!.[.~.[.[.Q.Q.^.Q.Q.U.7XF.v m c p B z.sXA.U.E./.!.!.[.=XQ.^.~.[.{.!.Q.~.Q.Q.R.`.@Xb m v : M s.sXI.U.Q./.!.!.[.[.E.~.!.[.{.Q.!.!.E.!.I.'.@Xm m v : N } %X(.U.Y.Q.^.!.!.[.!.Q.[.[.{.!.Q.Q.!.Q.Y.U.&XO.b m q y M V.eXI.U.Q.!.!.!.[.[.Q.~.~.=X~.Q.!.!.Q.Q.I.<XP.v m c $ r j = ; 4 ; ; 4 = ; = = = * = = O = = O O * = =   . - % f e ; 7 4 4 ; 3 = ; = ; = = = = = = o = = = 6 o + # r r & - f e 4 ; 4 ; ; ; = ; = = = = = = = = * O = o 4 . + . + + 1 = = = = = = O O o O O O O O O = O = O O 3 X   + .   = O O O O O O O = O O O O O O o = O O O O X 1     +   + 7 O 1 1 1 6 + O 6 O 6 1 O 6 O 6 O O 1 O 6 1 1 6 O O 6 O O O O O X     6 6 3 1 3 6 U Q #.;.#.~ K 1 O 1 6 6 +   + O   X 8 1 6 6 mX",
"  O + 0 1 + 0 = O +   X 0 O X + o 0 7 7 6 0 6 = 6 6 X o 7 7 5 6 7 h 7 +   6 9 0 P   = = 4 4 ; d F j < b L.`.I.Y.Q.Q.Q.!.[.Q.~.!.[.E.!.Q.E.Y.Y.U.N.eXF.b v q p m d.wXA.Y.E.E.Q.!.~.!.!.~.~.!.Q.Q.E.Y.Y.Y.U.].$Xm v c @ m s.eXN.Y.Q.Y.Q.!.[.Q.Q.[.[.Q.!./.Y.E.Y.E.I.].$Xm v q : N |  XT.U.Q.E.Q.Q.[.[.Q.[.Q.[.Q.~.E.E.Y.E.U.N.iXo.v v < y b V.+XI.Q.Q.E.Q.!.[.!.!.!.[.E.^.Q.E.Y.Y.Y.A.XXP.v v q $ e f ; ; ; ; ; = ; = ; ; = = = = o = = = O = = = +   - - f ; ; ; - ; = ; ; = = = = * = = O = = = = = 4     . r r % ; j ; ; ; = ; ; = ; = ; = = = # = O = = O = = 7 . +   +   6 = = O O O O O = = O = = O O O = O O O O 6 O   o +   1 O O O O O O O O O O O O O O O O O O O X o 1   +   + + 6 1 1 1 1 1 + O O 1 6 O 6 6 O O O 6 6 6 O O O O 1 O O 6 O 1 O O X     + 8 3 O 6 1 O O 3 6 O + O 1 1 1 6 +   +   O + X 0 1 6 6 mX",
"  O + 0 O   0 6 o o   X 0 o X + + 0 6 6 6 7 9 = 6 6 O O 9 6 6 7 9 9 7 +   6 g l P   = = 4 4 a 4 k j , m |.`.A.U.E.Y.U.E.!.E.!.!.Q.Q.Q.Y.E.E.U.Y.I.7XF.v c q p m s.uXN.I.Y.Y.Y.Y.Q.Q.Q.~.Q.Q.Q.Q.Y.W.U.U.Y._.@Xb v q @ M s.uXB.I.Y.Y.Y.E.Q.!.E.!.!.E.Q.Q.Y.E.U.U.Y._.@Xb v v @ N |  X).I.U.Y.Y.Y.Q.Q.Q.!.!.Q.Q.Q.Y.W.Y.U.Y.I.iXO.v v < y m V.XXN.U.Y.Y.U.E.!.Q.Q.!.!.E.!.Y.Y.Q.U.Y.U.'.L.v v q $ e j ; a = ; 4 * = = 4 = = = = = = O = = O = = = . . * # f e ; ; ; = * = ; 3 = = = * = * * = = = o # 2 + + . w r & * f ; e 2 ; ; # 3 = 4 = = = = = = = = = O O = ; . . .     1 O O 3 o O 3 = = = O = O O o O = O = O O 3 O   + o   4 O O = O O O O o o O = O O O O O O O O O O 3       + + 7 6 1 O 6 O + 1 O O 6 5 O 1 O 1 O 6 O O 6 O 6 O O 6 6 1 O 1 6 O O +     + 7 6 1 O 6 6 O O 1 O O 1 6 6 +     + o O + + C 1 3 6 mX",
"  + + 9 O   0 1 o o + + 0 o o   + 0 6 6 7 6 6 O 3 6 O + 7 6 7 6 6 9 7     3 9 9 P   = ; 4 4 4 9 j k < M C..XI.I.Y.E.Y.Y.E.E.Y.E.Q.Y.Y.W.Y.Y.T.U.A.7XF.q v < i B d.wXN.U.U.!.U.Y.Y.Q.U.Y.Q.W.Y.Y.Y.E.W.U.U._.|.q v q @ B s.eXM.T.U.!.U.Y.E.E.U.E.E.E.T.Y.E.E.W.U.I._.@Xv q q @ V }  XR.R.R.E.E.U.Y.E.E.U.Q.E.Y.Y.E.Y.E.Y.U.N.&XO.c c > i M V.6XA.U.U.Q.Y.Y.Y.Q.U.E.Q.Y.Y.E.Y.E.W.R.I.*XP.q c q $ e f * ; 4 ; = 4 = ; ; = * = = * O = * O o = = = + . & $ f ; ; 7 ; ; 4 = = ; = * = = = = O = O O = = 2 + + # r w % * f e 4 4 ; = ; = ; = ; = = * * = O * * o = O 2 + + . + + 6 = = = = = O O O o = o o o X = X O = O = = X   o +   6 O = = O = O O O = O = + O O O O O O O O O 3     .   + 7 O 1 O 6 1   1 1 1 O O 1 O 6 O 1 6 O O O 6 O 6 1 1 O O 1 O O O O + +       1 6 1 O 1 1 X 1 1 6 6 O     + + + X 1   O 0 3 3 1 mX",
"  O + 9 6   0 3 X o   o 0 O X + + 6 6 6 6 6 6 = 3 6 O + 9 6 7 6 6 0 7     3 9 9 R   = = 4 4 4 d k j < m |.).A.I.Y.E.U.E.U.Y.Y.Y.U.Y.U.Y.Y.U.R.I.N.7Xg.q v < p M s.uXM.I.U.E.U.Y.Y.Y.Y.Y.T.Y.Y.I.E.Y.U.I.A.(.P.c v q @ M d.eXM.U.U.E.U.Y.Y.Y.Y.Y.Y.U.E.I.Y.U.U.I.A._.|.c v q @ N |  XR.R.U.Y.Y.U.Q.U.Y.Y.Y.U.Y.R.Y.Y.U.I.U.m.+X..c v > y m V.+XN.I.U.Y.U.E.Y.Y.Y.Y.U.Y.Y.U.Y.U.U.I.N.XXK.q v < # e f ; 4 3 ; ; = ; = = = = O = = = * = = = = = = + . * - f e 7 ; = 4 ; ; = = = 4 * = = = = = = * = = 7 .   . w w - * f ; ; 2 ; = ; ; ; = = = = = = = = = = = = = 6 . + . . + 6 = = O 3 o o = O O O = = = o O O O O O = 6 O   o +   = O O O O O O O O O O O O O O O O O O O O O 3 + + X   + 6 1 1 6 1 3 + O 1 O 1 O 1 1 O 6 O 6 O 6 1 6 1 O 6 O 6 1 O O 1 O O O +         + O O 6 1 1 = O X o         + X X O   + 0 O 1 1 mX",
"  O + 7 O   0 O o +   X 0 O O   + 9 6 6 6 9 9 O 3 6 O O 9 6 7 7 6 9 7     6 7 9 P   = = 5 4 4 9 j k < b J.).A.A.I.R.I.I.I.E.E.E.E.U.U.R.Q.T.I.N.m.8Xh.q c q i m a.hXm.I.I.U.A.I.I.Y.^.U.Q.Y.U.I.Y.Y.R.N.M.(.|.v v q @ M d.hXm.I.I.U.A.I.I.U.!.Y.E.E.R.I.E.Y.R.N.M.(.J.q v q @ N |  XC.R.N.U.I.I.U.I.Q.Y.E.E.U.U.U.Q.U.I.N.m.XX..c v > y v Z.&XN.I.U.U.I.I.A.Y.Q.Y.E.Y.R.R.E.T.I.N.m.'.K.q v q = e k ; ; ; ; ; ; = = ; = = * = = = O * = = = # = + . * # j ; ; ; ; ; = = = ; = = = = = = O * = o = = 7 + + + w w % * f 2 ; ; ; ; = = = ; = = * = = = O * = o = O 6 X + . + + ; = O 3 = = O O O O = O o O O O O = O O O = O   + .   3 o O O O O O O O O O O = O O o O X O O O O 3   + +     6 1 1 O 6 1   1 1 O 1 1 6 O 1 6 O O 1 1 O O 6 1 O O 1 O 1 1 O O O O O X         +   + + +             + + X X O O   o 0 1 1 1 mX",
"  o + 9 =   0 3 X +   o 0 O O + + 9 6 6 3 9 6 O 3 6 O O 8 6 9 6 6 0 9 +   6 9 g Y   O = 4 4 4 4 k j < m |.).N.M.I.U.I.S.N.Y.R.I.U.A.U.U.N.I.U.A.b.6Xg.q v < p M s.eXm.M.N.T.U.A.A.U.U.I.I.A.I.U.I.N.Y.U.m.T.L.q q q @ M s.uXm.N.N.R.U.I.A.U.U.I.U.I.U.U.I.N.Y.I.m.(.L.q q q @ N |  XR.N.M.I.U.I.N.I.Y.I.I.R.I.U.I.N.R.U.N.b.XX..q v > i m C.XXM.M.N.U.R.I.N.Y.U.I.U.I.U.R.N.I.Y.A.m.'.H.q q < $ e d ; 2 = ; = = = - = = = = * = = * = = o = = = + . $ - d ; 4 ; = = = = = = = = = = = = * O = = o o 7 X + . r w % - d ; 7 = ; = = = ; = = * = = * = = o = = # X 6 . + .   + 7 = = = O = O = O O O O = O o = = O o o O 6 O   . +   6 O O = O O O O O O O O O O O O O X O O O O =   X       6 6 6 O 6 6   O O 6 3 1 O O O 1 O O 1 O 6 O 1 O O 1 O 1 1 O 5 1 O O O X +                         + + + + X O O O   o 0 6 O 1 mX",
"  o + 9 =   0 O O o   + 0 O X   + 9 6 6 6 9 3 3 6 6 O O 6 6 6 6 7 0 7     6 9 9 P   = = 3 4 7 a j g , M D.|.N.M.A.A.N.I.I.I.I.N.I.I.A.I.A.N.U.I.m.7Xh.q q < i M s.eXb.N.N.N.N.I.A.I.U.I.A.I.A.U.I.A.N.U.N.(.J.q q q X M s.eXb.N.N.A.A.A.I.I.R.N.N.I.N.U.I.A.A.U.N.].J.q q q @ N }  XB.N.M.I.N.A.R.A.I.I.N.I.I.I.I.A.A.I.A.b.OX..q q > i M V.oXm.N.I.N.N.A.A.I.R.N.N.I.N.U.I.N.I.I.m.'.K.q q q # e d ; ; ; ; 4 = = = * = = = = = = O O o = = = = + . * # f e ; ; 4 ; ; = = * = - = * * = = O = o = = 4 + . . % w % - s ; ; ; = ; = = = = = ; = = = O * = = o = O 4 o + . +   7 = = O = = O O = O + o X O O O O O = O = = O   + X   1 O O O O O O O O = O O O O O o o O O O O O 1     + + + 8 O O 1 1 6   O 6 3 O 1 O 6 1 O 1 1 O 1 O O 1 1 1 1 O O 1 1 O O O O + X + X                       +   o o X X X O + o 8 6 O 6 mX",
"  o   9 =   7 O X o   o 0 O O + + 9 6 7 6 9 6 O = O O O 7 6 6 7 5 9 9 +   3 9 9 P   = = 3 4 4 7 j k > m L.|.M.A.N.N.A.N.N.N.N.A.U.A.N.N.I.N.m.M.c.'.g.q q < i m s.hXb.N.N.N.N.N.N.N.N.N.I.A.N.A.N.S.M.m.M.).J.q q q @ m s.hXb.N.N.N.N.A.N.N.N.I.A.I.N.N.N.S.M.m.B.R.J.q q q @ n } #XC.N.N.N.N.A.N.N.N.A.N.U.N.N.N.R.N.m.B.b. X..q q > i b V.&Xm.N.N.N.N.N.N.N.N.I.I.A.N.N.I.N.m.m.m.].K.q q < $ e s * ; = ; = = 4 = = ; = = = = = O = O = o = 4   X & - f ; ; = 4 = = ; = = = = = = = = = O = O # o 7 . + . i w # * f ; ; 4 4 ; = ; = = = * = = = = * o * = o = 6 + . X + + 7 O O = O = O = O O = o o O O O O X = O O 1 O   o .   6 O O O O O O O O O o 3 X O O O O O O O O X =   + o   + 8 O 6 = 6 6 + O 1 O 1 1 1 1 5 1 1 1 1 O 6 O 6 1 O O 5 1 O O 1 6 1 3 O X O X o + X   X X + X   + + + O o X o X O 3 + + 7 O 6 O mX",
"  o o l 1   0 6 O o   o 0 O X   + 0 6 6 6 3 L U I I I 0 7 6 6 6 7 9 9     6 9 g I   = = 4 4 4 d j k > v Z..Xc.x.x.c.x.c.c.c.b.b.b.x.b.x.b.c.x.c.c.7XO.< < < p v +.aXx.c.x.x.m.x.b.x.b.b.b.x.M.x.c.c.c.x.c.).H.< < < @ b +.aXx.c.x.c.c.x.c.x.b.b.c.x.m.c.c.c.c.x.c.).H.< < < @ N ) @XB.c.x.x.b.v.c.c.c.b.b.c.c.b.x.c.c.c.b.x.OX} < > > i v a.eXx.x.x.c.c.x.b.c.b.c.c.x.m.c.c.b.c.x.c.XXs.> > < & ; d = ; 4 4 4 ; 4 ; = ; = = = ; * = = # = = = 6   o = # d = ; ; ; 4 4 4 4 ; ; = = = = = * = = = = O l o + X % & & * f = ; = 4 ; = ; ; ; = = = = = = = = O = = o l X . + +   3 O = 3 = O = = O = O = = O O O = o = O = = O   X .   5 O = = O O = = O O O O O O O O o O O O O X 3 + X     + 6 1 O O 1 1 + O 1 3 O O 1 O O 1 O O 1 O 1 1 1 O 1 1 1 1 O O 1 + + + +       +                     + + + + + + + o     O mXmXmXmX",
"  + + O X   O + + +   X 0 O O + + 8 6 6 6 6 7 9 9 9 0 7 7 3 6 7 7 8 8 +   6 9 9 P   o = ; ; a 4 d j > m } @XOX|.oX#X%X%X%XoX+X%XoX.X.X XoX.X X XXXB.( q < > i m B H.eX|. X#X%X%X%XoXXXOX%X+XXXoX XoX.X X`.]. .q < > @ M B H.eX|. X#X%X%X%XoXXX&XoXoXoX.X.XoX.X X.X]. .q < < @ n M X.&X.X|.#X%X%X%X%XOX+XOXOXOXoX XoX.X.X X*Xl.M < > > i m ( L.+X X X#X%X%XoXoX+X+XoXOXoX.X XoXoX X`.).) c > > $ ; j 4 = = = * = * * = * * * o O o * O o = o = ;   + = # d d = = = = * O = * = * = * o * O O o * * = d     o % % - # d ; = = * = * o * # O O O o o o o o o + o o d + . + . + 6 = O o o * o + o o + o + X + o O + o + O 1 X + o o   1 = o O + + + + + + X o + o + o + + o o o = O + + .   + 8 1 1 O 6 O + O 1 O O O O O O O 6 O O 6 O 1 O O 3 O 1 O O O + O #.~ Q ~ Q W W Q I Q I Q Q U I Q U I U I I U U L P K K K 0 mXmXmX",
"              +       o 0 X X   + 8 6 6 7 6 3 7 6 6 7 7 7 7 6 6 6 8 6 +   = 9 9 P   O = = 6 4 7 l R : m m | o.a.f.f.h.h.f.g.g.f.f.f.f.o.@.o.@.o.X.( q q > : i m v M ..a.f.f.h.h.g.g.g.f.f.f.@.o.o.o.@.@.O.} v q < > : m v M ..a.f.f.h.h.f.f.g.f.f.f.j.o.@.o.o.@.O.| b q < > > t b b } j.a.f.h.h.h.f.g.f.f.f.a.@.@.o.@.@.o. .B q q > : & m v ) +.a.f.f.h.h.f.g.g.f.f.f.j.o.@.o.@.o.X._ c < > > $ # 4 k k k k S k h h h j h h h g l l l l h 7 ; + . + & # - d k k h F k k g h h h h g g l 9 h l g 9 7 +   . + % % % . a z k k k k k g g h k g k g g g l l l g d l =   . o o   = l g l 9 7 9 l 9 9 9 9 9 9 g 9 l 9 9 9 9 6     + .   + l 7 7 9 7 9 9 7 9 0 9 7 7 9 9 9 7 7 6 4 =     . + + + 6 O 6 6 O O + 1 6 1 1 6 1 1 6 O 6 6 O O 6 1 6 3 6 1 1 3 O + 1 ~ Q U U U K S K K K C C C 0 C K K K K C h C C C S S 0 0 U 0 mXmXmX",
"    +       + + +     o 0 O O   + 8 6 6 6 6 6 6 3 6 6 7 3 7 0 9 7 0 7 +   6 g 9 R   = = 4 6 4 7 ; T Y q q < > > < < < < > < < > > > > , > : : > > < > @ : @ $ c q q > > < , < < < < < > > > > > > : : > > < > : : : @ q q < > < < < < < < < > < > < : > > @ : > > < > @ : : X t c < < < < < < < < > < < > > > : : > : : > > > > : : @ , c q < > < < < < < < < < > , > : > > : : > > < : > : > $ #   . o O = = # O * O = O * O O = o O o o o + . . + # #   . o * o * O = O * * O o = O o + = O = + +   . . . & % % $   = 7 7 l l l d 7 7 9 6 7 7 7 6 6 7 9 7 6 o     o + #     O = 6 3 = = = 6 = = 3 O 1 = = = 1 = = =     + . + .   + O 3 O O O = O O O = = = = O = = O O +     + .   +   + +   + +     +   + + + + + + + + + + + + + + + + + O + + 1 #.U + O O O O O = O O O O O O O O O O O O O O O O X O O 6 6 mXmXmXmX",
"  +       C I ~ U +   + 0 O O   + 8 6 6 6 6 6 7 6 6 6 7 7 3 6 6 6 7 7 +   6 9 9 I   o = = ; ; 7 d = Y t > > , > > : : $ , : : : : $ : $ $ : : : : : $ : $ : % , > , , : , , : , $ : , $ $ , $ : $ : : $ : : $ $ @ : : , , , , > , : , $ , : , $ : : : $ : : $ $ : : : @ $ : $ i , , : > , , : $ : : : : $ : : $ : $ : $ , : $ $ : $ , & , , , , , : , 2 $ , : $ , : : : : $ : $ : : $ : : $ $ % # . . . .   .     .         +                     o # # # . .   . +         +   .                   .   . o - # # # .                                             .   # + o                                             . . . + +           +                                 o   +   X K I I I I I I I I I I U U I U U U I U U U U U U K K U U U I ,.I O 1 1 5 1 1 1 = 1 1 5 1 6 1 6 6 O 6 6 6 3 = 1 = 3 = 6 6 mXmXmXmXmX",
"+ +   + 0 Q W ^ :.U + X 0 O O + + 0 6 6 6 6 3 6 6 7 7 7 6 6 9 6 6 9 6     6 9 9 Y   o = 3 3 4 7 4 4 ; R ! = . # # # # # # # # # # # # # # # # % # % # % % % % % % % % % % % # % % % # # # # # % # # % # % % % % % % % % % % % % % % % # # % # % % # % % % % # # # % % % % % w % w % % % % % # % % # # % # # % % % # % # # % % # % % % % % % % % % % # % % # % # # # # % # % # % # % % % % % % % % % # % # # # # # # # # # # # # # # # # # # # # % # % % % # % % # # # # # # # # # # # # # # . # # # # # # # # # # # . # # . . .   . . . . . . .   + . . . . .   .     . . o .     .     .         +   .     . .     + + . . + .   .   + + .                 .   +   + +   . +       X L Q ~ :.;.;.;.:.#.#.#.;.#.#.#.#.~ ~ #.#.~ #.~ #.~ ~ ~ ~ ~ ~ ~ K O 6 5 1 O 6 O 6 3 3 O 3 1 1 O O 6 O 1 O 6 = 1 O O = 6 = mXmXmXmXmXmX",
"  + + 7 L 6 3 6 0 ~ K   O 7 1   + 0 6 6 6 6 6 = 5 6 7 6 6 6 6 9 6 9 9     = 9 7 P   o = 3 3 4 4 6 7 7 4 R ! = # # # # # # # # # # % # # % # # % # % # # # % % % % % % % % % # % % % % % % % % # % % % % % % % % % % % % % % % % % % % % % % % % % # # % % # % % % % % % % % % % w % % % % % % % % % % # % % # % % % % # # % % # # % w % % % % % % % % % % % % % % % % % # % % % % % % % % % % w % w % % % % % # % % % # % % % % # % % % % % % % % % % % % % % % % % % % % # % # % % # # # # % % # # # # # # # # # # # # # . . # # . # . # . .   . . . .   . . . . o # o . . # . .   . .   o .     .   . + + .     + . + . . + . . + . .     +   + .   o   +     +       + .     + = K 0 6 7 6 6 6 6 1 1 6 1 1 6 6 1 6 O 3 6 O 3 6 3 1 6 1 5 1 1 1 1 1 O 1 O 1 1 O = O 3 1 O 1 1 O 1 1 O O O O 6 O = O 6 6 O mXmXmXmXmXmXmX",
"+ +   h 9 6 = 6 3 6 ,.0   o O + + 6 3 6 7 6 6 7 7 6 6 7 7 6 9 6 7 7 9 +   3 7 7 I   * = 4 4 7 4 7 7 a 7 4 F ` +   .   . .     . . . . . . . . . . . # . . # # . . # # . . # . . . . # .   . . # . . . . # # # . # # # # . # # # # # # # # . # . . . . # . # . # # # # # . # . # . # . # # # . # . # . # # . # # . # # # # . # # # . # . # # . # . # . # # # . . . # . # # # . . . . # . # # # . # . . # # . # . . # # # . #   . . # # . # # # . # # . . . # # . # . . . # . . . # . # . . .   . . . . . . .                                                                                                                                                                     X K 6 6 7 7 6 6 6 6 6 6 7 6 6 1 3 3 6 6 6 1 1 3 1 5 1 1 1 1 1 1 O 6 1 1 O O 1 O 3 3 3 O 3 O 3 O 1 1 O 1 6 1 O O O 6 O 6 O mXmXmXmXmXmXmXmX",
"+ +   6 6 6 6 6 6 6 O 0.0   +   + 6 6 6 6 7 7 6 6 6 1 6 9 6 6 6 7 9 6     3 7 7 P   o = = 4 4 4 4 4 4 d 7 ; Y y.T T T T T T T R R T T [ T R T T T T [ T T [ T T T T [ [ T T [ T T T T [ [ [ [ [ [ T [ [ [ [ T T T T T T [ [ T T T T T T T T T T T T T T T T T [ T T T T [ T T [ T E T [ T T T [ [ T T T T T T T T T T T T T T T T T T T T T T T T T T T T T T T T T T T Y T T T T T T T T T T T T T T T T T [ [ T T [ T T [ [ T T T T T T R T Y T T T T T T T Y T T T T Y R T T Y Y T T Y T T T Y Y T Y R R Y Y P P I R Y I Y P P P Y P P P P P P P P P L P P L L P L U L U L L U L L L K P L K L L L K K K L L L K K K K K K K K K K L K K K K K K K K K K K C C C 0 K C K 0 C P 7 6 6 6 6 6 8 6 6 6 1 1 6 6 6 6 6 1 1 3 6 6 3 1 6 1 O O 1 1 O O 1 O O 1 1 O O O O O O O O O 3 O O O 5 O O O O 1 O O o mXmXmXmXmXmXmXmXmX",
"  +     6 6 6 6 1 6 = 1 ;.K +   + 7 6 6 6 6 6 6 8 6 6 6 7 7 7 6 6 9 9     6 7 7 P   o = = 2 6 6 7 4 4 7 d 9 = R 1.<.4.2.4.4.3.3.3.2.3.3.3.<.3.4.3.4.3.1.3.3.3.4.4.4.4.4.4.3.4.3.4.4.4.y.y.7.4.y.y.y.4.4.4.y.q.7.y.q.q.q.q.q.w.y.q.w.q.q.w.w.4.4.y.q.w.q.q.q.q.w.q.q.q.q.q.y.w.t.w.w.w.w.w.w.w.w.q.q.q.q.w.q.w.w.w.w.t.w.w.q.w.w.w.w.w.w.w.w.w.w.w.w.w.q.w.q.w.w.w.w.w.w.w.w.t.e.t.w.t.t.t.w.t.w.w.w.w.w.w.e.t.w.w.w.w.w.t.w.w.w.w.w.e.w.w.w.w.e.w.w.e.e.w.t.t.w.w.w.e.e.e.e.e.9.e.9.w.8.w.q.w.8.8.e.8.9.q.7.9.8.8.8.8.8.8.9.8.0.8.9.e.9.8.0.8.8.8.8.8.0.8.6.6.6.6.2.2.2.2.2.8.6.6.6.6.6.6.6.6.2.2.2.2.2.,.2.2.6.2.6.4.,.,.6.,.,.2.,.,.,.2.,.,.,.,.>.,.,.,.,.>.;.;.;.:.:.:.,.>.Y 6 6 6 3 6 6 6 1 6 1 1 1 = 1 6 = 1 6 6 1 1 6 = 1 O 1 1 O O 1 = = 1 O O O X O O O O O O O O O = O O = O O O O = O O O + mXmXmXmXmXmXmXmXmXmX",
"+       + 6 6 6 6 6 6 = 6 ^ K + + 6 6 6 7 6 6 7 7 6 7 6 6 7 7 7 7 0 9 +   6 9 9 L   * = = 6 4 3 4 7 4 7 7 d 7 4 = = = * = * = = = ; = = = 2 $ ; = ; = ; = $ * = ; ; ; ; ; ; ; ; ; = ; = ; ; ; ; ; ; - ; ; ; ; ; - 4 ; - ; ; * ; ; ; ; ; ; ; ; ; ; ; ; ; ; e ; ; e ; e ; ; ; ; ; e ; e ; 4 a ; ; a 4 ; ; - ; e ; e ; - ; ; ; 4 - ; ; ; ; ; ; ; ; e ; ; ; e ; ; ; ; ; e ; ; ; ; ; e ; ; ; ; ; ; ; ; ; ; ; ; ; - ; e ; = ; * ; ; ; ; ; ; ; ; = = ; 7 ; 4 ; 4 ; ; = ; ; ; ; = ; = = 4 ; = ; = $ ; = = = ; = = = = = = = ; = = = = = = = = = = = = = o O = o * = O O = = = = o = O = = O O O O O O O = O O O = = O O O O o = O O O O O = O O O O O = O = o O O O O O O O X X X X O O 6 6 3 3 3 X             +   +                                               +                 + +       +       + mXmXmXmXmXmXmXmXmXmXmXmX",
"mX        + 6 7 1 6 6 = O 7 ~ 0 + + O O 1 O = = 1 O = 6 6 O = O 3 6 O     6 7 7 L   O = 3 4 3 4 4 4 4 7 7 4 4 d d d d 4 4 a d a d d 4 d 7 d l d d 4 d d d e d a d d d a d a d d d f f d d d d j f d a a j i g g d d d d f f d s f f d f f f d d d f d f j j f f f d f f s f f d j d f j f f f j g f d f j d j j s f d j j j g j f d j f f s j s s f j f f d j f j g f d j j j j s f f d d d f f f d f s d s d d j j g k g d g g j g g d d g d j f l j d j d d d l d d d d d d d d d l d d a l d d d a d d 7 d d d 7 d 7 4 d 7 7 9 9 7 7 6 7 7 9 7 7 2 7 6 7 7 9 7 7 7 7 7 7 7 7 4 2 6 6 7 6 2 6 2 7 7 7 6 7 6 6 6 6 2 6 6 6 6 6 6 6 6 6 6 6 7 = 6 6 2 6 6 6 6 = 6 6 6 1 6 6 6 6 3 6 6 3             +                                                                                         mXmXmXmXmXmXmXmXmXmXmXmXmXmX",
"mXmXmXmX      6 7 1 6 6 6 3 7 #.6 + + + + + +     + +         +         + 6 7 7 S   O = = 6 4 6 7 4 4 7 4 d 7 4 4 a 4 d 4 d 7 a a e a d a a a 4 a d d d j d d d d d d e d a a e a a d d d a i d a f d d f d s a d s j s a j s e f a d d d d j j f a f d f f d s j f f f f f f s f f f f f j j f f j f f f f f f s f f f j j f f f f j f d s s f f f f f f j j f f j j s f d f f f f f f f e d d d d f f s f f s d j s s s a j j s d f g d f d d f j f a e d d a d f a d d d d d d d d d d d d l d d d d d d 4 4 ; 7 ; d 4 7 ; d a 7 a a e 7 ; d a 4 7 7 d 7 ; 4 = ; 4 6 7 4 2 2 6 2 7 ; 2 2 2 1 4 4 1 1 = 2 2 6 6 6 6 6 6 9 1 1 6 = 6 6 6 6 7 ; ; 1 1 1 = 1 1 1 1 1 6 O 6 = 6 6 6 9 X       . . + X + . . + + + X + + . . + . + + X + + + X . . + X + + + + o + + X   + + X .   + + + + + +   mXmXmXmXmXmXmXmXmXmXmXmXmXmX",
"mXmXmXmX        7 7 1 6 3 6 3 0 6.>.:.;.:.;.;.;.;.>.;.;.=.=.' ;.>.>.>.>.:.9 6 g L   = 3 3 4 = 4 4 6 4 7 d 7 7 7 7 7 d 4 7 6 d 7 7 4 4 d d 4 d 4 4 d 7 a ; d 4 a d e a d a ; a d ; d d d d 4 d g d j d g l d d a d d d a d a d d d d f d d d d j d d f d d j d f f d d d d a d f f d j j f j j d j j d d d f d d d g g d j f f d d d d s a d d d d d d d f d a d j d f g d d a d g d d d a d f d d s d d a d d d d d d d s d g g d d d d a d d d 8 f d d 7 a d a 7 d d a d 7 d d d d 4 d d 7 d d 7 d d g 7 d 7 ; d 7 7 ; 7 7 7 d 7 7 7 7 7 7 2 4 2 4 7 7 4 7 6 6 6 6 6 1 2 2 2 2 6 2 6 1 4 6 6 1 7 2 = 7 6 6 ; 6 6 6 6 = 6 ; 6 6 = 6 = 3 6 = = = 1 1 = = = = = = O O = = = O 1 1 3 +     + + +   + X + X + X + + + + + + + + + o X + + . O + + . + + + + + + + + + +   o + + + + +   X + . + mXmXmXmXmXmXmXmXmXmXmXmXmXmXmX",
"mXmXmXmXmXmX    + 6 6 6 6 3 6 3 1 6 8 6 6 6 6 0 7 6 9 6 6 6 7 7 9 6 6 9 5 6 7 7 S   * = 3 4 4 3 6 ; 7 1                                                                                                                                                                                                                                                                                                                                                                 +                                                                                               +                                                                                                               + + o o X + o + o o + X X + + X X + o + + X + + + + + o X X o + + + X + + X + o X + + o +     X + mXmXmXmXmXmXmXmXmXmXmXmXmXmXmXmX",
"mXmXmXmXmXmX        6 7 5 6 6 7 6 6 8 6 6 6 6 6 7 6 6 6 7 6 7 7 6 7 7 7 6 7 7 9 K   O 3 3 4 3 4 ; 6 =             .               .   . . . .   . . . . .                     .   .   .   .   . . . .     . . .   . . .   . . .   . . . . .   . # . . .   . .   . . . . . . . . . . . . . . . . . .   . . . .   . .   . . . .   . .   . . . . . .   . . . . . . # .   . # . . . . .   . . . .     .   .     #     .   # . .     . . .         . + .   .   . .         .           .           .                                                                                                                                                                                     + + + X + X + X o o X o + X X + X + + X X + X + X + + X + X X X + o + O X X X + o + X + + + X X X + mXmXmXmXmXmXmXmXmXmXmXmXmXmXmXmXmX",
"mXmXmXmXmXmX        + 6 7 1 6 6 6 6 6 6 6 6 6 6 6 6 6 7 6 6 6 7 7 6 7 7 6 7 7 7 S   o = 3 = 6 3 7 = + . . # = - * & - - - % - - - - - ; - ; ; % - - - & ; - ; & - - % ; - & % ; ; % - - % - ; % - ; % % - - ; - - - % ; - % ; % ; % ; ; % w ; % % - - w ; % % ; % ; % e ; e % ; % e - % & ; w ; - e ; % ; % e - % ; - e ; - ; ; % ; - - ; ; % ; & e ; % ; ; % ; - - ; % - - % ; % ; % - - ; % ; - ; - e - - ; - & - ; e % ; e - - ; w - ; w - & * & ; & % ; - ; - - ; ; % - = & ; - ; * & - - = * * ; & * = - - # - = - - - = - = $ * * * * = * = # # o # o # = = # # = # o # o # = # o # o O # o = # o o # o . . o # . o o o . = . o # . o . + . + . o + o . + o + . + .   + o o O = O O 3 3 = 3 1 = = = = 3 = = = = = O 3 O 6 O = = = = O 3 O = O O 2 = O = O = O = = O = = O O O + mXmXmXmXmXmXmXmXmXmXmXmXmXmXmXmXmXmX",
"mXmXmXmXmXmXmX          3 7 6 6 7 9 9 9 9 7 6 9 9 9 9 7 9 9 9 9 8 l 0 9 9 g 9 h S   . = = = = 6 =         o + o   o . + + o . o o o + . o o . o . + o o o o o + o + o + o o o o o . o o . o # O o o o o o + o o O # o o o o o o o o o o o # o o + o o o # O o o o # O o o o # O o o # o o o o o # O o o o o = . o o = o o o o # # o O o o o o # O o o o = . * o # o o o o o # o = . o o # o o o o O # o o O # o # O O o o * o o o o # O o o o o o o o o # o o o o o o . o o o o o o + o o o . o + o o o o o o + X + O + + o o o + O + o o + o + X + o + + + + + + + + o + + o + + + + o + + X + + + + + . + . +     o   . + + . + + + + + + + + + + + + + + + . +   +   + mX= O O O 3 O 3 O = O = = = O = O = O O 3 = O = O O O = O O O O O O O O 3 = O O = O = O O O X O X O O O +   mXmXmXmXmXmXmXmXmXmXmXmXmXmXmXmXmXmX",
"mXmXmXmXmXmXmX            X 6 3 6 = = = = 1 6 6 3 = 6 = = 3 = = 1 = = 6 = 1 3 7 =   * = = = 7 =       mXmXmXmXmXmXmXmXmXmXmXmXmXmXmXmXmXmXmXmXmXmXmXmXmXmXmXmXmXmXmXmXmXmXmXmXmXmXmXmXmXmXmXmXmXmXmXmXmXmXmXmXmXmXmXmXmXmXmXmXmXmXmXmXmXmXmXmXmXmXmXmXmXmXmXmXmXmXmXmXmXmXmXmXmXmXmXmXmXmXmXmXmXmXmXmXmXmXmXmXmXmXmXmXmXmXmXmXmXmXmXmXmXmXmXmXmXmXmXmXmXmXmXmXmXmXmXmXmXmXmXmXmXmXmXmXmXmXmXmXmXmXmXmXmXmXmXmXmXmXmXmXmXmXmXmXmXmXmXmXmXmXmXmXmXmXmXmXmXmXmXmXmXmXmXmXmXmXmXmXmXmXmXmXmXmXmXmXmXmXmXmXmXmXmXmXmXmXmXmXmXmXmXmXmXmXmXmXmXmXmXmXmXmXmXmXmXmXmXmXmXmXmXmXmXmXmXmXmXmXmXmXmXmXmXmXmXmXmXmXmXmXmXmXmXmXmXmXmXmXmXmXmXmXmXmXmXmXmXmXmXmXmXmXmXmXmXmXmXmXmXmXmXmXmXmXmXmXmX                                                                                                mXmXmXmXmXmXmXmXmXmXmXmXmXmXmXmXmXmXmX",
"mXmXmXmXmXmXmXmXmXmXmX                                                            + = = ; 1 =   mXmXmXmXmXmXmXmXmXmXmXmXmXmXmXmXmXmXmXmXmXmXmXmXmXmXmXmXmXmXmXmXmXmXmXmXmXmXmXmXmXmXmXmXmXmXmXmXmXmXmXmXmXmXmXmXmXmXmXmXmXmXmXmXmXmXmXmXmXmXmXmXmXmXmXmXmXmXmXmXmXmXmXmXmXmXmXmXmXmXmXmXmXmXmXmXmXmXmXmXmXmXmXmXmXmXmXmXmXmXmXmXmXmXmXmXmXmXmXmXmXmXmXmXmXmXmXmXmXmXmXmXmXmXmXmXmXmXmXmXmXmXmXmXmXmXmXmXmXmXmXmXmXmXmXmXmXmXmXmXmXmXmXmXmXmXmXmXmXmXmXmXmXmXmXmXmXmXmXmXmXmXmXmXmXmXmXmXmXmXmXmXmXmXmXmXmXmXmXmXmXmXmXmXmXmXmXmXmXmXmXmXmXmXmXmXmXmXmXmXmXmXmXmXmXmXmXmXmXmXmXmXmXmXmXmXmXmXmXmXmXmXmXmXmXmXmXmXmXmXmXmXmXmXmXmXmXmXmXmXmXmXmXmXmXmXmXmXmXmXmXmXmXmXmXmXmXmXmXmXmXmXmXmXmXmXmXmXmXmXmXmXmXmXmXmXmXmXmXmXmXmXmXmXmXmXmXmXmXmXmXmXmXmXmXmXmXmXmXmXmXmXmXmXmXmXmXmXmXmXmXmXmXmXmXmXmXmXmXmXmXmXmXmXmXmXmXmXmX",
"mXmXmXmXmXmXmXmXmXmXmXmX      +   + .   o + . .   + o + + . + . o . + + + X X + + = = = = mXmXmXmXmXmXmXmXmXmXmXmXmXmXmXmXmXmXmXmXmXmXmXmXmXmXmXmXmXmXmXmXmXmXmXmXmXmXmXmXmXmXmXmXmXmXmXmXmXmXmXmXmXmXmXmXmXmXmXmXmXmXmXmXmXmXmXmXmXmXmXmXmXmXmXmXmXmXmXmXmXmXmXmXmXmXmXmXmXmXmXmXmXmXmXmXmXmXmXmXmXmXmXmXmXmXmXmXmXmXmXmXmXmXmXmXmXmXmXmXmXmXmXmXmXmXmXmXmXmXmXmXmXmXmXmXmXmXmXmXmXmXmXmXmXmXmXmXmXmXmXmXmXmXmXmXmXmXmXmXmXmXmXmXmXmXmXmXmXmXmXmXmXmXmXmXmXmXmXmXmXmXmXmXmXmXmXmXmXmXmXmXmXmXmXmXmXmXmXmXmXmXmXmXmXmXmXmXmXmXmXmXmXmXmXmXmXmXmXmXmXmXmXmXmXmXmXmXmXmXmXmXmXmXmXmXmXmXmXmXmXmXmXmXmXmXmXmXmXmXmXmXmXmXmXmXmXmXmXmXmXmXmXmXmXmXmXmXmXmXmXmXmXmXmXmXmXmXmXmXmXmXmXmXmXmXmXmXmXmXmXmXmXmXmXmXmXmXmXmXmXmXmXmXmXmXmXmXmXmXmXmXmXmXmXmXmXmXmXmXmXmXmXmXmXmXmXmXmXmXmXmXmXmXmXmXmXmXmXmXmXmXmXmXmXmXmXmXmXmXmXmX",
"mXmXmXmXmXmXmXmXmXmXmXmXmXmXmX  . + o   o + . + + . o + . + o X o o + o o + o o o mXmXmXmXmXmXmXmXmXmXmXmXmXmXmXmXmXmXmXmXmXmXmXmXmXmXmXmXmXmXmXmXmXmXmXmXmXmXmXmXmXmXmXmXmXmXmXmXmXmXmXmXmXmXmXmXmXmXmXmXmXmXmXmXmXmXmXmXmXmXmXmXmXmXmXmXmXmXmXmXmXmXmXmXmXmXmXmXmXmXmXmXmXmXmXmXmXmXmXmXmXmXmXmXmXmXmXmXmXmXmXmXmXmXmXmXmXmXmXmXmXmXmXmXmXmXmXmXmXmXmXmXmXmXmXmXmXmXmXmXmXmXmXmXmXmXmXmXmXmXmXmXmXmXmXmXmXmXmXmXmXmXmXmXmXmXmXmXmXmXmXmXmXmXmXmXmXmXmXmXmXmXmXmXmXmXmXmXmXmXmXmXmXmXmXmXmXmXmXmXmXmXmXmXmXmXmXmXmXmXmXmXmXmXmXmXmXmXmXmXmXmXmXmXmXmXmXmXmXmXmXmXmXmXmXmXmXmXmXmXmXmXmXmXmXmXmXmXmXmXmXmXmXmXmXmXmXmXmXmXmXmXmXmXmXmXmXmXmXmXmXmXmXmXmXmXmXmXmXmXmXmXmXmXmXmXmXmXmXmXmXmXmXmXmXmXmXmXmXmXmXmXmXmXmXmXmXmXmXmXmXmXmXmXmXmXmXmXmXmXmXmXmXmXmXmXmXmXmXmXmXmXmXmXmXmXmXmXmXmXmXmXmXmXmXmXmXmXmXmXmXmXmXmXmXmX",
"mXmXmXmXmXmXmXmXmXmXmXmXmXmXmXmXmXmXmXmXmXmXmXmXmXmXmXmXmXmXmXmXmXmXmXmXmXmXmXmXmXmXmXmXmXmXmXmXmXmXmXmXmXmXmXmXmXmXmXmXmXmXmXmXmXmXmXmXmXmXmXmXmXmXmXmXmXmXmXmXmXmXmXmXmXmXmXmXmXmXmXmXmXmXmXmXmXmXmXmXmXmXmXmXmXmXmXmXmXmXmXmXmXmXmXmXmXmXmXmXmXmXmXmXmXmXmXmXmXmXmXmXmXmXmXmXmXmXmXmXmXmXmXmXmXmXmXmXmXmXmXmXmXmXmXmXmXmXmXmXmXmXmXmXmXmXmXmXmXmXmXmXmXmXmXmXmXmXmXmXmXmXmXmXmXmXmXmXmXmXmXmXmXmXmXmXmXmXmXmXmXmXmXmXmXmXmXmXmXmXmXmXmXmXmXmXmXmXmXmXmXmXmXmXmXmXmXmXmXmXmXmXmXmXmXmXmXmXmXmXmXmXmXmXmXmXmXmXmXmXmXmXmXmXmXmXmXmXmXmXmXmXmXmXmXmXmXmXmXmXmXmXmXmXmXmXmXmXmXmXmXmXmXmXmXmXmXmXmXmXmXmXmXmXmXmXmXmXmXmXmXmXmXmXmXmXmXmXmXmXmXmXmXmXmXmXmXmXmXmXmXmXmXmXmXmXmXmXmXmXmXmXmXmXmXmXmXmXmXmXmXmXmXmXmXmXmXmXmXmXmXmXmXmXmXmXmXmXmXmXmXmXmXmXmXmXmXmXmXmXmXmXmXmXmXmXmXmXmXmXmXmXmXmXmXmXmXmXmXmXmXmXmXmXmXmXmX"
};
