/* XPM */
static const char *player7_xpm[] = {
/* columns rows colors chars-per-pixel */
"396 81 238 2 ",
"   c #020402",
".  c #040A04",
"X  c #080B07",
"o  c #070C08",
"O  c #0A0D0A",
"+  c #03070A",
"@  c #160605",
"#  c #1A0706",
"$  c #1C0807",
"%  c #1D0A08",
"&  c #150D05",
"*  c #021402",
"=  c #091504",
"-  c #031A03",
";  c #0A1A04",
":  c #071309",
">  c #0B130C",
",  c #0C1A0D",
"<  c #071808",
"1  c #10140F",
"2  c #171709",
"3  c #0F1410",
"4  c #0E1A11",
"5  c #08151A",
"6  c #111612",
"7  c #141B15",
"8  c #181C17",
"9  c #171D18",
"0  c #191E19",
"q  c #1B1610",
"w  c #060F15",
"e  c #220907",
"r  c #230A09",
"t  c #2C0C0A",
"y  c #2B0806",
"u  c #330906",
"i  c #330D0B",
"p  c #3B0D0B",
"a  c #3A0906",
"s  c #261709",
"d  c #34100E",
"f  c #3B110E",
"g  c #391E0E",
"h  c #331310",
"j  c #052304",
"k  c #0C2405",
"l  c #062A04",
"z  c #092B06",
"x  c #0C210D",
"c  c #0A2B08",
"v  c #152A09",
"b  c #0A3407",
"n  c #0E2311",
"m  c #0F2811",
"M  c #132415",
"N  c #132915",
"B  c #162319",
"V  c #1B221C",
"C  c #162A19",
"Z  c #1A2C1D",
"A  c #1B321E",
"S  c #19341E",
"D  c #1C300D",
"F  c #35220C",
"G  c #3A250E",
"H  c #23251C",
"J  c #0A1C27",
"K  c #1F2420",
"L  c #1F2C21",
"P  c #1D3421",
"I  c #1D3921",
"U  c #0C2637",
"Y  c #0F2634",
"T  c #212521",
"R  c #222C24",
"E  c #262D28",
"W  c #292E2A",
"Q  c #223224",
"!  c #263229",
"~  c #2B322D",
"^  c #243926",
"/  c #2E3430",
"(  c #2E3C32",
")  c #313532",
"_  c #333B35",
"`  c #363E39",
"'  c #393E3A",
"]  c #383937",
"[  c #35362D",
"{  c #440D0A",
"}  c #4A0E0B",
"|  c #410A07",
" . c #43110E",
".. c #51100D",
"X. c #4C1411",
"o. c #441310",
"O. c #521513",
"+. c #5C1915",
"@. c #530F0D",
"#. c #661D19",
"$. c #711E1B",
"%. c #70201C",
"&. c #772C27",
"*. c #6E2D24",
"=. c #592B1B",
"-. c #2F4234",
";. c #324436",
":. c #354439",
">. c #3B433D",
",. c #354B3B",
"<. c #394C3D",
"1. c #324A37",
"2. c #38513E",
"3. c #5F4237",
"4. c #0D2C43",
"5. c #133857",
"6. c #10314A",
"7. c #3E4A42",
"8. c #3E4640",
"9. c #3C5141",
"0. c #424643",
"q. c #434B45",
"w. c #464C48",
"e. c #494E4A",
"r. c #484C47",
"t. c #435246",
"y. c #455449",
"u. c #4C524D",
"i. c #47594A",
"p. c #4C5D4D",
"a. c #455947",
"s. c #4E5E51",
"d. c #4E5550",
"f. c #525C53",
"g. c #545955",
"h. c #4D604E",
"j. c #4E6050",
"k. c #516152",
"l. c #5B635D",
"z. c #57615B",
"x. c #5F6761",
"c. c #626C65",
"v. c #616864",
"b. c #66746B",
"n. c #69756D",
"m. c #6A796E",
"M. c #647368",
"N. c #6C7C71",
"B. c #6F7571",
"V. c #727974",
"C. c #88322E",
"Z. c #91322D",
"A. c #A53B34",
"S. c #A83C36",
"D. c #AC3934",
"F. c #C92E2A",
"G. c #CC322E",
"H. c #C2312D",
"J. c #D7322E",
"K. c #CE3632",
"L. c #D43531",
"P. c #DA3632",
"I. c #D53A36",
"U. c #DC3935",
"Y. c #DB3E3A",
"T. c #D53D38",
"R. c #D32E2B",
"E. c #EB3632",
"W. c #E43A36",
"Q. c #EB3B36",
"!. c #E53C39",
"~. c #EC3D39",
"^. c #E53431",
"/. c #F33E3A",
"(. c #F93F3A",
"). c #F23935",
"_. c #E3332F",
"`. c #8B4D39",
"'. c #884735",
"]. c #9A433B",
"[. c #A7423C",
"{. c #BF453E",
"}. c #DD413C",
"|. c #C7443F",
" X c #E7413D",
".X c #F5413C",
"XX c #F9433E",
"oX c #B44943",
"OX c #AF4944",
"+X c #D5544D",
"@X c #CD5851",
"#X c #D35B54",
"$X c #DC5A54",
"%X c #DA5B55",
"&X c #D04E48",
"*X c #E64B45",
"=X c #ED4B46",
"-X c #E94A45",
";X c #F64640",
":X c #FB4641",
">X c #FC4A45",
",X c #FD4F48",
"<X c #F34D47",
"1X c #EC514B",
"2X c #FE534C",
"3X c #F4534C",
"4X c #E25C56",
"5X c #E25E59",
"6X c #EA5C55",
"7X c #FE5750",
"8X c #FE5B53",
"9X c #F75A54",
"0X c #DC635D",
"qX c #D5625B",
"wX c #E7635C",
"eX c #FE635B",
"rX c #FC665D",
"tX c #DD6760",
"yX c #E36B63",
"uX c #FE6B63",
"iX c #F76C65",
"pX c #FF746C",
"aX c #F8756C",
"sX c #FF7B73",
"dX c #F97A73",
"fX c #EE756C",
"gX c #738678",
"hX c #FF837C",
"jX c #FF837A",
"kX c #778B80",
"lX c #FF8681",
"zX c #FF8A84",
"xX c #FF8E89",
"cX c #FF928D",
"vX c #FF9691",
"bX c #FF9894",
"nX c #849A8B",
"mX c #000001",
/* pixels */
"mXmXmXmXmXmXmXmXmXmXmXmXmXmX8 6 w 1 1 O O 1 O 1 1 O 3 1 1 O O O O O O O O O O 1 w 3 mXmXmXmXmXmXmXmXmXmXmXmXmXmXmXmXmXmXmXmXmXmXmXmXmXmXmXmXmXmXmXmXmXmXmXmXmXmXmXmXmXmXmXmXmXmXmXmXmXmXmXmXmXmXmXmXmXmXmXmXmXmXmXmXmXmXmXmXmXmXmXmXmXmXmXmXmXmXmXmXmXmXmXmXmXmXmXmXmXmXmXmXmXmXmXmXmXmXmXmXmXmXmXmXmXmXmXmXmXmXmXmXmXmXmXmXmXmXmXmXmXmXmXmXmXmXmXmXmXmXmXmXmXmXmXmXmXmXmXmXmXmXmXmXmXmXmXmXmXmXmXmXmXmXmXmXmXmXmXmXmXmXmXmXmXmXmXmXmXmXmXmXmXmXmXmXmXmXmXmXmXmXmXmXmXmXmXmXmXmXmXmXmXmXmXmXmXmXmXmXmXmXmXmXmXmXmXmXmXmXmXmXmXmXmXmXmXmXmXmXmXmXmXmXmXmXmXmXmXmXmXmXmXmXmXmXmXmXmXmXmXmXmXmXmXmXmXmXmXmXmXmXmXmXmXmXmXmXmXmXmXmXmXmXmXmXmXmXmXmXmXmXmXmXmXmXmXmXmXmXmXmXmXmXmXmXmXmXmXmXmXmXmXmXmXmXmXmXmXmXmXmXmXmXmXmXmXmXmXmXmXmXmXmXmXmXmXmXmXmXmXmXmXmXmXmXmXmXmXmXmXmXmXmXmXmXmXmXmXmXmXmXmXmXmXmXmXmXmXmXmXmXmXmX",
"mXmXmXmXmXmXmXmXmXmXmXmXmXT w.q.0.8.r.r.8.0.0.0.0.' 0.8.0.0.8.q.q.0.8.q.7.q.7.e.t.z.>.mXmXmXmXmXmXmXmXmXmXmXmXmXmXmXmXmXmXmXmXmXmXmXmXmXmXmXmXmXmXmXmXmXmXmXmXmXmXmXmXmXmXmXmXmXmXmXmXmXmXmXmXmXmXmXmXmXmXmXmXmXmXmXmXmXmXmXmXmXmXmXmXmXmXmXmXmXmXmXmXmXmXmXmXmXmXmXmXmXmXmXmXmXmXmXmXmXmXmXmXmXmXmXmXmXmXmXmXmXmXmXmXmXmXmXmXmXmXmXmXmXmXmXmXmXmXmXmXmXmXmXmXmXmXmXmXmXmXmXmXmXmXmXmXmXmXmXmXmXmXmXmXmXmXmXmXmXmXmXmXmXmXmXmXmXmXmXmXmXmXmXmXmXmXmXmXmXmXmXmXmXmXmXmXmXmXmXmXmXmXmXmXmXmXmXmXmXmXmXmXmXmXmXmXmXmXmXmXmXmXmXmXmXmXmXmXmXmXmXmXmXmXmXmXmXmXmXmXmXmXmXmXmXmXmXmXmXmXmXmXmXmXmXmXmXmXmXmXmXmXmXmXmXmXmXmXmXmXmXmXmXmXmXmXmXmXmXmXmXmXmXmXmXmXmXmXmXmXmXmXmXmXmXmXmXmXmXmXmXmXmXmXmXmXmXmXmXmXmXmXmXmXmXmXmXmXmXmXmXmXmXmXmXmXmXmXmXmXmXmXmXmXmXmXmXmXmXmXmXmXmXmXmXmXmXmXmXmXmXmXmXmXmXmXmXmXmXmXmXmXmXmXmX",
"mXmXmXmXmXmXmXmXmXmXO   T ` K K K K T T K T T E E E T E T W W / / / / ) ' ' ` ` 8.d.N.:.mXmXmXmXmXmXmXmXmXmXmXmXmXmXmXmXmXmXmXmXmXmXmXmXmXmXmXmXmXmXmXmXmXmXmXmXmXmXmXmXmXmXmXmXmXmXmXmXmXmXmXmXmXmXmXmXmXmXmXmXmXmXmXmXmXmXmXmXmXmXmXmXmXmXmXmXmXmXmXmXmXmXmXmXmXmXmXmXmXmXmXmXmXmXmXmXmXmXmXmXmXmXmXmXmXmXmXmXmXmXmXmXmXmXmXmXmXmXmXmXmXmXmXmXmXmXmXmXmXmXmXmXmXmXmXmXmXmXmXmXmXmXmXmXmXmXmXmXmXmXmXmXmXmXmXmXmXmXmXmXmXmXmXmXmXmXmXmXmXmXmXmXmXmXmXmXmXmXmXmXmXmXmXmXmXmXmXmXmXmXmXmXmXmXmXmXmXmXmXmXmXmXmXmXmXmXmXmXmXmXmXmXmXmXmXmXmXmXmXmXmXmXmXmXmXmXmXmXmXmXmXmXmXmXmXmXmXmXmXmXmXmXmXmXmXmXmXmXmXmXmXmXmXmXmXmXmXmXmXmXmXmXmXmXmXmXmXmXmXmXmXmXmXmXmXmXmXmXmXmXmXmXmXmXmXmXmXmXmXmXmXmXmXmXmXmXmXmXmXmXmXmXmXmXmXmXmXmXmXmXmXmXmXmXmXmXmXmXmXmXmXmXmXmXmXmXmXmXmXmXmXmXmXmXmXmXmXmXmXmXmXmXmXmXmXmXmXmXmXmXmXmX",
"mXmXmXmXmXmXmXmXmXmX  T q.7 7 7 6 6 6 6 6 6 7 5 3 3 3 3 7 6 w 3 3 3 : 3 3 3 7 7 7 3 d.kX_   mXmXmXmXmXmXmXmXmXmXmXmXmXmXmXmXmXmXmXmXmXmXmXmXmXmXmXmXmXmXmXmXmXmXmXmXmXmXmXmXmXmXmXmXmXmXmXmXmXmXmXmXmXmXmXmXmXmXmXmXmXmXmXmXmXmXmXmXmXmXmXmXmXmXmXmXmXmXmXmXmXmXmXmXmXmXmXmXmXmXmXmXmXmXmXmXmXmXmXmXmXmXmXmXmXmXmXmXmXmXmXmXmXmXmXmXmXmXmXmXmXmXmXmXmXmXmXmXmXmXmXmXmXmXmXmXmXmXmXmXmXmXmXmXmXmXmXmXmXmXmXmXmXmXmXmXmXmXmXmXmXmXmXmXmXmXmXmXmXmXmXmXmXmXmXmXmXmXmXmXmXmXmXmXmXmXmXmXmXmXmXmXmXmXmXmXmXmXmXmXmXmXmXmXmXmXmXmXmXmXmXmXmXmXmXmXmXmXmXmXmXmXmXmXmXmXmXmXmXmXmXmXmXmXmXmXmXmXmXmXmXmXmXmXmXmXmXmXmXmXmXmXmXmXmXmXmXmXmXmXmXmXmXmXmXmXmXmXmXmXmXmXmXmXmXmXmXmXmXmXmXmXmXmXmXmXmXmXmXmXmXmXmXmXmXmXmXmXmXmXmXmXmXmXmXmXmXmXmXmXmXmXmXmXmXmXmXmXmXmXmXmXmXmXmXmXmXmXmXmXmXmXmXmXmXmXmXmXmXmXmXmXmXmXmXmXO mXmXmX",
"mXmXmXmXmXmXmXmXmXmXT e.8 6 9 8 8 6 8 8 8 8 9 0 8 8 8 7 8 9 0 0 9 8 9 V 9 9 K 9 9 V 3 s.N.~ mXmXmXmXmXmXmXmXmXmXmXmXmXmXmXmXmXmXmXmXmXmXmXmXmXmXmXmXmXmXmXmXmXmXmXmXmXmXmXmXmXmXmXmXmXmXmXmXmXmXmXmXmXmXmXmXmXmXmXmXmXmXmXmXmXmXmXmXmXmXmXmXmXmXmXmXmXmXmXmXmXmXmXmXmXmXmXmXmXmXmXmXmXmXmXmXmXmXmXmXmXmXmXmXmXmXmXmXmXmXmXmXmXmXmXmXmXmXmXmXmXmXmXmXmXmXmXmXmXmXmXmXmXmXmXmXmXmXmXmXmXmXmXmXmXmXmXmXmXmXmXmXmXmXmXmXmXmXmXmXmXmXmXmXmXmXmXmXmXmXmXmXmXmXmXmXmXmXmXmXmXmXmXmXmXmXmXmXmXmXmXmXmXmXmXmXmXmXmXmXmXmXmXmXmXmXmXmXmXmXmXmXmXmXmXmXmXmXmXmXmXmXmXmXmXmXmXmXmXmXmXmXmXmXmXmXmXmXmXmXmXmXmXmXmXmXmXmXmXmXmXmXmXmXmXmXmXmXmXmXmXmXmXmXmXmXmXmXmXmXmXmXmXmXmXmXmXmXmXmXmXmXmXmXmXmXmXmXmXmXmXmXmXmXmXmXmXmXmXmXmXmXmXmXmXmXmXmXmXmXmXmXmXmXmXmXmXmXmXmXmXmXmXmXmXmXmXmXmXmXmXmXmXmXmXmXmXmXmXmXmXmXmXmXmXmXmXmXmXmX",
"mXmXmXmXmXmXmXmXmXE 8.9 6 7 3 9 T 0 K 0 K K K 0 K K K T K 0 0 K K T 0 0 K K T w O 7 4 7 s.N.` mXmXmXmXmXmXmXmXmXmXmXmXmXmXmXmXmXmXmXmXmXmXmXmXmXmXmXmXmXmXmXmXmXmXmXmXmXmXmXmXmXmXmXmXmXmXmXmXmXmXmXmXmXmXmXmXmXmXmXmXmXmXmXmXmXmXmXmXmXmXmXmXmXmXmXmXmXmXmXmXmXmXmXmXmXmXmXmXmXmXmXmXmXmXmXmXmXmXmXmXmXmXmXmXmXmXmXmXmXmXmXmXmXmXmXmXmXmXmXmXmXmXmXmXmXmXmXmXmXmXmXmXmXmXmXmXmXmXmXmXmXmXmXmXmXmXmXmXmXmXmXmXmXmXmXmXmXmXmXmXmXmXmXmXmXmXmXmXmXmXmXmXmXmXmXmXmXmXmXmXmXmXmXmXmXmXmXmXmXmXmXmXmXmXmXmXmXmXmXmXmXmXmXmXmXmXmXmXmXmXmXmXmXmXmXmXmXmXmXmXmXmXmXmXmXmXmXmXmXmXmXmXmXmXmXmXmXmXmXmXmXmXmXmXmXmXmXmXmXmXmXmXmXmXmXmXmXmXmXmXmXmXmXmXmXmXmXmXmXmXmXmXmXmXmXmXmXmXmX6 0 K 0 0 0 0 0 0 8 0 0 0 0 0 0 0 0 0 0 9 9 0 0 0 0 8 9 0 9 8 8 8 6 7 7 8 6 7 0 6 9 7 7 6 6 9 6 6 6 6 1 6 6 6 8 6 mXmXmXmXmXmXmXmXmXmXmXmXmX",
"mXmXmXmXmXmXmXmX~ ` 9 6 9 7 7 x.B.B.B.b.B.B.B.B.B.B.V.V.V.V.V.V.V.V.n.B.B.V.V.)   7 7 6 6 y.gX8.mXmXmXmXmXmXmXmXmXmXmXmXmXmXmXmXmXmXmXmXmXmXmXmXmXmXmXmXmXmXmXmXmXmXmXmXmXmXmXmXmXmXmXmXmXmXmXmXmXmXmXmXmXmXmXmXmXmXmXmXmXmXmXmXmXmXmXmXmXmXmXmXmXmXmXmXmXmXmXmXmXmXmXmXmXmXmXmXmXmXmXmXmXmXmXmXmXmXmXmXmXmXmXmXmXmXmXmXmXmXmXmXmXmXmXmXmXmXmXmXmXmXmXmXmXmXmXmXmXmXmXmXmXmXmXmXmXmXmXmXmXmXmXmXmXmXmXmXmXmXmXmXmXmXmXmXmXmXmXmXmXmXmXmXmXmXmXmXmXmXmXmXmXmXmXmXmXmXmXmXmXmXmXmXmXmXmXmXmXmXmXmXmXmXmXmXmXmXmXmXmXmXmXmXmXmXmXmXmXmXmXmXmXmXmXmXmXmXmXmXmXmXmXmXmXmXmXmXmXmXmXmXmXmXmXmXmXmXmXmXmXmXmXmXmXmXmXmXmXmXmXmXmXmXmXmXmXmXmXmXmXmXmXmXmXmXmXmXmXmXmXmXmXmXmXmXmX7 ' d.g.d.g.d.d.d.d.u.d.d.e.e.e.e.e.e.e.e.w.r.e.e.e.q.w.q.0.r.8.0.0.>.0.>.' 8.>.r.8.' 0.' ] ] ` ] ] ) ` ) ` ) ` ' / + mXmXmXmXmXmXmXmXmXmXmXmX",
"mXmXmXmXmXmXmXE _ 7 6 9 9 6 0 E T T T E E E E E E E W W W W W W W W ~ E ~ E / >.  8 M B 8 6 7.gXq.mXmX8 _ :.>.>.>.>.>.>.7.>._ :.:.7.7.7.7.8.<.<.>.7.t.q.7.q.t.t.t.t.q.t.q.t.t.q.t.t.t.t.t.y.t.y.q.t.t.y.y.t.t.t.y.i.i.y.t.t.y.i.y.y.t.y.y.y.t.9.y.y.y.y.t.y.y.t.y.t.y.9.q.y.y.i.t.t.t.t.t.y.y.9.t.y.y.t.q.y.t.y.y.y.i.t.y.i.9.t.t.t.t.t.7.t.t.y.y.y.t.t.t.y.y.y.t.y.i.y.t.y.y.t.t.y.y.9.y.y.9.y.y.i.y.y.y.d.i.t.t.t.t.9.q.q.t.t.7.t.y.y.t.t.7.7.t.i.i.y.y.t.q.q.7.q.t.t.t.t.q.t.t.q.q.t.7.q.7.7.7.7.q.7.q.q.7.7.7.7.7.7.>.8.>.8.:.>.>.>.>.:.:.:.:.>.>.:.` ` _ _ _ _ ` _ ` :.` ` ` ` :.` :.>.:.] ' ` ` ` ` ` ` ` ` _ _ ] _ _ _ ] _ _ _ ] ] _ ~ ~ / / ~ ~ ~ / ~ E W T 0 mX8 W K 8 0 0 0 0 0 0 0 0 0 0 0 0 0 K K 0 K 0 0 0 0 0 0 0 0 0 9 0 0 0 8 7 8 8 7 8 8 6 8 8 8 7 7 7 7 7 7 8 6 6 8 8 8 6 K T mXmXmXmXmXmXmXmXmXmXmXmX",
"mXmXmXmXmX  W 0.3 7 6 9 7 6 9 K K K T T T T T T K E K E R T T E E R K T L K E (   3 7 7 7 B 7 t.gXu.  7 T R ! ~ ^ ~ ! ! ~ ~ Q ! ~ ( ( ( ( ( ( ~ ( ( ( -.-.;.( ;.-.;.;.-.-.;.;.;.:.;.;.;.-.:.;.;.-.;.;.;.1.1.1.1.7.,.1.1.:.1.1.,.,.,.;.;.1.8.9.9.,.,.:.9.<.,.1.1.,.,.9.,.1.,.,.,.,.,.,.9.,.,.,.9.,.9.9.9.,.9.9.9.9.,.9.,.,.9.-.,.2.1.,.9.1.1.9.,.7.,.2.,.,.9.9.9.2.<.,.,.1.,.,.2.,.9.,.,.2.,.1.,.,.,.,.,.,.,.1.,.9.9.8.9.,.9.,.1.,.,.7.7.9.,.,.,.<.2.7.,.<.<.,.<.,.,.<.<.<.<.<.<.<.<.<.<.<.,.>.,.,.,.;.:.:.,.,.:.:.:.:.:.:.:.;.:.;.:.>.:.-.:.( ( ( _ :.` _ ( ( _ _ _ _ ;._ _ ;._ _ _ _ ;.;.:.:.:.:.:._ _ _ _ ( _ _ ( ~ ( ~ ~ ~ _ ~ ( ~ ~ ~ ~ R ~ ~ R R R T R T K K V 3 6 V q 7 9 0 K K 0 K K T E T T T T K T T K T T T T L T K T K K K K K K K 0 8 K 0 K 0 0 K 0 0 0 K 0 8 0 K 9 8 0 0 9 0 0 8 K E   mXmXmXmXmXmXmXmXmXmX",
"mXmXmXmXmXE ` 6 6 7 9 6 7 8 8 9 0 V 0 0 V 9 0 0 8 0 8 K 0 0 V 0 0 K V K V 9 K (   3 7 7 7 8 B 7 <.nXf.O . . . X : o : o : : : : = O : o : : > > : > : X : : = : : : = : = : : : : , : : : : : : , , > 3 : > > w : : > : , : < > : : , : : : : , ; : < > : : , > : ; : : , 5 : > ; : : , > > < < : : : : : < : 5 > : , , < , < < : , < < , : : 3 < > ; : , > ; : , , ; : : 4 > > , < : : , > ; , > , : 4 > < 4 ; : < : , < < < : > : : < : : < 3 ; : : > : : , : > , : : : : > > > : : > : : > > > > > > > > > & : : > > > > > , : o : o : o o > X O O = : > O = : : : O > > : O = O > O > X O > O : O O : O : > O O O = > : O X O X : > > O > O O O O + o O > O O + X 3 6 7 6 7 8 7 7 9 0 0 0 0 V V T V T 0 K 0 K 0 0 V 0 V V 8 0 0 9 7 8 8 0 0 0 0 0 8 0 8 8 7 0 0 8 0 8 0 0 9 6 8 9 9 8 8 0 6 T V mXmXmXmXmXmXmXmXmXmX",
"mXmXmXmXW _ 6 7 7 9 7 9 8 7 0 K 0 0 V 0 V V V 0 V K 0 0 K V K H K V V V K 9 L ~   > 4 7 7 B B 8 8 7.gXf.T 0 T K V V Z V Z V T T T L L T V L Z T Z T Z Z Z T L T L L R L R R R R L R R R L E L E L L L P P R L L R Q L L E P P L P L Q Y P L P L ! L P L Q R L Q L R P R L L L L L L ! P R P R L P L L E P ! P ! ! P P L P L P P R Q Q Q P L ! P ! ! Q Q Q Q ! ! ! R R ! ! P ! E ! I Q ! ^ ! Q ^ I ! P L P ! Q Q P ! P P P P P ! ! P Q Q P L ! P ! ! Q Q ! Q Q Q ! Q Q ! ! R Q R R R R R R Q R T R R R R R Q L R R T R T R T L R K L T T T L T K L L L L T T T T K T T T T V T T T K T V T T T V T T V V T T K T V T L T T T V T T K T V T K K T V V K V V 0 0 T V V 0 V T V 0 8 1 O 8 7 8 8 0 0 0 V V 0 0 K K 0 V 0 0 0 0 0 0 9 0 8 8 8 9 0 8 9 8 8 8 0 0 8 7 8 7 0 8 8 8 8 9 8 8 8 9 9 6 9 9 6 7 K 8 mXmXmXmXmXmXmXmXmX",
"mXmXmXE / 7 6 6 6 7 9 6 6 8 7 w O O O O O O O O O + X X O O O X O O O + 9 9 B (   3 4 7 7 8 B V 0 M <.M.M.v.c.c.c.c.c.c.c.c.c.M.M.M.c.M.M.M.b.M.M.b.M.c.M.b.M.b.n.b.n.m.b.n.b.b.b.n.m.n.n.N.m.m.n.N.m.n.n.m.n.n.n.n.n.b.n.b.n.n.M.m.m.n.b.m.m.b.n.m.b.b.b.m.m.n.m.m.N.n.m.N.N.N.N.N.n.N.N.N.N.N.N.N.N.N.m.N.V.N.N.N.N.N.N.N.N.B.N.m.m.m.N.V.gXN.m.gXN.m.m.gXN.N.N.N.N.N.N.N.m.N.N.N.N.N.m.m.V.N.N.m.m.N.m.N.m.m.n.N.N.B.B.m.N.m.m.N.N.m.N.m.m.n.m.m.n.m.m.m.m.m.m.n.N.N.N.N.n.n.m.m.n.b.b.n.n.n.b.b.b.M.b.b.c.b.b.b.b.c.b.M.M.c.b.c.b.c.c.c.c.c.c.c.c.c.c.c.c.c.c.c.v.c.v.v.v.c.c.c.v.v.c.x.v.v.v.v.v.v.c.v.l.v.v.x.x.l.x.v.l.l.v.g.l.v.x.z.g.l.g.l.x.g.x.x.v.l.l.x.g.f.g.l.g.d.e.K o 8 8 0 0 8 0 0 0 K 0 0 0 K 0 0 V V 0 7 8 0 8 8 8 8 7 8 9 9 0 8 8 8 6 8 8 8 7 0 7 7 6 9 9 6 8 6 8 6 8 6 6 9 7 7 K 8 mXmXmXmXmXmXmXmX",
"mXmXE / 6 6 7 9 7 7 8 6 7 q +         + .     + + .     + + + +   +     6 8 V ~   O 4 7 7 B B B B B B B V L L T T T L V T V L T H R H R L L L L R E L L L Z R R L Q Q L L R R Q L R L L L L L L L E L P L P L E L L L L L L L L L L L L L L L P L L ! L R L R Q L P L P L P P P L ! R Q Q R Q P L R ! L P L P P P ! P P ! L ! ! Q R R Q R Q Q Q P L L L P R P R P P L P Q R P I P Q P L L Q Q Q L R L L L L Q R L Q L L E E L L L Q Q L R Q Q Q L L L R Q R ! Q R R R L R R T ! R R T R R R T R T R L L L T L R R T T T T T T R L T T Z T T T L T H T T K T V L K V T T T T T V K K T T T V V T K K K K V K K V T V V V T T K K K K K V H K T K T K T K V T K K T K V V T T T T W w.7 o 0 0 8 0 V V 0 0 0 0 K 0 0 0 0 8 0 9 0 8 6 8 8 6 6 9 9 9 9 8 9 9 0 8 7 6 9 8 8 8 8 6 9 9 6 9 8 8 6 8 6 9 7 8 7 K 8   mXmXmXmXmXmX",
"mXmXE 6 7 6 7 6 7 7 6 8 7 +     > 3 6 3 6 3 1 7 6 6 6 7 6 6 6 7 6 O     6 9 K (   > 4 7 7 B 7 7 B 8 B V V Z Z Z P Z Z L Z Z Z Q P P A P Z R I I A A Z Z A Z S A A A P P P P A S P ^ P S P P P P I P P L P P I P P P P P P P P P I I P P I P P P I P I I A P I P P I I P L I I I I I A I ^ S I P I I P P I I P P P P I I I P I P I I ^ Q I Q A Q P P P I A P I I P P P P I I P P P ^ ^ I Q ^ P P P P P I P P S A I I P ^ I P ! I P Q ^ Q A ^ Q I P P P P Q Q P Q P P Q P A Q A R P P Z R Q R P L Q Q R L L Z R Z L L L L V T R L H R Z V H T L V V V V V V T V V V V Z V V V T Z T V Z V T V H V H V H K V H V V V V V V B V V H 0 B H 0 K K K V K V V 0 0 0 0 0 0 8 V 0 0 T V V 8 0 7.8 + 0 K 0 8 0 V V 8 8 0 8 7 7 7 9 8 7 8 8 8 q 9 8 8 9 6 6 6 8 7 8 8 8 7 7 8 7 0 8 8 8 7 9 6 6 8 q 6 8 q 6 7 6 6 6 T 6 mXmXmXmXmXmX",
"mX  6 7 7 8 9 6 7 6 7 6         6 > 3 6 1 6 7 6 6 8 7 7 9 9 6 6 8 >     6 9 B /   > 4 7 7 4 9 B B B B B B Z Z Z Z C Z C C Z Z C Z C Z Z Z A C C C C C C Z Z S Z Z C C Z C A A Z C A C Z C C P S S C L S P S P C S C P C C S L C C S C C S P S C P C L S S S S S C P P S P S C C A A C S A A P S S S P P P C P C L P C P S L P P A A A C A C A A A S C P S C C S P P C S C P C L A S A S A A A A Z A P Z P Z C S P L C P S C C L A Z A A C P Z Z A Z Z Z C C A C Z C Z L Z Z L Z V Z Z Z Z Z Z Z C B C V V V V V B V V B Z B B V B V B B B B M 8 B 8 B V 0 B 0 0 0 V 8 8 8 V 8 V 8 8 V 8 B 8 8 B 0 B 8 8 0 8 8 8 8 8 7 8 8 8 8 8 8 8 8 8 8 6 0 7 7 7 7 8 7 7 7 7 8 7 7 7 8 7 8 8 8 7 8 _ 0 & 6 6 6 q q 7 q 6 8 6 6 6 6 q 6 7 6 6 6 6 6 6 6 6 6 % 6 6 6 6 q 6 6 7 6 3 3 6 1 6 6 % 6 6 6 w 1 1 1 6 1 1 6 6 6 7 mXmXmXmXmXmX",
"mX  8 6 6 6 5 9 6 7 6           7 3 6 7 6 7 6 8 7 7 6 7 6 7 7 6 9 6     6 V B /   > 6 4 7 7 9 B 7 B B B B Z Z A C C A C A Z A S A A A A P P A A P P C A C S S S S A S C S A A A I P S P P P P P P P P P I S I I P P P P I P P P I S I P S P I S I P P P I I S S I I P P P S P S P S I I S S I S P P I I I I I I P P S I P P I I I S I S I S S S I S S P I P I P P P I I I I I P S I S S I I I S S P P P S S P I P I P I P P P P P A A Q P P P P S P A S A P P A A A P Z P A P Z A L Z Q Z Z P L Q Z Q Z Z Z Z Z L Z L V Z Z V B V Z V V V V V B V Z V V V Z V V V V B B V V V V V V V V V H T V V V V 8 B B V V 8 V B 8 V 0 0 0 8 V V V 8 0 0 0 0 0 0 0 0 8 0 8 0 0 0 8 0 0 0 0 8 8 6 0 / E / ) ) ) ~ / ) ) ) ) ) / / / W ~ / / / / / / / / ) / / / W / W / W W / / W W W W W W W W W W W W T W W W W W W T W 8 mXmXmXmX",
"mX+ O 0 6 7 7 7 9 3     + 6   + q 3 6 7 6 6 7 8 7 0 7 7 9 7 6 7 0 7     6 0 B ~   > 3 7 7 7 7 B B B B B Z M : : : > > = > : > > ; > > > > > ; > > ; > : ; : , > > ; : : , : : ; , , , ; > , 4 ; < 4 , , , ; , , ; , > , ; , : > , , ; 4 > , < , < , , ; 4 , , , , , , : ; : , , , ; , , ; , , , < 4 , , , , x , , , , , , , , , , , , ; , , ; , 4 ; , , ; > , , , , , , , , , , , , , , , , ; , , : ; 4 , , , , , , ; 4 , , ; > , > , ; 4 , , > ; > , , : , , , 3 ; > ; , : , : > , : , > , > > 2 : > > : > > > > > : O > O O > : : > O O O O O O O O O : : O O O O : O O O > : O O O O O O O O O O O O O X O O X O O O O X + X O O O O O O O O O O O O O O O O O O O O O O O 6 0 8 8 8 8 / e.u.e.e.u.u.e.u.u.u.u.e.e.e.e.w.e.d.e.e.u.r.e.d.d.w.e.w.w.w.r.r.w.w.w.e.w.w.w.r.0.0.0.0.0.0.0.0.>.0.0.0.0.0.0.0.r.) 1 mXmXmX",
"mX    O 7 7 6 8 O       0 7   + 6 6 6 6 7 6 6 7 7 7 7 6 7 7 9 6 9 6     6 0 B !   > 4 4 3 4 M B M B B L 7       .       .     .     . . .   . .   . . . . .   .   . . .   . . .   .   . .   . . .   .   . .   . . . . . . . * * . . . * . . * . . . . .   . . . . . . * . * . . . . * . . . . * .   . . . . . . *   . . . . . . . . . .     . . . . . . . * . * .   * * . . . * * . . * . . .   . .   * .   .   . . . . .   . * . . . .   .   . .     .     .     . .     .             .             .                                                                                                                                                                         6 8 7 8 8 8 7 6 7 7 8 8 8 8 0 8 0 0 8 8 8 8 8 8 7 8 8 8 8 8 8 8 8 8 7 6 7 8 8 8 8 8 8 8 7 8 7 8 8 8 8 8 6 6 8 7 1 6 8 8 8 0 q 8 E mXmXmX",
"mX                    7 0 O   X 0 3 6 7 7 7 7 9 8 8 7 8 7 7 9 6 0 8     6 0 V ~   > 7 7 7 4 9 4 M 7 P 6   . . * * * . * * * * * * * * * * * - * - * * * * * * * * * * * * - * * - * * - * * * * - * * * - * * * * * * * * * * * * - * * * * * * * * - j * * * * * * * * * * * * * * * * * * * * * * * - * * * * * * * * - * * * * * * * * * * * - - * - - * * * * - * * - * * * * * - * * * * * * * * * - * * - * * * * * * - * * * - * - * * * * * * * * * * * * * * * * * * * * * * * * * * * * * * * * .   .   .   . .                         .                                                                                                                               8 0 8 8 8 V V K K K 0 0 K V 0 T K V H T T T K K H 0 V K K K H 0 0 0 0 H K K 0 0 K T 0 V K K 0 H 0 K V K 8 0 0 0 0 0 0 0 0 0 0 0 W mXmX",
"mX                  X T O O   + 0 7 6 6 7 6 6 6 7 7 7 8 8 8 7 3 9 7     6 B B ~   > 4 4 4 7 4 B M P 4     * * * * * * * - - - - j - - j j - - - - - ; - - - - * - - - - - - - j - - ; - j - j l - j j - - - - - j - - * - j - - - - - j j ; * j j - j b j j j - j - - - - j - * - - - - - j j l j - - j j j - j j - - j j - * j - - - - * *                                           .   .   * *                     +                     .     . * . .                                                 * *   . . *   . . .   . .   .   .                                                   +                                                 +                                   0 0 0 0 0 0 8 0 0 0 V 0 0 0 K H K 8 0 T 0 8 V K T 0 K 0 0 0 T K 0 T V K 0 0 0 K 0 8 0 0 0 8 K 0 0 8 0 8 8 8 0 0 0 8 0 8 0 0 0 0 E mX",
"mX  O     O 1 X     O T O O   + 0 6 o                         O 7 7 +   7 9 B ~   > 3 7 7 7 B M Z q e e o.&.C.`.`.`.`.`.`.`.`.`.`.`.`.`.`.`.`.'.G s s 2 & ; e s s *.'.'.`.`.`.`.`.`.`.`.`.`.`.`.`.`.`.'.=.s s 2 @ & e s e *.C.'.`.`.`.`.`.`.`.`.`.`.`.`.`.`.`.`.=.s s 2 & & 2 s s O.'.'.`.`.`.`.`.`.`.`.`.`.`.`.`.`.`.`.&.F 2 2 & & ; - * * B C C L Z Z T V V Z B B Z V Z V B V B V >   .   * * : M Z Z A Z L K Z V B B B K Z K B B B V B O     . * * * n C C L Z Z T Z V B V V V V V V B B V B 4       . * * * * * : > : > > > > 3 > > O : > > > : O > O > X       . .   . o O O O O O O O o O O O O O O + O O O O     .           O O + O O O O O O X O + O + X X + X               6 6 6 6 > 3 6 6 6 6 6 6 6 6 q 7 6 q 6 6 7 1 6 6 6 7 6 7 7 7 6 8 6 6 6 6 6 6 6 q 6 6 6 6 6 q 6 6 6 6 1 6 6 6 3 6 6 6 6 6 6 6 6 8 O ",
"O O W 1   T K 6 O   X V 3 &   X 0 7 T ' 0.w.0.r.q.q.0.0.0.0.0.0 7 7     3 9 V !   > 4 7 4 B 7 Z V @ i +.&X*X X X=X<X=X=X=X1X<X.X=X X-X3X1X=X X3X$Xo.r r e = p p D.=X}. X=X<X1X=X=X1X3X.X1X X X3X1X=X X=X6X&.y t e # d p A.1X*X*X=X<X<X=X=X=X<X<X.X X1X X6X X X X6X&.t e e & s f %.*X*X}.1X.X1X X=X=X<X=X<X=X*X.X=X=X-X XrX{.f t e % ; - . , Z C B C B C B M 7 B B 7 7 B 7 7 4 7 7 B 7 o     * . , Z M M B B B B B 4 V 9 7 M 7 7 M 7 6 7 B B o     . . : C C B B B C B B M 7 B M M 7 7 M 4 7 7 B V :       j * * . : C L Z Z Z L K Z B V V V V V V B B 9 B V B X       .   X 6 B V V 0 B 8 V B 9 V 0 9 B 9 8 8 7 8 7 6 X .   .   X 6 7 7 8 6 7 7 7 8 7 7 7 8 8 8 7 7 6 1 1 O                                                                                                                                   +         ",
"O X 0 1   K 1 X X   O V 3 >     0 7 K W ) ] ) ' _ ) ` ] ) ) ~ T V 0     3 8 B ~   > 4 3 4 4 M B B @ i A.}.H.G.G.G.L.J.J.G.J.L.U.G.G.K.L.G.G.G.F.rXC.r r e 2 t $.9XH.H.G.F.L.J.J.G.R.L.P.J.F.G.L.K.K.K.K.-XoXe s e @ u $.9XD.F.G.H.K.L.L.G.J.L.P.R.G.F.R.}.G.R.R. XoXe t e @ s o.{.K.D.R.F.R.R.R.K.G.P.L.P.G.G.K.I.G.G.K.R.6X%.r e r ; j * n : o o o o . o : o o o o o o o o X X   X : :     . : M : O o : o o o o : o o o . o o + X X X o o :     * . x > o . : o o o o : o o o o . o o + X . . X 4       - - * . , < : : o O o : o : o O X X : : O O X + o O 3     .     : o X O + + X + O . + X . . + X X o X X X : o     .   > O O X O     O X + X X X X o X X +   X + >                                                                                                                                             ",
"X + 0 1   0 6   +   X T > 3   + 0 7 6 6 6 3 7 7 V 6 7 8 0 8 0 0 K 8     6 9 V E   > 4 4 7 4 7 Z B & y |.&XL.P.P.U.W. XW.U.W. XW.W.W. X_. X XU.R.eXA.r t t v t Z.rXF.I.P.P.P. X XP. XW. X_.}. XE.Q. XU.P. X+Xe t y @ u Z.eXF.I.P.U.W.Q.W.U. XW.W._.}. X X X X}.J.=X+Xr t t @ s X.+XL.U.P.P.P. X XW.W.W.!.U.W.W. XW. XW.I.R.6X*.s t r ; j < n > > : , : > > > : > : > : : > : o > : > O > +   * < m : , : : : > : > < > > : > : > O : : : : > >   + : * x 4 > > < : , > : : > > > : > > : O : > > o , . + . j - - * x , > : , , > > > > : > > : > : : O > > : : > .   .     > O O > > O : O : > O o O > O O o o O O O > o   . .   > O O O O > O O o O O : O X o X O X X X O X O           O X O + + X                         +   .   X +                   X   X X . X   X   X X   .     O                               ",
"O X 8 1   0 6 O     X T O 1   + 0 6 7 0 9 6 8 6 0 K T T K 0 0 8 V 8     6 B V ~   > 3 4 7 7 M Z Z $ s {. XK.P.W. XW.Q.W.~.W.Q.P.~.U.~.Q..X~.!.P.9X].e i y v u Z.iXG.I.U..XW.W.!..X_.W.W.W.P.W. XQ..X^.P.-X@Xe d t @ i C.uXG.P.U. XW.W.Q. X_. X^. XJ._. XE..X_.J.=X@Xe d y @ s X.+X}.G.P. XE.J..XQ.Q.W.Q.U.W.P..XQ.~. XW.J.6X&.d u r ; j , N : , : : > > , > : w : > : O : > O : : o > > +   * , N , > : : 3 : 4 : > : > : > o : > : O : o > > +   * * M , 4 : > ; > , : > : 3 : : O o > > O O o : 7     . ; j - * n < 4 > : > > : , > > : > > O > O O : O : : 7     .     3 : O O > O > O o O O O O o : : O O O O O > O   . +   6 o o O + O O O O O o X O + O O O O O O O X >     X     1 O O O X X   .   X   X X +   X X X X   + X X + X X   X   X X + X X O O O X O o O O O O O O + O O X + & X X X X X             X ",
"X + 8 O   K 6 X X   X 0 1 O     0 7 7 8 9 9 9 8 0 8 K 0 K 0 V 7 K 0     6 0 V ~   > 4 4 4 7 B C C $ u |.1XP.W._.~.~..X~..XQ.~.).).~.Q.~.Q..X).J.iX[.t i t 2 a Z.uXR.U.W.W.)..X)..XQ.Q..X X.XE. X X.X.XQ.=X#Xu t t # u Z.uXR.!.U.Q..X.XQ..X.X X)..X.XE. X.X.X.X}.=X@Xi t i @ s O.+X}._.}._..X.X.X.X.XQ. X)..XQ. X.X).).~.J.wX&.t i r ; k , N , , , > , : : > > : : : > > O : > > O > > >     : ; N ; , > > : : > > > : : > : > o > > > O > > >     : : x x 4 : : > > > : > > > : > > : : > > > : : 4 .   . k j - : M , 4 : , , : > : : 3 O : > : : > : > > : O 4 .   .     6 O > > O O O : O > o O o X O O O O O O O > X   X     6 X O O O O O + O O X O O O X O O O + O + X >           6 1 O O & 1   + X O O X o X O X + O O O O O O O O X O O O O O O O O O w O O O O O O O 1 1 O O O O O + o O O O O O       X +     ",
"O + K X   0 1 O X   X K O 1   + 0 6 7 7 9 9 9 7 7 9 7 0 0 7 9 9 V 9     4 9 B ~   O , 6 M 7 B A C e u |.1X XQ. X)..X.XXX.X.XXXXX.X~..X.X~..XQ._.uXOXt i y v a Z.pXP.Q.Q..XQ..X.XXX.XXXXX.X.X.X.X)..XQ.^.<X@Xu d u @ a Z.pXJ.Q.Q..XQ..X.XXX.XXXXX.X.X.X.XE..X.X X1X@Xi d y @ F O.+X X XE. X). X.X.X(.XX.X.X.XQ..X.X~..XQ.W.wX&.d i e k j < N < , 4 : , > > , 3 > > > : > O > O O > > > >     < < C : 4 , 4 4 : 3 : 3 3 3 > > > O > : > > > O >     * . m < 4 , 4 4 > , > : 3 3 : > : O : O o > > O 6 .   . j j - * m , , < , > > > 4 3 > 3 : : > O > O > > > : 6 .   *   . 6 O O O > O O O O O O > O O O O O O O O O > O   . X   6 : O O O O O O O O O O : O O O O + O O O O >         X 7 O 1 1 w 6                                   +                 1 O + % O 1 1 1 1 1 1 1 % w 1 w 1 1 O 1 1 O O O O + O / / ) K   ",
"O + 0 &   0 6 +     + T 1 1   + 0 6 8 6 9 6 7 0 9 8 7 8 0 7 9 9 V 9     3 9 9 !   > 3 4 4 4 B Z C $ a |.1X^.)..X.X.X.X.XXXXXXX(./.~..X.XXX(.~._.uX].t i t v | Z.uX_.~.)..X.X.XXXXX.XXXXX).)..X.XXX.X.XQ.<X#Xu i u @ | Z.uX_.~./.)..XXXXXXXXXXXXX.X.X.X.X.X.X.X X<X#Xu d t @ F O.*X X X.X.X.X.XXX.X.XXXXX.X)..XXX.X.X(.Q._.rX&.d i t k l , N , 4 , 3 3 4 > > 3 : 3 > > : > > O 3 : > O >   . * , N < 4 , : 3 4 : > 3 : 3 : > > > > O > O > > >   . : * N n 4 > : > 4 > > 3 3 3 : > > > > > > : O : 4   + . x j - : M , 4 4 > , 4 : 3 : : 3 : w : > : O : > o o 6     . + + 7 O : O O : > : > O 3 > O O : O O > o O O > X   X     6 > O O O O O O O O O : o O O O O O X O O O O           7 6 O 1 O 1                                                     6 1 1 1 6 6 O 1 1 6 6 6 6 1 1 6 1 O 1 O 1 O O O 1 + O K 7 8 8   ",
"O   K O   K 1 X X   X K O O     0 7 7 9 7 0 7 7 8 9 9 7 7 0 9 7 V 0     6 9 V ~   O > 7 4 M B A Z e a &X3X.X XE.XX.X>XXX,XXX,XXX:X(.).XX;X:X:XE.pX].t i t v p Z.pXQ..XQ.XXXXXX>X2X.X>XXX:XXX)..XXXXX>X.X3X#Xu d u @ a Z.pX).~.~.XXXXXXXX8X.XXXXX.XXX.X.XXXXXXX.X9X#Xu d t # F O.$X.X XE.XXXXXXXX>XXX,XXXXXXXXX).XXXXXX<XE.fX&.i i r k k : N , , 4 4 3 > , : 3 , > > : > : : O 3 O > > >   . - , N , 4 4 : , : 4 > 4 > 3 : > > : > O w O > > >   . = . x x 4 4 4 4 : , 3 : , > 3 : > > > O > > o > 7   . o j j - * m , 4 , 3 4 : : : 4 3 > > : > > 3 w > > > > 3     X     6 > : O > O O > O O > O O > > O O O O O O > X   X     6 > O O O O O > O > O : O O O O O X O O O O >       X X 7 6 O 3 6 1   + + O X + X o X O +   O X @ + O o o O X + X       6 w 6 6 6 6 6 6 6 1 1 + w % 6 3 6 1 1 O 1 O 1 O 1   O K 7 7 0   ",
"O   0 O   8 1 X X   X T O 1   X 0 6 6 7 0 7 7 0 9 7 6 9 7 9 9 6 V 7     3 9 B /   : 4 4 6 4 8 C C e a &X3XW.W..XXXXX X.X:X>XeX7X:X<X<X:X:X(.:XQ.pXOXp i t v p A.pX^.W.Q..XXX.XQ.>XXX8X8X:X<X>X;XXX.X>XQ.6X#X| d t @ | A.pX^.W./.XXXX.XQ.XX.X7X8XXXXXXXXXXX.XXX X3X#X| f t # g #.wX X X X.XXXXXE..XXX2XeX2XXX<X>X:XXX>X.X^.iXC.p i r k c , m , , < < < 4 3 3 3 : : > > > > > > : O O > >   . * ; N < , 4 : 4 4 3 4 > > : > > > : > > : O > > 3   X = : n x , : , : 3 , 3 3 > : : > > > > > > : > O 6 X   + j j - : N , 4 < 4 : 4 3 4 : 3 > > > > : O > : O O > 4 X   . X   1 : O > O O O O O > O : O O > O O O O O O > O     .   6 O > O O > O O O O O O O O X O O + O O O O >           8 6 > 1 6 6   X + O 1 1 1 O 1 O 1 1 1 O O 1 1 O 1 O & w O 1 1 6 0 1 6 6 6 6 6 + + 6 0 q 6 6 6 + o O 1 6 O 1 1 O 1 + @ T 6 6 8   ",
"O   0 1   K 1 O +   X T 1 O     0 7 6 7 9 7 7 9 7 6 9 8 7 7 6 6 0 9     3 V V ~   O > 4 4 M B C C r { &X3X.X.XXXXXXXXXXX2X7X2X,X:X8X,X:XXX:X<X^.aXOXi p t D | A.pXQ.XXXX.XXXXXXX,X,X8X2X>X7X7X:XXXXX,X.X3XqXa f i @ { A.pXQ.(..X.XXXXXXX2X2X7X2XXX8X7XXXXXXXXX.X3XqXa f i # F +.0X.XXXXX.XXXXXXXXX2X7X7X,X,X8XXX>XXX>X.X^.iXC.i i t c c < N , 4 , : 4 , : : > : > , : O : 3 > > : > O >     : , N 4 n < : 4 : : : 3 : : > : > > 3 > > : > O >     : * m 4 7 , , 4 , : : 3 : : 3 : : > > > > > > : 3     . l l - * n , 4 , < 4 4 > > > > > > > : > > > > O > > >     .     6 O O O > > > : O O O O O O > > : O O > O > X   . .   3 O O O O O O O O O O O O O O O O O O O O O 1     X     7 6 1 > 6 6   q K W / W W / W / W ) / W ) ) / / / W W W W W / ) T 1 6 6 6 w @ W ] ' e.' ] ] ] / 0 1 X 1 6 1 1 1 1 + X 0 6 7 6   ",
"O   0 O   8 1 X X   X 0 O 1   + 0 7 6 7 6 9 7 7 7 9 9 9 0 8 6 9 0 8 +   3 B B ~   > 4 3 4 M M Z Z r { +X9X.XXXXXXX2X7X8X2X2X8X7X2X2X8X2X:X,X:X^.pXS.p i i v } A.sXE.XXXX.X,X,XeX2X,X8X8X7X2X2X2XXX,X2X.X3XqXa f i @ } A.sXE.(.:X.X,X,XeX2X2X8X8X7X2X8X2XXX8X8X.X3X#Xa d i # F #.wX=X.XXXXXXX2X8X8X2X2XeX2X2X7X8X2X:X,XXX_.yXC.i i t k l x N , , 4 3 , , 4 > > > > > > > > > > O > > > >   X * x N < 4 4 4 4 , 3 : 3 : 3 > : > > : > O > > > :     ; : m x 4 , , , , 3 3 : 3 : 3 : > > > > > o > > 4 .   . c j ; : N , 4 4 4 , : 4 > > > > , : : > > > > : > > ,   X . X   6 > > O O O O O O > O > O O O O O O O O O > O   X +   6 : O > O O O O O O O O O X X O O O O O O O O           7 6 > > 6 6 + O O 3 O 1 1 O 1 > 6 O 6 O w 1 O 1 1 O 1 1 1 1 O 1 3 1 6 3 @ T e.] W 0 6 6 6 3 3 K T W 0 + + 6 1 O 1   X 0 6 6 7   ",
"O X 0 O   0 1 O X   X K 1 &     0 6 6 7 6 7 8 7 7 8 8 8 9 7 7 3 V 7     1 0 V ~   O > 6 7 4 7 C C r } +X9X~.XX,X2XeXrXrXrXrXrXrXrX8XuX7X2X>X2X).sX[.p f t D { A.jXQ.XX,X8X8XrXuXrXeXuXrXrX8XeXeX2XXX8X:X2XqXa f u # | A.jX).XX,X7X7XuXuXuXuXuXuXuX8X8XuX7X:X7X>X9XqXa f i $ F #.wX=X.XXX2X2XrXrXuXeXuXuXrXeXeXuX7X,X2X2XQ.iXC.p p r v l , m ; 4 4 , 3 > , > : > 3 : : O : : : > O > O >   . = , N , 4 4 4 4 3 > > : : : > > > O : > > > > > >     < * m , 4 4 4 , w : 3 > : 3 : > : > > O : O O 3 3 X   . l j - : N , , 4 , , , < 4 > 3 O : 3 : > : : 3 : > O > X   . X   7 O O O > O O O > O O O > O O O O O O O O > O     .   q O O > O O O O O O O O O O O O O O O O O O >         X 8 6 3 > 1 1   O O 1 1 1 O 1 1 1 1 1 + & w O 1 O + 1 1 1 + 1 6 3 1 6 6 + / g.0 3 3 3 1 & w 1 3 6 6 6 E E   o 6 O q   X 8 6 7 7   ",
"O   8 1   8 O X X   + K O 1   X 0 7 7 8 6 8 7 7 7 8 9 0 9 7 7 7 V 9     6 B B ~   : > 7 4 n B C Z e { #XrXXXXX,XeXpXsXjXjXjXsXsXpXsXuXeX,X>X,X(.pXOX{ f t D } S.hX(.XXXX2XrXpXjXjXhXsXsXsXsXpXuX2X>X,X>X9X0X} f i e } [.jX.XXXXX7XuXpXsXsXsXpXsXpXsXpXuX2X>X,X>X9X0X} f i $ G #.wX<XXXXX,XrXpXjXhXsXsXpXpXsXpXuX8X>X>X,X~.iXC.p p t k c x n , , , , : 4 > , 4 > : 3 3 3 : O o 3 > > > 3 . . < , m < , 4 , : , : , w 3 3 3 : > : > o > > > 3 > X . < : n n 4 < 4 : , , > < 3 , 3 > > O > O > > 3 O 4   + o z l - < x , , , 4 3 , > > , : , 3 : > O > O O > o 3 3 X + o   . 7 O O : O > > O O > O O > > O > O O : > O > X   + X   3 O > O > > O O O O O O O O O O > O O O O O 6           8 6 6 6 1 6 + O O 1 1 O O O 1 O 1 + 1 1 O 1 w 1 1 O + 1 w & + O 1 1 @ E e.  3 6 1 1 6 6 8 8 7 6 6 8 & K W   O 1 1 + + K 6 7 6   ",
"O   0 O   0 6 O X   o 0 O 1     0 7 6 6 7 6         + 8 7 7 7 7 V 9 +   6 9 B ~   O > 4 4 7 M Z C r { #XrX>X2X7X2XpXjXzXzXhXhXzXxXlXlXpXeXeX2XXXdX{.p p i D ..S.jXXX2X7X2XrXjXhXxXhXzXlXzXzXlXjXuXrX7X>XeX0X| f p $ ..[.jXXX2X8X2XuXsXlXzXlXlXzXxXzXlXsXuX8X7X>X8X0X| f i e G %.yX<X2X7X8XeXpXhXzXlXlXlXxXxXlXlXpXeX8X2X.XaXC.p p t c z x m , , , , > 4 4 3 : > 3 : : > 3 o O : > : > 3 X   < ; n , 4 < < 3 4 3 > , : 3 : : > > : O : O O > 3   . < * m , 4 4 : 4 3 > , 3 > 3 : > > > > : o > : : 7 o   X z l - < x , , , > > 4 , > 3 > w > > > 3 : : : > > O 4 .   X X + 7 : > O O O O > O > O > > > O O > O > O O , O   + X   6 : O O O O : O w > O O O O O O O O O O O O 6   X .   X 8 6 O 6 3 3   1 1 1 O 1 1 1 O 1 1 1 1 O O 1 1 O 1 1 + 1 1 1 1 1 6 X 6 ] O 6 1 1 6 w O O X O 6 7 7 7 7 6 K 8 + & 1   + K 6 6 8   ",
"O   8 O   0 w O X   O 0 O O     0 6 6 6 7 6 X w w O + 9 6 9 9 7 V 9 +   6 9 B !   : 4 , 6 n M Z C r @.#XrX:X7X2XrXjXxXcXvXcXcXxXzXzXzXjXpX8X,X).jXOXp f i D @.S.hXXX2X7XeXpXxXcXcXcXcXcXlXzXzXhXsXrX2XXX8XqX} f p $ ..[.hXXX,X2X8XpXxXcXvXxXxXcXzXlXxXhXpXuX,X:X9X0X} f p % F %.yX7X>X7X8XuXhXcXcXvXxXvXxXlXxXhXsXuX7X,X).dXZ.f p y v b x N < , : 4 , 4 : > 3 : 3 : > > > 3 : 3 O > > 3   X < x N < 4 : 4 , 4 4 > > : 3 O 3 3 > 3 > > > O 3 > O X < - N , , : 4 , 4 4 > : : 3 O > > > > 3 O > : > 7 X . . z z - - N , M < , , , 3 4 : > > > : > > O 3 O > > > 7   X X     8 O O > O > O O O O : O O > O O > O O O : > o   o X   6 O > O O > O O O O O O O O O O O O : o O O O       .   8 6 O > 3 6   O 1 O w 1 1 O O 1 6 + 1 O 1 1 O 1 O 1 6 3 1 O O 1 3 + E K 1 1 1 1 @     + + +     6 7 6 7 1 0 X + 1   X K 1 7 7   ",
"O   0 1   0 6 o X   O 0 O O   + V 6 6 7 8 7 o 3 6 O X 8 8 7 8 6 0 0     6 9 B ~   O > 7 4 M M P C e @.#XrX,X,XeXuXhXzXcXvXcXcXvXcXcXcXhXpXeX8X>XhX[.f f i D ..[.hXXX2X7XeXsXhXxXvXvXcXvXcXcXcXlXsXeXeX2XuXqX} f p $ @.D.hX>X,X8XeXsXlXcXvXvXcXvXvXcXvXlXsX8XeX7XuXqX| f p e F %.yX2X,X,XeXpXhXzXvXvXvXcXbXxXvXxXhXuXeX7X>XfXC.p p t k b x N , , 4 , , , , : > > > : > 3 > : O > 3 : > > +   < x C , 4 4 4 > 4 < > > > > > > 3 > o : > > > > >     < - N 4 n , 4 , 3 > , > : 3 O > , > > O O > > O 4 X     c z j < N , 4 4 4 4 3 : 4 > > 3 > > , > > O > > > > 4 .   . X . 7 : O O > > > > O O > > O O > O > > O O O 1 O   +     6 > O O O O O O O O O O O O O O O O O O O O >   .       7 3 O 6 1 3   1 1 1 O 1 O w 1 1 O 1 1 1 O 3 1 + 1 1 1 O 1 1 1 1 + 1 W 1 6 O 6 X + w K Y Y J J +   1 8 6 6 7 6 + 1   @ 0 6 6 6   ",
"O   8 3   0 1 O X   O 0 1 O   + 0 6 6 6 9 7 o 3 1 O   7 7 6 6 7 V 7 +   7 V B !   : > 4 7 4 7 C C e { #XeX2X7XeXrXhXzXvXvXvXbXvXvXvXcXxXsX7X7X,XhXOX{ { i D } S.hXXX2XeX8XpXxXcXvXcXbXvXvXbXcXcXjX8X7X2XrX0X} f p $ } [.hXXX8XeX7XpXxXcXvXcXbXvXvXvXcXxXlX7X7X7XrX0X} f p e F #.wX>X8X7X8XrXxXzXvXxXbXvXvXvXvXxXxXuX7X7X,XdXZ.f f i v b x m , , < , w , > 3 > 4 > > : 3 O > > o > O > 3     < x m < n < , : < 3 , > 3 > : > : : > > > O > > >     ; - m x 4 , < : 4 < > > 3 : , : > : : > > O > : 7 o   o z l - < m x 4 4 < 4 < 4 3 : > > : : > : O > O o > > 4 .   o     7 > > > O O > O 1 O > O > > O O O > O O O > O   X     6 : > O > O > O O O O O O O O O O O > O O O >       X + 8 6 O 6 6 1   1 1 O 1 1 1 1 O 1 O 1 O 1 3 O 1 1 1 1 1 1 O O 1 1   8 0 1 O 6 O   w U 4.5.6.4.4.4.w   6 6 6 6 8 + X   X 0 3 6 6   ",
"O   0 6   0 1 O O   X 0 1 O +   0 7 6 6 9 7 O 6 3 1 X 7 7 7 7 8 V 8     3 V B ~   o 4 3 4 4 M Z C e } +XeX:X7XrXrXsXzXbXvXcXbXvXcXvXcXzXuXrXeX2XsXOX| f t D } S.hXXX2XeXeXuXhXvXbXcXvXbXcXvXvXxXsXrXrX7XrX0X}  .i # } S.hXXX,XrXeXpXlXcXbXcXvXbXvXvXvXxXsXuXuX7XrX0X} o.i @ G #.yX9X>XeXrXrXhXzXvXvXcXbXvXcXbXxXzXuXrX8X2XfXC. .p t c b x N , , > , 3 , 3 : : 3 3 > > > : : > : > : O >   o < x N < < 4 , 3 4 : > > > 4 > : > : > > > : > : >     , : N 4 < , < 4 , > 4 > > 3 w > > O : > > : > : 7 .   o l l j < m x , 4 : : 4 : 3 : 3 3 > : > : O : 3 > > O 4 X   X   X 6 > O > 1 O O O O O > O O O 6 O > > > O O > O         6 O O O : O O O O X O > O O O O O O O O O O >         . 7 6 O 1 1 1   O O 1 1 1 O 1 1 1 w 1 O 1 O O 3 6 + 1 1 6 6 1 1 X   E 6 1 1 6   O Y 4.5.5.6.6.6.6.6.+ & 8 3 6 8 + X   + 8 1 3 8   ",
"O + V O   0 1 O +   o 0 O &   X 0 3 7 7 8 8 O 3 6 1   8 6 8 7 6 0 7 +   6 V B E   : 3 7 4 n B C C y } qXeX>X2X7XpXhXvXvXbXvXvXbXvXcXzXsXrXeX8X,XjXOX{ f i D } [.hXXX2X2XrXjXcXvXvXbXcXbXvXvXzXhXpXeXrX2XrX0X{ f p e } [.hXXX2X2XrXsXcXvXbXbXxXbXvXbXxXsXpX8XeX7XrX0X} f i r G %.yX>X,X,XeXpXxXvXvXbXvXbXbXvXxXlXsXuXeX8X>XfXZ.o.p i v l x N , , < 4 > < , 3 > : : > > > > O > > O > > 3 X   - x N 4 < 4 4 : , > 3 > : : > > > > o > > O : > > X . < * N n , , 4 , : , > > > O : > > > > > > O > O 6 X   . b l j - N 4 4 < < 3 , 3 : > : 3 : > > O 3 > : : > O 4 X   X   X 6 O O O O > O > > O > > O O O O O O O O O > O   X X   6 O O > O > O O O O X O O O O > O O O O O O 6     .   + 7 1 1 1 1 6   O w 1 O 1 6 O 1 O 1 1 O 3 3 1 3 6 6 1 1 + 1 O 1 +   T 3 O 1 1   J 4.6.5.6.5.5.5.4.4.J + 0 3 6 7 & + + + 8 3 6 7   ",
"O   0 1   0 6 O X   X 0 1 O     0 6 6 7 8 7 o 3 6 O X 7 7 7 7 7 V 9     6 9 V !   : > 6 4 4 B C V e } #XuX7X8X8XpXlXvXxXbXvXcXbXvXxXxXsXpX8X8X,XlXOX{ p t D } S.jX2X8XeXrXsXxXcXvXbXcXvXbXcXcXlXsXeX2X8XrX0X} f i % } S.jX,X7X8XuXsXcXcXvXbXcXvXvXcXcXzXpXeX7X7XuXtX} f i $ G #.0XeX7X8XrXpXxXvXxXbXvXxXbXvXvXxXsXuX7XrX<XjXC. .p t v b n N < , 4 4 : : 3 : > > > > > : > o O > > > > > + . - x N , , , 5 < > > > > , > > > o > > : 3 : w > >   o < < N x , , 4 4 : > 4 > , > > > : : > O > > > : 4 X . . z l j < N n < 4 4 , : , 3 > : > > : > : > O : > > : 6     . . X 6 > > O > O > > > O O O > 3 O O O O O O O 6 O   . .   3 > > O O > O O O O O O O O O O O > O > O O 3     .   X q 1 1 O 1 1   O 1 1 1 6 3 O w & 1 1 O 1 1 O O 1 1 3 3 O 1 1 1   + T 1 1 6 X + Y 4.4.5.6.5.5.5.U 4.J + 0 O 7 6 1     + 8 6 6 6   ",
"O X 8 1   0 1 O X   + 0 O 1     0 7 7 7 7 9 O 6 6 w + q 7 7 9 6 9 8     3 V B ~   o > 4 4 7 B C C e } #XuX8X8XuXuXhXxXcXbXcXcXxXvXvXxXxXuXeX8X>XhXOXp f i D } S.hX2X8XeXeXjXxXcXbXcXxXcXcXvXcXzXpXeXeX7XrX0X{ f p @ } S.hX,XeXrXeXsXxXcXbXcXxXcXcXbXxXxXpXeX8X7XuXqX} f p @ g $.wX9XeXeXrXuXxXxXvXvXxXvXxXvXcXxXlXrXeX8X:XdXC.f p s v b x N 4 n 4 4 , 4 4 4 > 4 > > > , 3 : > > : > > >   X = x m n n 4 4 < 4 4 , , , > > > , > o > > : > > : X . < * m n 4 , 4 4 > : 4 > , > > : 3 3 O > > : O > 3 .   o l l x < m 4 n , 4 4 , > 4 > 4 > : > > > O > > : > O 4 X + o     7 > > O O O > O O O > O O O > > O O > > O > O   X X   3 o > > O O O O O O 3 o O O O O O O X O O O O   X       8 6 1 1 1 1   1 w 1 O 1 1 O 1 1 O O 3 1 O 1 1 1 O O 1 1 1 O 1     H 1 O 6 +   J U U 5.5.6.5.4.U 4.J + K O 6 q 1     X 8 O O 7   ",
"O X 8 >   0 O O o   O 0 O O   + 0 7 7 6 0 7 w 6 6 1   7 7 8 8 6 V 7 .   6 V B ~   O 4 3 4 4 4 C B r } #X9X,X8X8XpXjXxXcXzXcXvXvXvXxXxXlXuXeX7X2XsXOX .p t D ..S.hXXX8X8XrXjXhXcXxXxXvXvXvXcXxXhXpXrX8X2XuX0XX.f i r @.S.lX.X7X8XeXjXlXcXxXxXvXvXvXxXxXlXpXuX7X7XuX0X} f i $ G $.yX3X2X8XeXsXhXcXcXxXvXvXbXcXxXlXjXuX8X7X2XfXZ.o.p t z b x N 4 , < < 4 4 > : : 4 : > > > > > o > > O > >   . - x N , , , , > , : > > , > > > > > > > O O O : >   . < < m , , , , , , > : : > > > > > > : > O 3 O O 6 X   X z l - < m x n , , , 4 : : > , > > > , > > > > O > : 4   . X     7 > > O O > O > O O O O O O O O O O O O O 6           6 O O O O O > O O O O O 1 O w O O > O O O w 3     .     7 1 O 1 1 1   1 O 6 O 1 O 3 w 1 1 w 6 1 1 1 1 w 1 1 1 O O O O     0 1 O 6 O   5 Y U 4.6.6.6.4.U U w 1 0 1 1 6 O     X 0 6 6 6   ",
"X   7 O   0 1 O X   X 0 O 1   + 9 7 6 3 7 7 O 6 1 O X 8 7 7 6 6 9 8     6 7 B !   : > 4 7 7 n P Z r ..#XrX:X>X>XeXjXjXlXxXzXxXlXxXxXlXsXuX7X2X:XhXOXp f t D ..[.hXXXXXXX2XjXhXhXzXzXxXzXlXcXxXhXpX7X7X,XrX0X{ f i % @.[.hXXX>X>X2XsXlXhXzXzXzXzXzXxXxXlXpX8X7X,XeX0X} i i $ G *.yX3X>X>X>XuXhXjXlXxXlXxXlXxXxXlXsXrX7X2X;XdXC.p i t c b x m < , 4 4 > < 4 > : > > , > > > > > > > O : 1   . : x N , , , > 4 < 3 > : > > > > > > > > > > O > 6   . ; * m n , , , > > 4 , , > > > > > > > : w : : : 7 + . . c l - < N , < , 3 , : , > > > > > > > O > > > > O : 7 X   o   X 6 O 1 > O > O > O O : > O O > > O O > O : 3 X   . X   3 O O O O > O > O 3 O O O O O O O O > O O O O     .   X 9 1 1 1 1 6   1 O O 6 O O 1 1 O 3 & + 1 O w 1 & 1 w 1 1 w 1 1 +   8 1 O 1 7   w J Y U U 4.4.U 4.Y + K 6 1 3 6 +     o 0 O 6 6   ",
"O   8 3   0 1 o +   X 0 O O   X 0 7 6 3 6 8 : 6 7 O X 8 6 7 8 7 0 8     6 9 B !   o 3 4 4 7 4 L Z r } qXuX:X(.>X8XuXlXhXlXhXlXhXxXlXlXpX8X,X,X(.jXOXp p t D } A.hXXXXXXX8XrXjXhXhXhXhXhXxXhXhXhXuX,X2XXXeX0X| f i % } [.hX(.:X:X2XuXsXlXzXhXhXlXxXlXzXsXuX,X2XXX8X0X| f i # G #.yX3X>XXX>XeXpXzXlXlXhXlXlXzXlXlXpX7X,X>X(.fXC.f p r v b x N < n 4 , 4 , , 4 > : > : > > > > > > : O : 1 . . = x N < 4 , 4 3 , , > > > > : > > > > > > > > > >   . ; < N , n 4 , , , , > , : > : > > 3 > > O 3 O X 7 o   + z j j < N < 4 4 , 3 < , > > : > : > > 3 : > O O O O 4 X   X .   7 > O O O > O O > O O : O o O O O 3 O O O 1 O   .     6 > 1 O O O > O O O O O O O O > O O O X O > 3     X     6 1 1 1 6 6   O 1 1 1 1 3 3 1 1 1 1 + O 1 1 1 1 1 O 1 w 1 O O o   6 1 O & 7 + + J J J Y U U J U w 6 E 1 6 6 1       o 0 O 6 7   ",
"O + 8 O   0 1 o X   X 0 O O   + 9 7 6 7 0 6 O 6 6 O + 8 7 7 7 7 9 7     6 9 8 ~   O > 3 4 4 n C Z r { #X3X(.(.>X7X8XpXpXsXpXpXuXhXpXpXpX7X>X>X:XpXOXp f t D { OXjX XXXXX2X2XuXpXsXpXsXuXsXsXpXpXeX,X:X>X8X0X| f i % { [.sXE.:X:X2X2XuXpXpXpXsXuXsXpXpXpXeX>X>X>X8X0X{ d p $ G #.wX.XXXXX,X,XrXpXpXpXsXpXpXsXpXpXpX2X:X,X:XiXC.f p t b b x C < , , > , > > , , : 3 > > > > : O O O > > >     = x C < , 4 < 4 4 > , , : , > > > > O : O O : O 6     < : m < < 4 > , 3 , > 4 > , > 3 > O : : > O : : 6 .   . l l ; < N x 4 4 : 4 4 , , 4 > 3 > : > > > > > : > O 6 X   .   . 6 O O O > O O O O O O O O > O O O O O > O 6 O   X X   3 O O O > O O O O 1 O > O O O O O O O : O O 3   .     X 6 3 1 O O 1   1 & + 1 1 1 O 1 O 1 1 1 1 1 O 1 O 1 1 1 O O 1 O O   X 7 O 1 O 0 +   w J J J J J + O / 8 1 6 6 O       o 8 1 6 6   ",
"O   9 O   7 1 + X   O 0 O O     V 3 6 6 0 7 O 3 6 + + 9 7 7 7 7 9 7 +   3 7 B !   O > 4 4 n 7 Z Z r p #X9X(.).XX;X2XuX8XuXeXuX8XeX8X7X,X,X:X.X).dXOXp p t D  .[.pX)..XXXXXXXuXeXuXeXrXrXeXrX8X2X,XXX.X.X7X0X{ f i # { [.pX).(.(.;X:XrXeXuX8XuXrX8XeX7X7X,XXX.X(.9XtX| f i @ F =.wX<XXX).XXXXeXrXeXeXuXuX8XeX8X7X,X>X.X.X).iXC.p p t v z x N , , , > > , , > 3 > : > O > > > > > O > O > X X < x N , , , > > : > > 3 > : > > > > > O > O O > > X o < - m n 4 , 3 : , > > , , > > : > > > O 3 O O : , o   . c l x < m n < < 4 : 4 , > , > > > > > > > o > O > : 6     o   . 8 > > > > O > > O : O O O o > O O O O O : > O   . +   3 > O O O O O > O O O O O O O O O O O O O O 1     .   + 6 1 O 3 6 1   6 w 1 1 1 O 1 w & + 1 O 1 w 1 1 O 1 1 3 O 1 O O O     6 6 O 1 6 K 1   + + + + + w ' T 3 > 6 6 +   X   + 0 6 6 6   ",
"O + 9 1   8 1 o X   X 0 > O   + 0 6 6 7 8 6 O 6 1 X X 7 6 7 7 6 V 9 +   6 0 V !   o , > 4 7 M Z N e | #X3X/.:X>X,X7X7X,X8X,X8XeX,X2X>X:X>X(.:X>XpXOXi p t D { A.pX)..XXX2XXX8X2XeX>X,XeX2X,X,XXX:XXXXX>XrX#Xp d i % { S.pX).XX:X,X,X8X2X8X>X2XeX7X7X,X:X:X(.:X:XeX#Xp f p & F #.wX.X.XXX>X>XeX,X2X7X>XeX8X,X2X:X:X:XXX>X>XfXC.d p r k b x N , 4 , 4 , , > , > , > > > > > > O : O > > 3   . - x N < 4 , , , , 4 4 > , > > > > > > : > O : > : + + ; * N n 4 , , 4 > , 4 > > > > : > > > O > : O > 7 o   . c l - - N 4 4 4 , 3 : > 4 > , > > > : > 3 O > : O > 6 X   . .   6 > : > O > O > O O O O > O O O O O > > O 6 O   + X   3 O 1 O O O O O O O O O > O O O O O O O O & 1       + + 6 1 3 3 > 1   O O 6 + 1 1 1 w 3 1 1 1 3 O 1 O 1 w & w 1 1 O O o X   X 7 1 6 O 6 / ) 8 1 O 8 ' g.K O 3 3 7 O     X + + 8 > 6 6   ",
"X X 0 >   8 1 o X   o 0 1 O   + V 6 3 6 8 7 O 6 7 O   8 7 7 7 7 V 7     3 9 9 !   : > 4 4 4 n Z Z r | #X3X~.(.>X>X>X2X8X7X,X2X8X2X2X>X>X>X:X(.E.uXOXa i i v { A.pXE.).:X>X,X,X8X7X>X2X7X7X7X>X,X>X:X>XQ.3X%X| d i $ | S.sXE./.:X>X>X,X8X8X>X2X7X7X7X,X>X>X:X>X~.3X%Xp i i $ F #.wX X/.(.>X,X>X7XeX,X2X2X7X2X2X>X>X:X>X~.E.iXC.i f t z z k N , , , , , 4 > , > , > : > > O o > : > > > >   . < x N < 4 4 , 4 , > , > > > : : > : > : O > > > >   X : : N 4 , , , , 4 , 3 > , , > : > > O : O > > : 6 . . . j z ; - N 4 , 4 4 , 4 , > > > , : > > > : O : : O > 6 X . o   X 6 > > O 3 : O o O O > O : O O O > O > O O 3 O   X X   > : O O O > O O O O O O O O O O O O O O O O 1     .     q 3 1 1 6 3 + O 1 1 & O O 1 1 1 + 6 3 O & w 1 w O O 1 1 1 O O O X     6 6 O 6 1 + 0 0.u.g.u./ . X 1 3 3 1       O   X 8 1 6 6   ",
"O   8 >   8 O O +   X 0 X O   + 0 6 6 3 7 7 > 3 6 O + 8 6 4 6 8 V 7     6 9 B !   > > 4 4 4 9 C N e p &X3XQ..XXX(.:X,X7X:X2X7X2X:X,X;X.X;X(./.E.uXOXi i t C { A.pXW..X;X(.:X:X7X>X>X7X7X;X,X>X(.XX(.(./.<X%Xp d i # p A.pX^.).:X/.;X>X2X>X>X7X2X:X,X,X(.XX.X.X).3X%Xp d i # F +.4X-X~..X.XXXXX2X2X>X2X2X2X:X,X.XXX.X(.(.E.wXC.i i e v z x N , , , 4 > : 4 > > , > > : > > > > > O O > >   . : x N n 4 , , : : > > 3 > > > > > : > > > O o > > X   ; - N x , 4 , , : > > , > > > O > : : > > > o O 6 .   . c l < < C , , , < , , 4 > , > > > : > O > > O O > : 6     .     6 O > w O O O O > > O > O O O O O O > O O 6 O   +     3 O O > O O : O O O O O O O O O O O O O O O 1     .   X 6 3 > 6 6 O   O 1 O 3 3 1 1 + 1 & 1 3 O 6 O 1 O O 1 1 O O 1 1 o X       6 q O 1 1 O   X X   X O & 1 q O       X O   + 0 1 6 6   ",
"O + 8 O   8 O O X   X 8 X O     8 3 6 6 6 8 O 3 6 O X 7 6 6 6 8 8 6     6 9 8 !   O 3 4 4 M n L Z % { +X1XW.Q.(.:X/..X,X:X:X>X2X;X:X.X;X.X(.(.Q.iXOXi i t v { S.pX_.~./.:X/.(.:X>X(.>X,X:X;X:XXX.X(././.3X%Xp d t @ { S.pX_.Q.(.:X/./.>X>X(.>X,X>X:X;X(.XX.X(.).3X%Xa i t @ F #.wX!.Q.~.XX.X(.XX>XXX>X,X,X:X:X.X.XXX(.XXE.rXC.i i r k z x Z , , 4 : 4 : : 4 , > > > > > : O O > : > > >   . = x S < 4 , , 4 : > , 4 > > > > > O > O > O > > >   . < : N n , 4 > > 4 : , 4 > > > > > > O O > > O : 7 X   : j j ; < N x x 4 , > : , > 3 , > > > > > : > > > O : 4 . + X     6 O O > : O 3 > > > O O : O O O O O > > O 3 +   . o   6 O > O > O O O O O > O O O > O O O O O O O >   X       7 6 3 O 6 6   1 1 1 3 1 1 O 1 O w 1 O O O 1 1 1 1 1 1 O 6 O O O o X       1 3 1 1 1 6 O O 1 > O 6 1 O         O O + O 0 1 3 6   ",
"O   8 3   0 > O +   X 8 O & +   9 6 7 7 8 6 O 3 6 O + 7 7 7 4 6 9 7 +   6 9 9 E   : 4 4 4 4 4 Z C e { +X3X~.~..X:X(.(.(.:XQ.:X).(.(.XX(.(.;X~.^.uXA.t i y v { A.pX_././.>X/.;X/.>X).).;X/.(.(.(.(.:XQ.~.<X#Xy d t # { S.uXW./.~.>X(.;X(.>XQ./.(./.(.(.(.(.:XQ.~.<X#Xu i t @ F #.4X X.X).XXXX/..XXX/.).XX/.(.(.XX(.XX.X~._.wX&.i i e k b x C ; , 4 < 3 4 > > > > : > > : O : > > > > > > . . = x n : , 4 4 > 4 , > , > : > > > > : O > : : > >   . < * N , , 4 , : 4 > , > > : > > : > > o > > O > 7 .   . j j < < N , , 4 , > 4 : > , > : > > : O > O > > : > 6     :   X 6 1 O O > 3 O O O O O O O O > > O O O O > 3 O   X X   6 O O O O O O O O O > O O O O + > O O O O O 1   +     X 7 O 6 O O 6   O 1 3 O O O 1 w 1 O 6 O 1 1 1 O 1 1 1 O 1 O 6 O O O o         + 1 6 6 6 6 1 6 6 6 1 +       . X + O + @ 0 1 O 6   ",
"O   8 w   8 1 O +   O 0 O O     8 3 3 3 8 6 O 6 6 + O 8 6 7 7 6 0 9 +   3 9 B !   : > > 4 4 7 C C e p &X1X!.Q./..X~.:X~.(.;X(./..X~.(.(./.Q.W.P.uXA.t i r N | A.uXJ.~.~.;XQ./././.;X:X(.(./.Q.;X(.~.W.W.=X@Xu t t @ | A.pXJ.~./.;XQ./././.:X.X(././.Q.:X(.~.W.W.=X@Xi h t @ F #.$X!. XQ..X.X/..X/.;X;X.X/..XQ..X(./.!.!.J.wX&.t i r k z x N , , , , > > > 3 > > > > 3 : > O > > O > > >   . : x N 4 , , , 3 , > > 4 > 3 : > > > : > O O > > >   . < * N 7 , 4 , 4 , > > , > > > > > > o > > : > O 7 X   X j j - < N x 4 , > , > > , > > 3 > : > > > > > > > : 6 .   *     6 > > O 6 O O O O > O > O O O O O > O > O 3 O   X +   6 O O O O : > O O > O O > O O O O O O O O O 6       X   6 1 1 6 6 6   1 w O 1 1 1 O 1 1 3 O O 3 & 1 6 O O O 3 1 1 1 & w o X X X           O O O O O X             O O O O   o 0 1 3 1   ",
"O X 8 3   8 > + X   O 0 O O   X 9 6 6 6 9 7 O 3 6 > + 8 6 7 7 6 9 6     3 8 9 !   + > 4 M 4 M Z Z e p +X1XW.W.Q.~.Q.Q.W.;X;X/.(./.~.~..X/.~.W.J.iX].t d t v | A.uXP.!.Q.(.~.Q.!.;X;X~././.~.~..X~.(.W.P.=X@Xu d t # p S.iXP.!.W.(.~.Q.!..X<X/.(./.~.~..X~./.W.L.1X@Xu t t # g +.wX!. XW.~.~.~.~.~.;X/./.(.~.~./.~./.~.U.R.rX&.t i t k z , N , , , > , > > > , > > > : > > > O : : > O 6   X * x M , , , , > : > > > > : > > > : O > > > > : 6 X . < * M x , , > > > > , > > > > > > > > O O O : X 4 X   X k j * < N 4 4 , , 4 , > : 3 > : : > > : > o > o > : 7 X   X   + 7 : O > > > O > O o > O O O O O O O O O O > O     .   4 + O : O O O o O O O O O O O O O X X X > O 1     X X   6 1 1 O 1 w   1 O 1 6 O 1 1 O 3 O 1 3 O w 1 O 1 O 1 O w 6 + w & O O X                                     X X O O   X 0 1 6 O   ",
"o . 8 O   7 1 O X   X 8 O O   + 9 6 6 3 9 6 > 6 7 O O 8 6 7 6 6 9 8     6 B 8 W   > > 7 4 7 4 C N r { +X-XU.L.!.~.!.!.W./.~.!.~.!.Q.~.W.W.~.~.R.uX].r t y v } S.iXJ.Y.W.~.W.W.!.~.(.Q.!.~.!.~.!.U.~.;XP.1X@Xy t t @ { S.iXJ.U.W.~.W.Q.W.Q.;X!.!.~.!./.!.W.~..XU.-X@Xu t r @ g +.4XY.!.L.!.W.W.!.!./.Q.!.~.!./.~.W.W..XW.R.iX&.t t e k k x N , , : , , > , > > : 3 : > > > O > O O : : > X X : x N , , > , , > > , : > > > > > O : > O O O > >   . = : N 4 4 , ; 4 > > > > : > > > > > : > > O : > 7 .   . ; j - : m , 4 : > : > > 4 > : > > > > O > O > > : O 7   X X X   7 > > O > > O > O : O O O > O : O > O O O 3 :     X   3 O O O O O O O O : O O 1 O O O O O O O O O 1           6 3 w O 6 O + & O 1 O 6 1 O 3 O 1 O 1 1 O 1 1 O 1 O & w 1 1 1 1 O O X X                             X X X O O O O   O 8 1 O 1   ",
"O X 8 >   8 1 +     + 8 & O   + 9 3 7 6 8 > O > > O X 6 7 3 6 6 9 7     6 9 9 E   : > , 4 n 7 Z B r { &X*XY.W.!.W.!.!.~.!.W.!.!.!.~.~.~.~.!.!.R.uXA.t t e m { S.iXR.!.W.W.!.!.!.!.!.!.!.!.!./.Q.~.!.!.P.*X@Xu t t @ { S.iXR.!.W.U.!.!.!.W.!.!.!.!.!.~.~.~.!.!.P.*X@Xu t t @ F #.$XT. XW.!.W.!.W.Q.!.!.!.~.!.~.~.~.!.!.U.R.wX&.t i e k l x N > , 4 4 3 , > > > > 3 : > > > : O : > > > >   X = x N : , 4 4 > > 3 > > : > > > > > O O > : > > > X X < * N , , , 6 4 > , > > > : > > > > : O O : > : 6 X . X j j - < N , , 4 4 4 > : 3 > > > > > > > : O > : O O 6 X   X     7 O > > > > O O O O o O O O O O O O O : O > O   X X   3 > O O O O O O O O O O O O O O O O O O O O 1     X + + 6 1 1 1 6 6   O 1 1 O 1 w 1 1 O 1 3 O O O 1 O w 1 1 O 1 1 + 1 1 + 1 1 O O O X                   X     + O + O X O   X 8 1 1 1   ",
"o X 8 O   8 > + O   + 8 O O     9 6 7 6 7 K 6 6 6 7 6 6 7 3 6 7 9 8     6 9 9 !   O : 6 4 6 4 C Z $ p +X1XL.W.L.P.U.U.U.U.U.!.!.U.Y.U.!.I.K.I.G.9XZ.r t e v a A.sXF.U.U.L.W.U.U.P.U.!.!.Y.U.U.U.Y.I.G.I.*X&Xy t t @ a A.pXR.U.U.P.U.U.U.U.U.!.!.U.Y.Y.P.Y.L.G.I.*X@Xy e y @ s #.wX}.I.P.U.U.U.U.P.Y.U.!.!.U.Y.U.Y.I.G.U.R.4X*.y t % k l x M : 3 , , > : , > , > O > > 3 > > O > O o > 3   o * x N < 3 , > , > , 3 > 3 : > > 3 O > > > O o > 1   X ; * N , > > 4 : > 4 , > > > > > > > > > > > o X B o o o k j - : m , , > , , : , > > > > > > > > > > : : O : 6 . X . . . 6 : > O > > O > O O O O O > O O O O O O O > O + X     6 O : O O O O O O O O O O O O O O X O O : O >     X     6 3 1 1 6 1   O 1 O 1 1 1 1 O 1 & 1 w O 1 3 O 3 O 1 O 1 O O 1 1 O O O + X   + X +   X   X   X     X X X X O X O >     6 O X     ",
"X + 0 6   V 6 O X   O 0 O 3   X 9 6 6 7 w E _ ] ] _ 0 7 7 6 7 7 9 8     6 0 9 ~   o > , 4 4 7 C Z $ i A.0XT.T.I.Y.T.T.Y.T. X}.Y.T. XI.T.Y.Y.T.}.rX&.r e t v p $.fX*XT.I.T.Y.I.T.T. X}.Y.I.*XY.U.Y.Y.T.Y.1XS.y e r # p $.fX&XT.K.I.Y.T.Y.T.!.}.Y.Y.!.Y.T.Y.Y.T.}.1XA.r e e $ s O.oX$X}.I.I.Y.I.Y.Y.Y.!.Y.Y.}.Y.I.Y.Y.T.Y. X+X+.e e r k k , M < ; > 4 4 : : : > : : O O : : o o : O > > 4 . o = , M : : > 4 , > : : : : : > : : O o O o : : > 4   . < o n , , , > 4 < > : : : : > o > : o o O : o : M     o ; - - : n , 4 , , 4 1 , > , > > > > > > : > > O : > M   + o .   6 > > > > O > > O > > > > O > > > X > O > > O   X X   6 o > > > O : o O O > : O O O O o O O : o O 1   X   + X 6 1 1 O 1 1   O 1 O & w O 1 O 1 1 1 1 1 O 1 O 1 1 1 6 O O 1 O     +                                                             ",
"                      0 & O   + 9 3 7 7 q > + o o w 3 7 3 3 7 6 9 9 +   3 7 7 !   o > 4 4 n 7 B V % p O.OX+X$X4X5X5X5X5X6X5X5X5XwX$X$X$X$X$X#X+XZ.{ y r e v f { C.@X$X%X%XwX5X5X4X6XwX4X4X4X$X$X$X$X$X+XS.+.i e e #  .{ C.#X$X$X5XwX5X5X5X6XwX5X5X4X4X$X$X$X$X+XD.+.u r e & s { %.oX+X$XwX%X4XwX5X5XwX5X5X4X$X$X$X$X$X#X&XC.p t r e k j : N N 7 B M B 4 7 4 7 7 7 7 4 7 7 6 4 4 7 4 4 O   o * : C C B M M B M 7 4 7 4 7 7 7 7 4 4 4 4 4 3 4 O + X : . n Z M M B B B 4 7 7 7 4 7 4 7 6 4 4 7 4 7 6 6   . . - - < * M , : > > : : : : o : : O o : o + + X O O : 8     o     7 O O o : o o + o o o X X o + X O o : O O 6 X   o X   3 6 O + + X + X + o + + O     O o X O + O 6 :   X X     7 1 1 & 1 1   1 w 1 O 1 1 & w O 1 + O O 1 O O w w O w O 1 O   7 g.d.u.d.w.0.0.0.0.0.0.0.0.' ' 0.>.>.8.' ' ` _ ` ` ) W ) T +   + ",
"              +     X 0 O O     9 3 6 6 6 3 7 7 q 7 7 7 7 6 7 7 9 7     3 9 9 !   : > > 3 4 7 n ^ q i i i  .O.X.O.O.O.O.O.O.X.X.X.} o.}  . .o.{ i y e e $ 2 p i y p X.O.O.O.O.O.O.O.O.X.X.o.o.X. . .o.o.p t e e # % i i t p X.O.O.O.O.X.X.O.O.X.O.o.o.o.o. .o.{  .y r r % % s i d i X.O.X.O.O.O.O.O.O.X.O.X.o.} o.o.o.o.p i y e % e ; j . : 7 B B Z K B B B B B B B B 9 7 7 B 8 9 6 X +   X * . * 7 B B B V B B B V B B B 9 9 7 8 V 9 8 7 O   . . * * X , M B B B B V B B B B B B B 8 7 B 9 9 7 >     . o - - * * > C L Z Z L Z V Z V V B Z V B B V B B V 9 7 o   X o .   O 8 B B 9 7 7 B 8 8 7 8 7 7 8 7 8 8 7 7 9 >   . o       6 7 7 7 7 8 8 6 8 7 8 8 8 7 7 6 7 6 6 > X             O O w 1 O +   O @ 1 O + w O O 1 1 + 1 w O w 1 & 1 & 1 & O X 0 ' T 0 0 0 0 7 8 7 6 8 6 8 7 7 7 8 6 8 7 7 8 7 8 7 7 7 7 T 7   mXmX",
"    .   + 1 7 O     O 0 O O     8 6 6 6 7 7 3 3 3 6 7 3 6 7 7 3 8 7     7 9 V !   X > 4 , 4 7 4 V [ y y y e % r r r % e r % % % % & % % & % % e e @ $ @ % = y t t r % % r r r % % % % % r & % % % & e r e & @ $ # # t t y e r r r r r e e % % % % % % & & % % r r # @ & $ @ 2 t r r % e e r e % r % % % % % & % % % & r e $ & $ @ % ; j * .                                           . . . : * .                                             . . : * *                                             . . o - - : *   o : O > > > : : O : O > : : O O : O : O X   . . . .       O : X X X X o o : + X X O o o o o o o     . X .       X X o o o o X X X X X X X X X X o .       o . .   + O X O + X + + X X + + O X + O O O O + @ X o + + + @ + + @ ~ ' 0 o 1 O 1 > > 1 O 1 1 1 O & 1 1 O O 3 6 O O 1 O 1 O 6 6 O mX  mXmX",
".     O _ 0.g.r.O   O 0 O w   X 8 3 6 6 6 3 6 7 7 6 7 7 7 6 6 6 7 6     6 9 9 ~   X > > , , 4 7 6 B [ 0 X = = = = = = * : = = : X * = = = ; ; - = : = = ; - ; ; ; ; ; ; : = ; ; ; ; ; ; = ; - - : = = = ; - = ; ; - ; ; : = ; : ; - - ; ; ; * ; = = = = ; - = = = : ; - ; ; x ; k ; ; ; = ; ; - = = - ; = = ; - = = ; - = = ; - ; ; j - * * . * .   * .       *     .       . .       . . . * * . * .   . .       .   . . .     . .       . . . o * * . * *   . . .   . . .     .                 . . .   : * * * * .   +       .     X                         . . . X * .   +                   .                 . . . . X X .                                                   6 ' d.g.g.d.g.g.g.g.g.g.d.d.d.u.d.u.d.e.e.d.u.u.e.e.u.d.d.e.e.q.0 O 1 1 1 3 1 > O 3 1 3 1 1 1 1 6 6 1 1 O 1 1 O 3 O 6 7 O       mXmX",
"    X E 0 1 6 ) ' X X 7 6 O   + 9 6 6 6 7 3 6 3 6 7 7 6 6 6 8 8 9 6 +   3 9 7 ~   + > > 6 4 4 4 n 7 7 2.0   * * . . . * * . . * * * * * . * * * * * * * - * * * - - - * * * * - * * * * * * * * * * * - - - - - - - - - - - - * * - * * * - * * * - * * * * * * : * - - - - j j - - - - * * * * * * * * * * * * * * * * * * * * * - - - * * - - * * - * - * * * * * * * * * * * * - - * - - - - - - * * * * * * * * * - * * * * * * * * * * * - * - - - - * * - * * * * * * * * * * * * * * * * * * * * * * * * * . * . * . * . *   . * . . . . . . o   . .   . . . * . . .   .   . . . .         .       .   .   . o     .     .     .           .       .             .   .     3 ~ 8 8 8 8 0 q 8 7 8 q 8 8 0 q 8 6 6 8 q 6 0 q 6 8 6 6 9 6 8 6 O w 1 O 3 1 O O O 6 6 1 1 w O w 6 1 O 1 1 1 O O > O O 6         mXmXmX",
"mXmX0 T 6 6 7 6 ) )     6 &   + 8 3 6 6 6 3 3 3 3 6 7 6 3 7 7 6 9 7     3 9 4 !   : > 3 6 4 4 7 7 4 6 B ,.8   * * * * * * * * * * * * * * * * * * * * * - - - < - - - - - * * - - - * * * * * * - * - - - - * - - - - - - - - - - - * - - - - - * * * * - * * j * - j * - - - * - - - - - - - - * * - - - * - j * - - - * * - - - - - - - - * - - - - - - - - - - - - - * - - - - - - - - j - - - - - - - - - - - - * - - - * * - - - * - - - - - * * - - * j - - * - * * - * * * * * * * * * * * * * * * * . * . * . * . . . . . . . . . . . . . . . . . . . . o . . . . . .   . .     . . . . .   .   . . .   .       . . X . .   . . . . . .   .     .     X X   . . .   . + q E 3 6 6 8 6 6 8 6 6 7 6 6 7 6 6 6 6 6 6 6 6 6 6 6 6 6 6 6 w 6 3 3 1 1 O 3 O 1 1 > O > O 1 O 1 O O O O O O w O 1 6 O 6           mXmXmX",
"mXmX0 8 6 1 3 3 1 ` / +   O     8 1 6 6 6 7 6 6 6 6 7 6 6 9 6 6 7 7 +   1 7 7 W   o > 4 4 6 4 7 4 M 7 4 Z :.V > > , : > > > : > > , , > , , , > , , , , , , , > , , , , , , , , , > , , 2 , , > ; , , , , , , , ; , , , , , , , , ; , , , ; , 2 : , , , , , , , , ; 4 ; , , , , > , , , ; , , , , , ; , ; , , , , , , ; , , , 4 , , , , , , , , , ; , , , , > , , , , ; , ; , , , , , 4 , , , ; , , , , , , , , , , , , , > , > , , ; , ; 4 , , , , > ; , ; 2 > , > > = 2 > , , 2 > , > > = 2 > > > > = : O > O : O > > O > O O O O O O O O O O X O X O o O o O O O o X O O O O O O O O O X X o + + X @ O O O X X + o + + X @ X O X X X + X o o + @ + + O O X X + @ O O X + X 8 T > 6 6 6 6 6 6 6 6 6 6 6 6 6 > 1 6 3 6 6 1 6 > 6 3 6 O 1 1 > > 1 1 O 6 6 O O O 1 O O > O 1 3 O O > O 3 O > O 3 1 O O +           mXmXmX",
"mXmXO 7 6 6 6 6 3 1 ] ] O     + 8 6 6 6 6 6 6 7 7 6 6 7 9 7 7 6 8 8     3 7 3 W   + > > 3 4 4 7 4 7 M 4 4 V t.i.y.y.i.p.p.i.t.t.a.i.a.a.t.a.i.a.i.i.a.a.a.i.i.a.i.p.i.i.i.i.a.a.i.i.p.p.i.h.i.h.h.i.i.p.h.h.p.p.p.p.j.h.p.h.p.h.h.h.p.s.h.p.i.i.p.p.p.p.p.p.h.h.h.p.j.p.p.j.f.s.k.s.j.j.j.j.h.p.p.s.s.p.s.s.j.p.h.j.f.p.p.s.s.s.s.s.s.j.p.s.j.p.j.h.p.p.p.j.j.s.p.j.s.s.s.f.s.h.s.k.k.k.k.k.f.h.h.j.s.h.k.k.k.j.p.j.k.k.k.k.s.j.k.s.s.s.p.s.f.f.s.s.k.k.k.k.p.s.s.s.p.f.p.s.f.p.p.s.p.p.s.f.p.d.p.u.d.p.u.p.u.u.u.u.u.d.u.u.u.u.d.d.d.u.u.u.u.u.u.u.e.e.u.u.q.e.r.e.r.r.r.e.w.r.e.e.0.w.r.r.r.0.r.r.w.0.0.e.w.0.r.r.0.0.r.r.0.0.0.0.0.r.0.0.0.0.0.0.0.0.0.0.' ' >.' ' ' 0.>.W 0 7 6 6 6 6 7 8 6 6 1 6 6 6 6 6 6 6 6 6 > 6 6 6 6 6 6 > 6 3 6 1 O 3 6 O > O > > O 1 > 6 O 1 O 1 O 6 O 1 O > O O O O O             mXmXmXmX",
"mXmXmX6 q 6 6 6 6 6 O W ) X     7 6 1 6 6 6 6 6 6 7 6 6 7 6 6 6 0 8     6 9 7 E   O , > 4 3 4 4 4 4 7 9 M 4 7 V K L L L K Z L Z T Z T H H L L L Z V V Z L H Z L L R P L H L L L L L R L L L P L L L R R P Q L L R R R P R R R Q Q Q R Q Q R R P R Q Q Q P R ! ! P P Q R P R P ! Q Q Q ! ! R P ! L P ! Q Q Q I Q Q Q ! Q Q ! P Q Q Q Q R Q Q Q Q Q Q Q R Q Q Q Q R Q Q R Q Q ! Q Q Q ! Q Q Q Q Q R ! R Q P Q Q Q Q R R R Q R R Q R Q Q R R R R R Q R R R ! Q ! R Q R R Q R R T R R R R R T R R L R T E T R R T L T T T T T T T R R T R R T R T T T R E T T T K L K T T T K T T T T T T T T K K T K K K K V T T T K K K K K K K K V T K T T K K K K K K K K 0 0 V 0 K K 0 K 0 8 6 6 6 > 7 6 > O X O O X X O O O X O O O O X X X X X O   O X X X X + +     O X   O + X   O + O X X X X   O + O   X X             mXmXmXmXmX",
"mXmXmX  3 7 6 > 6 6 7 O / ) +   6 6 6 7 7 7 9 8 7 8 7 7 9 7 7 9 0 8     6 7 9 E   : 3 > 4 3 6 6 7 4 7 M 7 B 7 B 7 M 4 4 M 7 8 M B M B M M 7 M M B B M M M M B M M M M M C M M B B M M B B B C N N M M N M M M C M M N B N n M N N B N B M B M M C M C N C M M M C B N N C M C C N N C C C C B C C B M N M C C B M N C N M B B n N B M M M N n M M C N Z M M M N N C Z B B C C N M C C B M M C B M N M M B B M C M M Z M N C M B C B B B M M Z Z B Z B Z M M B M M B B B Z M B V V M M M M M 8 M B B B B 7 M B 7 B B B B B B 8 V B 9 7 8 8 9 8 7 7 7 6 6 7 6 6 7 7 7 7 6 8 7 7 q 6 7 7 6 7 6 6 7 6 7 6 9 8 6 6 6 6 7 6 6 6 6 6 6 7 6 6 6 6 q 1 6 6 6 6 3 6 6 6 1 6 6 1 6 6 6 6 3 6 6 7 O                                                                                                                       mXmXmXmXmX",
"mXmXmXmXmX> 9 6 3 3 O 3 > ) ~   +   + & o o + O X w O + + O O O + o   + 6 7 7 R   + > 4 6 4 6 4 4 4 7 7 4 4 7 M 7 4 n 4 7 , 4 n x , n 7 M M , x , M M M n 4 n M M M 4 x M M x M M M M x m m M M M n x M n M M M M N M M N n n n M M M N M M M M n n M C N N N N M N N M M N B N M M N M N N N N B N M M M N N N M M M M C N N N N M C M m N M m N M N M N N M N B N n C M N C B M M M M n M M M M M M m N n n B B C C M M N B M M M M M M B M M N B M M M M 7 x M M B M M M 7 M B B M 7 x B B M M x n M 7 4 M 7 6 4 M 4 7 6 7 M 7 4 4 6 4 , M 7 7 4 7 4 7 7 8 6 4 , 7 7 4 7 7 , > 4 , q 4 1 > , 7 6 , 1 , 6 6 1 6 , 3 6 6 1 6 6 > > 7 6 4 6 3 3 6 6 6 > 6 6 3 6 1 1 1 1 > q 3 3 6 7 O         .                                               .                                                           mXmXmXmXmXmXmX",
"mXmXmXmXmXmX> 7 6 6 6 6 3 6 ` W 0 0 0 0 8 8 6 9 8 6 8 9 7 6 8 8 8 9 0 0 7 7 9 K   : > > 7 3 4 6 4 4 4 7 M 7 4 M M 7 M 7 M M M M M M M M x 7 7 M M B M M M M M M M n M M x M M M M M M M M n N N N N N M N M M M M N M M N N N N m M M M N N N N N N N M N M N N N N m N N C N N Z N N N Z N N Z C N N N N N N M N Z Z N C C N N M N N M M N C N N N N C N Z Z N C C N M C N N N N C N v M M N N N N N N M N N N N N N N M B C N C N B M M N N N C B M x M M M M M M M M M M M M M M M M B B M M B B M B M M , 7 M n 7 4 7 M 7 4 7 8 M M M 7 7 7 7 M 4 7 M 4 6 > 6 7 , 6 6 4 , 7 6 6 4 4 4 4 6 7 7 3 6 1 4 4 4 6 6 6 6 3 7 6 1 6 3 6 6 6 6 6 , > 1 > > 3 1 > 1 > 1 O 1 1 > 6 7 3 1             . X X X . X . X     X . o . X X .   . . X .   . .   X X . X X . .   +   . X     .       X                   mXmXmXmXmXmXmX",
"mXmXmXmXmXmXmX> 7 3 6 6 6 6 7 / / / W / / / W / / W W W W / / / / / / ~ 7 7 V L   O > 4 , , 3 3 3 7 7 > : O : O O : O O : : o : o : : > : : : : : > : : : O : : = : O : : : : O > : : > : > 1 1 , > > > > : : : > ; > : > : : > : > : , , : > > , > > ; > > : > > ; > > : ; , : , , 4 > , , : , 3 ; > > , > > : : , : , ; 3 > : > : > > > , : : , : > > : : > ; : , > > : : : , > : > > > , ; : : > > : > ; > > > > : > > ; > > > > > : : > : > > > : > > : : > > = O > > O = > O : : O : > : > > : > O O o : O : O o O O O > > O O : O O X : O : O O O O O O O : O X O O O : O O X X O O O O O O + O O O X O O O O X O O X O O X X + X o o X X O X X   X X X   X   + X   O O X         . X   o X X X   X .   X . + X X   X O     X . . . + . X X . X + X     O X   X . + X X       X X                 mXmXmXmXmXmXmXmX",
"mXmXmXmXmXmXmX  1 7 3 6 6 3 6 6 6 7 6 6 3 3 6 6 6 8 6 6 6 6 9 6 7 9 7 7 3 7 9 K   O > 6 4 6 4 4 , 7 O                                                                                                                                                                                                                                                       +                                                           +                                                                                                                                                                                                                                                           + X o o o X + o O O X X X X X X X . X X + O O O   X X X X X + X X   + X O   + X X X   . X X X X X                 mXmXmXmXmXmXmXmXmX",
"mXmXmXmXmXmXmXmXmX6 8 3 3 6 7 3 6 7 7 6 7 7 7 6 6 8 6 7 7 9 7 6 3 7 7 6 9 9 9 R   > > 6 > 6 6 , 7 O       .   . . . . . .   . *   . . * * . . * . . . * . . . . . * . . . * . . . . . . . * . . * . . . * . . * . . . * . * . . * * . . * . * . * . * . * . . * * . * . . . * . * . * * . * * . * . . * . . . * . . . . *   . * * . * . . * . * . . * . . * * . * . . * * . . * *   . . *   . . * . * .   * * . . * . * . . . * . . .   *   . . . * . * * . . . .   . . .   . . . * . . . *     . . . . .   .         . .   . .     .     .     .       .     .               .                   .                                                                               X X   + O O o X X o o o o X X   X X X + X +   X X + X X O X   X + X X O   + X X X   O +   O X +                   mXmXmXmXmXmXmXmXmXmX",
"mXmXmXmXmXmXmXmXmXmXO 7 6 6 6 7 6 6 6 1 7 3 7 6 6 6 6 7 6 6 6 7 7 8 7 3 7 4 7 T   : > , , 6 3 6 :     o : > ; , < ; < < , ; < , , , , ; , ; < , ; , , , , , , ; < , < , , , ; , ; k , ; ; < x < , , , ; ; , , , x x , , < x , , ; 4 < x , x ; , , x x < ; , x < , x x x x x x , , , < , x , , x x , , , x x , , x x x x , x , , , x , x , , , , x , , x x , , , x , x , ; , x , x , ; x , x x , , , , x x , , x , , x x x , , , x x x j x , x , x < , , , , , ; ; , j , ; , , , , < , ; > ; , ; ; , , , , , < > , ; , : ; , , ; , > ; , ; < : > ; : ; : : > : : : : : = : : : : = : = : > > = : : : : : : : : O : o X : : : : : O > : : o : O : X : X : : X X O X X X X   o : o > > > > 3 6 > 6 6 3 > 1 1 > 6 > 6 > > > 6 > 1 1 3 O > > > O > 6 1 1 > > > 1 3 O > > > O > 1 O O O                   mXmXmXmXmXmXmXmXmXmX",
"mXmXmXmXmXmXmXmXmXmXmXO 6 6 6 8 9 6 7 7 7 7 8 8 7 8 7 7 7 7 7 7 7 7 7 7 9 7 9 V   + > > > > > O mXmXmXmX    +   X       X       X   +   +   X     .       X   .     . .     X   + +   .   X   . .   . .   . . +     X     . . . X   . . +   X   . o     . + X .   . X +   X   .   X . .   X   X . X   X   X   . .     X . . X .   o   o   X . . X +   X   . . X     . . . .   . X     .   . X .   . X     . o   . o   o   o   . X   o .   .   o     X     . X .   X +     X   X X     . X +     . + o         X +   X +   + +   X     + +   +   +   .               +       X   .   +                                                                                 mXmXX O X O O O O O O O o O O o X O O O O O O O X X X X X + O X O X O O + O O X + O O O O X + X X   X O O                   mXmXmXmXmXmXmXmXmXmXmX",
"mXmXmXmXmXmXmXmXmXmXmXmXX O + O o o X o O + O O X o X + o o o o X X O O + O O mX  : > > 6 6 O mXmXmXmXmXmXmXmXmXmXmXmXmXmXmXmXmXmXmXmXmXmXmXmXmXmXmXmXmXmXmXmXmXmXmXmXmXmXmXmXmXmXmXmXmXmXmXmXmXmXmXmXmXmXmXmXmXmXmXmXmXmXmXmXmXmXmXmXmXmXmXmXmXmXmXmXmXmXmXmXmXmXmXmXmXmXmXmXmXmXmXmXmXmXmXmXmXmXmXmXmXmXmXmXmXmXmXmXmXmXmXmXmXmXmXmXmXmXmXmXmXmXmXmXmXmXmXmXmXmXmXmXmXmXmXmXmXmXmXmXmXmXmXmXmXmXmXmXmXmXmXmXmXmXmXmXmXmXmXmXmXmXmXmXmXmXmXmXmXmXmXmXmXmXmXmXmXmXmXmXmXmXmXmXmXmXmXmXmXmXmXmXmXmXmXmXmXmXmXmXmXmXmXmXmXmXmXmXmXmXmXmXmXmXmXmXmXmXmXmXmXmXmXmXmXmXmXmXmXmXmXmXmXmXmXmXmXmXmXmXmXmXmXmXmXmXmXmXmXmXmXmXmXmXmXmXmXmXmXmXmXmXmXmXmXmXmXmXmXmXmXmXmXmXmXmXmXmX  +                                                                                                                   mXmXmXmXmXmXmXmXmXmXmXmX",
"mXmXmXmXmXmXmXmXmXmXmXmXmXmXmXmXmXmXmXmXmXmXmXmXmXmXmXmXmXmXmXmXmXmXmXmXmXmXmXmXmXmXmX1 6 + mXmXmXmXmXmXmXmXmXmXmXmXmXmXmXmXmXmXmXmXmXmXmXmXmXmXmXmXmXmXmXmXmXmXmXmXmXmXmXmXmXmXmXmXmXmXmXmXmXmXmXmXmXmXmXmXmXmXmXmXmXmXmXmXmXmXmXmXmXmXmXmXmXmXmXmXmXmXmXmXmXmXmXmXmXmXmXmXmXmXmXmXmXmXmXmXmXmXmXmXmXmXmXmXmXmXmXmXmXmXmXmXmXmXmXmXmXmXmXmXmXmXmXmXmXmXmXmXmXmXmXmXmXmXmXmXmXmXmXmXmXmXmXmXmXmXmXmXmXmXmXmXmXmXmXmXmXmXmXmXmXmXmXmXmXmXmXmXmXmXmXmXmXmXmXmXmXmXmXmXmXmXmXmXmXmXmXmXmXmXmXmXmXmXmXmXmXmXmXmXmXmXmXmXmXmXmXmXmXmXmXmXmXmXmXmXmXmXmXmXmXmXmXmXmXmXmXmXmXmXmXmXmXmXmXmXmXmXmXmXmXmXmXmXmXmXmXmXmXmXmXmXmXmXmXmXmXmXmXmXmXmXmXmXmXmXmXmXmXmXmXmXmXmXmXmXmXmXmXmXmX    mX                                                                                                        mXmXmXmXmXmXmXmXmXmXmXmXmXmX",
"mXmXmXmXmXmXmXmXmXmXmXmXmXmXmXmXmXmXmXmXmXmXmXmXmXmXmXmXmXmXmXmXmXmXmXmXmXmXmXmXmXmXmXmXmXmXmXmXmXmXmXmXmXmXmXmXmXmXmXmXmXmXmXmXmXmXmXmXmXmXmXmXmXmXmXmXmXmXmXmXmXmXmXmXmXmXmXmXmXmXmXmXmXmXmXmXmXmXmXmXmXmXmXmXmXmXmXmXmXmXmXmXmXmXmXmXmXmXmXmXmXmXmXmXmXmXmXmXmXmXmXmXmXmXmXmXmXmXmXmXmXmXmXmXmXmXmXmXmXmXmXmXmXmXmXmXmXmXmXmXmXmXmXmXmXmXmXmXmXmXmXmXmXmXmXmXmXmXmXmXmXmXmXmXmXmXmXmXmXmXmXmXmXmXmXmXmXmXmXmXmXmXmXmXmXmXmXmXmXmXmXmXmXmXmXmXmXmXmXmXmXmXmXmXmXmXmXmXmXmXmXmXmXmXmXmXmXmXmXmXmXmXmXmXmXmXmXmXmXmXmXmXmXmXmXmXmXmXmXmXmXmXmXmXmXmXmXmXmXmXmXmXmXmXmXmXmXmXmXmXmXmXmXmXmXmXmXmXmXmXmXmXmXmXmXmXmXmXmXmXmXmXmXmXmXmXmXmXmXmXmXmXmXmXmXmXmXmXmXmXmXmXmXmXmXmXmXmXmXmXmXmXmXmXmXmXmXmXmXmXmXmXmXmXmXmXmXmXmXmXmXmXmXmXmXmXmXmXmXmXmXmXmXmXmXmXmXmXmXmXmXmXmXmXmXmX    mXmXmXmXmXmXmXmXmXmXmXmXmXmXmXmXmXmX",
"mXmXmXmXmXmXmXmXmXmXmXmXmXmXmXmXmXmXmXmXmXmXmXmXmXmXmXmXmXmXmXmXmXmXmXmXmXmXmXmXmXmXmXmXmXmXmXmXmXmXmXmXmXmXmXmXmXmXmXmXmXmXmXmXmXmXmXmXmXmXmXmXmXmXmXmXmXmXmXmXmXmXmXmXmXmXmXmXmXmXmXmXmXmXmXmXmXmXmXmXmXmXmXmXmXmXmXmXmXmXmXmXmXmXmXmXmXmXmXmXmXmXmXmXmXmXmXmXmXmXmXmXmXmXmXmXmXmXmXmXmXmXmXmXmXmXmXmXmXmXmXmXmXmXmXmXmXmXmXmXmXmXmXmXmXmXmXmXmXmXmXmXmXmXmXmXmXmXmXmXmXmXmXmXmXmXmXmXmXmXmXmXmXmXmXmXmXmXmXmXmXmXmXmXmXmXmXmXmXmXmXmXmXmXmXmXmXmXmXmXmXmXmXmXmXmXmXmXmXmXmXmXmXmXmXmXmXmXmXmXmXmXmXmXmXmXmXmXmXmXmXmXmXmXmXmXmXmXmXmXmXmXmXmXmXmXmXmXmXmXmXmXmXmXmXmXmXmXmXmXmXmXmXmXmXmXmXmXmXmXmXmXmXmXmXmXmXmXmXmXmXmXmXmXmXmXmXmXmXmXmXmXmXmXmXmXmXmXmXmXmXmXmXmXmXmXmXmXmXmXmXmXmXmXmXmXmXmXmXmXmXmXmXmXmXmXmXmXmXmXmXmXmXmXmXmXmXmXmXmXmXmXmXmXmXmXmXmXmXmXmXmXmXmXmXmXmXmXmXmXmXmXmXmXmXmXmXmXmXmXmXmXmXmXmXmX",
"mXmXmXmXmXmXmXmXmXmXmXmXmXmXmXmXmXmXmXmXmXmXmXmXmXmXmXmXmXmXmXmXmXmXmXmXmXmXmXmXmXmXmXmXmXmXmXmXmXmXmXmXmXmXmXmXmXmXmXmXmXmXmXmXmXmXmXmXmXmXmXmXmXmXmXmXmXmXmXmXmXmXmXmXmXmXmXmXmXmXmXmXmXmXmXmXmXmXmXmXmXmXmXmXmXmXmXmXmXmXmXmXmXmXmXmXmXmXmXmXmXmXmXmXmXmXmXmXmXmXmXmXmXmXmXmXmXmXmXmXmXmXmXmXmXmXmXmXmXmXmXmXmXmXmXmXmXmXmXmXmXmXmXmXmXmXmXmXmXmXmXmXmXmXmXmXmXmXmXmXmXmXmXmXmXmXmXmXmXmXmXmXmXmXmXmXmXmXmXmXmXmXmXmXmXmXmXmXmXmXmXmXmXmXmXmXmXmXmXmXmXmXmXmXmXmXmXmXmXmXmXmXmXmXmXmXmXmXmXmXmXmXmXmXmXmXmXmXmXmXmXmXmXmXmXmXmXmXmXmXmXmXmXmXmXmXmXmXmXmXmXmXmXmXmXmXmXmXmXmXmXmXmXmXmXmXmXmXmXmXmXmXmXmXmXmXmXmXmXmXmXmXmXmXmXmXmXmXmXmXmXmXmXmXmXmXmXmXmXmXmXmXmXmXmXmXmXmXmXmXmXmXmXmXmXmXmXmXmXmXmXmXmXmXmXmXmXmXmXmXmXmXmXmXmXmXmXmXmXmXmXmXmXmXmXmXmXmXmXmXmXmXmXmXmXmXmXmXmXmXmXmXmXmXmXmXmXmXmXmXmXmXmXmXmXmX",
"mXmXmXmXmXmXmXmXmXmXmXmXmXmXmXmXmXmXmXmXmXmXmXmXmXmXmXmXmXmXmXmXmXmXmXmXmXmXmXmXmXmXmXmXmXmXmXmXmXmXmXmXmXmXmXmXmXmXmXmXmXmXmXmXmXmXmXmXmXmXmXmXmXmXmXmXmXmXmXmXmXmXmXmXmXmXmXmXmXmXmXmXmXmXmXmXmXmXmXmXmXmXmXmXmXmXmXmXmXmXmXmXmXmXmXmXmXmXmXmXmXmXmXmXmXmXmXmXmXmXmXmXmXmXmXmXmXmXmXmXmXmXmXmXmXmXmXmXmXmXmXmXmXmXmXmXmXmXmXmXmXmXmXmXmXmXmXmXmXmXmXmXmXmXmXmXmXmXmXmXmXmXmXmXmXmXmXmXmXmXmXmXmXmXmXmXmXmXmXmXmXmXmXmXmXmXmXmXmXmXmXmXmXmXmXmXmXmXmXmXmXmXmXmXmXmXmXmXmXmXmXmXmXmXmXmXmXmXmXmXmXmXmXmXmXmXmXmXmXmXmXmXmXmXmXmXmXmXmXmXmXmXmXmXmXmXmXmXmXmXmXmXmXmXmXmXmXmXmXmXmXmXmXmXmXmXmXmXmXmXmXmXmXmXmXmXmXmXmXmXmXmXmXmXmXmXmXmXmXmXmXmXmXmXmXmXmXmXmXmXmXmXmXmXmXmXmXmXmXmXmXmXmXmXmXmXmXmXmXmXmXmXmXmXmXmXmXmXmXmXmXmXmXmXmXmXmXmXmXmXmXmXmXmXmXmXmXmXmXmXmXmXmXmXmXmXmXmXmXmXmXmXmXmXmXmXmXmXmXmXmXmXmXmXmXmX"
};
