/* XPM */
static const char *player8_xpm[] = {
/* columns rows colors chars-per-pixel */
"394 80 228 2 ",
"   c #020402",
".  c #040A04",
"X  c #080B07",
"o  c #070C08",
"O  c #0A0E0A",
"+  c #060607",
"@  c #160605",
"#  c #1A0706",
"$  c #150E05",
"%  c #1C0A06",
"&  c #1E0A08",
"*  c #031303",
"=  c #091505",
"-  c #041A03",
";  c #091905",
":  c #061409",
">  c #0B130C",
",  c #071809",
"<  c #0B1A0D",
"1  c #10140F",
"2  c #1A1C0A",
"3  c #181508",
"4  c #0F1410",
"5  c #0E1A10",
"6  c #08131A",
"7  c #111612",
"8  c #141A15",
"9  c #181C17",
"0  c #171D18",
"q  c #191E19",
"w  c #070C10",
"e  c #230604",
"r  c #2A0705",
"t  c #230907",
"y  c #240A08",
"u  c #2D0C0A",
"i  c #2C0907",
"p  c #330906",
"a  c #340D0B",
"s  c #3B0D0B",
"d  c #3D0A07",
"f  c #34100E",
"g  c #3A110F",
"h  c #2C120F",
"j  c #052403",
"k  c #062B04",
"l  c #092C06",
"z  c #0C220D",
"x  c #092707",
"c  c #192C0C",
"v  c #17270B",
"b  c #093406",
"n  c #0A3A06",
"m  c #0A3707",
"M  c #1C300C",
"N  c #0E2311",
"B  c #0F2812",
"V  c #132415",
"C  c #132915",
"Z  c #162319",
"A  c #1B231C",
"S  c #162A19",
"D  c #1A2B1C",
"F  c #192217",
"G  c #1B331E",
"H  c #18341D",
"J  c #20241F",
"K  c #20281F",
"L  c #0A1A25",
"P  c #0C212D",
"I  c #1F2520",
"U  c #1D2C20",
"Y  c #1D3420",
"T  c #1E3921",
"R  c #0C2638",
"E  c #102B3F",
"W  c #212622",
"Q  c #242B24",
"!  c #272E28",
"~  c #292E2A",
"^  c #282B27",
"/  c #253325",
"(  c #273329",
")  c #2A322C",
"_  c #253926",
"`  c #2E3630",
"'  c #2F3931",
"]  c #313632",
"[  c #343A35",
"{  c #393D3A",
"}  c #373C38",
"|  c #343229",
" . c #440C0A",
".. c #4A0E0B",
"X. c #51100D",
"o. c #4C120F",
"O. c #6F1E1B",
"+. c #772722",
"@. c #0D4109",
"#. c #3B433D",
"$. c #38443C",
"%. c #0E2D44",
"&. c #133857",
"*. c #113048",
"=. c #3E4541",
"-. c #3E4B42",
";. c #414642",
":. c #444B45",
">. c #464D49",
",. c #494E4A",
"<. c #445549",
"1. c #4B534D",
"2. c #465A4B",
"3. c #495C4E",
"4. c #425246",
"5. c #4E5651",
"6. c #4E5B52",
"7. c #515552",
"8. c #525C54",
"9. c #595E5A",
"0. c #565E59",
"q. c #5B635D",
"w. c #566A5A",
"e. c #5A6B5E",
"r. c #556358",
"t. c #546A57",
"y. c #5E6C62",
"u. c #5E6661",
"i. c #5E7262",
"p. c #626C65",
"a. c #656B67",
"s. c #627465",
"d. c #647469",
"f. c #6B736D",
"g. c #657869",
"h. c #657868",
"j. c #6E7671",
"k. c #737B75",
"l. c #727874",
"z. c #60665F",
"x. c #8C2B26",
"c. c #9A3E39",
"v. c #95312C",
"b. c #BD2B28",
"n. c #A53C35",
"m. c #AA3C36",
"M. c #A2332E",
"N. c #81231F",
"B. c #C42E2B",
"V. c #CB2E2A",
"C. c #D12F2B",
"Z. c #CD312E",
"A. c #C7312E",
"S. c #D2322E",
"D. c #D9312D",
"F. c #D53632",
"G. c #DB3632",
"H. c #DC3A35",
"J. c #DB3A36",
"K. c #CE3532",
"L. c #E1322E",
"P. c #EB3632",
"I. c #E43A36",
"U. c #EA3A36",
"Y. c #E43C39",
"T. c #EC3D39",
"R. c #E43431",
"E. c #F33E3A",
"W. c #F53B38",
"Q. c #9C413C",
"!. c #A4433D",
"~. c #AB413B",
"^. c #BA423B",
"/. c #EB423D",
"(. c #F5413D",
"). c #F9433E",
"_. c #C1463F",
"`. c #AD4944",
"'. c #AA4641",
"]. c #B14944",
"[. c #B94B46",
"{. c #DA4A45",
"}. c #CB544D",
"|. c #D5544C",
" X c #CE5952",
".X c #D35B54",
"XX c #DA5E57",
"oX c #C94B44",
"OX c #E84C46",
"+X c #FB4641",
"@X c #FC4A44",
"#X c #FE4F48",
"$X c #F44843",
"%X c #E4544D",
"&X c #EC534D",
"*X c #F3524C",
"=X c #FE534C",
"-X c #EB5651",
";X c #E85952",
":X c #F35A54",
">X c #FE5B54",
",X c #F85A54",
"<X c #DB635D",
"1X c #D4615B",
"2X c #FE645B",
"3X c #FA625A",
"4X c #DC6760",
"5X c #FE6C63",
"6X c #FE6E67",
"7X c #FE736B",
"8X c #FF776D",
"9X c #FF7B74",
"0X c #FF7F78",
"qX c #FE7770",
"wX c #E66E66",
"eX c #748579",
"rX c #FF837C",
"tX c #FF8077",
"yX c #7B8F81",
"uX c #FF8681",
"iX c #FF8B85",
"pX c #FF8E89",
"aX c #FF928D",
"sX c #FF9691",
"dX c #FF9995",
"fX c #FF9D99",
"gX c #839689",
"hX c #000001",
/* pixels */
"hXhXhXhXhXhXhXhXhXhXhXhX                                                        hXhXhXhXhXhXhXhXhXhXhXhXhXhXhXhXhXhXhXhXhXhXhXhXhXhXhXhXhXhXhXhXhXhXhXhXhXhXhXhXhXhXhXhXhXhXhXhXhXhXhXhXhXhXhXhXhXhXhXhXhXhXhXhXhXhXhXhXhXhXhXhXhXhXhXhXhXhXhXhXhXhXhXhXhXhXhXhXhXhXhXhXhXhXhXhXhXhXhXhXhXhXhXhXhXhXhXhXhXhXhXhXhXhXhXhXhXhXhXhXhXhXhXhXhXhXhXhXhXhXhXhXhXhXhXhXhXhXhXhXhXhXhXhXhXhXhXhXhXhXhXhXhXhXhXhXhXhXhXhXhXhXhXhXhXhXhXhXhXhXhXhXhXhXhXhXhXhXhXhXhXhXhXhXhXhXhXhXhXhXhXhXhXhXhXhXhXhXhXhXhXhXhXhXhXhXhXhXhXhXhXhXhXhXhXhXhXhXhXhXhXhXhXhXhXhXhXhXhXhXhXhXhXhXhXhXhXhXhXhXhXhXhXhXhXhXhXhXhXhXhXhXhXhXhXhXhXhXhXhXhXhXhXhXhXhXhXhXhXhXhXhXhXhXhXhXhXhXhXhXhXhXhXhXhXhXhXhXhXhXhXhXhXhXhXhXhXhXhXhXhXhXhXhXhXhXhXhXhXhXhXhXhXhXhXhXhXhXhXhXhXhXhXhXhXhXhXhXhXhXhXhXhXhXhXhXhXhXhXhXhXhXhXhXhXhXhXhXhXhXhXhXhXhX",
"hXhXhXhXhXhXhXhXhXhXhXhX{ ] ^ Q ~ ~ ^ Q W W ! I ~ ~ ~ W U I q I I q A I I ^ Q ) I hXhXhXhXhXhXhXhXhXhXhXhXhXhXhXhXhXhXhXhXhXhXhXhXhXhXhXhXhXhXhXhXhXhXhXhXhXhXhXhXhXhXhXhXhXhXhXhXhXhXhXhXhXhXhXhXhXhXhXhXhXhXhXhXhXhXhXhXhXhXhXhXhXhXhXhXhXhXhXhXhXhXhXhXhXhXhXhXhXhXhXhXhXhXhXhXhXhXhXhXhXhXhXhXhXhXhXhXhXhXhXhXhXhXhXhXhXhXhXhXhXhXhXhXhXhXhXhXhXhXhXhXhXhXhXhXhXhXhXhXhXhXhXhXhXhXhXhXhXhXhXhXhXhXhXhXhXhXhXhXhXhXhXhXhXhXhXhXhXhXhXhXhXhXhXhXhXhXhXhXhXhXhXhXhXhXhXhXhXhXhXhXhXhXhXhXhXhXhXhXhXhXhXhXhXhXhXhXhXhXhXhXhXhXhXhXhXhXhXhXhXhXhXhXhXhXhXhXhXhXhXhXhXhXhXhXhXhXhXhXhXhXhXhXhXhXhXhXhXhXhXhXhXhXhXhXhXhXhXhXhXhXhXhXhXhXhXhXhXhXhXhXhXhXhXhXhXhXhXhXhXhXhXhXhXhXhXhXhXhXhXhXhXhXhXhXhXhXhXhXhXhXhXhXhXhXhXhXhXhXhXhXhXhXhXhXhXhXhXhXhXhXhXhXhXhXhXhXhXhXhXhXhXhXhXhXhXhXhXhXhXhXhXhXhXhXhXhXhXhXhXhXhX",
"hXhXhXhXhXhXhXhXhXhXO } :.:.:.:.1.1.:.>.1.5.>.:.:.:.>.>.1.5.5.5.5.8.0.8.8.r.0.j.u.q hXhXhXhXhXhXhXhXhXhXhXhXhXhXhXhXhXhXhXhXhXhXhXhXhXhXhXhXhXhXhXhXhXhXhXhXhXhXhXhXhXhXhXhXhXhXhXhXhXhXhXhXhXhXhXhXhXhXhXhXhXhXhXhXhXhXhXhXhXhXhXhXhXhXhXhXhXhXhXhXhXhXhXhXhXhXhXhXhXhXhXhXhXhXhXhXhXhXhXhXhXhXhXhXhXhXhXhXhXhXhXhXhXhXhXhXhXhXhXhXhXhXhXhXhXhXhXhXhXhXhXhXhXhXhXhXhXhXhXhXhXhXhXhXhXhXhXhXhXhXhXhXhXhXhXhXhXhXhXhXhXhXhXhXhXhXhXhXhXhXhXhXhXhXhXhXhXhXhXhXhXhXhXhXhXhXhXhXhXhXhXhXhXhXhXhXhXhXhXhXhXhXhXhXhXhXhXhXhXhXhXhXhXhXhXhXhXhXhXhXhXhXhXhXhXhXhXhXhXhXhXhXhXhXhXhXhXhXhXhXhXhXhXhXhXhXhXhXhXhXhXhXhXhXhXhXhXhXhXhXhXhXhXhXhXhXhXhXhXhXhXhXhXhXhXhXhXhXhXhXhXhXhXhXhXhXhXhXhXhXhXhXhXhXhXhXhXhXhXhXhXhXhXhXhXhXhXhXhXhXhXhXhXhXhXhXhXhXhXhXhXhXhXhXhXhXhXhXhXhXhXhXhXhXhXhXhXhXhXhXhXhXhXhXhXhXhXhXhXhXhXhX",
"hXhXhXhXhXhXhXhXhX7 [ ~ 7 7 4 4 4 4 4 6 7 8 7 0 8 7 7 0 0 q 0 0 0 A I W I I I ` i.y.q hXhXhXhXhXhXhXhXhXhXhXhXhXhXhXhXhXhXhXhXhXhXhXhXhXhXhXhXhXhXhXhXhXhXhXhXhXhXhXhXhXhXhXhXhXhXhXhXhXhXhXhXhXhXhXhXhXhXhXhXhXhXhXhXhXhXhXhXhXhXhXhXhXhXhXhXhXhXhXhXhXhXhXhXhXhXhXhXhXhXhXhXhXhXhXhXhXhXhXhXhXhXhXhXhXhXhXhXhXhXhXhXhXhXhXhXhXhXhXhXhXhXhXhXhXhXhXhXhXhXhXhXhXhXhXhXhXhXhXhXhXhXhXhXhXhXhXhXhXhXhXhXhXhXhXhXhXhXhXhXhXhXhXhXhXhXhXhXhXhXhXhXhXhXhXhXhXhXhXhXhXhXhXhXhXhXhXhXhXhXhXhXhXhXhXhXhXhXhXhXhXhXhXhXhXhXhXhXhXhXhXhXhXhXhXhXhXhXhXhXhXhXhXhXhXhXhXhXhXhXhXhXhXhXhXhXhXhXhXhXhXhXhXhXhXhXhXhXhXhXhXhXhXhXhXhXhXhXhXhXhXhXhXhXhXhXhXhXhXhXhXhXhXhXhXhXhXhXhXhXhXhXhXhXhXhXhXhXhXhXhXhXhXhXhXhXhXhXhXhXhXhXhXhXhXhXhXhXhXhXhXhXhXhXhXhXhXhXhXhXhXhXhXhXhXhXhXhXhXhXhXhXhXhXhXhXhXhXhXhXhXhXhXhXhXhXhXhXhXhXhX",
"hXhXhXhXhXhXhXhX4 =.~ 7 Z 0 0 0 9 9 9 q 0 0 q q Z Z F 9 Z 0 0 0 7 A 0 A I 0 Z 0 / g.w.4 hXhXhXhXhXhXhXhXhXhXhXhXhXhXhXhXhXhXhXhXhXhXhXhXhXhXhXhXhXhXhXhXhXhXhXhXhXhXhXhXhXhXhXhXhXhXhXhXhXhXhXhXhXhXhXhXhXhXhXhXhXhXhXhXhXhXhXhXhXhXhXhXhXhXhXhXhXhXhXhXhXhXhXhXhXhXhXhXhXhXhXhXhXhXhXhXhXhXhXhXhXhXhXhXhXhXhXhXhXhXhXhXhXhXhXhXhXhXhXhXhXhXhXhXhXhXhXhXhXhXhXhXhXhXhXhXhXhXhXhXhXhXhXhXhXhXhXhXhXhXhXhXhXhXhXhXhXhXhXhXhXhXhXhXhXhXhXhXhXhXhXhXhXhXhXhXhXhXhXhXhXhXhXhXhXhXhXhXhXhXhXhXhXhXhXhXhXhXhXhXhXhXhXhXhXhXhXhXhXhXhXhXhXhXhXhXhXhXhXhXhXhXhXhXhXhXhXhXhXhXhXhXhXhXhXhXhXhXhXhXhXhXhXhXhXhXhXhXhXhXhXhXhXhXhXhXhXhXhXhXhXhXhXhXhXhXhXhXhXhXhXhXhXhXhXhXhXhXhXhXhXhXhXhXhXhXhXhXhXhXhXhXhXhXhXhXhXhXhXhXhXhXhXhXhXhXhXhXhXhXhXhXhXhXhXhXhXhXhXhXhXhXhXhXhXhXhXhXhXhXhXhXhXhXhXhXhXhXhXhXhXhXhXhXhXhXhXhXhXhX",
"hXhXhXhXhXhXhX4 >.Q 4 4 0 o + + + + +   + + + + + + +     + + + . + . + + 4 6 0 5 Q eXw.0 hXhXhXhXhXhXhXhXhXhXhXhXhXhXhXhXhXhXhXhXhXhXhXhXhXhXhXhXhXhXhXhXhXhXhXhXhXhXhXhXhXhXhXhXhXhXhXhXhXhXhXhXhXhXhXhXhXhXhXhXhXhXhXhXhXhXhXhXhXhXhXhXhXhXhXhXhXhXhXhXhXhXhXhXhXhXhXhXhXhXhXhXhXhXhXhXhXhXhXhXhXhXhXhXhXhXhXhXhXhXhXhXhXhXhXhXhXhXhXhXhXhXhXhXhXhXhXhXhXhXhXhXhXhXhXhXhXhXhXhXhXhXhXhXhXhXhXhXhXhXhXhXhXhXhXhXhXhXhXhXhXhXhXhXhXhXhXhXhXhXhXhXhXhXhXhXhXhXhXhXhXhXhXhXhXhXhXhXhXhXhXhXhXhXhXhXhXhXhXhXhXhXhXhXhXhXhXhXhXhXhXhXhXhXhXhXhXhXhXhXhXhXhXhXhXhXhXhXhXhXhXhXhXhXhXhXhXhXhXhXhXhXhXhXhXhXhXhXhXhXhXhXhXhXhXhXhXhXhXhXhXhXhXhXhXhXhXhXhXhXhXhXhXhXhXhXhXhXhXhX                                                                                                              hXhXhXhXhXhXhXhXhXhXhXhXhXhX",
"hXhXhXhXhXhX7 ,.A 7 9 0 + { 8.5.1.1.7.5.5.5.5.7.7.7.7.7.7.8.7.8.1.7.5.0.7.7   7 8 > I eXd.q hXhXhXhXhXhXhXhXhXhXhXhXhXhXhXhXhXhXhXhXhXhXhXhXhXhXhXhXhXhXhXhXhXhXhXhXhXhXhXhXhXhXhXhXhXhXhXhXhXhXhXhXhXhXhXhXhXhXhXhXhXhXhXhXhXhXhXhXhXhXhXhXhXhXhXhXhXhXhXhXhXhXhXhXhXhXhXhXhXhXhXhXhX, hXhX, hXhXhXhXhXhXhXhXhXhXhXhXhXhXhXhXhXhXhXhXhXhXhXhXhXhXhXhXhXhXhXhXhXhXhXhXhXhXhXhXhXhXhXhXhXhXhXhXhXhXhXhXhXhXhXhXhXhXhXhXhXhXhXhXhXhXhXhXhXhXhXhXhXhXhXhXhXhXhXhXhXhXhXhXhXhXhXhXhXhXhXhXhXhXhXhXhXhXhXhXhXhXhXhXhXhXhXhXhXhXhXhXhXhXhXhXhXhXhXhXhXhXhXhXhXhXhXhXhXhXhXhXhXhXhXhXhXhXhXhXhXhXhXhXhXhXhXhXhXhXhXhXhXhXhXhXhXhXhXhXhXhXhXhXhXhXhXhXhXhXhXhXhXhXhXhXhXhXhXhXhXJ >.>.>.>.:.;.>.>.;.:.:.:.;.;.:.:.:.;.;.=.=.=.=.;.;.=.=.#.=.{ #.{ { { } [ { { #.{ } } [ [ ] ] ] ) ~ ] ~ ~ ] ] [ Q hXhXhXhXhXhXhXhXhXhXhXhXhX",
"hXhXhXhXhX7 { Q 4 9 9 7 I a.a.a.f.a.f.f.f.f.f.f.j.j.j.l.f.j.j.f.f.f.f.f.j.>.  0 8 9 6 I g.a.I hXhXhX4 7 7 7 7 7 7 7 0 7 4 7 7 7 0 7 7 7 7 7 4 8 8 7 7 9 0 7 7 9 0 7 7 0 8 7 7 9 7 9 7 0 7 9 9 7 9 7 9 7 0 7 0 0 8 9 8 7 9 0 7 9 0 7 9 0 7 9 8 0 9 7 8 0 9 7 9 7 8 8 0 7 0 7 0 8 0 7 0 7 8 9 8 8 9 8 8 7 9 8 9 7 8 9 0 8 8 7 9 8 9 7 7 9 7 9 9 7 9 7 8 8 9 8 9 8 8 9 8 8 9 8 8 9 8 7 9 7 8 9 8 7 0 0 9 7 9 8 8 8 8 0 7 7 9 8 7 9 8 8 0 7 7 9 7 8 0 7 0 0 7 9 7 9 0 9 7 8 7 0 7 0 7 9 7 9 7 7 7 7 7 0 7 0 7 7 7 7 7 7 7 7 7 7 4 0 7 7 7 7 4 7 7 7 7 7 4 7 7 > 7 4 7 7 O 7 7 w 7 7 1 7 7 7 7 7 7 1 7 7 7 1 7 4 7 w 1 7 1 O 7 1 1 7 w 1 7 1 > hX> hXhXhXhX1 hXhXhXhXhXhXhXQ =.>.>.:.>.:.:.:.;.;.;.:.#.=.;.#.;.#.#.;.#.{ { =.#.#.{ { { { } { [ [ } } ] [ [ { [ [ [ ] ] ) ] ] ~ ] ] ~ ] ] ] ) ] q hXhXhXhXhXhXhXhXhXhXhXhX",
"hXhXhXhX7 } Q 6 0 0 7 7 q q 7 7 0 7 9 7 9 9 8 9 9 8 0 8 8 A 0 q 9 0 0 8 A [   7 0 V 0 4 U i.d.^ hXV ] $.#.$.$.#.=.=.-.#.$.$.$.-.-.-.-.-.-.-.-.-.<.4.4.4.<.<.<.<.1.<.<.2.<.2.2.2.<.2.2.2.2.1.2.2.2.3.2.2.2.2.6.6.6.2.2.2.3.3.3.2.2.2.2.3.3.3.3.3.2.6.2.3.2.2.2.2.2.2.<.3.3.3.2.2.3.3.3.2.2.3.2.2.3.3.-.2.3.3.3.6.6.3.3.3.-.2.3.-.2.2.2.2.3.6.6.2.3.3.3.3.3.3.3.3.6.3.2.3.2.3.3.2.2.-.3.3.3.3.3.3.6.2.3.3.3.2.3.2.5.2.2.3.2.2.2.1.6.3.2.2.2.2.3.3.3.5.3.3.2.2.2.2.1.3.2.2.2.3.2.2.5.1.2.<.<.<.<.<.<.<.1.<.<.<.<.:.1.-.-.<.-.-.-.<.<.-.-.-.=.-.-.-.:.-.#.$.$.$.$.$.;.#.-.-.#.#.#.-.-.-.-.-.:.-.-.-.-.=.-.#.#.#.#.$.{ #.$.[ $.$.$.{ $.{ $.} [ ' [ ' ` ` ) ` ` ) ~ Q q 7 A W 9 1 1 7 7 7 7 7 9 9 7 7 7 q 8 9 q 9 9 8 q 8 9 7 8 q 8 8 7 9 9 9 7 7 6 7 7 7 7 1 8 7 7 7 7 7 1 7 7 7 7 1 7 7 7 7 9 W 1 hXhXhXhXhXhXhXhXhXhXhX",
"hXhXhX7 { Q 7 8 0 7 0 7 q q A q q A A q q A q I q I I I A A I W A I A A U [   4 7 0 8 0 0 ! w.eX) X < 8 8 9 V 8 0 5 8 9 V V Z Z 9 V S A Z Z Z Z S F F S V A S S Z Z S Z Z V Z D A Z Z Z Z V Z S S Z I Z U S S Z S Z S S S U U Z S V I S S U S S S D D A S D A D S U D S U Z D S S U U D S S U U U U Y U D U U S D U S U Y Y Y Y Z U S S S U U U D D D D U D Y U D S S U S U U U U U Y Y D D S U U S U U U S U U S U S G D S D D D A U Z S S S S U S U A U Z D A D A A U U I I A D D S I A U U A A Z S A D A A S I I A D U D Z Z Z Z Z Z V 0 q V A A S F F A Z 9 q A A q A A S A q A A q F J A F 0 A 0 A A A 9 F 9 0 A 9 8 9 Z 7 9 9 8 8 0 7 8 8 8 7 8 8 8 7 7 1 O 7 8 8 8 q 9 q q q q J J W J J W A W A A q W J A A A W I q A q q q q q A q q q q q q q q 9 A q q q 9 q q 8 9 9 q 8 q 9 9 9 Q 7 hXhXhXhXhXhXhXhXhXhX",
"hXhX0 =.q 7 7 0 7 0 0 0 9 I I I I I A A I I A I I I A A I W I A A I I 0 A `   > 5 8 8 Z q 0 I i.yXQ       .     . + . + . . . . . . . o * o o . . . . * o o . * , * * o : o : : o : * : : : : : , : : : o * : : : : : : : , , : 6 : : : : : : , , * , , : : : , : , > , : : : , , , , : , : : : , : : , , , , , : : , , , , : , , , : , : , , , * , * , < < < , : : , < , : , : - 6 , , , , , < : : : , , , , , : : 6 < , < , : : < , : , 5 , : : , 5 , , : > , : , , : : : : : : , , : : : : > , > > , > : > o : : : w : : + : : o : o O o : o X = O O O o O > > > o > X X > O O > O O O X O O o o O O o = O O O > > X O X O O O O O O O : + o + o + . O o X     X > X X + O 1 8 8 9 9 q q A A A q J J A q J q q q W q q 9 q q q q q q q 9 9 9 q q 9 9 9 7 q q q q 9 q q 9 9 7 9 9 7 8 9 9 q W 7 hXhXhXhXhXhXhXhXhX",
"hX7 =.9 7 9 7 0 0 7 7 0 I q 7 9 0 9 q 0 9 9 8 9 8 7 9 9 0 0 q 9 0 0 A 0 I `   O 7 8 9 Z Z Z 8 Z p.gX7.>.3.1.5.3.1.2.3.2.1.8.7.5.6.6.3.8.8.8.6.6.2.3.6.1.6.6.6.6.6.6.5.5.6.5.5.6.8.6.8.8.0.8.6.0.6.6.6.8.6.6.6.0.6.6.0.0.6.6.3.5.6.6.6.6.6.6.0.6.6.6.5.6.6.8.6.8.5.6.5.6.6.6.6.6.8.6.6.6.0.6.6.0.6.6.6.6.r.6.8.8.3.6.0.6.6.0.6.6.6.8.6.0.r.r.0.8.8.6.r.r.6.6.8.6.0.8.0.6.0.6.0.r.6.0.6.6.8.8.6.6.6.6.3.6.r.6.6.8.6.6.3.3.6.6.6.6.6.6.6.6.5.6.0.0.6.6.6.6.6.6.6.6.5.8.6.6.6.6.5.6.5.5.5.6.5.1.1.2.5.5.5.5.,.2.2.1.1.1.1.1.>.1.1.5.1.1.>.,.>.>.,.,.>.1.4.,.>.>.,.,.:.>.:.;.>.,.>.:.:.;.:.:.:.,.:.:.:.:.>.:.:.:.:.:.:.;.:.:.;.:.;.=.:.;.:.;.;.=.;.;.-.=.:.=.:.:.:.;.;.=.#.;.=.{ q   8 q 8 q q q q q A q q q q J q q J q q 7 0 q 8 q 8 9 q q 9 9 9 9 q q q 8 9 q 8 9 7 8 9 9 9 8 9 9 0 0 q 7 8 9 7 9 W hXhXhXhXhXhXhXhXhX",
"7 [ q 7 0 7 7 8 9 9 7 q O                                           7 q A `   > 5 8 0 8 Z Z A 7 Q $.e.w.w.q.r.q.r.r.w.r.w.q.y.e.q.e.w.q.e.q.e.e.q.w.e.e.w.y.y.y.y.i.y.y.y.y.i.y.y.y.y.y.y.y.i.i.y.y.y.i.y.y.i.y.y.y.y.y.y.y.y.y.y.i.y.i.i.i.y.y.y.y.y.i.y.y.i.s.i.i.y.d.i.d.i.d.y.d.i.d.d.d.i.d.d.d.i.f.g.d.s.h.i.h.i.i.i.y.i.d.s.h.d.d.d.d.i.d.d.d.s.g.d.d.d.d.i.i.i.g.i.d.i.d.i.g.s.d.d.d.d.p.i.i.d.i.s.y.i.h.d.s.s.i.d.y.i.d.d.i.d.s.s.i.s.y.d.y.p.p.h.s.s.d.d.p.d.d.p.y.d.p.y.y.i.y.p.p.p.p.y.y.y.y.q.y.y.p.y.q.y.y.u.y.y.u.e.q.q.u.q.q.y.q.e.p.q.q.e.q.z.q.q.r.q.q.q.q.z.q.q.q.q.q.9.q.q.q.q.0.q.q.r.9.r.q.9.9.q.r.r.9.9.0.9.r.q.0.0.0.8.0.9.0.0.0.0.0.0.0.0.1.0.0.7.7.9.} + 7 q q q 0 q q q q J q q q q q q 9 9 0 q q 9 9 9 9 7 7 9 q q 9 9 8 9 7 9 7 9 q q 8 7 9 9 9 9 9 7 9 9 7 7 7 7 9 q W hXhXhXhXhXhXhXhX",
") W 7 8 7 8 0 7 7 7 8 O     + + O O + O O O O w O O O O O 4 O +     7 Z A `   > 5 8 8 Z 0 0 Z Z V 8 5 8 8 8 9 8 8 8 5 5 8 V 8 V V V 9 V V V V V V 8 V 8 V V V V V V N N V V V V V N N N V Z V N V V V Z Z N V V N N 5 N V V V V B 6 N N V N N N V V V V V V V V V V N N Z S V N V V N N C V N N V N V V V S N V S P Z N U V V V Z V V V N V V N V N N V V N V N V Z N N V S N B C N V V V N V V C V V S V N V V 5 Z V V V V V Z V Z V Z V V V N V V V V Z V 8 V V 0 V 5 0 Z 8 V 5 0 8 0 V V 9 V V 8 5 8 9 9 8 8 8 8 8 8 7 0 7 5 8 > 8 8 9 8 7 7 7 7 1 8 1 7 7 7 7 7 7 8 8 7 7 7 7 7 8 7 8 7 8 1 7 8 6 4 7 7 7 7 7 7 7 8 7 8 1 1 7 7 7 9 7 7 7 8 7 7 7 > 8 4 1 7 7 7 8 8 8 7 A } ~ 1 7 0 q q q q q A q q q q q q 0 0 9 0 9 9 8 9 9 7 q 9 9 7 9 8 9 9 q 9 9 7 9 7 9 9 9 9 9 7 7 7 q 7 9 7 7 9 9 7 8 0 A hXhXhXhXhXhXhX",
"0 0 0 7 8 7 9 7 9 0 X       7 4 4 7 4 7 7 7 8 0 7 8 8 9 7 7 8 >     7 0 A `   > 5 5 8 8 8 9 V Z Z A Z D S D D S U S S D D S D D D D D D D D D D S S S S H S D D U S H D Y D S Y U S Y Y Y Y U S D G Y Y Y H Y S S Y H U S H D Y U Y H Y Y U U H H Y Y U Y G H T Y Y H H Y Y Y Y D H H Y Y S Y H Y Y Y U G G / G H G U H Y Y Y Y G D Y D Y Y G G D G D G Y G G H Y H H H Y U Y Y Y G Y Y Y G D G Y Y U Y S Y Y G D Y D U Y D U U Y U D Y U G Y D U S U U D D G S U U U Y U D U D U U S U D D A D D D A A A D S A S A A A U A Z I A S A q A V q 9 F F 9 A A q 9 9 q 9 9 A A F A F A 9 A A q A A A q F A F A 9 q 0 9 9 9 9 9 9 9 9 9 9 9 q A 9 9 9 9 q 8 9 9 8 9 8 9 8 9 9 9 q q 8 ~ ] O 4 q 9 q q q q q q q 9 q 7 0 9 0 0 9 q 9 9 9 9 9 9 7 9 9 9 q 9 9 9 8 9 9 7 8 7 8 9 9 7 7 9 9 7 7 9 q 7 7 8 9 7 q 9 hXhXhXhXhXhX",
"0 7 7 0 7 8 7 8 Z +       + 7 4 7 7 7 8 8 8 7 8 8 7 9 7 7 8 0 7     7 0 Z `   > 5 8 8 V Z Z 8 Z Z Z Z Z D G D S Y D Y S D D G G Y G G G H H G G D H G G D H H H H U H Y Y Y Y Y H U Y S Y Y Y Y H Y Y Y H Y H Y Y H Y Y H Y Y Y H Y H H Y Y Y Y H H Y Y H T H H Y Y Y Y Y S H H Y Y Y Y Y Y Y Y Y T H T H H H H H H Y H Y Y Y Y H G H G G G T H H Y Y H G Y Y T Y Y Y Y Y Y H H T H T T Y H H H Y H Y S Y G Y Y G G H Y H D Y Y Y Y U Y G G H Y D H H Y G G G D Y U Y D Y S U D U U U D U U U S U D U D A D A D J S U A Z D Z A A A A S A A S A A A A A A A S A A A V A J A q A A A S q J A A A A 9 A F 9 A A q V 9 A 9 A A 9 A A A 9 9 q q 9 9 9 9 q 8 0 0 9 9 8 9 q q q 9 8 8 7 Q ] $ +     + +   +       + +   +               +           +     +   +     + +         +   +   + +     + +     +         hXhXhXhX",
"4 0 7 7 8 7 8 q +     +   + 8 4 7 7 0 7 9 9 8 0 7 0 7 6 8 8 q 7     7 9 A `   > 5 8 8 8 8 0 0 A V A S Y S S S D S S S S G G G D D D H H D G H H S S D H H D S H S D H H S H H G H G G G G G G G Y Y Y G G G G G H G G H H G H G H Y H H H G G H T H T T H H H T H H H H H G H H _ T T H T T T H Y T T T T T H H T T H T T H H T H H G H H T H H H H H H H T G G _ H H H T H Y T H H _ H G H G H Y H G G T G H _ H T _ Y H G H G G G G H Y G G G H H G G Y Y G G G H H D Y G G D D D Y D D G G D U D D D D U A D A D S A S A A S A A S A 9 A 9 A A A S A A A A A A 9 A 9 A A A q A q A q q q V 9 q F 8 8 9 8 8 q 8 9 0 8 8 9 7 q q A 8 q q 9 9 9 8 q 9 8 q 9 q 9 q q 8 9 A q 9 9 q 7 Q ,.k.k.k.j.l.k.k.eXk.k.k.k.k.k.j.f.k.k.k.j.l.f.l.k.k.l.l.f.f.f.f.f.j.f.j.f.f.f.f.a.a.a.p.a.z.a.a.a.q.z.a.a.a.a.a.9.u.~ hXhXhXhX",
"+ 7 8 7 7 q 9 X     O q   + 7 1 7 7 7 7 5 8 8 8 0 7 Z 8 8 8 q 7     7 A 9 !   > 5 8 5 8 V 9 V Z Z S I O                                                                                     .           .     .   . .   .   . .       . . . .           . .           . .   .   .   .   .   .   +     . .   .     .     . .   .     . .   .   . .   . . . . .   . . . . . . .   . . .     .                   .     .     .       .             .                                                                                                                                                                                                                         o 9 9 9 9 7 q ^ Q ^ Q ~ ^ ^ ^ ^ ^ | ~ ^ ^ ^ ^ ^ ~ ^ ! ^ ^ ^ ~ ~ ^ Q Q Q Q Q Q Q ^ ^ ^ Q Q ^ ^ W Q W Q W W J W W W J J W Q Q ^ ~ ` q hXhXhX",
"  + O O X X +     O q 7   + 8 7 7 7 8 4 8 0 0 7 7 0 7 9 8 8 q 8     6 A Z )   > 5 8 7 8 8 0 Z V S Z O . . . . . . . * . * . . * * . . * . * * * . * * . . * * * * * * * * * * * * * * * * * * * * * * * * * * * * . * * * * * * * - * * * * * * * * . * * * * * * * * * * . * * * * * * * * * o * * * * * * * * * * * . * * * * . * * . * * * * * * * * * * * * * * . * * * * * * * * * * . * . * * * * * * * * . * * o * * * * * * * * * . . * . . . * . . * * . . * . . * . * . * * . * . . . * . . . .   .                                                                                                                                                               X 9 0 9 q 9 9 7 9 8 9 9 9 9 q 8 q q 9 9 9 q q 8 0 9 7 9 8 q 9 9 9 9 0 7 9 9 9 9 9 9 9 9 q 9 7 9 q 9 9 9 9 7 9 7 8 8 8 7 9 9 8 8 W q hXhX",
"        +       + I 7 O   + q 7 7 0 9 9 0 q q q q 0 A q 9 7 q 8     7 q Z )   > 5 5 5 5 8 V V D S . . . . * * * * * - - - - - - - - - - - - - - - - - - - - * * * - - - - - - - - - - - - - - - - - - - * - - - - - * - - - - - - - - - - - - - - j - j - - - - - - - - - - * * * * * * * * * * * * * * * . * * * * * * * . * . * * * * * * * * * * * * * * * * * * * * * * * * * * . * * * * * * * * * * * * * * * * * * * * . * * . * * * . * * * * * * * * * * * * * . * o * * * * . * * * . . . . . . . . . . . . . . . .   . .   .       . . .                                                                                                                           X q q q q A q q q q q q q q q W q q I q I q q A I J A q q I 0 q q q q I q q q q J q 9 q J q q q q q q q q q q q q q 9 9 9 q 9 q W q hX",
"                O I O O   + q 7 O + X + + + + + + + X X X O q q     7 q 0 )   4 5 5 8 5 V 8 U A X X O 3 2 2 3 2 3 2 2 2 2 v 2 2 2 2 2 v 2 2 ; = * * ; - ; ; 3 v v 2 2 3 2 2 2 2 2 2 2 2 2 2 2 v 2 2 3 = * = ; ; ; ; 3 v v 2 3 2 2 2 2 v 2 2 2 2 2 2 v 2 2 v 2 ; * ; ; ; - j * * * > > > O > O > : O O O O O O O O O O >     . . * - * * : > O > > > > O O O O O > O O O O O O O .   . . . * * > o > > O O O > O O O O > O O O O O O O +     . . * . * > O > O > > O O > O O O > O O O O O O X   . . . * . * * .                                               . . .   .                                             . .                                                         X J A q q q A A J q q A A J A I W W A A W A J q A J W I W W J A I I A I q I A W J q W J q J J W q q J q q q J q A A q q I I A q Q 7 ",
"q O   q W 7 X   O I O >   + A 7 O + + + + + + o X X X X X + 7 7     4 0 Z )   > 7 8 8 V 0 Z D @ a  .M.OXOX%X;X%X;X;X%X;X%XOX%X%X%X;X%X%X%X;Xm.u y y % $ a p O.|.OX{.;X;X%X%X%X;X%X%X%X;X%X%X%X%X%X|.}.o.r y e $ f a O.{.OX%X;X;X-X%X%X%X%X%X%X;X%X%X%X%XOX|.oXo.y r e $ j - . , S D D D D U U A A S A S A A A Z Z Z Z A 8 .     . - . - D U S U S D D Z A A A A Z S A A V A A A 8       * . - D D D U U D D A A D A Z A A A S Z 0 A S 8 .   . * * * V D D U D D D D Z A A A Z A A Z Z Z q S 0 .     . - * * * * V U U Y U U Q D U D A A A U I D Z A A D 7   .     . . . > 0 A Z 0 A 0 0 0 0 0 9 8 q q 0 8 8 0 7 O   .   . .   > 9 9 9 7 7 8 7 8 8 9 7 9 7 q 7 7 O 7 O                 +                                 +                                                                                   + +     ",
"^ 7   ^ q > O   X I 4 O   + q 9 ~ 7.q.a.9.p.q.r.q.q.9.0.7.^ q 7     7 9 Z )   > 5 0 5 8 V D Z % s x.{.b.B.b.V.Z.V.V.S.S.Z.Z.A.b.A.S.V.A.A.V.5X+.r y t ; a X.:XA.b.b.B.S.Z.V.Z.Z.S.S.Z.b.B.Z.A.B.V.A.OX~.i y t # a X.-XA.b.b.B.S.Z.V.Z.Z.F.S.Z.b.B.K.Z.A.Z.B.OX!.i y t # k j . z 5 o O > : o : > O o O o : o O O X + X o O > .   . j . z , o : O O : > > : : O o o O O O + o X O > O .   * . N , : > : o o : > : o o o o > O O + o o o > O .   * * , 5 : : O > o : : > o O o : o O O + o o o > <   .   - - * * , V V N 0 8 V 8 V 5 8 7 5 5 7 8 8 > 5 8 8 8 >   .   .   o 4 8 8 7 8 7 8 7 5 8 8 7 8 4 7 7 7 7 7 7 8 .   . .   O > 4 4 7 4 7 7 7 7 7 4 7 7 7 7 7 7 1 > O 7 +                                                                                                                                           ",
"q O   q O . +   X A 4 >   + q 8 9 9 q A q W W A J W J A A A A q +   5 9 0 )   : 5 5 8 5 8 S Z @ r ^.{.Z.G.F.F.H.Y.I.F.H.H./.G.I.H.H.H.H.H.V.,Xc.y i t v p x.3Xb.J.F.F.H.Y.Y.F.Y.H.I.H.H.H.H.I.H.H.F./.}.y i y @ i x.3Xb.J.F.K.J.Y.Y.F.I.H.I.H.H.H.H.H.H.H.F./.}.y i y @ b j * z 6 : , > < > > > > > > : > > : > > > > : O :   . * x * C 6 > : < > > > > > > > : : > : > : > > : o :   . . , V < > : < > > > > > > > > : > > : O : > > O :     * . N 5 > , > < > > > > > > : > > : O : > : > o > .   . - - * . z , o o o * o o o o : O o o : o + O + o . o <     .     > o o o o o o + . o o + . + . X . . X + . > o     .   > o X . X . X . o + O + . . + + . . + + . X X           + +   +   +                                                       + +                 +                                         ",
"q O   J > X .   X I 4 O     q 7 7 9 7 7 8 8 q q I A A q A A A 9     7 Z A )   > 5 8 5 8 V D A % p _.{.S.F.R./.R.T.I.I.I.U.H.Y.I.T.I.E.T.H.S.>XQ.y u i B u x.5XV.F.J.Y.I.Y.U.Y.Y.Y.I.I.Y.Y./.U.(.I.G.OX}.y u u @ u x.6XV.J.G.Y.I.I.P.Y.U.I.I.I.R./.U./.U.R.G./. Xy h u @ k j = B : < > < : > : > : > > > > : > > : o O : O 5 + + . j , B ; > > < > > , > > > > > > > > O : : O : > >   . . ; C = 6 > < > > , > > > > : > > > o : o o : > >   . o * z < > < : > > > > > > > > > > > > o : w > > 8 .   o - j ; * z < > > < > > , > > > > > > : > : O : : > > 8   . .     > > O > o > o > O o > O o o > O o X O O X > O   . +   > O X O O O O O O O O O o o + > o X X X O + >           O O X X O O     .   .   .     +   . + . . + + + . . +   + . + + + + + + O + X . + O X O O X X + X + + + X X + +               + ",
"q 1 + q 7 X +   X I > >   + 9 8 9 9 9 9 9 q q q U I W A A 7 W q +   7 0 Z )   > 5 5 5 8 Z S S % p _.OXD.H.G.U./.T.T.(.I.U.U.T.I.T.T.E.T.T.D.5XQ.u h i c p x.5XC.H.H.T.U.T.U.E.U.U.U.U.U.I.U.U.(.U.I.OX Xi f u # p x.6XC.H.H.U.T.T.T.(.U.I./.U./.R./.U.(./.U.OX Xu a u @ k k = C : 5 : > > > > > > > O : > : o > > > : : O 4     * j < C ; < , > > = 6 > > : > > : o > : O > > O > >   . * < S : ; : : > , > > > : > > > : o > > > > o > >   . * * V z < > : < > > , , > > : > : o > > : O : O 5     . < j , * C < 5 : > < > < > > , : > > o o > > > o o o < +   .   + > o > > o o O o O > o O O o > O O O X O O 1 X   . .   7 o O O O + X X X O + O O O X O O > X O o o 7     .     1 1 O O O O   . O X O O X X O X X O O X O O O O O O O O O O O O O O O O O $ O O O O O O O O w O X O X X O O . X X +         +   ",
"q $   q 7 O +   + W 7 O   + 0 9 8 8 q 8 9 7 8 0 0 0 q q 0 0 I 0     4 A Z )   > 5 8 V 8 V D Z % p oXOXI.I.U.U.U.(.(.(.(.W.(.(.(.T./.U.).T.L.7Xc.u a r v s v.6XS.I.I.W.T.T.E.).E.(.W.T.@XP.(./.).T.I.*X Xp h u @ d v.6XD.Y.R.E.E.T.(.(.(.(.(.(.).U.(.U.).U.R.&X.Xp f u @ k k * C , > , 6 < > > < 6 > : > > > O > > O > > > <   . = j , C > < < > < : < , > > > > : > X > > O o > > >   . * , S , < < < < > > > > : > : > > o > > > O > > > .   , * C < 5 < > ; : > < > > > > > : > : : > > > o 8 .   . j j - * V < 5 , : < > > , > > > > > : o : > > : O > <     .   . 8 o o > > X > O O o o O o O o O O O > X > > X   +     1 O O O o O O O O O O O > . O o O O X O o + >         + 7 > 1 O > >   + + + + X + X X + . + X + X . + . X + X + . + X X O O w 1 w w O O 7 O 7 O O 1 O O O w O O O O O O > + + O w 7 .   ",
"q O + q > + .   + I 7 O   + q 7 7 8 8 9 0 8 0 9 8 0 9 8 0 0 A 0     7 8 Z ~   O > < 8 5 Z D D & p _.*XR./.(.(.).(.).W.).).(.(.P.(.).(.T.T.P.2X!.a f r v d v.6XR.T.E.E.E.$X).).E.@X).(.P.(.(.(.U.T.P.*X|.a f p @ d v.5XR.T.E.E.W.).(.(.T.).).(.U./.(.(.(./.U.$X.Xp f u # b k < S < 8 ; , 5 < > > ; > 4 > > : O : o : > O + >     * x z C < 5 > < 4 < > > < > > : > > > > o > : > O >     * z S , 5 < > 7 5 < > < > 4 : > > > : o : : > o >     = * C < 5 < > 5 6 > > > < 6 : O > o 4 O O > O o 5 .   + j j - * V < < < < < > > > < > > > > > > 4 > o > > o 8 . . .   + 7 O > O O O O > > O > > O O O O O O O O O 4 .   . .   7 > O O O O O > w O O O O O > O + O O O O O >         + 8 1 O 1 1 1                                                     7 1 O 7 7 @ 7 7 1 1 7 O 7 7 1 7 7 1 1 O 1 O O O >   1 $.} { ^   ",
"A w   q 7 X +   X J O 1   + q 8 8 q 9 8 8 9 9 9 8 9 9 9 8 0 A q     7 0 0 )   > < 8 8 N V D D % d oX*X(./.U.).(.).(.#X).).(.(.(.E.(.(.).(.R.6XQ.p a i v d M.7XR.W.T.(.(.).$X#XW.+X(.(.).).E.).).).P.*X Xp f u @ p M.7XR.E.T.E.E.).).@X).).).(.(.(.(.).).)./.*X.Xp f u @ b k - C < 5 < > 5 > : > 4 > < > : > > > > > > > > > + . = x , C < < , 6 < < > > 5 > 4 > > : : 4 > > O > > >   . = - S < 5 < < < > > > 4 4 > > > > > > > O 4 : 4 >   . : o B < 8 < < < < > > > 5 > > = > , > > > > > > 5     o x j - * C < 8 6 , 6 1 > > 5 > > > : > o 4 o > > o O < +   .   . 7 > O X > O O > > O > > O > : O O O O O O > X   . .   7 > O O > O O O O O O O O O O O o O + X O O >         + 9 1 O 4 7 1     +     +   +   +   +   +   . + +   +     +       7 > w 1 7 1 7 7 7 7 7 7 1 1 7 7 7 $ O w 7 w O O 1   @ q 7 7 9   ",
"J O   q 7 X +   + J 4 1   + q 7 7 7 q 9 9 8 9 9 9 8 8 q 8 8 q 9     7 0 Z `   > 4 5 8 5 V D S & d oX*X/.I.(.).).).(.#X).=X#X).).(.@X@X).).P.9X!.a a i c s M.7XP.T.T.).).(.(.=XW.=X=X@X).(.).+X).@X(.,X.Xd f p @ d M.7XP.T.U.+X+X(.(.@X).=X=X#X).(.(.).).)./.*X.Xs s u # m k - C < < < < < ; 6 5 > > > > > > : > > > O O > 4   . = l , C < < < 5 < > 5 > > : > > > 6 o : > > o > > >   X * < C < < < < > > 5 < > > > > > > * > > > o o 4 4   . , . B V ; < < > < 5 5 > > > > : > > > O > O O O 8 . + . j j - * C < < , 5 ; < 4 < > > < > > 4 : : > > O > > 8     o + . > O > O > > O O X O O > O > O o O O O O O 4 X   + +   1 O O O O O O O O O O O O O O O > + O O X O 1         + 8 1 O > 1 7                                   +                 7 1 1 7 1 7 7 @ + + + +   + + + O 7 7 7 O $ O 7 1   O I 7 7 q   ",
"q O + q 1 X X   X W O O     q 7 7 8 q 7 8 8 0 7 7 0 8 8 8 8 q 9 +   7 Z A )   o 8 5 < 8 V D S y d |.*XT./.).).).(.(.=X>X=X=X).>X@X(.).).@XP.8X~.s a i c  .M.7XP.(.T.(.).(.W.=X@X>X=X+X>X=X$X).E.#X(.*XXXd g p #  .M.7XR.E.W.E.+X(.(.#X#X>X=X).=X#X).).(.#X(.*XXXd a a # n l , C , 8 > < < < < > 5 > > : , > > > > > > > > >     * l < C < < > , 5 5 > 4 4 > = > > : > > 4 : O > > >     * z C , < < > 5 5 : > < > : > > > > > > O O > > >   + * * B < 5 : < < 5 , 4 > > > < > > > > > > > > > 1 +   . x j - * C z 5 , 5 < 5 > < > ; : > > > > > 4 > : O > > .   . .   8 O o O > O O O O O O O O O > O > X O O O 4 o   . .   1 O 4 O O O > O X O X O O O + + > O O X O O 1   .     + 8 1 7 1 7 7 + 7 W ] } [ ] [ } } } { } } { { { } [ [ ] ] ] ] [ { ~ 7 7 1 9 9 + + 9 ;.z.,.;.1.;.9 +   1 9 7 7 7 O 7 + X q 7 7 7   ",
"q 1   q 7 + X   O q 7 O   + q 8 8 8 7 9 8 0 6 q q q 8 8 6 8 A q     4 0 A )   > < < 8 F V S D y  .|.,XW.).).).).#X=X).=X>X=X#X=X#X#X@X@X(.L.7X!.s f h c ..n.qXW.(.).W.#X).=X@X=X=X=X@X=X=X@X@X@X).T.*X1Xd g a $  .m.qXW.$X+XP.#X@X=X@X=X=X=X#X=X=X).#X#X).(.&X1Xd g a % n b , C < 5 < < 5 > > > > > > > > > > > > O : > > :   + * l z C , 8 5 , 5 , > > > > : > > > > > > O 4 : > >   . , < C < 5 < < 5 , 6 > > > : 6 = > > > : > > > > O +   - * C z 5 < 5 > < 6 : : > > > = > > > : > O > > <     . x k , - B < 8 < > < < > > 6 > o 5 O : : > > > > > > 1     .     4 > > O O > O > > O > > O O O O O > O O > 4 +   . .   7 O w O O O O O O O O O O X O > O O O O O O >     . + + 7 7 O 1 7 7   7 7 9 7 9 8 9 9 8 8 7 9 9 8 q 7 9 9 9 q 8 0 q q q 7 7 7 7 1 + q 7.7.| q q 9 7 q ;.} J + + 7 O O 7 1   O q 7 7 8   ",
"q O   q 7 + +   X q O 1   + q 7 7 7 8 8 8 9 7 9 q q 9 9 7 7 q 9     4 A A (   O < 5 8 5 V D S y  . X,XW.).#X#X>X2X2X>X>X3X3X>X=X2X>X).=X#XP.9X!.d a u M  .n.tXR.).).).=X3X2X>X=X2X3X>X>X>X3X+X#X>X(.*X.Xd g p $  .n.tXP.).#X@X=X3X2X>X=X2X>X>X>X>X>X+X#X>XE.:XXXd a a # n k - B , < 5 < < > < > > > > , 4 : > > O > O > O > +   = k < C < < 5 < 5 > ; > > > : > > > : > : O o > > > +   = < C , < 5 < < > > : 4 > = > > : > > : > O > > >   . , * N < 5 5 5 5 < > > > < > > : > > > : > O > O < .   . x j - , B < < < 5 < > > < < > > 4 : > > : > > > O > > .   . + . 8 > O O O O O o O O O O > O O > O O O O O > + + . .   7 > O > O O O O O O o O O o X O w O O o O o 7       . + 8 1 7 > 7 1   O O O O 7 O O O O O O $ O O O O O O O O O $ O O O 7 7 7 O 7 ;.7.W O O O 7 1 O 1 O 7 ^ ~ 7   O 7 O 1 + w I 7 7 7   ",
"q O   q 4 O X   X J > O   + q 9 8 8 7 8 9 8 9 9 0 q 7 0 8 7 A 0     4 A A )   > > 8 5 5 V D S y ..|.,XE.).#X3X2X6X8X8X8X5X6X8X2X5X>X#X@X=X(.qX].g s u M ..Q.tXW.).).=X3X8X8X8X8X7X6X7X5X2X2X>X).=X@X>X<X .g a t ..~.tX(.).).>X2X6X7X7X7X7X6X7X5X5X5X=X+X=X@X,X<X .g a # @.b < B ; < 5 < > 5 > > > > < > 4 o * > O > > > > 1 X   * l z B , 5 5 < > < > : 4 > 5 > > > > > O > > > > >   . - < B , < 5 5 < < : 6 , > 6 > , > o > > > > O 1 1   . = * B z < < 5 < > > ; > > 6 : : > o > o > > O > 8 + + . x k - = B < < < 5 < 5 < > > > > , 4 o > > : O O > > > X + . +   8 O O > > O O > > O > O > > O O O O O O O > X   + +   1 O O O > O O O O O O O O O O O O $ O O > o >         + 9 1 1 1 4 1 + O 1 O 7 O w $ 7 w 1 1 O 7 w O w 7 7 O O 1 w > O 7 O 7 O 9 =.[ O O 1 1 1 7 7 7 7 9 7 7 q ~ 9 + O 7 O   O q 7 7 7   ",
"q O   q > X +   X q O >   + q 7 7 8 8 7 X + + O w 0 8 8 7 0 A 0 +   4 q 0 )   O > 5 5 5 V D S y  ..X3X@X@X=X>X7XtXrXrXrX0XiXrXrXrX6X>X>X=X(.qX~.s g u M ..~.rX(.=X=X=X5XtXtXtXtX0XrXuXrXrX7X3X>X>X).>X<X .g a %  .~.rX(.#X=X=X2X9XrXrXrXrXrXuXuX0XqX>X>X=X#X>X4X..g a t @.n - B 8 < < < > 5 < < 5 > > > : 4 o > X > > > O <   . * k < B < 5 , < > 5 > 6 > > > > > > O > > > > > > > . . , z B 5 5 < : > < 5 > 5 > > > > > O > o > > > O >   . = - N N 5 , > < 5 5 > < > > > > > > > > O > > O 5 . . . l k - = B z < < < > 5 > < < > > > 4 4 o > > > > > > < .   .   + 8 X > O X O > O O > O > O > O > O > O O > 7 O   . .   1 O O > > O 7 O O O O O O O X O O O O X O X 7     .   + 9 7 1 7 > 7   O w $ O 1 O 7 O O O O 7 O O 1 1 O O 7 O w 1 O w O 7 1 w } W w 7 7 7 7 1 O 1 7 7 9 8 7 7 7 Q 7 X 7 1 + O q 4 0 q   ",
"q O   q 4 O X   O q O 1     q 8 7 7 8 1 + X O + + 0 9 5 0 0 A 0 +   7 0 Z !   > 5 < 8 5 0 D S y X..X3X#X>X=X3XqXiXpXaXpXaXrXiXiXrXtX2X>X@X(.9X].d  .a M X.~.rX).>X=X>X5XrXpXpXpXaXpXuXiXiXtX8X3X@X@X>X<X .g s % X.n.rX).=X=X>X5XrXaXpXiXaXpXuXuXiX0X7X5X+X+X,X4X .g s % n n < B < < < < > 5 < 4 > : > > 4 : 6 > > : > o O 8 . . = b z C < 5 < > 5 5 5 , > > > > : > > > : O > o > 1 + . * z C < < < < < 8 > < > > > > > > > > > O > > > 1 . . , * C < 5 < < > < < 1 > > < > > > > : > : > : O 8 X   X x k - = B < 8 < < > 5 < 4 > : > > : > w : o o : > O 9 X   . X . 8 > O > O > O O O O > > O O > O > X O O O > X   . .   8 O O O O O O X O O O O O O O O O O O O O : >       .   9 1 O > 7 7 + O 7 1 7 O 7 O 7 7 7 O O w 1 w w 1 1 O 1 O 7 7 7 1 7   Q ^ 7 & O 7 > +         + O 9 9 7 7 7 A + X O + w A 7 0 7   ",
"q >   q 4 X +   O q O O   + q 7 8 8 8 7 o 4 4 > + 9 8 7 0 7 A q     7 0 Z !   > 8 < 5 N V D S t X.XX5X).@X3X5XiXaXsXfXaXaXaXpXaXiXrX6X2X>X(.rX~. .g u M ..~.iX).).=X3XtXsXsXfXsXaXsXpXiXaXrX7X5X3X).3X1X .g s % X.^.rX(.).>X3X9XaXaXfXaXpXsXpXiXaXuXqX5X>X#X>X1X .s s # n m < C < < < < 5 > < > > > > > > > > 4 > > > > > > +   * b z C < < < 5 < 5 < > > , > > > 6 > > > > > > > > +   = z C , < 5 < > 5 > > > > > : > > > > O > > > > > . . , - C < 5 < < 5 5 < > > > > > > > > > o O > > > 5 . + . l l j , C < < > < < 5 > 5 4 o 6 O > > > 4 > > > > > 8 + . X   . 8 O > O > O O 4 > O > O O O O O > O O O > > X   . .   7 > 4 O O O O > O O w O O O O w O O O O O O 4     .   + q O > 7 1 7   1 O 7 1 1 7 O O 7 7 O 1 O w 1 7 $ 1 1 w 7 7 O O 1 w O ) 7 7 O 7 >   + O 6 6 w +   + 9 7 7 7 0 $   1   w q 1 & 7 + ",
"q O   q 7 O X   O q 1 O   + q 7 7 7 0 9 O 4 5 O + 8 8 8 8 7 q 0 +   7 Z Z ~   o > 5 8 8 Z D S y X..X3X=X=X>X2X0XuXaXaXsXaXsXsXaXaXiX8X>X>X>XrX~. .g p M X.m.tX).=X>X3X8XrXpXpXsXsXsXsXsXsXpX0X>X>X>X5X<X..g s % ..n.rX).=X3X3X8XrXaXaXaXdXsXsXsXsXiX0X>X>X>X6X1X..g s % @.n z B < 8 < < < < < > > > > > , > > O > o O > > 5 .   = l z C < 5 < < > > < > > 5 4 o : > = O > O O O > >   . , z B < 5 < 5 < 5 > > > > > : > : > > > : O > > 1     , * C < N < < > < < < > > > > : > > > > > > > > 8 +   o l k - - C z 5 5 < < < > > : 4 > > > > > O > O > O O 5 .   o .   8 > O > O > > O O O > > O O > O O > O O O 1 O + .     7 O O O O O O O O O O O O O O O O O o O > o >     +   + 9 1 7 O 1 7 + O 7 O 1 O 7 O O 1 7 O O 1 4 $ 7 w O 1 7 O w 4 7 7   7 ^ O 1 7 >   + L R *.%.%.R L + + 0 7 7 7 9 + O + O q 7 7 7 + ",
"q w   A > X +   O q O 1   + q 8 7 7 0 7 O 4 4 O + 9 7 8 8 9 Z 0 +   7 A A (   o 5 4 5 8 9 S S y  ..X3X@X>X3X3X0XiXsXsXsXdXsXaXsXpXpX8X3X>X#XtX]. . .f M ..m.rX).=X2X3X6XiXpXdXaXsXdXaXsXaXpX0X3X3X>X2X<X.. .s % ..!.rX).=X2X3X6XpXaXsXaXsXdXaXsXsXpX0X3X>X=X5X<X.. .f % @.n j B < < < > , 5 > 5 > < > 6 > > O : > > > > o 5 . . - b 5 B < < , < > 5 > 5 > > 6 > > > O : > > > 4 > > . . , z c < < < > > 5 , < > < > 6 = > o : > > > > O > . . < - B z < 5 > : 6 > 5 > > < 6 > > o > > > > > O 5 . + X l l j , B < 5 < < 6 , > < 4 : 4 4 , > > : > > O > > 5 .   o     8 > > > O > O O > O 1 O > > w O > > O > O > X   + . + 7 O O O O > O X O O O O O O O O 1 O O O O O >         + 9 7 O 1 7 O   1 O O w O O 7 7 w 7 w 1 O 1 w 7 w 1 O O 1 O w 1 O   W 9 1 7 7 + + L *.&.&.*.*.%.%.L + 4 8 4 7 9 + +   X q 7 7 7   ",
"q 1 + q 7 X X + X A O O   + q 7 8 7 q 0 O 4 8 > + 8 8 9 8 7 A 9     7 A Z !   : 5 5 5 N 8 H S y ..XX3X@X=X>X5XrXaXsXsXsXdXsXaXsXiXrX2X2X3X@XtX`.s g f M ..!.iX).=X=X2X9XpXsXsXdXaXdXsXsXaXrX7X5X2X>X2X<X..g a % o.~.rX).#X=X2XqXaXsXsXdXaXdXsXdXpXrX7X2X5X#X5XXX . .f t @.m < C < < < , 6 < > > : > > > > : : > > = O > O > +   = b z C < < < < > < < > : > : > > : > > > o : > > >   . , z C < < < < < 5 > > > > > > > > O > > > o > > >   . , * C N < ; < < < 4 > : > > , > > > : > > O : O 5     . l k - ; C z < < > , < 5 > : 4 : , > > > o > > : > o 5 + + X   + 7 O O O > O O > O O O > O > O O O O O O O > O     .   7 O O O O > O O O X O O O O O O O O O O O O 7           9 1 1 7 O 7 + O 7 7 1 7 7 w 1 $ 1 1 1 1 O 1 1 1 1 1 7 1 1 $ O O   ^ w O 7 O   6 %.*.&.*.&.&.&.%.*.6 O 0 4 7 7 O   + O q O 7 7   ",
"q 7   q O X X   X q 1 O + + q 7 7 7 8 7 > 4 7 >   9 8 8 8 7 0 9     7 9 0 (   o > > 5 8 8 D S y  ..X,X#X>X2X7XiXdXaXsXsXaXdXdXaXpXqX6X=X>X#XtX]. .g a M ..!.tX(.>X3X5XtXaXsXaXdXaXsXfXpXpXrX7X>X=X>X2X4Xo. .f y ..!.0X).>X3X6XtXaXaXsXfXaXsXfXpXpXuX7X>X#X>X5X<Xo. .s e @.m < C z < < 5 < > > 6 > > > > > : > O : > > > > 5 +   * b z C < < 5 5 < : > 4 > > > > > : > > > > : O > >   . - z C < < < 5 , , > > < > > > > > > > : > > : > 4   + - - C N < < 5 < , > > > > > > > > > > > : > O O 5 . + . x k ; - C N < < 5 < > < 6 4 > > : > > 4 : O > > O X 8 . + . .   8 O > O > O O O > O > O > > O O O O O O O > O   X .   7 O 4 O O O O O O O O 1 O w O O O O 4 O > O 1     .   + 7 1 1 7 > 7   O w O 7 7 7 $ 1 O 1 1 O O O 7 O 7 O 7 7 O 7 7 7 +   W 1 O 7 $ + L %.*.&.%.&.&.&.R %.L + q 1 7 9 O     X 9 7 7 9   ",
"q O + q 7 O +   + J O O   + q 7 7 8 Z 0 O 4 7 > + 8 8 8 8 9 A A +   7 0 Z !   O < 8 5 N V D S y o.|.5X>X>X2X5XuXaXaXsXaXaXsXaXsXaXrX8X3X>X#XrX`. .g u M ..m.rX=X>X3X2X9XaXpXdXaXaXsXaXsXaXiX9X2X>X>X5X4X..g f % ..m.tX=X>X3X2XqXaXaXsXaXaXaXaXsXaXiXqX5X>X>X5X4X..g a $ n b , C < 5 5 5 < , < ; > 5 > > > > > : > > X > O > . . , m z C z 5 < 5 > < < > < < > > > > > O > : > > > > . X - z C 5 5 < 8 > > 5 5 > 5 > > > > > O > > : > > > + + - * B 5 5 < N 5 > < 5 < > > > : > > > O > > > > 5 . . + b k j , C 5 < < 5 < , > > > < > > > > O : : > > > > 8 .   X .   8 > O O > O 7 > O O O O O O O 1 > O O O O > O   .     > > > w O > O O O O O O O $ O w O O X O O O >   .     . 9 1 O > 7 1 + $ 1 1 O O 7 O w 1 1 O 7 7 7 O 7 7 O w 1 1 O w 1     W O 1 7 + + P %.R &.&.&.&.%.R &.L + W O 7 9 O     X 9 O O 7   ",
"q 1 + q 7 X X   + q O O   + 9 8 0 7 A 7 O 7 7 O + 8 8 8 9 7 A 7     7 Z Z )   > ; 6 5 8 V S S y ...X5X=X>X3X5XrXpXaXaXaXaXaXaXaXpXiX2X3X>X#XtX`. .g u M ..m.iX@X>X3X2XtXpXaXaXaXaXaXaXsXpXiXqX2X>X=X2X<X .g a % o.m.rX@X>X3X3X0XiXaXaXpXaXaXaXsXiXiX7X5X>X=X5X4X .g f % n m j C < N < < < 5 > : < > : > > > > > O > > O > 1   X * m z C < 5 < < < 5 > , 6 > : > > 4 > > O O > > > >   . , z C < < < < < 5 > : > ; > 6 > : > > O O O > > 1   o , - C N < < < < < < : > < : > > > > : > O > > , 8 .   . l k - * C N N < < < < ; < < > > > > > > > O > : > > < . + . + . 8 > 1 > O > > O O o > > X O O O O O 1 > O 7 X   + +   1 X > O O O > O O O O O O O O O O O O O X O 1     .   + 9 1 1 O > 1   1 O 1 7 O 7 O O 7 O 1 O 7 O 1 1 1 w $ 1 1 w $ 1     J 7 O 7 +   L R E *.*.%.&.%.%.%.6 X A > 7 9 O     X q 7 7 7   ",
"q O   q O X X   O A O 7   + 9 8 7 7 9 8 O 7 7 4 + q 8 9 8 7 0 9 +   7 Z Z !   o > 5 8 5 V D D y ..XX3X+X=X=X5XrXrXiXpXpXaXpXpXaXiXrX6X>X>X).rX]. .f a c X.~.rXE.#X=X=XtXiXrXpXpXaXaXpXaXiXuXqX>X>X#X2X4X..g p % X.~.rXE.#X#X>X9XrXiXpXpXaXpXpXaXiXuXqX>X>X#X2X<X..g u @ @.m < C < , < < > < < > > > 1 > < : > > > > > > > > + . * m x C < < 5 < > < < > : 5 > > > : : > > > > O > > + . * z C < < < < < < < > > < > > > > : > > > > O > >   . , - C 5 , < 5 > < > > > > > > < > O > > > > > o 7 + + o l k - - C < < < < > < > > > > : > > > > , > O > > o 8 .   .     8 O 1 O O O O > O O > O > O > > w O O O O > O   . .   7 O O O > O O > O O O O O 1 O O O > O O O O O   .     X 9 > 1 7 O 7   1 1 O O 7 O 7 $ 1 1 7 O O 7 O w 1 1 1 1 w 1 1 O +   9 w O 7 7   6 P R E %.%.%.%.R P + 9 9 w 7 7 +     X q 7 O 7   ",
"q >   q 4 O X   X q O O   + A 9 7 5 8 8 O 7 7 O + V 8 9 8 6 q 0 +   7 A Z (   o > 8 8 5 8 D S y ..XX2X@X).+X3XqXiXuXpXuXrXrXpXiXpX7X3X#X#X).rX~.s g u c X.~.iX).).).=X7XrXrXpXrXrXiXiXrXaXrX5X#X=X+X2X4X..a a % o.~.rX).+X+X>X6XrXiXiXuXuXiXiXuXaX0X5X#X=X@X>X4X .s a % @.b , C < z < < > < < > > > > : > > > : O > O o O < . . , m z C < < < < 1 < < < > > > : > > > > O > O O > > . . , z C < 5 < > < < < < > > ; > > > > > O > O X O > . . , , C z N < > > < 5 < < > > > > > > > > > O O o 5 .   X l k - - C < z < < < 5 > > < > > > > > > : > > > o X 8 . . X     8 > > O O O O > O O O X O O O O > O > O O > O   . .   7 O w O O O O O O > O O O O O 1 O O O O O > >     .   + 9 w O O 7 7   O 1 1 O 7 O 7 w 1 1 1 1 $ w w 7 O 7 1 1 1 O O O X   9 7 O 7 9 + + L P R R R R P %.L + ^ 4 7 7 1 +     X 9 w 7 9   ",
"9 w   q > X +   + A > O   + 0 7 7 4 9 8 O 7 8 O + q 8 8 9 8 0 8     7 q 0 ~   > > < 5 5 V S D y  .1X,X).E.#X=X3XrX0X0X9XrX0XiX0X0XqX>X=X#X(.9X].d g i M ..!.tXW.).).=X>X8XrXrXqX0XtXiX0X0XqX5X#X#X+X,X4X .g a # ..!.rXW.).+X#X>X7XrXrXqX0X0XiX0X0XqX5X#X=X+X,X4X .g a # @.m j C , 5 < > < < > 5 < > < > > > > > > > > > O < +   = m z C < < < < < < > 5 ; > < > > > > > > > > > > >   . * z C , < 5 < 5 < > < < > > > > > > > : > > > > > X . ; * C < < 8 < < 5 < > < > > : > > > > O > > > > 7 X   . l k ; - S < < 8 , < < 5 < < > > , > > > > > O > > O < .   X   . 7 = O O O O > O O > O > O = O O O O X > > > O   o +   7 O 1 O O > O O O O O O O O O O O O O O O O 1   X       9 7 7 7 1 7   O 1 O 7 O 7 7 1 w w 1 O 7 7 4 O 7 w $ 7 O 1 O O +   O 7 O O 7 7   + L L P P R R 6 + q W 7 7 4 O       X 9 7 7 7   ",
"9 w   9 4 X +   + q O X   + q 7 7 7 q 7 O 8 7 O + 7 7 8 7 9 q 0 +   4 8 Z )   o < > 8 N V D D y s XX*X$XE.@X@X>X5X2X7X6X6X>X7X2X2X2X=X).).).qX].s g u M  .!.7XP.).).=X#X5X2X7X5X6X2X6X5X3X2X>X+X$X+X>X<X .g s %  .'.qXP.).+X#X@X5X2X7X5X7X2X5X5X2X5X>X+X(.@X>X4X .g a % @.b z C < 5 < 5 > < ; 7 < > > > > > > > o > o > O 1 .   * b z C < < 5 < > < < > < > > > > > > O > o > O > > + . = z S < < < < > < < > < > > : > > > > > > O > > > . . = - C N < < < > < > > 5 < > < > > > > : > o > O 5 .   . x j - - C < < 8 > > < > < < > > > > > > > o > O > > 5 .   . . . 8 O > > > O 7 O O O O O O O O O O O O O 1 7 O   X .   7 O O > O O O 4 O O O O O O O O O O O O O O 1       + + q O $ 1 O 7   1 7 O 1 1 w w O O $ w 7 O w 1 1 O 7 1 O 7 O O O O     7 7 O $ J 9 +   w L L 6 w + q [ 7 O > 7 O   + + + 9 1 7 7   ",
"q O   q O O .   X A O O   + A 7 7 7 9 8 O 4 7 + + 0 8 7 9 7 q 8     4 8 0 (   o > 8 5 8 8 D C &  ..X*XW.E.+X+X>X>X=X2X=X2X3X=X>X#X@X@X(.).).9X~.a g i M  .m.qXW.).).#X).3X=X2X=X>X2X>X>X=X@X@X).E.+X>XXXs f a %  .m.7XP.).).@X+X>X>X2X=X>X2X=X>X=X+X@X(.(.+X>XXXs g a # n k z C < 5 5 > < < > < > 5 : > : > > > O > > o > > + . * l z C < 5 < > 7 ; > 5 > < > > : > > > > > O O > 1   . - B C < 5 < < > > > 5 > < > > > > > > O > O O > >   . = - C < 5 < < < > < < > > > > > > > > O > > o > 5 . + . x k x , C 5 z < < < < > < > < > > > > > > O > > o X 8 + . .     8 O 1 > O > O O > O O O > X O O O O O O X > O   X     7 > O O O O O O O O O O O O O O O O O O O O 1     .   + 7 7 w O 7 1 + O w 1 1 O $ 1 7 1 w 1 O 7 O 1 O 7 w O O 7 1 1 O O + + O 7 w 7 w q J 7 + + + + 7 ) =.7 7 O 7 1     + + + 9 1 7 7 + ",
"q O   q O O +   + A O O +   q 7 7 8 8 7 O 7 7 O + 8 8 8 9 9 q 8     7 0 0 (   X > 5 8 5 V D S &  . X,XU.W.+X#X=X=X>X>X@X>X>X>X=X@X@X#X+X+XW.5X'.s s u M  .m.9XP.W.+X#X=X=X>X>X+X#X>X>X>X#X@X#X+X#XW.,X.Xs g a #  .m.qXU.E.).#X=X=X>X>X+X=X>X>X>X@X@X#X+X+XE.,XXXd g a % n k < S , < 5 8 < < 5 > > > < : > > o > o > > > * > . . , l z S , < 8 < < > > < > > > > > > O > > X > > > >   . , z S , 5 5 5 < 1 > < > > ; : > > > > X > O > O > + . = * C < < 8 < < < < > > > > > > > > O = o > O O < .   X l k - - C z < < 5 < 5 > < > < > > > > > > o > O O X 8 .   .     8 O > > O > O O O O > O O O O O > O O > O 7 X + . +   > O O O O O O O O O O O O O O O O O O O X O >     .   + 8 1 1 O 1 1   O 1 7 O 7 O 1 7 O 7 1 1 O 1 O 1 O 1 O w 7 O O O O O   + 8 7 O 1 O q ] ] [ [ { { | 7 O 7 7 7 +     O   X 9 1 7 7 + ",
"q 1   9 4 X +   X q O O   + q 7 7 6 9 8 > 7 7 X + 8 7 7 6 8 I 8 +   7 0 0 !   > < 5 5 N 8 G S y s |.*XW.+X+X+X@X>X>X#X=X=X>X+X#X@X).).).E.L.5X].p a u c s n.7XR.).+X+X+X#X>X=X#X>X>X@X#X#X+X+XW.+XP.$XXX .f u % s n.7XR.).).+X+X#X>X#X=X=X>X#X@X#X).+XW.$XP.$XXX .f u % m b z C < < < , < < < > > < > > > > X > > > X > > 7   . * b z C ; 5 < , 5 < < > > < > > > : O O > > > > > 1   . = z S ; < < , < 5 < > < > 4 > : > > > > > > > : >   . - , S 5 z < , < < < > < < > > : : O > O > O > > 8 +   . x k ; , S < < > < < 5 5 > < > > : > > > O = O > > > 1   . . +   8 > O 4 > O O O > > X > > O O O O O > O O 4 o   X .   7 O O > O O O > O O O O O O O O O O O O O O 1           7 1 1 1 7 7 + O O 7 1 O 7 O O 1 O 1 1 1 1 O O 7 w $ 1 O 7 O O O O     X 9 O 1 7 O w 7 q J 9 1 O O 7 1 7 +     + O   X q 1 4 7   ",
"9 1   q 7 X +   X q + O     9 7 8 7 8 8 O 7 7 X X q 7 7 8 0 q 7 +   7 Z V (   o 4 5 5 8 5 D S y s |.*XR.T.).W.E.+X#X+X@X=X@X+X@XE.).$XE.E.P.5X].a a u C  .n.6XR.U.E.E.E.+X@X@X).#X#X+X#X+XW.+XE.W.W.*XXXs f u #  .n.7XP.T.(.E.E.E.#X+X+X=X#X+X#X+X).+XW.W.E.*X;Xd f u % n b ; C < 5 5 < < > > < < < > > = > : > > > O O > > + + * l z S , 8 < < < : > < < < > : : > > = O > o = > >   . = z S < 5 < < < : > > 5 > > > > > > > = > X = > : + . = - C z 8 < < < : > < 5 > > > o > > > > > > O : < .   o x j ; ; C z 8 < < ; > ; > < > > > > > = > > > > o > 5 . . o . + 4 O > > O O > > O > O O > O X O O X O > o 6 O   . .   4 O O O O O O X O O O > O O O O O O O O O O >   . .   + 9 1 1 O 7 O   7 1 O 1 1 O 1 1 O O 7 w $ 4 w 7 O 7 7 1 1 O 7 w O X +     + 9 7 O 7 7 7 w X 1 1 O O 7 1 +     + X O + X q w 7 7   ",
"9 O   q > O +   O 0 O O   + 9 7 7 8 7 8 O 7 8 O + 7 8 8 7 7 0 8     4 0 0 !   > < 5 5 5 V G S y  .|.&XU.W.E.+XE.E.+X+XE.).@X).).).).E.).E.R.6X!.u a i c  .m.7XL.T.E.+XE.E.+X+XE.+X+X+XE.E.).E.).W.W.*XXXp a u @  .m.7XD.E.E.@XE.W.$X@XE.+X+X$XE.+XW.E.+XE.T.*X.Xp a u @ n m z C > < < < > 5 , > > > > > O > > > o > > = > >   . : b z S , < 5 < > 5 < > > > > > > > > > > > O > > >   . - z S , 5 5 < > < > < < > : > > > > > O > O > > >   . , - S < , 8 < > 5 > > > > : < > > > > o > > > > 8 .   o j k , - C < z < < 4 > > 5 5 > > : > > O > O O : > O 5 +   .   + 7 > O > O > O > O o o O o O 1 O O O > O O 1 O   X .   > > O > > > O O O O O O O O w O O O O O O O >   +   +   9 7 1 O 7 7   O 1 O O 1 w 1 O 7 O O O O w 7 O 7 O 7 $ O 7 O O O O +         7 7 7 $ O w $ O O 1 8 O         + X O   X q 7 1 7   ",
"q O   q O X .   X q O O     q 7 7 8 9 7 w 4 4 O X 0 7 8 8 5 q 8     4 9 0 (   O 4 5 < 5 8 S S &  .|.&XU.U.(.$XW.).E.).(.).E.(.T.).E.E.T.T.L.6XQ.u a y c  .n.7XL.T.E.$XE.(.E.$XE.E.E.E.).T.E.E.E.I.Y.*X}.p a u @  .n.6XD.T.E.$XE.E.).).E.E.E.E.).T.E.E.E.U.U.*X}.p h i @ n b , C < 5 < > < < > < > > > > > > > : > > o > > >   . * k z C < 5 < > < > > < > > > > > > > > > > O > > > . . = z S ; < < < 4 > < > > > > > > > > > > > > > > 1   . , * C V < 5 ; < > < > > < > > : > > > > > > O > 5 . + . x - - , C < < 5 < < < > < > < > > > > > > > > > > O <   . .   . 7 > O > 4 O o > O > O O > O O O O > O > O 4 O   . .   7 O O O O O O o O > O O O O O O O O O X O O 7   +   +   8 O 1 1 O 7 + O O 7 1 $ 4 w 1 w O 1 1 O $ 7 1 7 7 O w 7 O O O O $ X X         + O 1 7 O 7 7 > > O       + . X X O + X q w 7 7   ",
"q O   q 4 O +   X q O O   + 9 7 7 7 9 7 > 4 7 O X 0 7 8 8 7 0 8 +   4 8 0 (   o > 5 8 5 V S D y s oXOXI.Y.T.T.U.T.U.$X@X(.).(.T.E.+XE.U.I.D.6Xc.i a i c s M.6XS.T.T.E.Y.T.T.E.#XE.+X).E.U.+X+XT.I.G.&X Xp u u @  .n.6XS.T.U.).I.T.T.E.#X).+X).T.T.).E.T.I.H.&X Xp a u @ n b ; S < < < < < > > > 5 > > : > > > O > O > > > 8 .   * l z S 5 < < 5 < > > > < > > > > > : O * O > > > > + . * z S 5 5 < < 5 > > > < > > > > * O O > X > > O >   X , = C z 5 5 > < > > : 5 > > : > > * O o > > > o 8 .   . j j * * C 5 < < < < > > > > > > > : > > o : > > > > 8 . + . .   8 > O O 4 > O > O O O O O O O O O O X O > > X   . X   4 X > w O O O o O O O O 1 O O X O O O O O O 1     .     8 O 1 1 7 7 + 1 1 O 1 O 7 w O 7 7 1 O 7 w 7 O O O 1 7 O 1 7 7 O w O X               + + + +             + O O O O   X q 1 1 O   ",
"q O + 9 O X +   + q O O   + 9 7 7 7 0 7 O 7 7 O X 9 7 8 7 7 A 8 +   7 0 0 ~   > > 5 8 N 8 S S y s |.&XI.H.I.E.T.I.I.(.T.U.E.I.(./.R.T.(.I.S.2XQ.r u y v  .m.7XG.H.I.$XW.U.I.$XT.T.T.U.T.E.U.I.+XU.G.OX}.p u u @ s m.6XG.I.H.E.T.U.Y.)./.U.T.T.T.E.U.Y.+XY.F.OX}.p i i $ n b < C < 5 > : > > > < > > > > > > > : : > X > O > + . = l z V < < > , > > > > > > > > > > > : o > O > > 1 + . = z V , < > > > > < > > > > > : > > : > > > = O 1 . . = * C < 5 > : > < < > > > > > > : > > > > > o o 8 +   X x j ; * C < 5 > < < > > < > > > > 4 : > > o O > o o 8 .   .     8 O > > o 4 O O o O > O O O O O O > X O O 4 O   . + + 4 o O O O O O O O O O O O O O O O X X O O O 1   .     + 7 O 1 O 1 O   $ 1 w 1 1 7 O $ w O O 1 1 1 O 1 O O w 7 O 1 w 1 O O O X .                               . + o O O O   X q 7 w 7   ",
"q O   q 4 O +   O q O X   . 0 4 7 7 8 7 > 8 9 O X 8 7 7 7 7 Z 9     7 0 Z ^   > ; 6 5 8 5 S Z &  .|.OXH.G.Y.Y.I.Y.Y.Y.T.I.T.Y.U.T.I.H.T.T.S.wXQ.u a y v  .m.6XV.J.Y.I.J.Y.U.Y.E.Y.Y.U.Y.T.Y.I.Y./.H.OX Xp u u @  .m.6XF.H.I.I.I.I.Y.Y.E.Y.Y.T.Y.E.U.I.Y.T.I.OX Xp h i @ b k < B < 5 < 5 5 > > > > : 4 > : > > o O > > > O 5 + . * j z C < < > 8 5 5 > > , > > > > > > o > > o > : > + . = z V < < < 5 < > > > : , > > > > O : O O O > > > . X , * S < < < < 8 > > > > > > > > > > > o > o > > 5 . + o ; j - , C < 5 < > < > > > > = 6 > > O > : > > O > O < . + X .   8 > > > 4 > O o 4 > + o O O O > O O > O O 4 O   . .   4 > o O O O O > O > O O O O O O X O O O O O 1     . + + 9 7 7 w 7 1 + w O 1 O 1 O 7 7 O 7 w 1 O O w 1 1 7 w $ O 7 O 7 O O O O X X                           + . + X X X O   + 9 1 $ O   ",
"q O + 7 > X +   + q O O + + 9 7 8 7 0 7 + O X O X 5 7 7 7 7 q 0     7 Z 0 !   O < > 8 5 8 S D &  .|.%XJ.I.H.H.Y.I.H.I.I.Y.Y.Y.Y.Y.Y.Y.F.J.S.3XQ.i u y v s n.6XA.I.I.J.Y.I.I.I.H.Y.Y.Y.H.Y.Y.Y.J.F.G.{.}.i u y @ s m.7XV.J.I.J.I.Y.H.Y.I.Y.Y.Y.H.Y.Y.Y.J.F.D.{.}.r u i @ b k , C , > < 6 > > < > > > > > > > > > o : O O > 5 . . = l < C : < < > < > 5 > > < > > > > > > O > O O > > . . = z C , 6 , < < > < < > 6 = > > < > > > o > : > > + . , * C < > , 5 < > < > > > : > > > > : O O : O O 9 X   . x j * * C < < < 8 > < > > : > > < > > > : o > : > > 8 . . o   . 8 O O > O > O > O O O > O O O o O O O O O > O   o .   7 O O O O O O O O O + 4 O > O O O O O . O O 1   + . + + 8 1 7 O 7 7   O 7 O 1 1 w 7 O 1 O 1 1 O 7 1 $ w 7 O 4 w O O 7 7 O w w O O O .   + X + + + + . + . X + X O X O O O + + 9 7 O O + ",
"q O   q > O X   X q O O   + q 7 7 7 4 Q Q W Q Q 8 8 8 7 7 8 9 8     7 0 Z )   o > 5 5 8 V S S % d [.|.A.Z.V.S.V.Z.F.Z.F.S.S.V.F.Z.Z.Z.Z.Z.V.3Xv.y y r v d x.tXB.Z.V.Z.S.V.S.Z.S.S.Z.A.G.S.Z.F.Z.B.Z.OXoXr y y # s x.tXB.K.B.V.S.V.Z.Z.S.S.S.V.J.S.A.F.Z.A.S.OXoXr y y % b k < N , 5 < < 5 > 5 < > < > > > > , > > > : > > 8 + . * l < V : < 8 < 5 < 5 > > < : > : > : > > > : > > 7 . + - < V : ; 5 5 5 < > < : > > > > > > : > > : > > 5 + X , * N < 5 5 5 5 4 5 5 < > > > > 6 > , > > O > O V . . X < j - , V < 5 > 5 < > < 5 > > > > > > > > > O > o o 9 .   o .   7 > > > > O > > O O O O O > O > > O O > O 1 O   o .   7 O > > w > O O O O O o O O O O X O O > O X 7           7 > O 7 7 7   O 7 1 O 1 1 O 7 1 1 O w 4 1 O 4 w O 1 $ 1 O w 1 X X O + + + +   +       +             + + + + + + O +   X + +     ",
"> O   7 X +     + I O O   + 9 7 7 8 7 0 A A I I q 7 7 7 9 8 q 0 +   4 q 0 (   o > 5 5 5 5 S S % s +.wX:X%X;X:X:X-X:X:X3X3X:X,X,X%X:X*X,X-X5X%XX.r y y v g ..1X8X-X-X-X:X:X:X:X,X,X3X3X>X*X;X-X,X-X:X3X+.a y y # s ...XqX-X;X-X:X:X:X:X>X3X:X3X,X*X-X:X,X:X:X3X+.p y y # k b , C , > > > o : o o o o o * o o . . + + + o > 7   . * j , S > > : > o o o o o o o o o + + o + . + o > 7 + . * < S , > > > o : o o o o o o o o + . . + o + > >   o = * V 5 , o : > * o * o o : X * . + o + . + + : Z   . . - - , * V < > > > > : > , > o o O : o : o o o o : O V . . .   . 8 > O o O : o o + O o O : O . o o O O o O 7 . + . .   > > > o X O X o O > + o + o X O . X + O O > >   . .   + 9 7 O O $ 1   1 O O $ w 1 w O O O w $ w w $ O 7 7 O O 1 O $ + + ] | ~ ) ^ ^ ^ Q ^ Q W W ^ W W W W W W W W W J J J q q q 7 +     ",
"+               + q O O   + 9 4 8 7 7 4 7 7 7 7 7 8 7 7 5 8 0 8     4 8 8 ^   O > > 5 8 8 V / % s s O.c.].`.].].].`.].].`.'.'.'.'.'.!.Q.!.v.o.a i y # v s g  .v.'.`.`.`.`.`.].].`.`.`.!.'.'.'.Q.!.c.O.s i y t e s s  .v.'.`.`.].].`.`.].`.'.`.!.'.'.!.Q.Q.c.O.s u y & % k k o < G D D D U D S S D D Z A A A A Z Z A Z Z 7 .   . * j . V G D D S U D D S A S S A D A Z Z S A S 8 8 X   . * . V D D D D U D A D A S A S A Z 0 A A A Z V 8 X   . , * < S D U U D D D A A D S A D A A A A V Z Z 0 O   . X - - - * z H S S S Z Z Z Z Z Z V V Z 0 8 8 Z 8 0 8 9 >   . X .   7 8 0 V 7 5 8 8 8 9 7 8 7 9 7 8 9 7 8 8 8 7 +   o .   X q 7 7 7 7 7 7 7 7 7 8 8 7 7 8 7 7 8 7 7 >     .     + 7 O 7 w 4 O   O 1 7 w 1 1 $ 7 7 O 7 1 w 4 1 7 O 1 1 7 w 1 + O [ { ) ~ ` ~ Q ^ ^ Q Q ^ ^ W W Q ^ Q Q Q W W W W W Q W q ^ q   hXhX",
"          +     X q O O   + 8 7 7 7 8 7 7 7 8 7 8 7 9 9 7 9 0 8     6 Z Z (   o > 4 5 5 8 < _ | p u y t r r r r r r r e t t t t % e # e e e y % % % # 3 u u i e r r r r i e r r e e e e e # e # # e r y $ % % $ u p y t r y r r r e r r r r e # # e # e # e y e % & % @ k k * + X > > > > > > > > > > > > > O O 4 > > O     . . * l * . o > > > > 4 > > > > > > > O O O > > > O     . . * * . o > : > 1 > > > > > > > > > o > > > O O     . + * * . X > > > > > > > > > O > > O > O > > > >     + . . - - - * . > 9 V V A Z 9 V V V 9 9 0 7 7 8 9 8 8 7 .     + . .     > 7 4 4 > 4 7 7 7 > > > 4 > 4 7 1 > 7 O     . + . +     > 4 > O 7 O > > 4 4 4 4 O 1 4 > > O +       .   X   + +     +       +   + + + + + + + + +   + + + + + + + + + X { ~ + 1 O 1 O O O O O 7 O O w 1 O O O O O 1 $ O O O O 1 7 9 +   hXhX",
"    7 Q } q     X J O O   + 8 7 7 7 7 7 7 7 7 7 7 7 8 6 7 7 0 8     7 0 0 )   o > 5 < > 8 V > ] h % % % $ $ 3 $ $ $ $ $ $ @ $ @ $ $ $ $ $ $ $ $ $ $ $ , % 3 % 3 % $ $ $ 1 % $ $ $ $ $ $ $ $ $ $ $ $ $ $ $ $ $ $ 3 3 % $ & % & $ $ $ $ $ $ $ $ $ $ $ $ @ $ $ $ $ O $ $ $ x j * * . . . . .         +                       . . . = - * * .   . . .   .                             . . . * * * .   +   .       .           +       .     . . . * * * o   . .             +     +               . . . . , * * * .                                           . + . o . o                                             .   . + .                                             . . .   + 7 J q W q q J q W 9 J q q q q q q J q 9 9 q 9 9 9 9 q q 7 J 7.] O w 7 O 1 1 1 1 1 O 7 7 7 4 4 7 7 1 7 1 1 7 7 1 1 O 7 1 + hXhXhXhX",
"+ q } } >.1.W   + q > O   + q 7 8 7 7 4 4 7 7 8 8 8 7 8 8 7 q 7     7 0 8 )   + > < > 5 5 8 8 : ' ' O . * * * * - * * * * * * * - * - * - * - * - - - - - - - j - - - - - - * - - * - * * - - * - - - - - - - - - j - - - - - - - - * - * * - - - - - - - * - - - - j j j j * - * * * * * * * * * * * * * . * * * * . * . * * * * - * * * * * * * * . * * * . * * * * * * . * * * * * * * - - * * * * * * * * * * * * * . * * * * . * * * * * * - - * * * * * * * * * * * * . * * . . * . * . * . * * * * * . * . * . * . . .   . . . . + .   . . .   . . . . . . . . . . .   + . . .       . . . .       .     .   + . .   .   .   .       .     .     .   +     .   .   .   + W { ,.7.7.1.1.7.1.7.,.7.1.,.,.,.,.,.,.,.,.,.,.,.:.:.>.,.,.:.;.~ O 7 7 7 1 7 O 1 w 7 O 7 7 1 1 $ 7 O 7 7 O 1 O O O O 7 7   hXhXhXhXhX",
"7 ~ 7 w 7 q { J   O 1 O   + 8 1 7 7 7 7 4 5 1 7 8 7 7 8 0 7 9 7     4 0 8 (   O > > 8 5 < 8 N 5 5 ( ' > . * * * * * * * * * * * * * * * * - - * * * - - - - - - - - - * - - * - - * - - * - * - - - - - - - - - - - j - - - - - - - - - - - - * - * - * * - - - - - - - - - - - - - - - * - * - - * - * - - - - - * - - - - - - - - - - - - - - - - - - - - - - - * * - - - - - - - - - - - - - - - * - - * - - * - * - - - * - - * - * - - - - - - - - - - - * - - * - * * * - - * * * * * * - * * * * * * * * . * . . * . . . . . . . . . . . . . . . . . . . . . . . . . .     . . . . +   .     . . . . . . . . . . . . . . .   .   . +   . .   .     .         + .     O J q 7 7 7 7 7 7 1 7 7 O 7 7 7 1 1 1 $ 4 1 7 1 w 1 7 $ w 1 1 1 1 w 7 O O O O 1 O 1 O 7 O 7 $ w w 1 O O O O 1 O 1 w O 7 X + hXhXhXhXhXhX",
"A q 1 1 7 7 q :.9   O O +   7 7 7 7 7 7 7 7 7 7 0 7 7 8 7 7 q 8     > q 7 )   o > 4 5 5 5 8 V V 5 5 ( [ o . . . . . . . . . . . * . . * * * . * . . * * * . * * * * * . * . * . * . . * . . * . * * * * * * * * * * * * * * * * * * * * . . * . * * * * * * * * * * * * * . * . * * * * * * . * * * * * * * * * * * * * * . * * * * * * . * * * . * * . . . * * * * * * . * * * * . * * * * . * * . * * * . * * * * * . * . * * * * * * * * * * . * * . * * * . * . * . * * . * * . . * . * . . . . * . .   . . . . .       .             .           . +   .       +           +     +     +                 +           +                                               O W 9 7 7 9 7 8 7 5 7 7 8 7 7 1 7 7 7 7 7 7 1 1 7 7 7 7 7 7 7 O > 7 7 7 O O 1 O O w 7 $ 7 O 1 7 O O 1 O O 7 O O > 1 O 7 O   hXhXhXhXhXhXhX",
"7 7 7 7 7 7 > 7 9.7   +   + 9 7 7 7 7 7 7 7 8 7 7 7 8 9 7 8 8 0     7 7 7 !   o > < 5 4 5 8 5 8 V 8 ; ' 3._ ^ / / ( / Q Q Y / / / / Q / / Q / / _ _ _ ( / / ( ( / / / / ( ( / / _ / _ ( _ _ / _ / _ / ( ( / ( ( ( _ / ( / / / ( Y / _ ( Y / / / ( ( Q / / / T / ( ( / / _ / / _ / / ( ( / / / / Q / Y / / / / ( / Q / / / / / / / / / / / / / / / / / _ / / / / / K Q / Y / Q / / / _ / Q / / / / / / ( _ / / / / / ( ) / / / / / K Y / / Q ^ / / / / Y Q ^ Q / / D Q Q / K K / Q Q Y K / W Q Q D Q J D U I A A W A W J A A W J W A A J J A J A J q J A q q q W J A q q q J q q q q q q J q q q q q 9 J A q q q q q J q 9 q q q q q q q q q q q 9 q q q 9 9 9 9 9 9 q q q ^ 8 7 7 7 7 7 8 8 1 7 > 1 1 1 7 7 1 1 1 1 1 7 1 > 7 7 O O 7 O 1 O 7 O $ O 7 O O > O O O O O O O O O O O O O O O > O > X hXhXhXhXhXhXhXhXhX",
"X 7 8 7 7 7 7 > w 1.9 +   + 9 7 7 7 7 8 7 8 8 7 6 8 8 8 7 7 q 0     4 9 0 !   o > > 4 5 5 7 5 8 8 0 V 6 ( r.t.t.w.w.y.r.t.t.r.r.t.r.r.w.e.r.w.t.t.r.r.t.w.w.w.w.e.w.t.w.w.w.w.e.e.e.i.i.e.e.e.e.e.e.i.y.w.i.w.i.i.s.i.i.i.s.i.s.s.i.i.e.e.i.e.i.i.i.i.i.i.i.i.i.i.i.i.s.d.d.d.d.i.g.s.s.i.i.i.i.i.i.i.h.i.i.s.s.s.s.s.g.s.s.s.s.i.s.s.s.s.i.i.s.i.i.s.d.h.i.d.s.h.i.g.g.h.h.s.g.h.h.h.h.s.h.s.g.d.h.h.s.g.s.s.d.d.h.h.s.d.s.s.d.d.s.p.s.d.h.d.h.g.h.h.h.s.s.s.d.s.s.s.s.g.a.s.s.p.s.s.s.s.p.a.p.a.p.p.s.a.p.p.p.p.a.a.p.p.p.a.s.d.a.p.p.p.p.p.a.p.p.p.u.u.u.q.q.9.9.u.p.u.p.p.z.q.z.z.q.9.9.9.9.u.9.9.u.p.9.q.r.9.9.q.9.9.9.9.9.9.9.9.9.9.9.7.9.9.9.9.7.5.5.5.7.7.7.7.7.] 7 7 7 1 5 1 8 7 7 7 1 7 1 7 8 1 7 7 7 7 7 7 7 4 w 1 1 7 > 1 1 7 O 1 O w O O O 7 O > > w 7 O 1 O 7 1 O 7 7 O O 7 O > + hXhXhXhXhXhXhXhXhXhX",
"hX+ 7 7 7 7 7 7 O 0 { q     7 1 7 8 7 7 8 7 7 7 8 8 8 7 7 7 q 0 +   7 8 0 !   o > 4 7 4 4 5 8 5 5 V 0 5 > o * o : o o : * > * > * : : = , : : : * > = * , , > , - : < * : : > , * > = , , , , - , < * , , , > = , : = - : , , : = > = > , , , , , , , = , , < , , - , : , < , , < , , < , < < , , , < , < , , , : - : , < * : , : * , , , ; , < , - ; : , - , > , : > : , , , < ; > : : , - > , : : , * , > , : = : , > : : : = : > = > = : > > > : = > = > : > > = > : > : > = > = O O o = > * > * > X o O * > > o > o X > O O o O O : X X X X . X X + . : o > O X X O + X X X X X X X + O O O X O + X X X X . + X X + X X + X X X X X + X X X + + X X X X + X + O + O O 7 7 1 1 1 X + +   +   +       +   +     +       +       + +     +       + +     +       + +     +       +       +   hXhXhXhXhXhXhXhXhXhXhX",
"hXhXX 1 8 7 7 7 > O q } 9   O O 1 7 1 1 > 1 1 7 7 > 4 4 4 1 7 O     7 9 8 Q   O > < > 5 8 5 8 4 8 8 5 8 V V 8 8 N 8 N V 8 V 5 V V V N V N V 8 V V V z V N V V V V V V V V V V V V V V C S C V N N S V C V V C V C C C N V C C V C C Z V V V S V S S S C C V C C C C C V C S C V S S C S S C S S S V C S C C V Z S V S Z C C C S S S V C N V C C S C S S V C S S S V S S S C V S S V V S V C V C S C C V V S Z C D V Z S Z S V Z V S Z S S S V S V S V V V Z V Z V A V F V F V Z V V V V 9 V V V V V 8 V 0 5 8 V V V V 8 V V 9 8 V 8 8 8 8 8 8 8 8 7 V 7 8 8 7 8 8 8 8 8 8 8 1 8 8 8 8 5 8 5 8 7 7 7 8 7 8 7 7 8 5 8 8 1 7 7 7 7 8 7 7 5 5 8 8 8 7 7 1 7 7 7 1 7 7 7 1 7 7 1 8 7 1 +                                                                                                     hXhXhXhXhXhXhXhXhXhXhXhXhXhX",
"hXhXhX+ 7 8 1 4 7 7 7 q { 7 + + + + + +   +     + +       +   +   + 7 8 7 I   O 4 > 8 4 7 5 5 5 5 5 V 7 8 V N N N 5 V 5 N V N N N V N 5 5 V N V V V V V V V V N N V z N V V V V V V N V C V C V N V B V V N V C V V V C N C C V V C V S C C B V C V C V C S C C C C C C V C S C C B C S C C C V V C V C C V C C S S S C V C V S S V N C C C C C S V S S C C C C C C C S C C C V V C V V C V V C C V V C V V C V C N V V S C V S Z V V V V V S S V V V V V V V N V V V V V V V V V 8 V V V V V V V V N N N 5 5 5 5 5 8 8 8 8 V 8 8 5 N 5 V 8 N 5 8 8 8 5 8 5 < > 5 7 5 5 7 5 1 5 < > 5 1 > 8 5 ; 7 7 5 > 5 1 8 > 1 8 7 > 7 7 4 7 7 8 5 8 > > > 1 > 7 1 1 > 1 O 1 1 1 > 7 7 7 7 >         + +   . .     X .     . . . X   + +   .     .     + . .     X   . .               +   .     +   hXhXhXhXhXhXhXhXhXhXhXhXhXhX",
"hXhXhXhX+ 8 7 7 7 7 7 w J 7.,.>.:.:.;.:.;.>.>.;.#.;.:.=.:.,.1.,.1.,.8 8 A Q   : 5 4 8 < 4 5 8 5 V Z 8 V 9 8 8 V 8 8 V 8 V V 5 V V V V 0 N 8 V Z V 8 V 8 V V 8 V V V 5 V V N V V V V 9 V S S S S Z S Z V C S V V V V V V C V V Z V S V V S S S S V S S S V S S V C V C C C S S D S S G S C D S C S V S S S C S S S S S S C S S V V V S C V S S V C S S C C S S S S V V V S S V V C V S S V S S V C V V V C Z C S S C V S S V S S V V V V S S V Z V V V V V V V V V S V V F V S V V V A V V V V Z A V 8 8 0 8 V 8 8 V 8 V 8 8 8 V V 9 8 8 8 8 8 8 V 7 8 8 8 8 8 8 N 2 8 8 8 8 8 7 7 8 8 5 8 8 8 8 8 8 8 7 8 8 8 7 8 8 1 8 8 > 8 5 > 7 7 > 5 1 > 1 7 > 1 > > > > > > > 1 7 7 1 X         . . . X . . . X X + . . . . +   . . . + .   . + . X . + + X + + . . + . + .   X + .       X X   hXhXhXhXhXhXhXhXhXhXhXhXhXhXhX",
"hXhXhXhXhX+ 8 7 7 7 7 7 4 1 9 7 7 7 7 7 7 7 7 9 7 7 7 7 9 9 7 8 8 6 5 8 0 I   o > 7 < 4 4 5 > 8 5 +                                                                                                 +                                                                                                                                                                                                                                                                                                                                                                                                                                                                             + . X + X X X X X X . X X X + X . X X . o o + X + X . . . . X . . . + X + . + X + X . . + . X X   hXhXhXhXhXhXhXhXhXhXhXhXhXhXhXhX",
"hXhXhXhXhXhX+ 8 7 7 7 4 8 7 7 8 8 7 7 7 8 7 7 8 7 7 5 7 8 9 7 0 8 7 7 0 0 I   O > 5 > 8 > < 8 >             . .   .   . . . .     . . . . . . . . . . . . .   . . . . . . . . . .   . . . . .   . .   . . . . . .   . . . . . . . . . . . . . . . . .   . . . . . . . . . . . . . . . . . . . . . . . .     . . . . . . .   . . . . . . . .   . . . . . . . .   .   . .   . .   . . .   .   .   . . . . . .   .   . . . . . . .   . .   . . . . . . .       . .   .         .       . . .     .   .                           .                                                                                                                                                 . X + + O + O X X O X + O X + . + X X X X + X + . X X X O X + + X + X X X X X X X . + + . O X X + hXhXhXhXhXhXhXhXhXhXhXhXhXhXhXhXhX",
"hXhXhXhXhXhXhX+ 7 8 4 7 7 7 7 8 7 1 8 7 7 4 8 7 6 9 8 7 7 7 5 8 7 7 0 8 V I   o > 4 < 8 4 8 < +   o o * = : * = * * * * = * * , = : , * * - * - * : , * = * * - * * * : * - * * - * * * * - - * , * * , * - , * - - - , - , * , * , - - , - - - - - , - , , * - < - , - - * , - - , - , , - , , * - , - - , , - , , * , , - , * - - : - - , , - , : * , - - , , - - , : - - , - * , * - , - , * - * - : - * , , , , , * * , , - , - * - , * , - * , - , , , * * * : , * , * * , * , * * : * * : * : * , * > * > : * : : * = = * = * * o o * > * o * o * * o . = o o o * X * . * o . * o o . o . o o . o . . . . . . o X . . . . o . . . . . . . . .   . . . . o .     . . . O O O O > > > > O > O O > O > O O > O O O O O O O O O O O O O O > > 1 O O O O O O O O O O O O O O + hXhXhXhXhXhXhXhXhXhXhXhXhXhXhXhXhXhX",
"hXhXhXhXhXhXhXhX  7 9 8 7 0 8 8 9 8 8 8 Z 0 9 0 8 q 9 9 8 0 0 0 7 Z 0 9 Z I   o > > > > 8 >     + . . . . . o . . o o o o o o o o : o o o o o o o > o X o o o o o * X * * O O o o o * > * o > o * O o o : o : > o : * O o o O > : o : O o o O : o : * O : o X : * > : > * > = o * O X > > > * > > > o > * : : X : o : > : o : > o > o > * > > o > * o : > * O = > o * : O = = X o * o : : : O : : : * > X : > * : : > : o > : o > o * o * > o o * > : o = o o o X O X * o > O = O * O o o o o O > o o o o o o * X o o o O o o + o o o o o . X + . . + o . . X . . X . . + o X . . X . . . X . X . . . . .   . .   . . . . . + . . + . . + . + . . + + .   + +   +     O O O O > O O 1 > 4 > 4 O 4 O 4 O > O 7 > O 1 O O 7 O O O O O > O O O 4 O O O > O 4 O w O O O O O O O +   hXhXhXhXhXhXhXhXhXhXhXhXhXhXhXhXhXhX",
"hXhXhXhXhXhXhXhXhX  > > 7 7 7 7 7 > 8 1 8 6 7 7 1 1 8 > 4 7 7 5 8 4 4 7 0 7   O > > > 8 >       hXhXhXhXhXhXhXhXhXhXhXhXhXhXhXhXhXhXhXhXhXhXhXhXhXhXhXhXhXhXhXhXhXhXhXhXhXhXhXhXhXhXhXhXhXhXhXhXhXhXhXhXhXhXhXhXhXhXhXhXhXhXhXhXhXhXhXhXhXhXhXhXhXhXhXhXhXhXhXhXhXhXhXhXhXhXhXhXhXhXhXhXhXhXhXhXhXhXhXhXhXhXhXhXhXhXhXhXhXhXhXhXhXhXhXhXhXhXhXhXhXhXhXhXhXhXhXhXhXhXhXhXhXhXhXhXhXhXhXhXhXhXhXhXhXhXhXhXhXhXhXhXhXhXhXhXhXhXhXhXhXhXhXhXhXhXhXhXhXhXhXhXhXhXhXhXhXhXhXhXhXhXhXhXhXhXhXhXhXhXhXhXhXhXhXhXhXhXhXhXhXhXhXhXhXhXhXhXhXhXhXhXhXhXhXhXhXhXhXhXhXhXhXhXhXhXhXhXhXhXhXhXhXhXhXhXhXhXhXhXhXhXhXhXhXhXhXhXhXhXhXhXhXhXhXhXhXhXhXhXhXhXhXhXhXhXhXhXhXhXhXhXhXhX                                                                                                          hXhXhXhXhXhXhXhXhXhXhXhXhXhXhXhXhXhXhX",
"hXhXhXhXhXhXhXhXhXhXhXhXhXhXhXhXhXhXhXhXhXhXhXhXhXhXhXhXhXhXhXhXhXhXhXhXhXhX  > > 4 7 >   hXhXhXhXhXhXhXhXhXhXhXhXhXhXhXhXhXhXhXhXhXhXhXhXhXhXhXhXhXhXhXhXhXhXhXhXhXhXhXhXhXhXhXhXhXhXhXhXhXhXhXhXhXhXhXhXhXhXhXhXhXhXhXhXhXhXhXhXhXhXhXhXhXhXhXhXhXhXhXhXhXhXhXhXhXhXhXhXhXhXhXhXhXhXhXhXhXhXhXhXhXhXhXhXhXhXhXhXhXhXhXhXhXhXhXhXhXhXhXhXhXhXhXhXhXhXhXhXhXhXhXhXhXhXhXhXhXhXhXhXhXhXhXhXhXhXhXhXhXhXhXhXhXhXhXhXhXhXhXhXhXhXhXhXhXhXhXhXhXhXhXhXhXhXhXhXhXhXhXhXhXhXhXhXhXhXhXhXhXhXhXhXhXhXhXhXhXhXhXhXhXhXhXhXhXhXhXhXhXhXhXhXhXhXhXhXhXhXhXhXhXhXhXhXhXhXhXhXhXhXhXhXhXhXhXhXhXhXhXhXhXhXhXhXhXhXhXhXhXhXhXhXhXhXhXhXhXhXhXhXhXhXhXhXhXhXhXhXhXhXhXhXhXhXhXhXhXhX  +   X     . + . .   . X     +     + .     .   . .     +     .   + . +   .   + .     . .     .       hXhXhXhXhXhXhXhXhXhXhXhXhXhXhXhXhXhXhXhX",
"hXhXhXhXhXhXhXhXhXhXhXhXhXhXhXhXhXhXhXhXhXhXhXhXhXhXhXhXhXhXhXhXhXhXhXhXhXhX> > > > O hXhXhXhXhXhXhXhXhXhXhXhXhXhXhXhXhXhXhXhXhXhXhXhXhXhXhXhXhXhXhXhXhXhXhXhXhXhXhXhXhXhXhXhXhXhXhXhXhXhXhXhXhXhXhXhXhXhXhXhXhXhXhXhXhXhXhXhXhXhXhXhXhXhXhXhXhXhXhXhXhXhXhXhXhXhXhXhXhXhXhXhXhXhXhXhXhXhXhXhXhXhXhXhXhXhXhXhXhXhXhXhXhXhXhXhXhXhXhXhXhXhXhXhXhXhXhXhXhXhXhXhXhXhXhXhXhXhXhXhXhXhXhXhXhXhXhXhXhXhXhXhXhXhXhXhXhXhXhXhXhXhXhXhXhXhXhXhXhXhXhXhXhXhXhXhXhXhXhXhXhXhXhXhXhXhXhXhXhXhXhXhXhXhXhXhXhXhXhXhXhXhXhXhXhXhXhXhXhXhXhXhXhXhXhXhXhXhXhXhXhXhXhXhXhXhXhXhXhXhXhXhXhXhXhXhXhXhXhXhXhXhXhXhXhXhXhXhXhXhXhXhXhXhXhXhXhXhXhXhXhXhXhXhXhXhXhXhXhXhXhXhXhXhXhXhXhXhXhXhXhXhXhXhXhXhXhXhXhXhXhXhXhXhXhXhXhXhXhXhXhXhXhXhXhXhXhXhXhXhXhXhXhXhXhXhXhXhXhXhXhXhXhXhXhXhXhXhXhXhXhXhXhXhXhXhXhXhXhXhXhXhXhXhXhXhXhXhXhXhXhX",
"hXhXhXhXhXhXhXhXhXhXhXhXhXhXhXhXhXhXhXhXhXhXhXhXhXhXhXhXhXhXhXhXhXhXhXhXhXhXhXhXhXhXhXhXhXhXhXhXhXhXhXhXhXhXhXhXhXhXhXhXhXhXhXhXhXhXhXhXhXhXhXhXhXhXhXhXhXhXhXhXhXhXhXhXhXhXhXhXhXhXhXhXhXhXhXhXhXhXhXhXhXhXhXhXhXhXhXhXhXhXhXhXhXhXhXhXhXhXhXhXhXhXhXhXhXhXhXhXhXhXhXhXhXhXhXhXhXhXhXhXhXhXhXhXhXhXhXhXhXhXhXhXhXhXhXhXhXhXhXhXhXhXhXhXhXhXhXhXhXhXhXhXhXhXhXhXhXhXhXhXhXhXhXhXhXhXhXhXhXhXhXhXhXhXhXhXhXhXhXhXhXhXhXhXhXhXhXhXhXhXhXhXhXhXhXhXhXhXhXhXhXhXhXhXhXhXhXhXhXhXhXhXhXhXhXhXhXhXhXhXhXhXhXhXhXhXhXhXhXhXhXhXhXhXhXhXhXhXhXhXhXhXhXhXhXhXhXhXhXhXhXhXhXhXhXhXhXhXhXhXhXhXhXhXhXhXhXhXhXhXhXhXhXhXhXhXhXhXhXhXhXhXhXhXhXhXhXhXhXhXhXhXhXhXhXhXhXhXhXhXhXhXhXhXhXhXhXhXhXhXhXhXhXhXhXhXhXhXhXhXhXhXhXhXhXhXhXhXhXhXhXhXhXhXhXhXhXhXhXhXhXhXhXhXhXhXhXhXhXhXhXhXhXhXhXhXhXhXhXhXhXhXhXhXhXhXhXhXhXhXhXhXhXhX",
"hXhXhXhXhXhXhXhXhXhXhXhXhXhXhXhXhXhXhXhXhXhXhXhXhXhXhXhXhXhXhXhXhXhXhXhXhXhXhXhXhXhXhXhXhXhXhXhXhXhXhXhXhXhXhXhXhXhXhXhXhXhXhXhXhXhXhXhXhXhXhXhXhXhXhXhXhXhXhXhXhXhXhXhXhXhXhXhXhXhXhXhXhXhXhXhXhXhXhXhXhXhXhXhXhXhXhXhXhXhXhXhXhXhXhXhXhXhXhXhXhXhXhXhXhXhXhXhXhXhXhXhXhXhXhXhXhXhXhXhXhXhXhXhXhXhXhXhXhXhXhXhXhXhXhXhXhXhXhXhXhXhXhXhXhXhXhXhXhXhXhXhXhXhXhXhXhXhXhXhXhXhXhXhXhXhXhXhXhXhXhXhXhXhXhXhXhXhXhXhXhXhXhXhXhXhXhXhXhXhXhXhXhXhXhXhXhXhXhXhXhXhXhXhXhXhXhXhXhXhXhXhXhXhXhXhXhXhXhXhXhXhXhXhXhXhXhXhXhXhXhXhXhXhXhXhXhXhXhXhXhXhXhXhXhXhXhXhXhXhXhXhXhXhXhXhXhXhXhXhXhXhXhXhXhXhXhXhXhXhXhXhXhXhXhXhXhXhXhXhXhXhXhXhXhXhXhXhXhXhXhXhXhXhXhXhXhXhXhXhXhXhXhXhXhXhXhXhXhXhXhXhXhXhXhXhXhXhXhXhXhXhXhXhXhXhXhXhXhXhXhXhXhXhXhXhXhXhXhXhXhXhXhXhXhXhXhXhXhXhXhXhXhXhXhXhXhXhXhXhXhXhXhXhXhXhXhXhXhXhXhXhXhXhX"
};
