/* XPM */
static const char *player9_xpm[] = {
/* columns rows colors chars-per-pixel */
"394 78 228 2 ",
"   c #020402",
".  c #040A04",
"X  c #080C07",
"o  c #070B08",
"O  c #0A0D0A",
"+  c #030609",
"@  c #170605",
"#  c #1A0706",
"$  c #1C0807",
"%  c #1D0A08",
"&  c #140B05",
"*  c #031403",
"=  c #0C1305",
"-  c #031A03",
";  c #081A06",
":  c #071309",
">  c #0B130C",
",  c #071908",
"<  c #0C1A0D",
"1  c #111205",
"2  c #10140F",
"3  c #15180A",
"4  c #0F1510",
"5  c #0E1B11",
"6  c #08151C",
"7  c #111612",
"8  c #131B14",
"9  c #181C17",
"0  c #171D18",
"q  c #191E19",
"w  c #1D1310",
"e  c #060E13",
"r  c #230A08",
"t  c #2C0C0A",
"y  c #270906",
"u  c #330906",
"i  c #340D0B",
"p  c #3B0D0B",
"a  c #3A0906",
"s  c #3B110E",
"d  c #33100E",
"f  c #31110D",
"g  c #052403",
"h  c #062B04",
"j  c #082C06",
"k  c #0C210D",
"l  c #092807",
"z  c #192C0C",
"x  c #17270B",
"c  c #063304",
"v  c #093406",
"b  c #093B05",
"n  c #093907",
"m  c #1C300D",
"M  c #0E2311",
"N  c #0F2811",
"B  c #122415",
"V  c #132A15",
"C  c #162219",
"Z  c #1B221C",
"A  c #162B19",
"S  c #1A2B1D",
"D  c #1B321E",
"F  c #18321D",
"G  c #20251F",
"H  c #342C11",
"J  c #0A1C27",
"K  c #0A1F30",
"L  c #0C212D",
"P  c #1F2420",
"I  c #1D2C21",
"U  c #1D3421",
"Y  c #1D3921",
"T  c #0C2639",
"R  c #102A3B",
"E  c #222522",
"W  c #242A25",
"Q  c #272D28",
"!  c #292D29",
"~  c #2A2A25",
"^  c #233324",
"/  c #273329",
"(  c #2A342C",
")  c #2B3A2D",
"_  c #203A22",
"`  c #2E3531",
"'  c #2D3B31",
"]  c #313632",
"[  c #333B35",
"{  c #353E38",
"}  c #3A3E3B",
"|  c #353229",
" . c #440D0A",
".. c #4A0E0B",
"X. c #410B07",
"o. c #52100D",
"O. c #541A17",
"+. c #5D1C19",
"@. c #591815",
"#. c #48120F",
"$. c #631D1A",
"%. c #593523",
"&. c #64251D",
"*. c #324336",
"=. c #35433A",
"-. c #3B443D",
";. c #364B3B",
":. c #3A4B3E",
">. c #344837",
",. c #39503F",
"<. c #0A4005",
"1. c #5D4529",
"2. c #5D4427",
"3. c #604428",
"4. c #0E2D44",
"5. c #11324D",
"6. c #133959",
"7. c #0F3048",
"8. c #3F4440",
"9. c #3D4B41",
"0. c #3B5241",
"q. c #414642",
"w. c #444B45",
"e. c #464C48",
"r. c #494E4A",
"t. c #435445",
"y. c #465847",
"u. c #465548",
"i. c #4A544B",
"p. c #475949",
"a. c #49594A",
"s. c #485547",
"d. c #4E5551",
"f. c #4D5C52",
"g. c #515651",
"h. c #535A54",
"j. c #585E5A",
"k. c #5B635D",
"l. c #56635B",
"z. c #5E6661",
"x. c #5E6A62",
"c. c #616C64",
"v. c #666D68",
"b. c #637167",
"n. c #65746A",
"m. c #69756D",
"M. c #69796D",
"N. c #67786C",
"B. c #6D7A71",
"V. c #707572",
"C. c #983D38",
"Z. c #932E29",
"A. c #A63C35",
"S. c #A93D37",
"D. c #A2332E",
"F. c #C72E2A",
"G. c #CC322E",
"H. c #C5312D",
"J. c #D3322E",
"K. c #DC322E",
"L. c #D43632",
"P. c #DB3632",
"I. c #D53935",
"U. c #DC3A36",
"Y. c #DC3C38",
"T. c #D03330",
"R. c #EC3632",
"E. c #E43A36",
"W. c #EB3B36",
"Q. c #E53C39",
"!. c #EC3D39",
"~. c #E53431",
"^. c #F33E3A",
"/. c #F93F3B",
"(. c #F23A36",
"). c #E2332F",
"_. c #9C413B",
"`. c #A6433D",
"'. c #BE453E",
"]. c #CC443E",
"[. c #ED403C",
"{. c #F5413C",
"}. c #F9423E",
"|. c #AC4742",
" X c #B24944",
".X c #D2544C",
"XX c #D9564F",
"oX c #D35C54",
"OX c #DC5A53",
"+X c #CE504A",
"@X c #EB4E49",
"#X c #E84A45",
"$X c #FB4641",
"%X c #FC4B45",
"&X c #FE4E48",
"*X c #F44A44",
"=X c #EC514B",
"-X c #F3524B",
";X c #FE534C",
":X c #FE584F",
">X c #E35B55",
",X c #E55E58",
"<X c #EB5D56",
"1X c #FE5B53",
"2X c #F85953",
"3X c #DA635D",
"4X c #FE635B",
"5X c #FF665D",
"6X c #E8605A",
"7X c #DD6760",
"8X c #FE6B63",
"9X c #FC6A63",
"0X c #FF746C",
"qX c #FF776D",
"wX c #FF7B73",
"eX c #FC7A73",
"rX c #75877B",
"tX c #FF837C",
"yX c #FF857C",
"uX c #7A8F81",
"iX c #FF8681",
"pX c #FF8A84",
"aX c #FF8E89",
"sX c #FF928D",
"dX c #FF9691",
"fX c #FF9894",
"gX c #889F90",
"hX c #000001",
/* pixels */
"hXhXhXhXhXhXhXhXhXhXhXhXP w.q.-.8.8.q.8.8.=.8.8.=.-.-.8.{ =.8.8.=.8.-.-.-.-.9.9.h.{ hXhXhXhXhXhXhXhXhXhXhXhXhXhXhXhXhXhXhXhXhXhXhXhXhXhXhXhXhXhXhXhXhXhXhXhXhXhXhXhXhXhXhXhXhXhXhXhXhXhXhXhXhXhXhXhXhXhXhXhXhXhXhXhXhXhXhXhXhXhXhXhXhXhXhXhXhXhXhXhXhXhXhXhXhXhXhXhXhXhXhXhXhXhXhXhXhXhXhXhXhXhXhXhXhXhXhXhXhXhXhXhXhXhXhXhXhXhXhXhXhXhXhXhXhXhXhXhXhXhXhXhXhXhXhXhXhXhXhXhXhXhXhXhXhXhXhXhXhXhXhXhXhXhXhXhXhXhXhXhXhXhXhXhXhXhXhXhXhXhXhXhXhXhXhXhXhXhXhXhXhXhXhXhXhXhXhXhXhXhXhXhXhXhXhXhXhXhXhXhXhXhXhXhXhXhXhXhXhXhXhXhXhXhXhXhXhXhXhXhXhXhXhXhXhXhXhXhXhXhXhXhXhXhXhXhXhXhXhXhXhXhXhXhXhXhXhXhXhXhXhXhXhXhXhXhXhXhXhXhXhXhXhXhXhXhXhXhXhXhXhXhXhXhXhXhXhXhXhXhXhXhXhXhXhXhXhXhXhXhXhXhXhXhXhXhXhXhXhXhXhXhXhXhXhXhXhXhXhXhXhXhXhXhXhXhXhXhXhXhXhXhXhXhXhXhXhXhXhXhXhXhXhXhXhXhXhXhXhXhXhXhXhXhXhXhXhXhXhXhXhXhX",
"hXhXhXhXhXhXhXhXhXhXhXP { W W W W Q ! E Q Q ! ( ! ! Q / ` ` [ [ ` ' { 8.8.-.8.8.h.M.{ hXhXhXhXhXhXhXhXhXhXhXhXhXhXhXhXhXhXhXhXhXhXhXhXhXhXhXhXhXhXhXhXhXhXhXhXhXhXhXhXhXhXhXhXhXhXhXhXhXhXhXhXhXhXhXhXhXhXhXhXhXhXhXhXhXhXhXhXhXhXhXhXhXhXhXhXhXhXhXhXhXhXhXhXhXhXhXhXhXhXhXhXhXhXhXhXhXhXhXhXhXhXhXhXhXhXhXhXhXhXhXhXhXhXhXhXhXhXhXhXhXhXhXhXhXhXhXhXhXhXhXhXhXhXhXhXhXhXhXhXhXhXhXhXhXhXhXhXhXhXhXhXhXhXhXhXhXhXhXhXhXhXhXhXhXhXhXhXhXhXhXhXhXhXhXhXhXhXhXhXhXhXhXhXhXhXhXhXhXhXhXhXhXhXhXhXhXhXhXhXhXhXhXhXhXhXhXhXhXhXhXhXhXhXhXhXhXhXhXhXhXhXhXhXhXhXhXhXhXhXhXhXhXhXhXhXhXhXhXhXhXhXhXhXhXhXhXhXhXhXhXhXhXhXhXhXhXhXhXhXhXhXhXhXhXhXhXhXhXhXhXhXhXhXhXhXhXhXhXhXhXhXhXhXhXhXhXhXhXhXhXhXhXhXhXhXhXhXhXhXhXhXhXhXhXhXhXhXhXhXhXhXhXhXhXhXhXhXhXhXhXhXhXhXhXhXhXhXhXhXhXhXhXhXhXhXhXhXhXhXhXhXhXhXhXhXhXhXhXhXhX",
"hXhXhXhXhXhXhXhXhX  P q.0 0 8 5 7 7 7 e 8 6 7 7 4 4 7 8 4 4 4 4 4 4 4 4 8 6 0 0 8 f.uX(   hXhXhXhXhXhXhXhXhXhXhXhXhXhXhXhXhXhXhXhXhXhXhXhXhXhXhXhXhXhXhXhXhXhXhXhXhXhXhXhXhXhXhXhXhXhXhXhXhXhXhXhXhXhXhXhXhXhXhXhXhXhXhXhXhXhXhXhXhXhXhXhXhXhXhXhXhXhXhXhXhXhXhXhXhXhXhXhXhXhXhXhXhXhXhXhXhXhXhXhXhXhXhXhXhXhXhXhXhXhXhXhXhXhXhXhXhXhXhXhXhXhXhXhXhXhXhXhXhXhXhXhXhXhXhXhXhXhXhXhXhXhXhXhXhXhXhXhXhXhXhXhXhXhXhXhXhXhXhXhXhXhXhXhXhXhXhXhXhXhXhXhXhXhXhXhXhXhXhXhXhXhXhXhXhXhXhXhXhXhXhXhXhXhXhXhXhXhXhXhXhXhXhXhXhXhXhXhXhXhXhXhXhXhXhXhXhXhXhXhXhXhXhXhXhXhXhXhXhXhXhXhXhXhXhXhXhXhXhXhXhXhXhXhXhXhXhXhXhXhXhXhXhXhXhXhXhXhXhXhXhXhXhXhXhXhXhXhXhXhXhXhXhXhXhXhXhXhXhXhXhXhXhXhXhXhXhXhXhXhXhXhXhXhXhXhXhXhXhXhXhXhXhXhXhXhXhXhXhXhXhXhXhXhXhXhXhXhXhXhXhXhXhXhXhXhXhXhXhXhXhXhXhXhXhXhXhXhXhXhXhXhXhXhXhXhXhXhXhX",
"hXhXhXhXhXhXhXhX  Z i.9 4 q 0 q q q q 0 q q Z Z C Z 0 C q C P q P q P C S P P C C e l.M.E hXhXhXhXhXhXhXhXhXhXhXhXhXhXhXhXhXhXhXhXhXhXhXhXhXhXhXhXhXhXhXhXhXhXhXhXhXhXhXhXhXhXhXhXhXhXhXhXhXhXhXhXhXhXhXhXhXhXhXhXhXhXhXhXhXhXhXhXhXhXhXhXhXhXhXhXhXhXhXhXhXhXhXhXhXhXhXhXhXhXhXhXhXhXhXhXhXhXhXhXhXhXhXhXhXhXhXhXhXhXhXhXhXhXhXhXhXhXhXhXhXhXhXhXhXhXhXhXhXhXhXhXhXhXhXhXhXhXhXhXhXhXhXhXhXhXhXhXhXhXhXhXhXhXhXhXhXhXhXhXhXhXhXhXhXhXhXhXhXhXhXhXhXhXhXhXhXhXhXhXhXhXhXhXhXhXhXhXhXhXhXhXhXhXhXhXhXhXhXhXhXhXhXhXhXhXhXhXhXhXhXhXhXhXhXhXhXhXhXhXhXhXhXhXhXhXhXhXhXhXhXhXhXhXhXhXhXhXhXhXhXhXhXhXhXhXhXhXhXhXhXhXhXhXhXhXhXhXhXhXhXhXhXhXhXhXhXhXhXhXhXhXhXhXhXhXhXhXhXhXhXhXhXhXhXhXhXhXhXhXhXhXhXhXhXhXhXhXhXhXhXhXhXhXhXhXhXhXhXhXhXhXhXhXhXhXhXhXhXhXhXhXhXhXhXhXhXhXhXhXhXhXhXhXhXhXhXhXhXhXhXhXhXhXhXhXhXhXhX",
"hXhXhXhXhXhXhXhXE q.0 7 8 4 8 q w 0 7 q q q 9 9 9 9 9 8 8 9 9 9 q 7 8 9 9 9 O O 8 8 5 z.B.' hXhXhXhXhXhXhXhXhXhXhXhXhXhXhXhXhXhXhXhXhXhXhXhXhXhXhXhXhXhXhXhXhXhXhXhXhXhXhXhXhXhXhXhXhXhXhXhXhXhXhXhXhXhXhXhXhXhXhXhXhXhXhXhXhXhXhXhXhXhXhXhXhXhXhXhXhXhXhXhXhXhXhXhXhXhXhXhXhXhXhXhXhXhXhXhXhXhXhXhXhXhXhXhXhXhXhXhXhXhXhXhXhXhXhXhXhXhXhXhXhXhXhXhXhXhXhXhXhXhXhXhXhXhXhXhXhXhXhXhXhXhXhXhXhXhXhXhXhXhXhXhXhXhXhXhXhXhXhXhXhXhXhXhXhXhXhXhXhXhXhXhXhXhXhXhXhXhXhXhXhXhXhXhXhXhXhXhXhXhXhXhXhXhXhXhXhXhXhXhXhXhXhXhXhXhXhXhXhXhXhXhXhXhXhXhXhXhXhXhXhXhXhXhXhXhXhXhXhXhXhXhXhXhXhXhXhXhXhXhXhXhXhXhXhXhXhXhXhXhXhXhXhXhXhXhXhXhXhXhXhXhXhXhXhXhXhXhXhXhXhXhXhXhXhXhXhXhXhXhX8 7 7 8 8 7 9 7 7 7 9 7 7 7 7 7 8 7 7 7 7 7 8 7 7 7 7 7 7 2 7 2 2 7 7 7 7 2 7 2 2 2 7 hXhXhXhXhXhXhXhXhXhXhX7 hXhXhXhXhXhXhXhXhXhXhXhXhX",
"hXhXhXhXhXhXhXW } 0 7 q 8 7 j.V.v.v.v.V.V.v.v.m.V.V.V.V.V.V.V.V.V.v.V.m.V.m.`   8 0 8 8 f.B.-.hXhXhXhXhXhXhXhXhXhXhXhXhXhXhXhXhXhXhXhXhXhXhXhXhXhXhXhXhXhXhXhXhXhXhXhXhXhXhXhXhXhXhXhXhXhXhXhXhXhXhXhXhXhXhXhXhXhXhXhXhXhXhXhXhXhXhXhXhXhXhXhXhXhXhXhXhXhXhXhXhXhXhXhXhXhXhXhXhXhXhXhXhXhXhXhXhXhXhXhXhXhXhXhXhXhXhXhXhXhXhXhXhXhXhXhXhXhXhXhXhXhXhXhXhXhXhXhXhXhXhXhXhXhXhXhXhXhXhXhXhXhXhXhXhXhXhXhXhXhXhXhXhXhXhXhXhXhXhXhXhXhXhXhXhXhXhXhXhXhXhXhXhXhXhXhXhXhXhXhXhXhXhXhXhXhXhXhXhXhXhXhXhXhXhXhXhXhXhXhXhXhXhXhXhXhXhXhXhXhXhXhXhXhXhXhXhXhXhXhXhXhXhXhXhXhXhXhXhXhXhXhXhXhXhXhXhXhXhXhXhXhXhXhXhXhXhXhXhXhXhXhXhXhXhXhXhXhXhXhXhXhXhXhXhXhXhXhXhXhXhXhXhXhXhXhXhX7 { g.g.d.d.d.r.d.d.r.r.r.r.e.e.r.r.r.e.r.q.e.e.e.e.w.e.q.q.q.8.8.8.8.8.8.} } 8.q.8.} 8.{ { [ } } ] ] { ] [ { } { ` hXhXhXhXhXhXhXhXhXhXhXhX",
"hXhXhXhXhXhXW { 0 8 0 7 7 q ` ! ] ] ] ] ] ] ] ] ] ] [ ] ] ] [ ] ] ] [ [ ] { 8.  0 0 0 0 8 u.B.9.hXhX8 ` [ [ { [ { [ { =.{ ' ' [ =.-.=.=.=.{ =.{ =.9.-.=.-.-.:.9.-.:.-.9.9.9.-.9.:.:.9.:.9.9.9.-.:.:.9.9.9.-.9.9.9.w.9.:.:.9.9.9.9.:.9.9.9.9.9.9.9.:.9.:.9.:.:.:.:.:.:.-.9.9.9.9.9.9.9.9.9.9.9.9.9.9.9.:.:.-.9.9.:.9.9.9.9.:.:.:.;.:.-.-.:.9.9.w.9.:.:.:.9.w.9.:.9.w.9.9.9.9.9.9.9.9.:.:.:.9.9.9.9.w.9.9.w.:.:.:.:.-.:.-.:.9.:.-.:.9.9.:.:.-.:.:.9.9.9.9.:.:.-.-.-.:.:.-.:.-.:.-.=.9.-.-.8.=.=.=.-.-.=.-.-.=.=.=.=.=.*.{ { { { [ *.[ [ [ [ [ ` ' { { ` ` ` ' ` ' ` [ ` ` ] [ ` ] ` [ [ ' [ [ [ ] ] [ ` ` [ ` ` ` ` ` ` ( ( ` ` ` ` ` ` ` ( ! Q ! ! Q Q Q ! ! W E E 8 hX7 ! E P E E E E E G P E P E E P P E W P E E E E q P P E P P P P P P q q q q q P q q q G q q q 9 q q q q 9 8 q q q 9 P E hXhXhXhXhXhXhXhXhXhXhX",
"hXhXhXhX  W 8.7 7 8 0 8 0 8 P P q G q G G q E G E P E W P P E E E P E I P W ]   5 5 8 8 q 8 a.rXe.hX5 W / ( ( ) ' / / ` ' / / ) [ ' ' *.' ' ' ) ' *.*.*.>.*.*.*.=.*.>.*.*.*.*.;.=.;.=.*.=.;.=.*.=.;.;.>.;.;.;.9.;.;.;.>.>.,.:.0.9.*.;.;.9.0.0.;.:.;.9.,.;.;.;.:.:.:.;.;.0.,.,.:.;.;.0.0.;.;.0.0.0.0.0.:.t.0.0.0.,.0.0.0.;.>.:.0.;.;.,.;.;.0.9.0.,.,.:.:.0.0.0.0.,.,.;.;.;.:.0.0.9.,.,.0.:.;.;.:.9.,.;.;.,.,.:.,.0.0.:.,.:.,.;.;.9.9.9.9.:.;.;.,.:.0.9.9.:.:.:.:.:.9.0.:.9.,.0.9.9.0.9.9.9.9.;.9.;.*.;.8.9.;.-.;.=.8.=.-.=.*.;.*.-.;.-.*.=.' *.[ =.=.=.*.[ [ [ ' { *.*.{ =.*.*.[ *.{ { *.-.-.-.-.=.{ { *.{ { ' { ' ` ' ' ` ` ] ' ` ` ` ` ( / / ! Q Q Q I Q I P I q 7 7 P 8 8 0 q P q 9 G q E E E E E P P E E P E P E E q P q P P P q q P q G q q P q q 9 q G q q q q q 9 q q 9 9 9 q 9 q 9 9 P P hXhXhXhXhXhXhXhXhXhX",
"hXhXhX+ P 8.7 7 0 7 8 9 9 9 q q 9 q q q q 9 q q q 9 q 9 q Z q P P Z Z q Z Z [   > 8 8 8 0 C 8 9.gXa.X X . . X X o : o : : : = > = = > : > > > > > = : : : , , : > > : : < > : , < > = = > : > < > < > > > > > : > > : < > > , > > > : : : : : : > > , > > > < , , > , > > > > > : , < > : > , : , > : > > , , > > > : , < < : , < < , > : , < , , > > < < , > < , > , < , < < < < > > , , > , < < > , < > < < , < : , < < , > > > < > : : < < > , > > > > < > > < > > > = 4 > > > > > : O > < < > 2 > > > < > > > : > < > < < O o : : > X : > X X X O > = O O = o > O > O > O = O O O O X O = O O O > O O = = X > O = > O O O O O O > > O 2 O > O O o o O O > o O O 7 7 8 9 9 9 7 8 9 9 q P q P q P q E q q q P q q q q P q q q q 8 q 0 q q q q q q q q 9 9 8 q q q q 9 q q 7 9 w 8 0 0 q q 7 E q hXhXhXhXhXhXhXhXhX",
"hXhXhXQ } 7 8 8 8 0 8 0 8 q P q P G P P q Z G q P P q G Z Z E P Z q P Z q P `   > 8 8 9 B Z 0 8 u.rXe.q 9 9 9 9 C 9 0 C 9 Z q Z C C q Z C Z C Z Z C C A Z Z Z Z S S A Z S Z Z Z Z S I P Z S S S Z S S S A A Z S S A P I I A I A A I I I I A I I I I A I S I S I S S S S S S S A S S S S I P I A I A I I I I I I S S I U I A A I S I I S I I I I I S S S S I I I I S I I I I I I S S I U W S U S I I I S S I I S I S S I I I I I Z I U I A S I I S I I I S S S I S S I S S P I Z I C S S I Z Z Z S Z S Z Z S Z Z C P Z Z P Z P q S Z Z Z Z Z q Z Z Z Z Z q Z Z Z Z Z Z Z q 9 q G q P Z Z Z Z q q Z Z q q P q q Z Z Z Z q q q q Z q q q q q q 0 8 9 0 9 0 q q q 0 9 8 9 q 9 7 7 O O q 8 9 9 q q q q P q q G G q P q q P q 9 9 0 q 0 q q 9 q 9 8 q 0 0 q 0 9 8 9 0 q 9 9 9 q q q 9 0 0 0 7 7 8 8 q E 9 hXhXhXhXhXhXhXhX",
"hXhXE ] 8 8 8 7 7 0 8 7 9 9 e O O O O e > O O 2 O O 2 O O > > > O O > 9 0 Z `   > 8 8 8 8 C Z 0 0 u.M.c.k.c.c.x.x.x.k.z.z.c.c.b.b.c.c.c.b.b.b.b.b.x.k.b.b.c.b.b.b.n.b.b.b.b.b.b.b.b.b.n.N.b.n.n.N.n.n.n.n.n.b.n.n.n.b.N.b.n.b.b.b.b.b.b.b.n.b.b.b.b.b.b.b.b.b.b.n.n.n.b.N.N.m.n.M.n.n.M.N.N.N.N.N.N.M.n.M.B.m.M.N.N.N.N.n.m.n.m.n.n.M.M.m.M.M.N.M.M.N.N.M.M.N.N.n.N.m.m.M.N.N.M.N.N.m.M.M.M.M.N.b.N.M.N.N.b.n.n.M.n.n.n.b.N.b.N.m.N.n.n.n.b.n.n.n.n.n.n.n.M.n.n.n.m.m.m.m.v.n.n.n.b.b.v.n.v.v.v.b.v.c.v.b.x.c.v.b.b.x.c.c.c.x.x.c.c.c.k.c.z.z.c.c.c.c.k.c.c.c.z.c.k.k.z.j.c.c.c.c.j.k.c.k.k.z.z.z.k.k.z.z.j.k.k.k.k.l.k.k.k.k.k.j.j.k.k.j.j.j.j.j.j.j.j.j.k.j.j.j.j.g.j.j.g.g.q.q e 9 9 q q q q q G q G q q q q q P q 9 8 0 q 9 q q w 9 8 0 q 0 0 q 8 w 8 9 0 8 9 8 7 9 q 7 9 9 9 9 8 8 7 q 9 7 9 Z 9 hXhXhXhXhXhXhX",
"+ Q ` 7 8 8 7 8 7 q 7 0 9 +   +     +   +   +   o       + +   +       7 0 Z (   > 4 8 B 9 9 C C 0 C S ^ ! ! ! ( / ! / / Q / ( ( / ( / ( ( / / / / ( ! ) ( / ) / ) ) ) ( ( ( ) ) ` ' / ( ( ) ( ( ' ) ( ( ) ) ) ( ( / / / / ( / ) ) / ) ) ) ( ) ) ) ' / ) / ' ) / ) ) ) ( ) ) ' ) ' / ) ) ) ) ) ) ( ' ) ) ) ) ) ) ' ) ) ' ' ' ' ' ( ' ' ) ' ) ' ) ) ) ) ) ' ) ) ' ) ' ) ) ) ) ) ) *.) ) / ) ) ) ( ) ) / ) ) ) ( ) ' ) ) ) ) ) / ) ) ) ) ) ' ) ) ) ( ) ) ( ' ' ) ) ` ) ( ) ) ) ) ) ) ( ( ( ( ) ( ) ( ( / ( / / ( / ` ! Q ` ! ! ( ( / / ! ! ! / ! ! ! ! ( W ! ! Q Q W ! ! ! ! ! ~ ( ! ! ! ! ~ Q Q ! ! ! ! ! ! W Q ~ Q Q ~ Q ! W ! ~ W ~ ! ! ! ! ~ ! Q W Q W ~ ! ~ ! W W W W ! ! ! ] e.7 O 0 q q 0 Z q q q q q G q q 9 q 9 q 0 0 9 9 q q 6 9 8 q 7 q q 8 9 q 9 7 8 0 9 9 9 9 8 8 9 8 7 7 8 9 8 7 8 8 8 9 P 7 hXhXhXhXhXhX",
"hXW 9 7 7 8 7 8 7 7 8 7 +     O 4 4 4 4 4 7 7 8 7 7 7 7 4 7 8 4 O     4 q Z `   > < 8 8 C B 8 C C C C Z Z S S S S S S A A S I G U S U S S U D D D A D S S F A S D ^ D D D D U D U U F U S U D U U S S U U U U ^ U D S D U U U U D U S U I F F Y U U U U U Y D F U U U F D U D Y D D D D Y _ D D U D F U F D U D D U Y D U U U U D U ^ D D D D U S D D S D U U U D D D D U D D D D D D U ^ U D D D D D D D D D D U D ^ U U U ^ I ^ ^ D D _ U U U D D D D D D ^ D D I I S ^ S G D S S I W G D S S D D G G Z G D S S S S Z S S P S G Z Z Z Z Z Z Z Z Z Z Z Z Z Z C q Z Z Z Z G Z Z q Z Z Z Z Z q Z q Z Z Z Z q Z Z Z q q q Z q Z q q G q q Z G q Z Z Z q q q q q q q q q q Z q P q q 1.8 e 9 q Z q q q q q q q q q q 7 9 9 9 0 q 8 q 7 9 9 7 0 7 0 8 9 9 9 0 8 8 0 8 0 9 9 9 7 8 7 9 q 0 7 0 7 8 8 7 8 7 P 7 hXhXhXhXhX",
"  7 0 8 9 9 8 8 8 8 9         7 > 4 7 4 7 7 7 7 8 8 8 7 9 7 7 0 >     8 q Z `   > 8 5 8 8 8 C B C C Z A A Z A S C S A A A A A F A A A A S A S S S A A A A D A F A A A S S S A F D S A A S F D F A S F U D D D A A D S F I A A A F F A F F F I I A F U A F D D S U D F F F S F D D F F F S U A F D S U D F D S D F D D U F I F F D D V D S D D D D A D F F D D S D D A F D D S F F D D U D S D F S U D S S A D D D S F F D A S S S D D S D S S S S S S A S S V S A S I S I S S S Z S S A S A S Z Z Z S S Z Z Z Z Z Z Z Z Z Z Z 0 Z C C C C 9 C C B 9 C 9 9 Z 9 9 0 9 8 8 q Z q q q q 9 q 9 q Z q q Z 9 q Z q q q 9 8 9 q 9 9 9 9 8 q 9 8 9 q 9 7 9 7 8 9 8 8 8 9 8 7 7 9 9 9 8 q 4 J } 8 O 9 w 7 9 9 9 9 q 6 w 8 8 9 7 7 8 7 9 7 w 6 7 9 7 7 7 w 7 q 9 7 w 7 7 w 7 7 7 7 7 7 w 2 7 7 7 # 8 7 w e 7 9 7 7 9 hXhXhXhXhX",
"+ 8 8 7 7 7 9 7 9 8           8 4 7 8 8 8 9 0 7 0 8 8 8 9 4 8 0 7     7 C C `   > 4 8 8 8 C C 9 C C C A S A S F S D S D S S D D S U D D U D D D D S D D D D F F F F D S D D D D U F U U F U U D U Y Y U Y D Y F U Y U Y U U Y Y Y F Y Y Y F Y Y Y U F Y D D Y D Y U F Y D D D D D D Y D Y U D U Y Y Y Y Y Y D D Y D D Y Y U Y D U U D Y D U D D D D D D U D Y D Y Y Y Y D Y Y D D Y D Y Y D D D U U D D F Y U U U D D Y Y D D U D Y _ U U D U U D F D D U U D D D U D D D D S S U I ^ I S S ^ U S S D S S S S I I G Z S S Z Z Z Z Z Z Z Z Z Z Z Z Z Z Z Z Z Z Z Z Z Z Z Z Z Z Z Z Z Z Z G E Z Z Z q 9 Z Z q Z Z C 0 q q q q q q q q q q 9 q 9 q q q q q 9 q 0 q q 9 9 q q q q 9 0 7 P ` G ~ ! ~ E Q ~ W ~ ~ ~ ~ W W ~ E W W ~ E E E W W ! ~ E W E W E W ~ E E W W W E E E P G P E P P E E E E P E P E E q E hXhXhXhX",
"  O 9 7 9 7 8 7 7 +   + 2 +   8 4 4 4 7 8 7 8 7 0 8 8 8 8 8 7 q 7     4 q C (   < 7 5 8 8 8 B 0 C C C I B < > > > 3 > < > 5 5 < 3 5 5 > 5 5 < < < < > 3 < < > > < > < < < < < < 4 < 5 5 5 5 5 5 5 5 5 5 5 4 M 5 5 < , M 5 , 6 < 5 < 6 M < k 5 < < M < 5 8 k M , 5 M 5 < < k M < < B B 8 < B M M M 5 5 M M B B k 8 5 5 M 5 M 5 5 x k < 5 M 5 B M k < B k < 5 M k 5 M 8 k 8 k 8 M N x 8 k 8 < N 5 5 < M 5 8 M < 8 x 5 8 5 B < 8 < 5 5 4 < 8 3 5 5 5 5 5 4 < 8 5 < 4 < 8 < 5 8 < 8 7 < < 7 8 5 < 2 5 5 2 5 4 2 7 > 7 < 4 < > < > > < > 2 2 < 2 O < 2 2 > 2 > 4 4 O 4 > O 2 = 7 2 O 2 > 2 2 = O 2 > 2 O 2 O O O O O O O > O > > O O O 7 > 2 O O 7 O > O > O > O O O > 7 O O 7 > 7 q 9 9 7 q ] g.g.g.g.g.g.g.g.h.g.h.g.g.g.d.d.g.h.g.g.g.d.g.h.g.d.d.d.r.r.d.r.d.d.r.d.r.r.g.d.r.e.e.e.e.e.e.q.q.q.e.e.e.r.r.w.r.] hXhXhX",
"+   2 7 7 7 9 2       q 8 + X w 7 7 7 8 7 8 9 9 8 8 7 9 8 8 7 q 7     7 Z 0 Q   > 5 8 5 4 C 8 8 C C I 8 . .   .       .       .   .     . . .   .   . . . . . . . . . . . . . . . . . . . . . . . . . . . . . . . . . . . * . . . . . . . . . * . . . . . . . . . . . . . . . . . . . . . . . . . . . . . . . . . . . . . . . . . .     . . . . . . . . . . . . . . . . * . * . . . . . . . . . . . . . . . . .   . . . . . . . . . . . . . .   . .     . .   . .     .     .   .   .                                                                                                                                                                                         7 9 9 9 9 9 9 9 9 q q q q q q 9 G q q q q q q 9 q q 9 q q q q q 9 q 9 9 9 9 q q 9 q q 9 q 9 9 q 9 q q 9 9 9 9 9 7 7 9 9 q q q P E hXhX",
"        +           7 q o   + 9 4 7 8 7 8 7 9 9 q 8 0 8 8 9 7 q 9     7 q Z (   > 8 5 8 8 8 B B M U 8 + . . * . * * . * * * * * * - * * - * * * * * * * * * * * * * * - - * * * * * - - * - * * * - * * * * * - * * * * * * * - - - - * - * * * * * * * * - * * * * * - - - * * - * - * * * * * * * - * * * - * * - - * * * * * * * * * * * * - - * - - * - - * - - - * * * * * - - * - * * * * - * * - * - * * * * * - * * - * - * * * * * * * . * * * * * * * * * * * * * * * * * * * * * * * * * . * . .   . .   .                                                                                                                                                           9 9 9 q 9 q q Z P q q q G G q E P G P G P E q P Z 9 q G q E E q q q q E q G Z G G G q P q G q q G q q P 9 q 9 9 q q q q q q q q W hX",
"                    W O O   + q 8 8 7 8 8 8 8 8 9 9 9 q q 8 7 q 8     7 0 C !   > 5 4 5 8 B C 9 ^ 5   . * * * - * - * - - g - - g - , g - - - ; - - - - - - ; ; - - - , - - - g - - g , - - g g g - - g - - - - - - - . . .                                         .     . - . . .         +                                 . . . * * .       .                                     .   . * .                                                 . * * .                                           .   . * . * . . . . . . . . . . . . .   .   .   .           .       .       +             +                                                     X +                             q q q 9 q q 9 q q q q q q q Z q q P q P q 9 P E G q G q P q Z q q P q G q q q q q 9 q q Z q G G 9 q q q 9 q q q q q 9 0 0 9 q P W ",
"  o +   X O +     O E O O + + q 7 X                       + o 9 8 +   7 Z q /   4 5 8 5 8 8 B I 3 # 1 r O.%.%.%.%.1.3.3.2.1.1.1.1.2.2.1.2.1.2.m x x x = 1 3 1 1 H %.%.1.1.2.1.3.2.2.1.1.1.2.2.2.2.2.2.H x x 3 = = g - * * k C A C A S Z C C Z B C Z 0 Z B 9 0 0 C >     . . g * * k A A Z A I C C C q B C q C C B 9 0 0 9 >       * - * * B C A A Z A Z C C C C C C C Z C 8 0 0 B O   .   * * * B A C S C Z S C C C C C C Z C 0 8 C 0 C O   . . . * * 5 C A A Z A Z Z C Z B C C Z 0 C 8 C 9 0 4   .   . * . * * . * : : : > O O O O : O O o O O o O o O O .   . .   . . .   o o o o o o o . o o . o X o o o o   X .   .     .   + . X o   X o   + X + o   o o o     +             + 8 8 8 7 7 7 8 7 0 w 7 8 9 7 9 9 9 7 7 9 9 7 8 7 9 7 9 9 9 7 9 9 8 9 7 9 9 7 0 w 9 7 9 9 7 7 9 7 7 8 7 7 w 7 7 7 7 9 7 8 w 9 7 q ",
"O E 2   ~ G w O   o E > &   + q 8 P ] } 8.} } } } } -.{ } } 9 7 7     7 0 C (   > 5 8 5 B 9 C S $ p O.].#X#X#X-X-X-X-X-X-X-X*X-X@X*X-X-X*X#X2XXX .y r r 1 d s D.-X#X#X@X-X-X-X-X-X-X*X-X=X#X-X-X@X#X@X>X&.y y y # g g * : S A A I C A A C B C B B 8 C B B 8 5 8 C Z O     . g . , S A C A C A C C B C C C 0 C 8 B 8 8 8 C C o   . . g . < S A A Z C A Z C B C C 9 B C 0 B 8 8 C Z B X   . * . < F A C I A A Z C 5 C C 0 C C 0 M 8 9 B B B .   + . * : A S V I C Z A A 9 C C 8 B B 0 B 8 8 B C Z >   .   - * * . : A S A S S I I A C Z Z C Z Z Z Z B C C Z 9       . .   . 7 C Z Z 0 Z C C 0 C Z q C Z 0 8 9 8 q 9 7     . .     7 8 9 9 8 8 q 8 8 9 8 8 9 9 9 8 7 7 7 2 O                                                                                                                               +           ",
"o G O   q 2 o o   o q 7 >   X q 8 P ] } 8.} q.} { -.} { ] ] W q q +   4 9 C (   > 4 8 5 5 B A C @ i D.[.D.F.F.G.J.J.J.G.J.J.P.G.H.G.J.G.G.J.F.9XZ.y r r 3 i $.4XF.F.F.F.J.J.J.G.J.I.J.J.F.F.J.J.J.J.F.#X+Xy y y # h g . k : o . . o . . o o . X . o o o o o . + . . <   .   g . B : . o o o o o o o . . . . o . o . . . . o > .   . g . M : . o o o . . o o o . . . o o o . . . . o O +   . . B : o . . . . o o o o o . . o o o . .   . o >     * . < > o . o o . . o o o . . o . o o . + . . . <     . - - * * , < > : > o o > > : > O O : : o > O o o o > <   .       > o O o o O O o o o o o o o . X o O O o o > o     X   > O O . o o o o o X o o o o o o O o o + o O X                                                                                                                                         ",
"+ q 2   Z > o +   o P 4 4     Z 8 7 7 4 7 7 8 q 8 9 9 q 9 9 q P 9 +   4 0 Z Q   > 4 5 0 5 8 A Z @ t '.+XP.P.P.U.E.!.E.P.E.Q.E.P.Q.Q.E.Q.Q.Y.J.1X_.% t r x t Z.6XF.P.P.U.P.W.Q.P.Q.E.Q.E.E.[.Q.E.Q.U.I.#X.Xr t y @ h j * M , > : > < > > > > > > > : : > > o > : > O 4 + + . g * M < > , , 4 > > > > > > > > : > > o : O > > > +   * g - N e > , , > > : > > > > : > : > : o > : > > >   . * , V > > : < < > > > > > > > > > > o > > > > > >   . . * M 5 > : > < > > > > > > : > > : O > : O > : 4     . k - - . M < > : , < > > > > > : > : > : o O > > > O > +   .   . > O o > > o O O O > o > X > O O o X O o O 2 X     .   > o O O O O O O O o > O O o o o O O o X X X O           . X X + o +         .         .   . .     X   .         X +   . .     X + . . +   + X X   X .           +                     ",
"+ q O   G 2 o X     E 4 O   + q 7 8 9 9 9 8 q q P W Z G P q q q 9     7 0 C (   4 5 5 5 9 B S A # t '.#XK.P.E.Q.E.W.E.[.E.W.P.W.E.!.Q.!.!.U.J.4X_.r f y x t Z.9XF.I.U.!.E.E.W.!.E.E.E.Q.P.E.[.W.{.E.U.#X.Xy d t @ h h : A , 5 > > > > > > > > > > > o : > > O > : > 5     . h : V : < > , > > < > > : > > > : > > > > : o O <   . o g < V , > > < > > < > : > > > : o > > > o > o O <     * < V > , > , > > > , > : > > O * : > > o o : > >   . * : M , 5 , > , , > , > > O > > : o > > > : o o 8 .   . , g - * M < < > > > > : > > > > > > > > > : : o : : 8 .   .     < o > o > > o > o > o O X o > O O O O O o > o   . .   7 O o O X O o O o O O o o o o O o O o o O O O         + O O O X O O     +     . .   . +   X   X   + X + o . . X +   X + X X o o o o X o O O o O o X . X X X + X O . . .               ",
"X q &   G 7 + +   X G O 2   + 9 0 0 q 7 8 8 q q 9 P q P q q 8 P q     4 0 Z (   > 4 8 8 B B S A & t ].=XP.U.).[.!.{.!.{.W.!.(.!.Q.!.!.^.^.!.K.8X_.t i r z i Z.8XJ.E.P.W.!.^.!./.!.W.[.(.{.Q.W.[.^.^.W.#X.Xt f t @ h h : V < 4 , , > > > > < > : > > : : > > > > X > <     . h : V , 5 > > > : : > > > : : > > o > > > o > : 4 +   * g , V , < > > < : > > > : , > > > o > > > O > > >     * , V , , > > > : > > > : : > > > : > > > : > > > +   : * B k 5 : > > > > > > > : : > > : o > > > > > 4 .   . g g - : B , 5 > > 4 > > > > > > : > : : > > > > : > 8 .   .     8 o > > O O O O o > o O o o > X O O O O O 2 X   X     7 o O > . o O o o O O O O O O X > O o O o o >           7 > O O O &   + o O O X X O O O O O O O X o O O O O O O O O X X O O O O O O O O O O O O O & O O O O O O O O O O O +     + + + ",
"+ q O   q 7 + X   X G 2 O     9 7 8 7 q q 0 8 q q 7 0 q 0 q 0 P 0     7 0 C /   O 4 4 B 5 9 S S r t ].=XE.E.[.(.!.{.}.}.{.{.{.{.{.!.{.!.{.W.~.8XC.t i t x a Z.8XK.E.W.^.^.[./.$X(.}.}.(.{.!.{.{.{.!.E.-XoXu f t @ h h : V , < < < 4 , > > > > > > > > > > : O O > o 8 . . . h : V : 5 5 5 , > > > 5 > > > > : : > : > O > o >   . : g > V : < < , < > > > < < e > : > O : : O > > > > +   : , V > 5 5 , 5 e < > 5 > > > o > o > o > > > O >     : . V , 5 5 , 4 < > < > < e > > : > > : O O > o 8 .   . k g - . N < 5 , > , > > < > > > > > > o o > O O > X 5     .   + 8 o O O > O > O o > O O > O > X O O > O > > .   .     7 > o O O O O O O O O O O X O o O o O O O X >   + X   + w 2 > 7 O 7       +                 + +   +   +   +       + + + > O e 2 O 2 2 7 O 7 7 7 7 e 2 > 2 O 2 O O O O O 7 + X | ~ ! G ",
"o q 2   G 7 o X   o E O 2   X q 7 8 7 q 7 8 7 0 0 0 0 0 0 0 0 Z q     7 0 0 Q   < < 5 5 5 C S A $ u ].-XR.{.{.(.{.{.}.{.}.}./.(.!.$X{.{.^.^.~.5X`.i i t x i Z.8X).^.^.^.!.$X{.$X/.}.}.^.[.{.{.}.^.^.R.@XoXu i t @ h c : V < 5 4 > < 5 > > < , > O > : > > o e > > . 4     . h > V , 5 , > e < > > , > 5 > > > > > o > > > O < +   * j < V < 5 < > 5 5 > > > > > : > : > > O > > O O >   . * < V , 5 e < < < > > , > > > > : > > > > > o O >     : . V < 5 , > 5 5 > > 4 < > > : > > > o > e : o < .   o k g - : V < 5 5 , < < > > > , e > : > : > : O > O . 5     .   . 8 O > O O O O O > o > > O > O > O O O O O > o   . X   7 O O O = O o O O O O O O O O O O O X o o o 2         X 7 > 2 O > 4                                                     7 7 % 2 2 7 2 2 7 7 7 7 7 7 2 7 4 2 e % e O O O 7 + O W P Z q ",
"  q O   q 2 X +   o E O O     9 q 7 8 0 q 8 q 0 0 8 0 7 q 8 8 P q .   7 0 0 (   > < 8 4 B C S S % a ].-X[.W.(.}.{.%X}.;X}.}.}.}./.(.$X$X}.{.R.wX_.i i t x p D.0XR.!.W.$X/.*X$X;X/.&X}.}.}.^.^.{.}.$X!.2XoXu d i @ h c : N < 5 < < < < e < e 4 > > > > : : > > O > > 4 . . . c : V < 5 5 < < < 4 e 4 > > > > > > > O > > > O <     = j , V < < < > 5 > 5 > 4 > > > > > : > O > O > > = + . * , A 5 < < < < > < > 4 > > > > > : > O > o > > <   . , * B k 5 5 , 4 > 4 > , > > > > > > > > > O > > 8 .   . g g - * V < 5 , 5 < < e > < 4 < > : > > > > > > > > 8   . .   . 8 > X o > > O > O > > O O > o o O > o O O > X   .     7 > o 4 O > O e > O O > O X > O O o O O O o 2           9 7 > 7 7 2 +   X X   + + X X X . X X X + + O o + X X   . X   + 7 e 4 2 7 O 7 7 7 2 7 7 O e 2 7 7 2 O 4 4 7 7 O O + O q 8 7 w ",
"  Z O + 9 2 X o   + E > O   X 9 7 7 0 0 8 8 q 0 7 9 7 0 0 8 7 q 8     4 C Z `   > < 2 8 8 9 A A r p +X-XW.E.{.}.}.[.[.}.&X1X:X}.%X*X$X%X{.$XR.0X`.p i t z  .D.0X~.W.!.}.$X{.W.$X(.1X1X%X*X$X$X%X}.%X!.-XoX .s t @ h j * V < < , < , 5 > 4 < > > > > > > > > o : > O 8 .   . c , V , 5 > e < 5 > < 4 > > > > > : > > > O O > < +   * j < V < < e , > 5 > 5 > > > > > > > > > > o > > >   . * k V > , < , 5 4 4 4 4 > > > > > > > > > O e > >   . ; * N < < , 5 , < < < > > > > > > > > > > O O > <     . g g , : M M 5 < 5 5 > 5 4 > > > > > > : > O > O O > 8     o o   > O O > O > O O O > O O > > O o > o O O O > o     X   7 O > O > O O O O O O O O O X O O o o O O o 2       X   9 7 = > 7 7     + + @ + + + @ o o + o O X O O @ O + o + @ + O O q 7 7 2 2 w 7 @ + o # e O e O + O 2 7 7 7 2 O O 2 + X q 7 7 q ",
"+ q O   9 7 X o   X G O O   + q 0 7 7 8 8 8 8 8 7 0 q 8 8 8 8 q 9     7 0 C (   > < < 8 B B S A r p .X-X(.{.{.{.}.}.}.:X1X1X:X}.2X%X$X{.$X%XR.qX`.a s t z  .D.wXR.}.^./.%X/.{.;X;X1X;X}.1X2X$X}.}.&X[.2X3Xa d i @ b b : V < 9 < > 5 , > > e > > > : : > > > > > > > >     . v , V < 5 < < 5 , 5 > , > > > : : > 4 > > > > O >   . * j < V , 5 5 5 5 , > , e > > > > : : 4 > > > > O >     * k V 5 5 < > < > , > < > > , : : > > > > o > > >     : * V < 8 < > < < e > < > > < : > > > > > > > O < +   . j g , - V , 5 > > , , > > 5 > : > > > > > 4 > > > O < +   o     < O O O > O O > > O O O O o > o O > O > O 7 X   .     7 O > O O O O o O O O O O O O O O O O O O X 2         + 9 4 2 2 7 7   7 G ] ` ` ` ] ] ] ` | ] ] ] ] ] ` ` ` ! ` ` ! | } W 4 7 7 7 7 + E ] 8.d.8.} 8.} | w O O O 7 O 7 2 7 + X q 7 7 8 ",
"  q &   q 7 o o   X G 2 7   + q 7 7 0 0 0 0 8 8 0 q q q 0 7 0 P 8     4 Z Z (   > > 4 < 8 B S S r  ..X2X{.}.}.}.&X:X1X&X&X4X:X&X:X:X&X$X;X$X~.qX`.i i t x  .A.wXR.}.$X^.&X;X1X;X;X1X1X;X;X1X;X%X&X&X!.-XoXa p i @ c b - N , 5 < 5 , e 5 , > > > 4 : > > > : > > > O <     . v : V , 5 < < , , e > > > > > > > > > O O > > > >     : h k V , 5 , 5 , < e > > > > > : > > > > o > > > >   . = , V , 5 5 5 < , 5 : > > > > > > > : > O > > > : + . : * B k < < 5 < > < > > > : 4 : O > > : > o > > 5   X X g g , : N < 5 5 < < e 5 > , > : , > > > > > : > > > 2 . . .     7 > > X O > o > O O O > > > o > O O O O O > o   . . + 7 O O O O O O O > O O O O o o O O O O O O X 2           8 7 O O 7 7   2 O 2 2 7 2 7 > 7 7 7 2 7 7 2 2 7 7 % 4 2 2 2 7 7 > 7 7 7 + q q.8.! q 7 w 7 7 8 E W ! 9   O 7 O 7 2   o q 7 7 7 ",
"+ q >   q 7 X o   X q O O   + 9 7 8 7 7 8 8 0 8 q 7 0 8 8 7 7 q q     < Z Z Q   > > 8 8 < B S A r #..X2X[.}.;X;X4X5X5X5X5X5X5X5X1X4X1X&X%X2X(.qX|.p s t z ..A.tXR.{.%X;X:X5X9X5X1X8X4X9X1X1X4X;X}.1X%X-X3Xa s i # v v : N < < < 5 < < > < > > > > > > : > > > O > O 2 X   . v , M < , 5 5 5 < > < : > > > > o > > > > > O O <   . : h , V < 5 5 5 < > < < : > > > > > O : > > : > > >   . = , V < 5 5 , < e > 4 > > : e > : > > : > O > > >     = * N < < 5 5 < < > > > > > > > > > : > > > = O 2 X     h g g * V < , 5 5 < > < e > > > > > O > > : > O > O <     X o   8 > O O > O O O O > O > O O O O O > o O O > X   . .   7 O 4 O O O O O O O O O O o X O O O O O O . 2       + o 8 7 7 2 7 7   O 2 2 O 7 O O e O 2 O O O O 2 e O > O e 2 O O e O 7 7 w + ! j.E 2 2 2 2 e 7 > 7 7 7 9 E W   X 7 O 2 + @ P 7 8 9 ",
"  9 O   q O X X + o P O 2   + 9 8 8 8 7 9 7 9 8 9 q P 7 8 8 4 Z q +   < q Z /   > < 8 4 8 B S A y  .oX4X}.}.&X4X8XqXtXwXtX0XqXqXqX8X4X&X$X&X^.0X Xp p i m ..S.tX(.}.}.:X8XqXtXqXwXeX0X0XeX0X9X;X$X&X&X2X3X..s i $ c c , N < 5 5 < > 5 > > < > > > > > > > O > > > > 4 .   X b , V < < < < > < > e < > 4 > > > : > > > : > > <   . : h k N , 5 < < > 5 > e > > > > > > : > : > > > > <   . : k N , 5 , < > > 4 , > > > > > > o > : > > > > > +   , * M k 5 < 4 5 < > > , e > > > > > > o > > O > 4 . + . l h - ; N , < < < < < > > > > < 4 : > : > o > > O > 4 . . .     0 O O > O O O O > O > O > O O > > O > > O 2 X   . o   7 o > O > 2 O O O O O O O O O O O O O O O O 2       . X w 4 > 7 7 7   O O > 7 2 O O 2 2 O 2 % > e & e O 2 O 2 O O O O e 2 2 O E r.+ 2 7 2 2 2 7 9 9 w 7 7 9 7 G ~ + O 4 7 + e q 2 9 7 ",
". q &   q 7 X X   O q O &   X 9 7 7 7 8 7         + 0 0 8 8 8 Z q     7 q 0 Q   O > < 4 5 B S Z y  ..X4X}.:X1X1X8XtXaXyXyXyXpXaXpXiXqX4X4X;X}.wX Xp s t m ..S.tX}.;X:X;X5XtXyXyXiXpXpXaXpXiXwX9X4X1X%X1X3X .s p $ b b , N < 5 , < < < < < > > 5 > : > > > : : > O O 8 . . . b , B , 5 < < < 4 < , > > > > > > > : O o > o O 4 . . > v , V 5 5 < , > , 4 < < > 4 > : > > o > o > o > 7   . , ; V 5 5 5 > < 5 5 > , > 4 > > > > > O O > O O 3 X . : , N < 5 5 , , 4 5 5 > < > > > > > > : : > > o B o   . j h - : B 5 8 , < > < < > 5 , e > > > > > : > > > O 8 .   . X   8 O > > O O O > O > O O O > 2 O O O O O O 7 o   o .   7 O O O O O > O > O O e O O O O O o O O O O >     .   + 8 4 4 > 4 7   O 2 7 O O 2 2 O O 7 O O e > 4 7 7 O 2 2 2 2 2 e O 7 O w } e 7 7 O 7 2 2 O O O 7 9 8 7 7 O E 9 + O >   O q 7 7 9 ",
"  q O + q 7 o X   + q > O     G 7 7 8 0 7   O > + + 0 0 7 0 8 P 0 +   7 0 0 (   > < 5 8 8 B S A % o.3X4X&X:X:X5XtXaXsXdXsXsXpXpXpXiXtX8X1X;X^.wX Xp s i m o.`.yX}.;X:X1X0XaXdXdXaXaXaXpXpXaXwX0X5X&X}.1X3XX.s p $ b <., V , < > < > 5 < 4 > > > > > > > > > : > > > 8 . . o v k V < < < < < 8 > 5 > > > : > > > > > e > > > 7 . . * v < V , , > 5 > 5 5 5 > : > > > > > e > > > > 4 4 . . : k V , 5 , 5 > 5 < 4 4 > > > > > > > > > O > 4 < + X , * V k , > > < 5 < 5 > > > : > > > > > > > > 4 8 o   X j j g ; N < < < < < 4 4 4 > > 4 > > > > > > : > : O 8 X . . X o 9 O O O O > O > O 4 O > O O > O > O O O O < o   .     7 O > O > O O O O O O O O O O O O O O O O O 2 +       + 9 7 O 7 4 7   O 2 2 O 7 e O 2 7 2 O 7 O 2 7 O O O 7 O 2 2 O 4 4 7 + ~ P 7 7 2 7 o     + + +   + 7 9 7 8 7 q X + &   @ G 7 8 9 ",
"+ q O + q 2 o o   O q > O   X q 8 7 7 q 7 O 4 7 & + 8 8 0 8 7 Z C     7 0 C Q   > < 5 4 5 B S A r o.oX4X}.&X4X5XtXpXsXfXsXsXdXsXsXaXyX0X1X1X%XyX`. .p i m o.`.yX}.&X1X4XtXpXaXfXdXdXdXaXaXsXaXeX4X4X;X9XoX..s i $ b b , V 5 5 5 < 5 e 4 , > > > : > > > > o > e > > 8     . b < V , < < < < < > > > > > > > < > > o > > > > 4     : v k A , 5 5 5 4 < > > > > > > > > > > : > > O O <   . - k V > 5 5 < > 5 > < > > > : < e > O O > 4 > O >   . , * V < 5 5 5 5 > > > > > > > > > > > o o > > O 8 .   . j j - , V < k < 4 < < > , > > > > > > > > o > > > > 8     X     8 = O > O > > O O O > O O 4 O O O > O O O 2 X + . o   7 > O O O O > O O O O O O O O O O = O O O X 2   .   . X 9 7 > 7 O 7   7 2 O 7 O 7 2 O 7 O 2 O 2 O > 7 O 7 O 2 7 O % 4 4 + 2 ~ 7 2 O 7 o   e J L J J 6 + + 7 9 7 7 9 2   2 + O q 2 7 7 ",
". q >   q 7 o o   X q O O   + q 7 7 7 q 7 o < 4 O   9 8 7 9 8 q 8 +   7 Z C /   o < 4 B 8 B S A r  .oX6X&X:X4X4XtXpXdXsXdXfXdXdXdXsXaXwX1X1X&XtX X . .i m #.A.tX}.:X4X1X0XaXsXsXaXfXfXdXfXaXaXiX1X1X:X9X3X..s s $ <.b - N , M 5 < , 5 > > > > > > > > > > > > o O O 8 .   o b , N , 5 5 > > < > 4 > 4 > > : > > > > > O > > 8 . . : v < V , < < , > 5 > > > < > > : > : > > o > > > 2   . , k N , 5 < < < < < > > < > > : > : : > o > > < >     - - V < < < < < < < , > > 4 e : > > : > > O > O 8 .   o j h - , N < 5 < < < < > > : > > > > > > > > > : O > 8 .   o o   8 > O > O > > O O > 4 > O 4 O O O > O o O 2 o   o     7 O > O O O O O > O O O X O O O 2 O O O O O <     .     q 7 2 2 7 7   O > O 2 O 7 2 2 % 4 e 2 O 7 O 7 7 O 2 O 2 e O 2 2   q P e 2 7 O   4 R 4.5.7.4.R T e + 7 7 7 7 9 + X   X q 7 7 7 ",
"  Z 2 + q 7 O o   X 9 2 O   + q 8 7 7 q 8 O 7 7 4 + 9 8 9 7 9 q 0     7 Z C /   > < < 4 8 B A A r ..oX4X}.1X5X5XwXpXfXdXsXfXdXsXdXsXpX8X5X1X;XwX X .s t m ..`.yX}.&X4X4X5XyXsXfXsXdXfXdXdXdXaXwX5X5X:X5X3X#.#.i $ b <., N k 5 , > > < > < > > 4 > > : : o > > > > o 4 . . o b k V < < , > 5 < > , > > 5 > > > : : > > O > o 4   . = v k V < < < , > 5 > > > < e > > > > : > > > > O <   . : k V < < , < e 5 > > : e > > > > > > > > > > O >   o , : V k < < , > < e 4 > > , > < > : > > > > > : 4 .   o h h g , N < < < > > 5 : 5 > > 5 > > : O O : > > > O < .   O     7 > O > > O O O O O O O > O > O > O O 7 O > o   .     7 O O O > O O O O O O O O O O O O O O e O O O       .   9 7 O O 2 7   O 2 2 O 7 2 O 2 e 2 2 e 2 e O 7 7 O 2 7 2 2 2 2 o   E 7 2 2 7   + R R 6.6.5.7.4.7.4.e > 9 O 7 9 X + + X 9 2 7 w ",
"+ G 2   q 7 O o   X q 2 O + + q 7 8 7 q 8 O 7 7 O + 8 8 8 8 8 q 9     7 Z C Q   : > 4 B M 8 S A r ..3X4X&X&X:X8XiXdXdXfXdXfXdXdXsXiXwX5X4X1X&XtX|.s p i m ..`.iX}.&X&X5XtXsXdXfXfXdXfXdXdXaXwX0X4X5X:X4X3X..s i $ b b , V 5 < 5 5 > , 5 e < > > > > > > > > > > > > 4 .   . b , V < , 5 5 4 , 5 > 4 : > > > > > > > > : > > <   . = c k V < < < 5 4 < < > > : > > > > > > > > O > > >   . = k V < < < < > , 5 > > : > > > > > > O > o > > >   . - * V M < < < < , 4 > > > > > > > > > > > O > o 5 .   o v h - , V M < , 5 , , 4 > > : > > > > : > > > o > > 5 + . .   . 7 O O O O > O 4 > O O > O O O O = O O O O > o   X .   4 O O O > O O O O O o O O O O O O O o O O O >         + w 2 7 2 O 7   O e 2 2 2 2 2 2 O 2 2 O 7 O 7 7 7 2 7 7 O O O 7 +   E 2 O 2 O   J R 7.6.5.6.6.6.4.4.6 + 9 4 7 9 @     o 0 4 7 0 ",
"  q O   9 2 X o   O q O &   X q 7 7 8 9 8 O 7 7 7   9 8 7 8 8 q C +   7 0 0 Q   > < 4 4 5 B S A r ..oX4X:X1X4X0XiXdXaXfXdXsXfXfXsXsXtXqX1X1X&XyX X .s i z ..S.tX&X1X4X5XwXsXsXdXfXaXdXfXdXaXpXeX1X;X1X9X3X..#.s $ b <., V 5 < , 5 < , e , > > > > > o > : o > > > o 5 . . o c , V < < < < , : 4 > > > > > > : > o > > > > o 4 . . * v k V k < < 5 , : > < > > > > > o > O : > > > O 4 + . ; k V < < < 5 , > > > > < > > > o : > > > > > > 4 o . , : V k < < 4 < > > < > > > > > o > O : > > > O B .   O j h g : V M < < 5 4 , 4 < e > > > > > > : O > > > o 5 + . .   + 8 > > O > O > O > O O > > 4 O O O O O O O > X   .     7 O 4 O O O O O O O 2 O O O O O O O 4 O O O 7       . + 7 > O 7 7 7 + & O 2 2 2 O O O 2 O O 2 O 7 O 2 2 O O 7 O 7 2 7   + E 2 2 2 X + K 4.4.6.5.6.6.6.T 4.J + q 7 7 7 O   + + 0 4 4 7 ",
"+ 9 2   q 7 o o   o 9 O O     q 8 8 8 9 8 O 7 7 O   0 8 9 9 4 Z 8     7 C C (   o < 4 5 0 C A A r ...X9X1X1X4X8XiXaXaXfXsXaXaXdXdXaXpX9X1X1X%XtX|.s p f m ..S.yX&X4X4X4XwXpXsXfXdXsXsXsXfXaXaX0X9X1X;X9X3X .s i $ b <., V 5 M 5 5 < < , 4 < < > > > > 4 : > > O > O < . . o b , N M M < 6 < 5 , 4 < > > > > 4 > > O > : > O < . . : n k N 5 5 k 5 5 < < 4 > 5 > : > > < O > > o > > =   . - k N < M 5 M 4 5 > 5 > 5 > > > > 4 o > : o > > > + . , * V k B < 4 5 < > 5 < < > > > > > > > > > > > 5 . . . j h , - N M 5 < 5 6 , > 5 > > > > > : > O > > > > > 4 .   X     8 > O > O > 4 O O > O O O O O > O O > O O 7 o   .     2 O > O O O O O O O O O O O O O 2 O O O O O 2     .     9 2 O 2 7 2   2 O 7 O O 7 O 7 2 2 O 2 e O O 2 2 O O e O 7 O 7     E O 2 7 + + J R R 5.6.5.6.7.T 7.J + P O 7 7 2     X 9 2 2 7 ",
"X 9 O   q 7 o o   X G O O   X q 8 7 7 0 8 e 7 7 & X 8 8 0 9 4 P 8 .   8 q C (   o 4 4 4 5 B A C r ..oX9X&X1X1X0XtXaXdXpXdXdXdXdXaXpXiX8X4X1X:XwX X .s t z o.S.iX{.:X:X4XyXpXsXpXsXsXsXdXaXaXiX0X9X1X:X8X7X..s i $ <.<.- V < 5 , < < 5 > > > > > > > > > > > > O O : 8     . v k V < < < < < 5 4 > > < > > > > > > > O > O > 2   . * v k V < 5 < , e < > > > > : > > < > > O > O O > >   . - k V < < , , , 5 > : > < : > > 5 : > > O > > > >   . - : V < < < > < < < : > > > > > > > : > O > o : 3 +   . j h g , N < M < < < 4 , > < < : > > 4 > > > O O > > 5   X . o   8 > > O O O O > O O > O O O > O O O O O O < X   . +   7 o > O O O > O 4 O O > O O > O O O > O O O O   X .   + 8 2 2 O 2 7   O 2 O 7 7 O 7 O e 2 2 O 2 2 e 7 7 O & 2 7 O 2 O     q 7 O 7 O   J L R 4.7.7.5.7.T T e 2 q e 7 7 O     + 9 O 7 7 ",
"  8 >   q O O o   o q O 2   + q 8 8 4 8 8 O 4 4 O + 9 9 8 4 4 q 0     7 8 Z Q   O < 5 B 8 M I A t o.oX4X%X&X%X1XyXtXiXaXpXaXiXpXsXiXiX8X1X;X$XtX Xp i i z o.`.yX}.&X}.;XwXiXyXaXpXaXpXiXsXaXtX0X1X:X&X4X3X..s i $ b b , V k < < < > < > > > > > > > > > > > O > O : 8 . . . v , V < < < < > , 4 > > < > > > : > > > > O o > 4 . . : n k V , < < < < > < > > > < > > > > > > > > O > < + . : k V < < < 6 > , > < > > > > > > > > > > O O > <   . , : V k < < < < < > > > > < > 4 > > > > O > > o 8 o   o j g g : V M , < 5 > 5 > > > > > > < : > > > > = O : 8 .   .     8 > > O O > O > O O O O O O > O O O > O O 7 o   X X   2 O O O > 4 O O O O O O O > e O O X > O O O 2   +     X 9 7 O 7 > 7   2 O 2 7 O O 2 O O 2 & e 2 7 O 2 2 2 7 > O 7 O 2     9 7 O 7 7   + J K 4.R T T T 4.K + G 8 7 7 7 o   + + 9 7 > 7 ",
"X w O + q 2 O +   O q O O +   q 8 7 7 8 8 O 4 7 O X 8 2 9 9 8 q 9     7 0 Z ^   O > < 8 5 M S A r ..oX4X$X{.%X2X0XiXiXiXtXiXtXaXiXpX0X1X&X&X/.wX|.p s y m o.`.iX}.}.}.:X5XtXyXyXtXyXyXsXtXaXwX9X&X;X$X1X3X .s i @ b b , V , M 5 > 5 < < < < : < > > > > > > > > > X 2 X . . v k V , < < , 4 < < < > = > > > > > > O > > > o 2 . . * n k V < 5 < < < < < < > > > > > > > > > O > O > 3   . , k V < < < < 4 < > 5 , > > > > > > > O > > O O 2   . - * V < k < < < < < < < : > > > > > > > > > > o 8 . . . j g , , V < < < , < < < , > > < > > > > > > > > o o 5 .   O   o 8 > O O O O O O > O O = O > O O O 4 O O O > o   X     2 O > O O O > O O > O O O O O O O O X O O O 2     .     9 2 2 2 7 7   O 2 2 O 2 7 2 2 O 2 7 2 O O 2 7 O 2 e 7 7 O O O O   7 2 O 2 8 o + J J L T T K K T e 2 ~ > 7 7 7 +     O 9 > 7 9 ",
"+ 9 O   q O o o   X 9 O O   + q 8 4 4 q 8 O 7 8 O + 9 9 9 8 0 q 8 +   7 9 9 /   O > 4 5 5 B S S r  .oX<X$X/.%X&X1X0X0XeXeX0X8XiX0X0X0X1X%X&X$XqX Xp p t z ..`.wXR.}.}.:X:X8XqXwX0XwX0XwXeX0X0X9X&X%X&X1X3X .s p $ b b * V , , 5 > < < > > < > > > > > > : > O : > O <     . n , V , , < 4 < , 4 < > > < > > > > o : > o > O 4   . = v < A , < < < 4 < < < > > > > > > > O > > O > > > + . : k V , < < < 5 < > < > > > > > > > > O > > O > 7   . , : V k , 5 > < < > > < > < > > > > : O > o > O 4 .   . h h - , A , < < < < 5 < < 5 > > : > > > > O > > > o 4 o . X   X 8 O O O O > > O O > O O O O O O O O O 4 > > O   o     4 O e O O O O O > 2 O O O O O O O > o o > O <         + 9 O 2 2 O 2   2 2 O O 2 e e 2 O 2 7 O 7 7 O O 7 2 O 7 O 7 O O X   + w O O 2 q + + 4 J J K K J e o ~ q 7 7 7 &   X   @ 9 4 7 7 ",
"  q >   9 2 O o   X 9 2 O   o q 7 4 8 9 7 O 7 7 O + 9 7 8 7 6 q 8 +   7 8 8 Q   : 4 5 4 5 B S A r  ..X2X/.(.$X$X1X8X1X8X1X0X1X4X1X1X:X&X}.{.(.qX Xp s t z #.`.0XR.}.}.}.}.5X4X5X1X9X9X1X4X1X;X&X$X^./.2X3X .s i $ b b , V 5 5 < 5 > < < > 5 < > > : > > > o > > o > 7 . . . c , V 5 4 5 5 > 5 > < < < O > : > > > > > > > O < + . * h k V < 5 < > > > > > 5 < > > > > > > O > > O > <   . * k V 5 < 4 > > < > < < > > < : > > > > > O > O >   . - * V < 5 5 < > < > > < < > < : O > > > > > O > 8 .   . l h , , V k < 5 4 > , > 4 , > > > > > > O > > O > O 4 .   .   X 7 = 4 > > O O > : O O O O O O O O > O O O 7 O   o     7 O > > O O O O O O O O O O O O O O O o O O 2     .   + 7 7 O 2 7 2   O 2 2 2 2 2 O 2 7 O O O 2 O 2 2 2 O 2 7 7 O 2 O O   + 7 2 7 O 7 G % + + + e + + 2 } E 7 > 4 7 +   +   X 9 e 7 7 ",
"  q 7   9 2 o o   + q O O + + 9 7 8 7 9 8 O 7 4 o + 9 7 8 8 8 q 8     7 C C /   > > 4 5 8 8 S A r  .oX2X/.}.%X&X1X;X&X1X&X1X4X&X&X%X$X$X^.$X&XqX`.i s y z  .`.0X(.}.}.;X&X4X&X4X&X&X4X:X&X&X$X$X/.$X&X4XoXa d i @ b n , V , 5 < < < > > 5 4 > > > > > > > > > o O X 8 + . . c k V , 5 < < < , 4 < > > > > > > > > > > o O > 7   . : v k V < 5 < 4 < > < < > > > > > > > > > O O O > >   . = N V < 5 < < < < < < > < > > > > > > O > O > O <   O - : V M 5 < < < < > 5 > > > > > > > > o > > O O 8 . . X l h g , V k 5 < < > 4 > 5 4 > > > > : > 4 o > O O > 8     .     8 O > > O > O > O O o > > o O o > O O O O 7 O   . .   4 = > O O O O O O O O O O O O O 2 O O O O O 2           w O 7 2 4 2   O 2 2 2 2 O 2 2 2 2 O 2 2 O O O 7 O 2 O 2 O O 2 X +   O 7 7 7 e w ! ! 9 O O 7 } r.E O 7 7 7 O     O + o 9 4 2 7 ",
"o q >   9 O o X   o G O O   + q 7 4 7 9 9 O 4 8 o + 9 8 7 8 8 C 8     7 0 C Q   : < 4 8 5 B S A r p .X2X(.^.$X&X&X;X4X;X&X;X1X:X;X%X%X&X$X}.R.8X|.p s d z  .A.0XR.{.}.}.&X;X1X1X&X;X:X:X1X&X%X&X$X$X(.-XoX .s i $ c n , V M 5 < < < < < > , > > > : > > o > > O > : 8   . . h k A 5 < < < < 5 > > , > > > > > > o O > > > O < . . - h k V < < < < < < < < > , > : > > O O > > > > > >   . ; k V < < < < < 4 > > > > > : > > o > O > O > > >   . , , V < 5 < < < 5 > > < > > > : > : O > > o > : 8 .   . g h , , V < < 5 5 < 5 < , > > > > > > > : > o > > > 4 . . X   . 7 > > O 4 O O o O > O O O > O O > O O > O 7 O   o     7 O O > O > O O O O o 2 O O O O O O O O O X 2     X . + 7 7 2 > 7 2 + e O 2 O O 2 O 2 O O 7 7 O 2 7 2 7 O O 2 O 2 O O O o     7 7 > 4 > X G q.h.j.g.] + O 7 > 7 7       O   o 9 O 7 8 ",
"  9 2   9 > O +   X q O O   + 9 4 7 4 0 7 e 7 7 o o 9 7 7 8 8 q 8 +   7 0 0 Q   : 4 5 5 5 B S C r a .X-X!./.}./.$X&X:X$X;X&X;X$X;X}.{.{.{.{.R.9X Xp i t z p A.0X~.{.}.{.}.$X:X&X%X:X;X$X&X%X{.}./.{.!.*XOXp d i # n n , A < 5 < , 5 > , 4 e > > > > > > > > O O > > <   . . v < V < < > < < : < > < < > > > > O : > O > o > 7     : v k V < < < , 5 : < > < > > > > > : > > > o O > >   . : k V , < < < < > > > < > > > > > : > > > o : > > . . > * A < k 4 < < > 5 > 5 5 , > : > : o > O > = O < .   . l g ; , A < 5 < > < < > > > 4 > > : > o > : O > > > 8     . o   7 4 O > > O O O > > > O > O O O O O > O O 7 o   o .   7 O O O O O O O O > O O O O O O O O O o O X >   + .     7 2 2 2 2 > + O 4 O > 7 > O 2 O 2 O 2 2 O O 2 O O 2 2 O O O 2 O o +     w 7 > 2 O O +   +     & 4 > 7 >       . O + X w > 7 7 ",
"+ q O   q 7 o o   X 9 o O +   9 4 8 7 8 9 O 7 7 O + 9 7 8 7 8 9 7     7 0 0 ^   > > 5 5 5 M S S %  ..X@XE.!./.}.^.}.%X$X%X&X;X$X}.}.}.}.^./.R.8X`.i i y z  .A.qXK.W.^.}.}.^.$X$X}.&X&X%X}.}.}.}.{./.^.-XOXu d t # c n , V < M 5 4 , > > < < < < > > > : : > > > > X 8   . o n ; A < M < > > < > < 4 > < > > > > > > > O > > 7   . ; j k V < < < > 4 > > < 4 > > > > : > O > O > O > <   . , N V < 5 < > < > > < 5 > > > > > : : > o > > > >   o - : V k < 5 > < > , > 4 4 > > : : > > > O > O : 8   . o l l , - V < k < < < > > < > < > > > > > : > O > O > <   . o     7 O O 7 O O 4 > O O O O O O O O O O O O > 4 o   o .   4 O > > O > O O o O O > . O O O O O O > O O <     .   + 9 7 = O 7 2   7 O 2 4 2 e 2 2 2 O 2 O e > e 2 7 2 2 2 2 2 2 O X X         7 7 7 7 7 7 O & 2 2 > 4 7 O         o O + X q 7 7 7 ",
"  9 O   9 O O X   X 9 O &   + 9 8 7 8 9 7 O 7 7 o o 8 8 8 4 8 0 8     4 0 0 W   > > 5 5 8 5 A A r  ..X-X!.(.{.$X/.^./.$X!.$X{.^./.}./.}.{.!.~.8X`.t i r x  .D.0X~.^.^.&X^.{.^.%XR.(.}.^.{.}.}./.$XQ.!.-XoXu d t @ c c - V < > < 5 > 5 , < > > o > : O > > o O > > > < . . X v , V , < 5 < > 5 > > > > o > > > O > o : > > > <   . * j k V > < < 5 > 5 > > < > : > > : > > > > : = 4 2 + . - k B , > 5 < > 5 > < > > : > > > O > > > o > > O   . - : V < < < 5 > 5 > > , > o > > > O > > > > X > 8     o g g - : V , < 5 < < < > > < > : > > : > : > > > X = 5 + . o   . 8 > > O > O O O O O O > O O > O O > O O O 4 O   o o   7 o > > o O O O O > O O O O O O O O O o O O 2           7 O 7 O > 2   & 4 2 O O 2 2 O O 2 2 2 O e 2 O O 2 2 O O 2 O e O O X           7 7 7 7 2 7 2 7 7 O o       + + o O   X 9 7 7 7 ",
"+ 9 2   9 2 O +   X q O O   + 9 4 4 4 8 7 O 7 7 o o 9 8 8 8 7 q 9     7 0 C Q   > > < 4 8 B A A r  .+X@XE.Q.{.^.!.$X!.{.}.{.^.{.!.^./.^.!.W.P.9XC.i d y z  .D.0XK.Q.^.{.!.{.{.{.$X{.{.{.{.R.{.^.^.E.~.@XoXu d t # c n : V < 5 < < 5 > > > > < > > > > > : > > > > o 8   . . v < V < < 4 < < > < > < > > : > > > > > O O > o <   . * j < A < 5 < < 5 , > > > > > > > > > O > > O O < 2   . : k V 4 < < < < < > > > > > > > > > > > > > > > <   . : * V M 4 < < < , > 4 , 4 > > > > > o > > > > > 8 . . . g g - - V k 5 5 < < < , 5 > > > > > > > > > > O : > 8 .   o     7 > O O 4 > O > O > O > > O O o O > O > O 4 O   .     4 > O o O O O O O O O O O O O O O O O O O X 2 +   X . + 7 7 > 7 7 O + 4 4 O 2 O 2 e 2 2 O e O % 4 2 7 2 O O 2 2 O 2 2 O O X o +           O O O O O X +           X O o 2 + O 9 > 7 O ",
". 9 2   9 O o o   o G O O   + 9 7 7 4 0 7 O 7 7 O o 9 7 8 7 7 0 8     4 8 0 /   o > 4 5 M 0 S S % a .X@XY.E.!.^.W.Q.Q.$X{.{./.^.{.^.{.!.!.E.J.8X_.t i y z p A.0XK.Q.W.{.W.Q.W.{.*X{.{.^.!.[.{.^.^.E.P.@X.Xt t t @ c v , V < 5 < < 4 > > > < > > > > > : O > > O > O 8 . . X v < V < < , > > < > , > 4 > > > > : : > > > > O 8     * j k B < < > 4 > > > > > > > > > : > > > > O > O <   . - k B < < , < > > > > > > > > > > O > > o > > O <   . , : x k 8 , > < 4 > > , > > > > > > : O O > > o 8 .   X l g ; = V 5 < < > < < O > 5 > > : > > : O > > o > o 8   . o .   7 > O > O O O e O o O O o > O O O O O O O > +     .   4 o O > O O > O O O O O O O O O O X O O O O 2     . X   8 7 7 O 7 % + 2 O 2 O 2 2 O O 7 2 2 O 2 O 2 O 7 O e 2 O 2 O 7 O 2 & X X                               X + X X O O   X 9 7 O 7 ",
"+ 9 O   9 7 o o   o q O o + + 9 8 7 7 9 7 > 4 7 O o 9 7 8 8 7 q 9 +   7 0 C !   > < 8 5 5 5 A A %  ..X@XU.I.Q.Q.Q.Q.Q.^.!.E.!.Q.Q.!.P.E.[.Q.K.8XC.t t r x  .A.8XK.U.E.!.W.Q.Q.!.{.Q.!.Q.W.[.E.E.[.{.L.#X+Xu d t @ c c : V , < > , > > > < > > > > > > > o > > O X O 7 .   . c ; M < 4 < < < > > 4 > > > > > > O > > o > : O 7 . X : j k N < < , , 4 > < < > > > > > > > : O > O > O >   . : k x < 5 > > 5 > 4 , > > > > > > > o > O O : > 2 + . : * V < 5 > > < > 4 4 > > > > : > > : > > > o > 8 .   o g g - : V < 5 < > > > < < > > > > > > > > o > > : O 8 .   o     7 > > > > > O > > O O O o O O O > O O O O 7 O   X X + 4 O O o O > O O O O O O 4 O O O O O O O O O 2   .   +   w > > 4 7 7 + e 2 2 7 7 2 2 2 O 2 O 7 O e O 2 O O 2 O % e 2 7 O O o X + +                             X X O X O O + X 9 7 O 2 ",
". q >   8 > O +   + 9 O O   X 9 4 7 7 9 7 O 7 4 O o 7 7 7 7 7 0 8 +   4 C 0 Q   > > < 4 M 8 A Z r  .+X#XU.E.Q.E.Q.E.Q.Q.Q.Q.Q.Q.Q.!.!.Q.Q.E.J.8XC.t i r x  .A.9XJ.Q.E.U.Q.Q.Q.E.Q.E.E.Q.E.[.[.W.Q.Q.P.#X+Xt d t @ h c , V < < < 4 5 < > > : > > > : > > > o o : > > 8   . X h < V < < 4 4 < < > > > > > > > > > o o : > > O <   . : h k V > < 4 5 > > > > > : > > > < > : O : O < > 3 . X : k V < < 4 5 > > > > > > > > > < > : o > > = > 2 . X ; : B < < < 4 < , > > > > > > > > > O o o : > > 5 . . . ; g * , V < < > < < > > > > : > > > > > : > > o > > 5 + . X .   8 > O > > > O O > O o O O O O > O O > O O < O   X X   > O O O O O O O O > O O O O O O O O O o O X 2   +   . + w > 7 O 7 7   2 O 2 O 2 O 2 O 2 2 2 2 > 2 2 2 2 2 O e e 7 7 O 7 O O O X X   . X                   X   X X O X X O   X w 7 2 2 ",
"  q O + 9 > O o   + 9 O O     9 7 8 7 7 q 7 7 7 7 7 7 7 7 7 8 q 8     7 0 0 Q   o < 5 4 5 8 A S $ p .X@XL.E.P.U.U.Q.P.E.Y.Q.Q.Q.Y.Y.Q.Y.G.I.G.<XC.y t y x p A.qXF.U.U.U.U.E.U.U.U.Q.[.Q.U.Y.Y.Y.I.H.U.#X+Xr r r @ c v , V , 4 > < < > 4 < > > : > > > > > > > > O o 8 . . . v , V : < > < < : 4 , > > : > > > > > > O > o O 8 . . = j , V > < < < < > < < > > > > > e O > O > > o O 4 . . : k N : < < < < > 5 > < > : > > e O > > > O o > 7   o < * N < < > < < 4 < 5 > > > > > > > > > > > o o 9 . . X l - , : V < < > 4 < > 4 > > > > > > > > O O O > O O 5 o . X   . 7 O > O > O > > O O O O O > O O O O O O O 2 O   . .   7 O 4 O O O O O O O O O O O O O O O O O O X 2   X     + 7 2 e O 7 7   O 2 O 2 O 2 2 O e O 2 O O 7 2 2 O 2 2 O 2 O O O 7 O 7 O O X o . + + X   .   X   X X . + + o O O O 2   + 7 O X + ",
". 9 7   q > o X   X q > O   + 9 7 8 7 7 Q ] ] ] ] Z 8 8 7 4 7 q 8     7 q C /   O > 4 4 5 B A S % i A.,XI.I.L.I.L.I.Y.I.Y.Y.Y.I.Y.I.I.P.I.I.Y.5X&.y y r x p &.eX].P.T.I.Y.I.I.I.Y.Y.Y.I.[.I.I.Y.I.I.I.@X`.y r y # h c > M > < > < > > 4 > : > > > > : > : : o : > O 9 + o . h , B : < > < < > < > > > > > > > o > : > o O > 8   . * g < B > , > < < > > : > : > : > > O > : O : > > 8   o * < B : < > < < > , > : > > > : > : : > o : : > 8 . . , o M < < > < < > > > : > > > > > o : : O o > O Z   . X - - - : B , < < 4 < < 4 < > , > > < > > > > > > > > B .   O   . 7 O 4 > > > > > O > O > O = > O O O > O O < O   X .   7 o > > O > O > O > O O o O O > O O O O O X 2     .   + 9 7 > O 7 2   O 2 7 O 7 7 O 7 2 2 2 2 e e O 2 2 2 7 7 O O O O +   +               +                             +         +   ",
"                  X Z O O + + 9 4 8 8 7 O + o + e 4 7 4 7 8 8 0 q     4 8 9 W   O > < 4 5 8 B S %  .@. XOXXX,X,X,X,X,X,X6X,X,X,X>X>XOX>X>XOXXXD.o.y r y x  ...Z.oX>X,XOX,X,X,X,X<X6X,X,X>XOXOXOX,XOXXX'.$.f y r $ c n . B A C M B 8 M 5 8 5 4 8 5 5 4 4 4 4 4 4 < < 2   . . j > V A 8 B 8 B 5 5 5 5 5 5 4 8 < 4 4 4 4 4 4 < > + . : g : A B B 8 B 8 5 5 5 8 5 8 4 5 5 4 4 4 4 4 < 4 >   . : : A V 8 B B 5 5 8 4 5 5 8 4 4 4 4 4 4 4 7 4 4 O   . : * M A B B 8 8 M 5 4 8 5 5 5 5 8 4 4 4 4 5 4 4 8   . . , - - : B < o > > : : . o o o o o . o o . + . o . O 0   . .     9 : o . o o . . o + . . o o + . o . X . o 7 X   X .   7 7 o o   + o     o   X + .   o   . . . > 7 o   . .   + 7 4 O O 7 O + 2 2 O e O O O O O O O o O % O O e O O O O 2 O + 2 j.h.g.h.r.w.w.e.w.q.e.q.q.8.8.q.8.q.8.-.-.} } } } ] ( ] W     ",
"+         + +     X 9 O X   + 9 7 7 7 7 7 8 8 8 8 9 8 8 7 8 7 q 8     7 0 9 Q   O < < 4 5 8 B ^ w p i s O.+.+.+.$.$.+.$.$.+.@.+.O.O.O.O.O.O.#.p t t r $ 3 i i i #.+.+.+.$.$.+.+.$.+.+.+.O.O.O.O.O.O.O. .u y y % $ c h * * 8 C C Z A Z B C C C C C C 0 9 9 C 9 9 8 >   . . . g * o B C C Z Z Z B C C C C C C 9 8 9 Z C 0 8 O   . . * g . : B B A Z Z A Z C Z B 9 C 0 0 0 8 q B 9 8 O   + . * . : B Z C Z S Z B Z C C C q C 0 9 0 9 B 9 8 O   . . - * * 4 C Z C A C C C C Z C C C q 0 8 B C 0 0 >     . . g - - . < F S I S I S Z Z I A C A Z Z Z 0 Z Z Z 0 8 o   X . O   > C C 0 0 8 9 B 0 q 0 0 8 0 q 9 q 0 8 q 9 > + . o .     8 8 8 8 8 9 8 9 8 9 9 9 0 8 9 8 8 7 7 7 X           X 2 e O O e X   O O O % O 2 > O e 2 e 2 O O O 7 O % 7 O e e X 8 %.R q q q 9 9 9 8 9 w 0 8 w 9 7 9 9 9 9 8 9 8 8 9 7 8 7 E 9     ",
"      + & 7 o     + q & o   X 9 7 7 7 8 8 7 4 7 7 7 7 7 8 8 4 0 9 +   4 C 0 Q   O > < 4 4 M 4 U | y r r r % r r r % r % % % % % $ $ $ $ $ % r r # # $ & 1 y t y r r r r r r % % % r $ $ $ $ % $ $ # r r # @ # # & h h * .                                             . . . h : .     +               +                         . * g = .       +                                     . . = * .           +     +                           . o * : .           +                                 . . X - * * * . o = > < > 4 4 > > > > > 2 > O O < O = O +   . . . . .     O O O o o O O O o O o o o o o O X O o       . .       o O O o o o o o o o o o o X X o o .       . X X   X + @ X o O X X X + o o o + O + @ X @ o o o o + O + + + @ @ ~ -.Z X e 2 2 O > O 2 O 2 2 e 2 7 2 e > O 2 e O 2 O 2 O 7 7 O hX  hX",
"    O ] 8.g.8.O   X Z O O   + 9 7 7 7 7 7 4 7 7 7 8 7 7 8 7 7 9 7     7 0 0 /   o > < < 5 8 5 5 Z G w & 1 1 1 & = 1 1 X O 1 X & X 1 1 X = = 1 = = = = = ; 1 1 3 1 1 1 1 = = 1 1 1 1 1 = 1 = = = : = 1 1 = 1 = = = g g * * . . . . . . . . . . . . . . + . . . .     . . . . g . * . . . . . . . . . . . . .   . .   . . .   . . . : - * . . . . . . . . . . . . . + .   . .   .   . . . . * * * . . . . . . . . . . . . .   . .   . .     . . . * * . . . . . . . . . . . . . . .   .   .   .   . . . . : * * * * . . .   .   . .   . .                     .   o X . .   +                                         .   . X .                                   +         .       & } r.r.d.r.r.d.r.g.r.r.r.e.e.e.e.q.r.e.q.q.e.q.w.q.q.r.e.q.e.w.q O 7 7 > 2 2 7 e 7 2 7 > 2 2 O 7 4 O 7 > > 7 > O 7 7 7 O +     hX",
"  X W E 7 q [ } +   9 2 O   + 9 7 7 7 8 4 4 7 8 8 8 9 7 4 9 8 0 7     7 8 C Q   : e > < 4 5 5 8 8 B 1.q . * . * . . * * . * * * * * * * . * * - * - : * * - - - - - - * - * - * - * * * * * * - - * - - - - - - * - - , * - - - - - * * - * * - * * * * * * * * - - - - - g g - g - - - * - - * * * - * * * - - - * * * * * - - - - - - - - - * - - - - - * - * * * * * - * - - * - - - - - - - , - * - * * - * * - * * * * * * - * * - * - - - * - - - - - - - - * * * * * * * * * * * * * * * * * * * * * * . . * . . . . . . . . . . . . . . . . . . . . . . . . . . . . . .   . . .   . .   . + . .     .   . .     X   . .   X       .   .   +             .       .   X   > ( q q P P E P G q q E E P E q q q q P G G G q G q q q q q q q 7 4 7 > 7 O 2 O O 2 O 2 > 7 O 2 7 > & e O 7 > & 2 O O 7         hXhX",
"  q E 7 7 8 7 ] ]   + 2 >   X w 4 4 7 8 7 4 4 4 8 8 7 7 8 8 4 9 9     O 0 8 Q   o 4 4 4 5 8 0 5 5 5 B 0.7 X * * * * * * * * * * * - * - - - - * * * * - - - - - - - - - - - - - - - - - * - - - - - - - - - - - - - - - - - - - - - - - - - - - * - - - - - - g - g - - - , - - - g - - - - - - - - - - - - - - - - - - - - - - - - - - - - g g - - - - - - - - - - - - - - - - - - - - - - g - - - - - - - - - - - - - - - - - - - - - - - - - - - - - - g - - - - - - * - * - - * - * * * * * - * * * * . * * * . * . . . . * o . * . . . . . . . . . . o . o . . . . . . . . .     . . .   .   .   . X   X . . .   X X . .   X   X . . .     .   .     X X +   X     .     2 ! > 7 9 w 0 7 7 w 7 7 7 7 7 7 7 7 7 7 2 2 8 7 7 7 7 7 7 7 2 7 2 7 4 4 O O 7 O 2 2 O O 2 2 O 2 2 O 2 O 7 O 7 O 2 O > 7 +         hXhX",
"hXZ 7 > 2 2 7 7 q.~ + o O     8 4 7 7 7 7 8 4 8 7 8 7 7 9 7 7 9 8 +   4 8 8 Q   o 4 5 5 5 5 5 5 C M 5 L ;.9 X : : : : X : : : o > = : : : : : > , , : , < , > > , - > - : : : : : : : : : : : : > > - : , : , > , , , , , , , , , , : - : : : : : , : : > , - , - > : : : - > - : : : , - > , : : : : , - > - > : - : : - , > , , > , , : : : : : : - > : : : : - > - > : : : : : , , , , : : : , : , : , , : : > - = , : : : : , , : , - : : , : : > , : : : : : : : : : : : : : : : : : : : : : o : : O O . . * o o o o X . . o . . o o . X o . o . . X . * o o o o . o o . . o   X X . . X + o . .     X X + + . X   X + + X     X + + X X X + + . . X   + X + . X X + X 7 E 7 7 7 8 7 8 7 7 7 7 7 7 7 7 4 7 7 7 7 7 % 4 4 6 2 7 e 2 7 2 e 2 O O O 7 2 O O e O 2 7 O e O O O O 7 O O O > > e > & +           hXhX",
"hX7 7 7 7 7 7 < > } ] + +   + w 7 7 7 7 7 7 9 8 7 4 9 8 9 8 8 9 7 +   2 7 8 Q   o > 4 4 4 5 5 5 8 C 5 5 I t.w.0.t.0.u.u.t.:.0.t.t.t.t.:.t.t.w.0.t.0.t.1.0.0.t.u.t.0.y.0.t.t.t.t.t.t.y.y.y.y.y.0.y.t.y.y.y.y.y.t.y.y.y.y.u.u.y.t.a.y.y.p.t.t.t.t.y.y.y.y.u.y.y.y.0.y.t.y.a.a.a.a.y.y.a.y.y.y.y.t.u.y.y.y.a.0.a.a.y.y.y.y.u.a.i.u.a.y.a.y.y.y.a.a.a.y.y.y.a.y.u.y.y.y.y.y.a.y.a.y.a.f.f.a.a.a.p.a.p.a.a.a.a.a.a.y.a.a.a.a.a.a.i.a.i.y.t.t.i.i.i.i.a.a.a.a.a.y.i.y.i.y.y.s.i.i.s.s.y.s.s.s.s.i.t.r.s.r.e.w.t.e.w.w.w.r.e.e.w.w.w.w.e.w.w.e.w.w.w.w.w.e.q.w.q.q.q.q.q.q.-.q.q.w.q.q.q.8.8.w.q.8.-.8.8.8.} 8.q.q.-.8.8.} -.q.} } 8.} 8.} 8.} 8.} } } } } 8.} } ] } ] } } } } { ~ G 7 7 7 7 7 8 8 7 7 7 2 7 7 7 7 7 7 8 7 7 2 7 7 2 7 2 2 2 2 2 2 > 2 7 O O & O 2 O O O 2 2 O 7 > O 2 O > & O O O > > O             hXhXhX",
"hXhX7 7 7 7 7 7 7 O ] ` +     9 4 4 7 7 7 7 7 7 8 7 7 7 7 7 7 q 9 X   7 9 9 W   o > > 5 5 4 8 5 5 5 0 B 4 C Q ^ / / ! / / Q ^ / ^ Q ! ^ ^ / ( / ^ ^ / / / ' / / / / / ) ( _ / / / ( ( ! / ) _ ) / ( / ) ) / / ) ( ) ) ) ) ) ) ) / ) ) ( ) ( ) ) ) / ) ) ) ' ) ) *.) ) ) ) ) ) ) ' *.' ' ' ) ' ) ) ) ) ) *.*.) ) ' ' ' ) ) ) ) ) ' ) ) ' ) *.) ) ) ) ) ) ) ) ) ) ' ) ' ' ' ) *.) ) ) ) ) ) ) ) ' ) ) ) ) ' ) *./ ) ) ) ' ' ) ) ' ) ( ) ) ) ) ) ) ) ] | ) ) ) ) ` ( ` ) ( ` ` ) ( ( ( ) ( ` ( ( ( ( ] ( ( ) ( ( ( ( ( ` ` ( ` ( ( ` ) ` ( ` ! ( ( ( ! ! ! / Q ! ! ! ! ! / ! ! ! ! ! ! ! ! ! ~ ! Q ! ! ! ~ ! / ! ! ! ! W ! ! ~ ~ ! ! W W ! ! ! ! W W ! ! ! W W E E G W E W ~ q 7 7 7 > 7 7 > & O O & O O O O O O O O & O O O O O X o O o o X O O X o o o X + o O X O o X X + X X X o o O + O o o     +         hXhXhXhX",
"hXhXhX7 8 7 7 2 7 4 O ` | +   2 7 7 8 8 9 7 8 w 8 8 8 8 9 9 8 q 7     7 9 8 Q   O < < 4 5 4 5 8 5 8 8 C B 8 8 8 5 5 5 5 8 5 B 8 8 8 B M 8 B B B B 8 8 k M L M B B B B V 8 B B B B B B B B B B B B k B k V B B B M B B B M M B V A B B B B x M B V A B A M M C C N M V B B A V B V B C V A B C A B M B B M V M B B A A M C B B B B B M M M k B B A B B B A M A C B C B C C V B N z C B B B A B B M B B B M B A B B B B M B B B C M C C M B C Z B C B A B B 8 B B C B B B B 9 C B B 9 5 B 9 5 B 9 B B B 8 8 8 5 8 9 8 8 B 9 8 9 9 8 B 8 8 8 4 8 5 8 4 8 7 4 8 4 8 8 8 4 8 8 8 7 7 8 7 3 5 7 7 7 8 7 7 7 8 7 7 7 4 7 4 7 7 7 7 7 7 7 4 7 2 7 > 7 2 7 7 4 > 7 4 2 2 7 O 7 > 7 7 2 8 7 7 O                                                                                           +                         hXhXhXhXhX",
"hXhXhXhX2 8 7 4 4 4 7 O } !   + o O O O o O e O O e O O O O O O +     6 8 8 W   O > < 4 4 8 4 4 5 0 5 5 4 5 B B 8 M 5 5 k M M 5 M M M 8 M M < < B B B k M M M M B k B M M B B B M B M B B V B B B M B B B B B M V B B V M M B B B B V M B B B B k B B A V V M V V V B B V B B B V A B B A V V V A B B M V V V B B B M C V A V V B A A M V V k B V B B B A M M V M V C B V A B B B B B M B B B B V B V B B M C C B A C B B A C B C M C B B B B B B B A B B B B B B B B 9 B B B 9 B B B 5 B B 5 B 5 < 9 M 5 B 8 5 4 B M 5 5 9 8 8 5 5 8 5 7 9 8 4 4 8 8 9 5 8 8 8 4 8 8 4 8 3 8 2 < 4 8 2 4 4 4 4 8 4 4 4 2 7 < > 7 7 7 7 O 7 7 > = 8 7 2 7 4 8 7 2 7 > 7 7 > 2 < 2 2 > 7 7 7 7 7 8 o           + +                             X                                                                         hXhXhXhXhXhX",
"hXhXhXhXhX> 8 7 7 7 4 4 7 } ~ 7 7 w 7 7 7 7 6 7 2 7 2 6 > 7 7 7 7 7 0 8 8 9 Z   O > > 8 4 5 5 5 5 5 5 8 B 8 B 8 M 8 M B B M B M M B B k 5 M B B B B A B B M B B B k B k M V k V V B M M B B B A B B V B B M B V V B B V V M V N B B V V B A V B V A B V B A V V V B V V V V A A V V V A A V A A V V V V V A V V A C A A V V V V B A M V V V V A V V B A A V A A A V V V A V A A A A B B B A B B V V V B V V B V A V M N A A B A V C V V B B B A A B M B B M M V B B B B B B B V A B B B Z B B B A B B B 5 5 5 B M 5 5 8 8 B 8 M 8 B 8 8 < 8 8 8 B 8 8 5 < 8 < 2 4 8 8 5 4 8 4 8 8 < 2 8 8 7 5 8 4 8 < 8 2 5 8 8 8 7 < 8 7 8 7 4 7 8 7 5 8 2 < 7 > < > 7 2 > 2 2 2 2 O 2 2 7 7 7 o         . . . .   . X   . X   . . . . X   . .   . . . . . X .     . X X   X     . .   X     .   X   .                 hXhXhXhXhXhX",
"hXhXhXhXhXhX7 8 7 7 4 7 7 7 { { [ ] ] ` ` ` ] ] ] ! ` ] ` ] [ ] [ [ ] 8 7 C E   O < 4 8 4 5 5 4 8 B 4 > > > > > > > > > > > > > > > > > > > > > , > > > > > > > > > > : > > > > > > < > < < 5 5 < < < < < > < > < > > , > < > > < < > < < 4 < < < < > < < < < > < < > < , > < < 5 5 < 5 < , 5 < > 4 < 4 > < > < < < 4 < < < 4 < < > < > < , < 4 < < < < : < 4 < 4 5 < > > , < > < < : < < , < < > 4 > , < > < , < < < > < 4 4 < < > > > < < < < < > > > < > > > > < < > > > = 3 > > > < < > < > < 5 > > > > > > > > > > > > O > > > > = > > > O > > > > > > > O > O = O = > > > O O > O O O = O O > O O O O O O O O O o O O O > o o O O O o o . o O X . o o o   o o O o O O O           . . o o . X . o X X . X + .   X   X + . . + X X   X . + o . . + X + X     .   X .     .   X +                 hXhXhXhXhXhXhX",
"hXhXhXhXhXhXhX2 7 4 7 7 7 7 7 7 8 7 7 7 7 7 0 8 w 7 7 8 7 0 7 q 0 8 8 4 8 0 P   O > 7 4 4 5 5 4 8 :                                                 .     .                         .           .     .                                                                   .       .     .                           .                                   .                     .   .                       .                     .             .                                                                                                                                                                                                                                   . . o o o o O o o o o X   X X X o o o . X + o   X X X o X X O X X + X + X o o X o o o + X X X X +                 hXhXhXhXhXhXhXhX",
"hXhXhXhXhXhXhXhX4 0 4 7 7 7 7 7 7 8 8 7 7 7 7 7 7 8 7 7 8 8 7 7 8 8 4 8 8 0 E   > < 7 > 4 4 < 8 O         . . . .   . . . . . . . . . * . * . . . . . . . . . . . . . . . * . . . . . . . . . . . . . . . . * . . . * . * . . * . . . * . . * . . . * * . . * . . * . * . * . * . . * . . . * . * . . * * . . . . * . . . * . . . . * . . . * . . * . . . . * . . . * . . * . . . . . . . . . * . * . . . . . . . . * . . . * . . . . . . . . . . . * . . . . . .   . . . . .   . . . . .     .   .   . .   .   .   .   .   .   .     .                                                                                                                                       +   + . X   X X o X X o o X X X + + o   o + X X + X X +     X X +   + X o X X + o   o   o   X X X +                 hXhXhXhXhXhXhXhXhX",
"hXhXhXhXhXhXhXhXhX4 8 4 7 7 7 7 7 7 2 8 4 8 7 7 7 7 7 7 7 8 7 8 8 8 7 8 8 8 E   O > > < 7 > 8 > hX. : > < > < < < < , < < < < < , < < k < < , < < < < k < < < < < < < < < , < < g , < , < < k , < < , , k < 5 k < < k < k 5 k < k k , k M < k < k < k k < k < k k k M k k < M 5 B , < k k M B k k , 5 k B < k k 5 k k 5 < k 5 k k k < k < M 5 M B k k M 5 k < k k k k < k k < k M , < < k k 5 < < k k < 5 M k < k k 5 B k < k k M k < k < < < k < < < k M < < < , < < , < < < < < < < < < < < < < < < < < < < > , < 8 < < < < < < < < 3 > > < < , > > > > < > < : > : : > > > : = = > = < = O < > > : > : : X > o : > > X : : = > : > = X : > X X > : > o o X > . . .   O O > > 2 2 > 7 7 7 7 7 7 > 7 7 2 7 2 7 2 2 > 2 2 7 2 2 = 7 2 > 2 > 7 > 2 2 2 > 2 4 2 O 7 > O 2 2 O 2 O                   hXhXhXhXhXhXhXhXhX",
"hXhXhXhXhXhXhXhXhXhXO 8 8 7 8 8 8 8 8 8 8 9 9 8 0 0 9 9 9 8 9 9 q 8 8 0 9 0 Z   o 4 O > < 8 O hXhX  hXhX                  .   . . . + .     o . . .   . X   .   . . . . . . . . . .   . o . . o . . o . . .   . o . . . .   . . . . . .   . . . . . + . . . . . . . . . . . . .   . . .   X   X . . . . . . . . . . . X . . . . . . . . X . . .   . .   . . . . . .   . . . . . . . . . . . . . o . . . . . . o . . . . . .   . . . . . . . . . . . . .   . . . . . . o   . X . .   . . X     .   o   X     . X .         . +     .   +   .         .             .       . .     . +                                                                                 hXO O o . O O O O O o O = O o O o o o O o O O O o o o X O o + o o o o o O o X O O o o O o o o X + o X + +             hXhXhXhXhXhXhXhXhXhXhXhX",
"hXhXhXhXhXhXhXhXhXhXhXo O O O O o o O O O O O O e + X O X X O o O O O O o O O   > > > 7 7 o hXhXhXhXhXhXhXhXhXhXhXhXhXhXhXhXhXhXhXhXhXhXhXhXhXhXhXhXhXhXhXhXhXhXhXhXhXhXhXhXhXhXhXhXhXhXhXhXhXhXhXhXhXhXhXhXhXhXhXhXhXhXhXhXhXhXhXhXhXhXhXhXhXhXhXhXhXhXhXhXhXhXhXhXhXhXhXhXhXhXhXhXhXhXhXhXhXhXhXhXhXhXhXhXhXhXhXhXhXhXhXhXhXhXhXhXhXhXhXhXhXhXhXhXhXhXhXhXhXhXhXhXhXhXhXhXhXhXhXhXhXhXhXhXhXhXhXhXhXhXhXhXhXhXhXhXhXhXhXhXhXhXhXhXhXhXhXhXhXhXhXhXhXhXhXhXhXhXhXhXhXhXhXhXhXhXhXhXhXhXhXhXhXhXhXhXhXhXhXhXhXhXhXhXhXhXhXhXhXhXhXhXhXhXhXhXhXhXhXhXhXhXhXhXhXhXhXhXhXhXhXhXhXhXhXhXhXhXhXhXhXhXhXhXhXhXhXhXhXhXhXhXhXhXhXhXhXhXhXhXhXhXhXhXhXhXhXhXhXhXhXhXhXhXhXhXhXhX                                                                      +                                       hXhXhXhXhXhXhXhXhXhXhXhXhXhXhX",
"hXhXhXhXhXhXhXhXhXhXhXhXhXhXhX      hX+         +             +         +     > O > 2 > X hXhXhXhXhXhXhXhXhXhXhXhXhXhXhXhXhXhXhXhXhXhXhXhXhXhXhXhXhXhXhXhXhXhXhXhXhXhXhXhXhXhXhXhXhXhXhXhXhXhXhXhXhXhXhXhXhXhXhXhXhXhXhXhXhXhXhXhXhXhXhXhXhXhXhXhXhXhXhXhXhXhXhXhXhXhXhXhXhXhXhXhXhXhXhXhXhXhXhXhXhXhXhXhXhXhXhXhXhXhXhXhXhXhXhXhXhXhXhXhXhXhXhXhXhXhXhXhXhXhXhXhXhXhXhXhXhXhXhXhXhXhXhXhXhXhXhXhXhXhXhXhXhXhXhXhXhXhXhXhXhXhXhXhXhXhXhXhXhXhXhXhXhXhXhXhXhXhXhXhXhXhXhXhXhXhXhXhXhXhXhXhXhXhXhXhXhXhXhXhXhXhXhXhXhXhXhXhXhXhXhXhXhXhXhXhXhXhXhXhXhXhXhXhXhXhXhXhXhXhXhXhXhXhXhXhXhXhXhXhXhXhXhXhXhXhXhXhXhXhXhXhXhXhXhXhXhXhXhXhXhXhXhXhXhXhXhXhXhXhXhXhXhXhXhXhXhXhXhXhX                                                                                                            hXhXhXhXhXhXhXhXhXhXhXhXhXhXhX",
"hXhXhXhXhXhXhXhXhXhXhXhXhXhXhXhXhXhXhXhXhXhXhXhXhXhXhXhXhXhXhXhXhXhXhXhXhXhXhX> > > > . hXhXhXhXhXhXhXhXhXhXhXhXhXhXhXhXhXhXhXhXhXhXhXhXhXhXhXhXhXhXhXhXhXhXhXhXhXhXhXhXhXhXhXhXhXhXhXhXhXhXhXhXhXhXhXhXhXhXhXhXhXhXhXhXhXhXhXhXhXhXhXhXhXhXhXhXhXhXhXhXhXhXhXhXhXhXhXhXhXhXhXhXhXhXhXhXhXhXhXhXhXhXhXhXhXhXhXhXhXhXhXhXhXhXhXhXhXhXhXhXhXhXhXhXhXhXhXhXhXhXhXhXhXhXhXhXhXhXhXhXhXhXhXhXhXhXhXhXhXhXhXhXhXhXhXhXhXhXhXhXhXhXhXhXhXhXhXhXhXhXhXhXhXhXhXhXhXhXhXhXhXhXhXhXhXhXhXhXhXhXhXhXhXhXhXhXhXhXhXhXhXhXhXhXhXhXhXhXhXhXhXhXhXhXhXhXhXhXhXhXhXhXhXhXhXhXhXhXhXhXhXhXhXhXhXhXhXhXhXhXhXhXhXhXhXhXhXhXhXhXhXhXhXhXhXhXhXhXhXhXhXhXhXhXhXhXhXhXhXhXhXhXhXhXhXhXhXhXhXhXhXhXhXhXhXhXhXhXhXhXhXhXhXhXhXhXhXhXhXhXhXhXhXhXhXhXhXhXhXhXhXhXhXhXhXhXhXhXhXhXhXhXhXhXhXhXhXhXhXhXhX    hXhXhXhXhXhXhXhXhXhXhXhXhXhXhXhXhX",
"hXhXhXhXhXhXhXhXhXhXhXhXhXhXhXhXhXhXhXhXhXhXhXhXhXhXhXhXhXhXhXhXhXhXhXhXhXhXhXhXhXhXhXhXhXhXhXhXhXhXhXhXhXhXhXhXhXhXhXhXhXhXhXhXhXhXhXhXhXhXhXhXhXhXhXhXhXhXhXhXhXhXhXhXhXhXhXhXhXhXhXhXhXhXhXhXhXhXhXhXhXhXhXhXhXhXhXhXhXhXhXhXhXhXhXhXhXhXhXhXhXhXhXhXhXhXhXhXhXhXhXhXhXhXhXhXhXhXhXhXhXhXhXhXhXhXhXhXhXhXhXhXhXhXhXhXhXhXhXhXhXhXhXhXhXhXhXhXhXhXhXhXhXhXhXhXhXhXhXhXhXhXhXhXhXhXhXhXhXhXhXhXhXhXhXhXhXhXhXhXhXhXhXhXhXhXhXhXhXhXhXhXhXhXhXhXhXhXhXhXhXhXhXhXhXhXhXhXhXhXhXhXhXhXhXhXhXhXhXhXhXhXhXhXhXhXhXhXhXhXhXhXhXhXhXhXhXhXhXhXhXhXhXhXhXhXhXhXhXhXhXhXhXhXhXhXhXhXhXhXhXhXhXhXhXhXhXhXhXhXhXhXhXhXhXhXhXhXhXhXhXhXhXhXhXhXhXhXhXhXhXhXhXhXhXhXhXhXhXhXhXhXhXhXhXhXhXhXhXhXhXhXhXhXhXhXhXhXhXhXhXhXhXhXhXhXhXhXhXhXhXhXhXhXhXhXhXhXhXhXhXhXhXhXhXhXhXhXhXhXhXhXhXhXhXhXhXhXhXhXhXhXhXhXhXhXhXhXhXhXhXhXhXhX"
};
